bench/lcms_compat/stimuli/2col_input.it8
CGATS.17
ORIGINATOR "Custom provider name here"
FILE_DESCRIPTOR TEST
ILLUMINANT           D50
MEASUREMENT_GEOMETRY 0/45
SAMPLE_BACKING       White
NUMBER_OF_FIELDS     3
BEGIN_DATA_FORMAT
SAMPLE_ID IN_CH1 IN_CH2 
END_DATA_FORMAT
NUMBER_OF_SETS 121
BEGIN_DATA
1 0 0
2 0 0.1
3 0 0.2
4 0 0.3
5 0 0.4
6 0 0.5
7 0 0.6
8 0 0.7
9 0 0.8
10 0 0.9
11 0 1
12 0.1 0
13 0.1 0.1
14 0.1 0.2
15 0.1 0.3
16 0.1 0.4
17 0.1 0.5
18 0.1 0.6
19 0.1 0.7
20 0.1 0.8
21 0.1 0.9
22 0.1 1
23 0.2 0
24 0.2 0.1
25 0.2 0.2
26 0.2 0.3
27 0.2 0.4
28 0.2 0.5
29 0.2 0.6
30 0.2 0.7
31 0.2 0.8
32 0.2 0.9
33 0.2 1
34 0.3 0
35 0.3 0.1
36 0.3 0.2
37 0.3 0.3
38 0.3 0.4
39 0.3 0.5
40 0.3 0.6
41 0.3 0.7
42 0.3 0.8
43 0.3 0.9
44 0.3 1
45 0.4 0
46 0.4 0.1
47 0.4 0.2
48 0.4 0.3
49 0.4 0.4
50 0.4 0.5
51 0.4 0.6
52 0.4 0.7
53 0.4 0.8
54 0.4 0.9
55 0.4 1
56 0.5 0
57 0.5 0.1
58 0.5 0.2
59 0.5 0.3
60 0.5 0.4
61 0.5 0.5
62 0.5 0.6
63 0.5 0.7
64 0.5 0.8
65 0.5 0.9
66 0.5 1
67 0.6 0
68 0.6 0.1
69 0.6 0.2
70 0.6 0.3
71 0.6 0.4
72 0.6 0.5
73 0.6 0.6
74 0.6 0.7
75 0.6 0.8
76 0.6 0.9
77 0.6 1
78 0.7 0
79 0.7 0.1
80 0.7 0.2
81 0.7 0.3
82 0.7 0.4
83 0.7 0.5
84 0.7 0.6
85 0.7 0.7
86 0.7 0.8
87 0.7 0.9
88 0.7 1
89 0.8 0
90 0.8 0.1
91 0.8 0.2
92 0.8 0.3
93 0.8 0.4
94 0.8 0.5
95 0.8 0.6
96 0.8 0.7
97 0.8 0.8
98 0.8 0.9
99 0.8 1
100 0.9 0
101 0.9 0.1
102 0.9 0.2
103 0.9 0.3
104 0.9 0.4
105 0.9 0.5
106 0.9 0.6
107 0.9 0.7
108 0.9 0.8
109 0.9 0.9
110 0.9 1
111 1 0
112 1 0.1
113 1 0.2
114 1 0.3
115 1 0.4
116 1 0.5
117 1 0.6
118 1 0.7
119 1 0.8
120 1 0.9
121 1 1
END_DATA
