bench/lcms_compat/stimuli/cmyk_input.it8
CGATS.17
ORIGINATOR "CMYK data in 20% steps"
FILE_DESCRIPTOR TEST
ILLUMINANT           D50
MEASUREMENT_GEOMETRY 0/45
SAMPLE_BACKING       White
NUMBER_OF_FIELDS     5
BEGIN_DATA_FORMAT
SAMPLE_ID IN_CMYK_C IN_CMYK_M IN_CMYK_Y IN_CMYK_K
END_DATA_FORMAT
NUMBER_OF_SETS 1296
BEGIN_DATA
1 0 0 0 0
2 0 0 0 20
3 0 0 0 40
4 0 0 0 60
5 0 0 0 80
6 0 0 0 100
7 0 0 20 0
8 0 0 20 20
9 0 0 20 40
10 0 0 20 60
11 0 0 20 80
12 0 0 20 100
13 0 0 40 0
14 0 0 40 20
15 0 0 40 40
16 0 0 40 60
17 0 0 40 80
18 0 0 40 100
19 0 0 60 0
20 0 0 60 20
21 0 0 60 40
22 0 0 60 60
23 0 0 60 80
24 0 0 60 100
25 0 0 80 0
26 0 0 80 20
27 0 0 80 40
28 0 0 80 60
29 0 0 80 80
30 0 0 80 100
31 0 0 100 0
32 0 0 100 20
33 0 0 100 40
34 0 0 100 60
35 0 0 100 80
36 0 0 100 100
37 0 20 0 0
38 0 20 0 20
39 0 20 0 40
40 0 20 0 60
41 0 20 0 80
42 0 20 0 100
43 0 20 20 0
44 0 20 20 20
45 0 20 20 40
46 0 20 20 60
47 0 20 20 80
48 0 20 20 100
49 0 20 40 0
50 0 20 40 20
51 0 20 40 40
52 0 20 40 60
53 0 20 40 80
54 0 20 40 100
55 0 20 60 0
56 0 20 60 20
57 0 20 60 40
58 0 20 60 60
59 0 20 60 80
60 0 20 60 100
61 0 20 80 0
62 0 20 80 20
63 0 20 80 40
64 0 20 80 60
65 0 20 80 80
66 0 20 80 100
67 0 20 100 0
68 0 20 100 20
69 0 20 100 40
70 0 20 100 60
71 0 20 100 80
72 0 20 100 100
73 0 40 0 0
74 0 40 0 20
75 0 40 0 40
76 0 40 0 60
77 0 40 0 80
78 0 40 0 100
79 0 40 20 0
80 0 40 20 20
81 0 40 20 40
82 0 40 20 60
83 0 40 20 80
84 0 40 20 100
85 0 40 40 0
86 0 40 40 20
87 0 40 40 40
88 0 40 40 60
89 0 40 40 80
90 0 40 40 100
91 0 40 60 0
92 0 40 60 20
93 0 40 60 40
94 0 40 60 60
95 0 40 60 80
96 0 40 60 100
97 0 40 80 0
98 0 40 80 20
99 0 40 80 40
100 0 40 80 60
101 0 40 80 80
102 0 40 80 100
103 0 40 100 0
104 0 40 100 20
105 0 40 100 40
106 0 40 100 60
107 0 40 100 80
108 0 40 100 100
109 0 60 0 0
110 0 60 0 20
111 0 60 0 40
112 0 60 0 60
113 0 60 0 80
114 0 60 0 100
115 0 60 20 0
116 0 60 20 20
117 0 60 20 40
118 0 60 20 60
119 0 60 20 80
120 0 60 20 100
121 0 60 40 0
122 0 60 40 20
123 0 60 40 40
124 0 60 40 60
125 0 60 40 80
126 0 60 40 100
127 0 60 60 0
128 0 60 60 20
129 0 60 60 40
130 0 60 60 60
131 0 60 60 80
132 0 60 60 100
133 0 60 80 0
134 0 60 80 20
135 0 60 80 40
136 0 60 80 60
137 0 60 80 80
138 0 60 80 100
139 0 60 100 0
140 0 60 100 20
141 0 60 100 40
142 0 60 100 60
143 0 60 100 80
144 0 60 100 100
145 0 80 0 0
146 0 80 0 20
147 0 80 0 40
148 0 80 0 60
149 0 80 0 80
150 0 80 0 100
151 0 80 20 0
152 0 80 20 20
153 0 80 20 40
154 0 80 20 60
155 0 80 20 80
156 0 80 20 100
157 0 80 40 0
158 0 80 40 20
159 0 80 40 40
160 0 80 40 60
161 0 80 40 80
162 0 80 40 100
163 0 80 60 0
164 0 80 60 20
165 0 80 60 40
166 0 80 60 60
167 0 80 60 80
168 0 80 60 100
169 0 80 80 0
170 0 80 80 20
171 0 80 80 40
172 0 80 80 60
173 0 80 80 80
174 0 80 80 100
175 0 80 100 0
176 0 80 100 20
177 0 80 100 40
178 0 80 100 60
179 0 80 100 80
180 0 80 100 100
181 0 100 0 0
182 0 100 0 20
183 0 100 0 40
184 0 100 0 60
185 0 100 0 80
186 0 100 0 100
187 0 100 20 0
188 0 100 20 20
189 0 100 20 40
190 0 100 20 60
191 0 100 20 80
192 0 100 20 100
193 0 100 40 0
194 0 100 40 20
195 0 100 40 40
196 0 100 40 60
197 0 100 40 80
198 0 100 40 100
199 0 100 60 0
200 0 100 60 20
201 0 100 60 40
202 0 100 60 60
203 0 100 60 80
204 0 100 60 100
205 0 100 80 0
206 0 100 80 20
207 0 100 80 40
208 0 100 80 60
209 0 100 80 80
210 0 100 80 100
211 0 100 100 0
212 0 100 100 20
213 0 100 100 40
214 0 100 100 60
215 0 100 100 80
216 0 100 100 100
217 20 0 0 0
218 20 0 0 20
219 20 0 0 40
220 20 0 0 60
221 20 0 0 80
222 20 0 0 100
223 20 0 20 0
224 20 0 20 20
225 20 0 20 40
226 20 0 20 60
227 20 0 20 80
228 20 0 20 100
229 20 0 40 0
230 20 0 40 20
231 20 0 40 40
232 20 0 40 60
233 20 0 40 80
234 20 0 40 100
235 20 0 60 0
236 20 0 60 20
237 20 0 60 40
238 20 0 60 60
239 20 0 60 80
240 20 0 60 100
241 20 0 80 0
242 20 0 80 20
243 20 0 80 40
244 20 0 80 60
245 20 0 80 80
246 20 0 80 100
247 20 0 100 0
248 20 0 100 20
249 20 0 100 40
250 20 0 100 60
251 20 0 100 80
252 20 0 100 100
253 20 20 0 0
254 20 20 0 20
255 20 20 0 40
256 20 20 0 60
257 20 20 0 80
258 20 20 0 100
259 20 20 20 0
260 20 20 20 20
261 20 20 20 40
262 20 20 20 60
263 20 20 20 80
264 20 20 20 100
265 20 20 40 0
266 20 20 40 20
267 20 20 40 40
268 20 20 40 60
269 20 20 40 80
270 20 20 40 100
271 20 20 60 0
272 20 20 60 20
273 20 20 60 40
274 20 20 60 60
275 20 20 60 80
276 20 20 60 100
277 20 20 80 0
278 20 20 80 20
279 20 20 80 40
280 20 20 80 60
281 20 20 80 80
282 20 20 80 100
283 20 20 100 0
284 20 20 100 20
285 20 20 100 40
286 20 20 100 60
287 20 20 100 80
288 20 20 100 100
289 20 40 0 0
290 20 40 0 20
291 20 40 0 40
292 20 40 0 60
293 20 40 0 80
294 20 40 0 100
295 20 40 20 0
296 20 40 20 20
297 20 40 20 40
298 20 40 20 60
299 20 40 20 80
300 20 40 20 100
301 20 40 40 0
302 20 40 40 20
303 20 40 40 40
304 20 40 40 60
305 20 40 40 80
306 20 40 40 100
307 20 40 60 0
308 20 40 60 20
309 20 40 60 40
310 20 40 60 60
311 20 40 60 80
312 20 40 60 100
313 20 40 80 0
314 20 40 80 20
315 20 40 80 40
316 20 40 80 60
317 20 40 80 80
318 20 40 80 100
319 20 40 100 0
320 20 40 100 20
321 20 40 100 40
322 20 40 100 60
323 20 40 100 80
324 20 40 100 100
325 20 60 0 0
326 20 60 0 20
327 20 60 0 40
328 20 60 0 60
329 20 60 0 80
330 20 60 0 100
331 20 60 20 0
332 20 60 20 20
333 20 60 20 40
334 20 60 20 60
335 20 60 20 80
336 20 60 20 100
337 20 60 40 0
338 20 60 40 20
339 20 60 40 40
340 20 60 40 60
341 20 60 40 80
342 20 60 40 100
343 20 60 60 0
344 20 60 60 20
345 20 60 60 40
346 20 60 60 60
347 20 60 60 80
348 20 60 60 100
349 20 60 80 0
350 20 60 80 20
351 20 60 80 40
352 20 60 80 60
353 20 60 80 80
354 20 60 80 100
355 20 60 100 0
356 20 60 100 20
357 20 60 100 40
358 20 60 100 60
359 20 60 100 80
360 20 60 100 100
361 20 80 0 0
362 20 80 0 20
363 20 80 0 40
364 20 80 0 60
365 20 80 0 80
366 20 80 0 100
367 20 80 20 0
368 20 80 20 20
369 20 80 20 40
370 20 80 20 60
371 20 80 20 80
372 20 80 20 100
373 20 80 40 0
374 20 80 40 20
375 20 80 40 40
376 20 80 40 60
377 20 80 40 80
378 20 80 40 100
379 20 80 60 0
380 20 80 60 20
381 20 80 60 40
382 20 80 60 60
383 20 80 60 80
384 20 80 60 100
385 20 80 80 0
386 20 80 80 20
387 20 80 80 40
388 20 80 80 60
389 20 80 80 80
390 20 80 80 100
391 20 80 100 0
392 20 80 100 20
393 20 80 100 40
394 20 80 100 60
395 20 80 100 80
396 20 80 100 100
397 20 100 0 0
398 20 100 0 20
399 20 100 0 40
400 20 100 0 60
401 20 100 0 80
402 20 100 0 100
403 20 100 20 0
404 20 100 20 20
405 20 100 20 40
406 20 100 20 60
407 20 100 20 80
408 20 100 20 100
409 20 100 40 0
410 20 100 40 20
411 20 100 40 40
412 20 100 40 60
413 20 100 40 80
414 20 100 40 100
415 20 100 60 0
416 20 100 60 20
417 20 100 60 40
418 20 100 60 60
419 20 100 60 80
420 20 100 60 100
421 20 100 80 0
422 20 100 80 20
423 20 100 80 40
424 20 100 80 60
425 20 100 80 80
426 20 100 80 100
427 20 100 100 0
428 20 100 100 20
429 20 100 100 40
430 20 100 100 60
431 20 100 100 80
432 20 100 100 100
433 40 0 0 0
434 40 0 0 20
435 40 0 0 40
436 40 0 0 60
437 40 0 0 80
438 40 0 0 100
439 40 0 20 0
440 40 0 20 20
441 40 0 20 40
442 40 0 20 60
443 40 0 20 80
444 40 0 20 100
445 40 0 40 0
446 40 0 40 20
447 40 0 40 40
448 40 0 40 60
449 40 0 40 80
450 40 0 40 100
451 40 0 60 0
452 40 0 60 20
453 40 0 60 40
454 40 0 60 60
455 40 0 60 80
456 40 0 60 100
457 40 0 80 0
458 40 0 80 20
459 40 0 80 40
460 40 0 80 60
461 40 0 80 80
462 40 0 80 100
463 40 0 100 0
464 40 0 100 20
465 40 0 100 40
466 40 0 100 60
467 40 0 100 80
468 40 0 100 100
469 40 20 0 0
470 40 20 0 20
471 40 20 0 40
472 40 20 0 60
473 40 20 0 80
474 40 20 0 100
475 40 20 20 0
476 40 20 20 20
477 40 20 20 40
478 40 20 20 60
479 40 20 20 80
480 40 20 20 100
481 40 20 40 0
482 40 20 40 20
483 40 20 40 40
484 40 20 40 60
485 40 20 40 80
486 40 20 40 100
487 40 20 60 0
488 40 20 60 20
489 40 20 60 40
490 40 20 60 60
491 40 20 60 80
492 40 20 60 100
493 40 20 80 0
494 40 20 80 20
495 40 20 80 40
496 40 20 80 60
497 40 20 80 80
498 40 20 80 100
499 40 20 100 0
500 40 20 100 20
501 40 20 100 40
502 40 20 100 60
503 40 20 100 80
504 40 20 100 100
505 40 40 0 0
506 40 40 0 20
507 40 40 0 40
508 40 40 0 60
509 40 40 0 80
510 40 40 0 100
511 40 40 20 0
512 40 40 20 20
513 40 40 20 40
514 40 40 20 60
515 40 40 20 80
516 40 40 20 100
517 40 40 40 0
518 40 40 40 20
519 40 40 40 40
520 40 40 40 60
521 40 40 40 80
522 40 40 40 100
523 40 40 60 0
524 40 40 60 20
525 40 40 60 40
526 40 40 60 60
527 40 40 60 80
528 40 40 60 100
529 40 40 80 0
530 40 40 80 20
531 40 40 80 40
532 40 40 80 60
533 40 40 80 80
534 40 40 80 100
535 40 40 100 0
536 40 40 100 20
537 40 40 100 40
538 40 40 100 60
539 40 40 100 80
540 40 40 100 100
541 40 60 0 0
542 40 60 0 20
543 40 60 0 40
544 40 60 0 60
545 40 60 0 80
546 40 60 0 100
547 40 60 20 0
548 40 60 20 20
549 40 60 20 40
550 40 60 20 60
551 40 60 20 80
552 40 60 20 100
553 40 60 40 0
554 40 60 40 20
555 40 60 40 40
556 40 60 40 60
557 40 60 40 80
558 40 60 40 100
559 40 60 60 0
560 40 60 60 20
561 40 60 60 40
562 40 60 60 60
563 40 60 60 80
564 40 60 60 100
565 40 60 80 0
566 40 60 80 20
567 40 60 80 40
568 40 60 80 60
569 40 60 80 80
570 40 60 80 100
571 40 60 100 0
572 40 60 100 20
573 40 60 100 40
574 40 60 100 60
575 40 60 100 80
576 40 60 100 100
577 40 80 0 0
578 40 80 0 20
579 40 80 0 40
580 40 80 0 60
581 40 80 0 80
582 40 80 0 100
583 40 80 20 0
584 40 80 20 20
585 40 80 20 40
586 40 80 20 60
587 40 80 20 80
588 40 80 20 100
589 40 80 40 0
590 40 80 40 20
591 40 80 40 40
592 40 80 40 60
593 40 80 40 80
594 40 80 40 100
595 40 80 60 0
596 40 80 60 20
597 40 80 60 40
598 40 80 60 60
599 40 80 60 80
600 40 80 60 100
601 40 80 80 0
602 40 80 80 20
603 40 80 80 40
604 40 80 80 60
605 40 80 80 80
606 40 80 80 100
607 40 80 100 0
608 40 80 100 20
609 40 80 100 40
610 40 80 100 60
611 40 80 100 80
612 40 80 100 100
613 40 100 0 0
614 40 100 0 20
615 40 100 0 40
616 40 100 0 60
617 40 100 0 80
618 40 100 0 100
619 40 100 20 0
620 40 100 20 20
621 40 100 20 40
622 40 100 20 60
623 40 100 20 80
624 40 100 20 100
625 40 100 40 0
626 40 100 40 20
627 40 100 40 40
628 40 100 40 60
629 40 100 40 80
630 40 100 40 100
631 40 100 60 0
632 40 100 60 20
633 40 100 60 40
634 40 100 60 60
635 40 100 60 80
636 40 100 60 100
637 40 100 80 0
638 40 100 80 20
639 40 100 80 40
640 40 100 80 60
641 40 100 80 80
642 40 100 80 100
643 40 100 100 0
644 40 100 100 20
645 40 100 100 40
646 40 100 100 60
647 40 100 100 80
648 40 100 100 100
649 60 0 0 0
650 60 0 0 20
651 60 0 0 40
652 60 0 0 60
653 60 0 0 80
654 60 0 0 100
655 60 0 20 0
656 60 0 20 20
657 60 0 20 40
658 60 0 20 60
659 60 0 20 80
660 60 0 20 100
661 60 0 40 0
662 60 0 40 20
663 60 0 40 40
664 60 0 40 60
665 60 0 40 80
666 60 0 40 100
667 60 0 60 0
668 60 0 60 20
669 60 0 60 40
670 60 0 60 60
671 60 0 60 80
672 60 0 60 100
673 60 0 80 0
674 60 0 80 20
675 60 0 80 40
676 60 0 80 60
677 60 0 80 80
678 60 0 80 100
679 60 0 100 0
680 60 0 100 20
681 60 0 100 40
682 60 0 100 60
683 60 0 100 80
684 60 0 100 100
685 60 20 0 0
686 60 20 0 20
687 60 20 0 40
688 60 20 0 60
689 60 20 0 80
690 60 20 0 100
691 60 20 20 0
692 60 20 20 20
693 60 20 20 40
694 60 20 20 60
695 60 20 20 80
696 60 20 20 100
697 60 20 40 0
698 60 20 40 20
699 60 20 40 40
700 60 20 40 60
701 60 20 40 80
702 60 20 40 100
703 60 20 60 0
704 60 20 60 20
705 60 20 60 40
706 60 20 60 60
707 60 20 60 80
708 60 20 60 100
709 60 20 80 0
710 60 20 80 20
711 60 20 80 40
712 60 20 80 60
713 60 20 80 80
714 60 20 80 100
715 60 20 100 0
716 60 20 100 20
717 60 20 100 40
718 60 20 100 60
719 60 20 100 80
720 60 20 100 100
721 60 40 0 0
722 60 40 0 20
723 60 40 0 40
724 60 40 0 60
725 60 40 0 80
726 60 40 0 100
727 60 40 20 0
728 60 40 20 20
729 60 40 20 40
730 60 40 20 60
731 60 40 20 80
732 60 40 20 100
733 60 40 40 0
734 60 40 40 20
735 60 40 40 40
736 60 40 40 60
737 60 40 40 80
738 60 40 40 100
739 60 40 60 0
740 60 40 60 20
741 60 40 60 40
742 60 40 60 60
743 60 40 60 80
744 60 40 60 100
745 60 40 80 0
746 60 40 80 20
747 60 40 80 40
748 60 40 80 60
749 60 40 80 80
750 60 40 80 100
751 60 40 100 0
752 60 40 100 20
753 60 40 100 40
754 60 40 100 60
755 60 40 100 80
756 60 40 100 100
757 60 60 0 0
758 60 60 0 20
759 60 60 0 40
760 60 60 0 60
761 60 60 0 80
762 60 60 0 100
763 60 60 20 0
764 60 60 20 20
765 60 60 20 40
766 60 60 20 60
767 60 60 20 80
768 60 60 20 100
769 60 60 40 0
770 60 60 40 20
771 60 60 40 40
772 60 60 40 60
773 60 60 40 80
774 60 60 40 100
775 60 60 60 0
776 60 60 60 20
777 60 60 60 40
778 60 60 60 60
779 60 60 60 80
780 60 60 60 100
781 60 60 80 0
782 60 60 80 20
783 60 60 80 40
784 60 60 80 60
785 60 60 80 80
786 60 60 80 100
787 60 60 100 0
788 60 60 100 20
789 60 60 100 40
790 60 60 100 60
791 60 60 100 80
792 60 60 100 100
793 60 80 0 0
794 60 80 0 20
795 60 80 0 40
796 60 80 0 60
797 60 80 0 80
798 60 80 0 100
799 60 80 20 0
800 60 80 20 20
801 60 80 20 40
802 60 80 20 60
803 60 80 20 80
804 60 80 20 100
805 60 80 40 0
806 60 80 40 20
807 60 80 40 40
808 60 80 40 60
809 60 80 40 80
810 60 80 40 100
811 60 80 60 0
812 60 80 60 20
813 60 80 60 40
814 60 80 60 60
815 60 80 60 80
816 60 80 60 100
817 60 80 80 0
818 60 80 80 20
819 60 80 80 40
820 60 80 80 60
821 60 80 80 80
822 60 80 80 100
823 60 80 100 0
824 60 80 100 20
825 60 80 100 40
826 60 80 100 60
827 60 80 100 80
828 60 80 100 100
829 60 100 0 0
830 60 100 0 20
831 60 100 0 40
832 60 100 0 60
833 60 100 0 80
834 60 100 0 100
835 60 100 20 0
836 60 100 20 20
837 60 100 20 40
838 60 100 20 60
839 60 100 20 80
840 60 100 20 100
841 60 100 40 0
842 60 100 40 20
843 60 100 40 40
844 60 100 40 60
845 60 100 40 80
846 60 100 40 100
847 60 100 60 0
848 60 100 60 20
849 60 100 60 40
850 60 100 60 60
851 60 100 60 80
852 60 100 60 100
853 60 100 80 0
854 60 100 80 20
855 60 100 80 40
856 60 100 80 60
857 60 100 80 80
858 60 100 80 100
859 60 100 100 0
860 60 100 100 20
861 60 100 100 40
862 60 100 100 60
863 60 100 100 80
864 60 100 100 100
865 80 0 0 0
866 80 0 0 20
867 80 0 0 40
868 80 0 0 60
869 80 0 0 80
870 80 0 0 100
871 80 0 20 0
872 80 0 20 20
873 80 0 20 40
874 80 0 20 60
875 80 0 20 80
876 80 0 20 100
877 80 0 40 0
878 80 0 40 20
879 80 0 40 40
880 80 0 40 60
881 80 0 40 80
882 80 0 40 100
883 80 0 60 0
884 80 0 60 20
885 80 0 60 40
886 80 0 60 60
887 80 0 60 80
888 80 0 60 100
889 80 0 80 0
890 80 0 80 20
891 80 0 80 40
892 80 0 80 60
893 80 0 80 80
894 80 0 80 100
895 80 0 100 0
896 80 0 100 20
897 80 0 100 40
898 80 0 100 60
899 80 0 100 80
900 80 0 100 100
901 80 20 0 0
902 80 20 0 20
903 80 20 0 40
904 80 20 0 60
905 80 20 0 80
906 80 20 0 100
907 80 20 20 0
908 80 20 20 20
909 80 20 20 40
910 80 20 20 60
911 80 20 20 80
912 80 20 20 100
913 80 20 40 0
914 80 20 40 20
915 80 20 40 40
916 80 20 40 60
917 80 20 40 80
918 80 20 40 100
919 80 20 60 0
920 80 20 60 20
921 80 20 60 40
922 80 20 60 60
923 80 20 60 80
924 80 20 60 100
925 80 20 80 0
926 80 20 80 20
927 80 20 80 40
928 80 20 80 60
929 80 20 80 80
930 80 20 80 100
931 80 20 100 0
932 80 20 100 20
933 80 20 100 40
934 80 20 100 60
935 80 20 100 80
936 80 20 100 100
937 80 40 0 0
938 80 40 0 20
939 80 40 0 40
940 80 40 0 60
941 80 40 0 80
942 80 40 0 100
943 80 40 20 0
944 80 40 20 20
945 80 40 20 40
946 80 40 20 60
947 80 40 20 80
948 80 40 20 100
949 80 40 40 0
950 80 40 40 20
951 80 40 40 40
952 80 40 40 60
953 80 40 40 80
954 80 40 40 100
955 80 40 60 0
956 80 40 60 20
957 80 40 60 40
958 80 40 60 60
959 80 40 60 80
960 80 40 60 100
961 80 40 80 0
962 80 40 80 20
963 80 40 80 40
964 80 40 80 60
965 80 40 80 80
966 80 40 80 100
967 80 40 100 0
968 80 40 100 20
969 80 40 100 40
970 80 40 100 60
971 80 40 100 80
972 80 40 100 100
973 80 60 0 0
974 80 60 0 20
975 80 60 0 40
976 80 60 0 60
977 80 60 0 80
978 80 60 0 100
979 80 60 20 0
980 80 60 20 20
981 80 60 20 40
982 80 60 20 60
983 80 60 20 80
984 80 60 20 100
985 80 60 40 0
986 80 60 40 20
987 80 60 40 40
988 80 60 40 60
989 80 60 40 80
990 80 60 40 100
991 80 60 60 0
992 80 60 60 20
993 80 60 60 40
994 80 60 60 60
995 80 60 60 80
996 80 60 60 100
997 80 60 80 0
998 80 60 80 20
999 80 60 80 40
1000 80 60 80 60
1001 80 60 80 80
1002 80 60 80 100
1003 80 60 100 0
1004 80 60 100 20
1005 80 60 100 40
1006 80 60 100 60
1007 80 60 100 80
1008 80 60 100 100
1009 80 80 0 0
1010 80 80 0 20
1011 80 80 0 40
1012 80 80 0 60
1013 80 80 0 80
1014 80 80 0 100
1015 80 80 20 0
1016 80 80 20 20
1017 80 80 20 40
1018 80 80 20 60
1019 80 80 20 80
1020 80 80 20 100
1021 80 80 40 0
1022 80 80 40 20
1023 80 80 40 40
1024 80 80 40 60
1025 80 80 40 80
1026 80 80 40 100
1027 80 80 60 0
1028 80 80 60 20
1029 80 80 60 40
1030 80 80 60 60
1031 80 80 60 80
1032 80 80 60 100
1033 80 80 80 0
1034 80 80 80 20
1035 80 80 80 40
1036 80 80 80 60
1037 80 80 80 80
1038 80 80 80 100
1039 80 80 100 0
1040 80 80 100 20
1041 80 80 100 40
1042 80 80 100 60
1043 80 80 100 80
1044 80 80 100 100
1045 80 100 0 0
1046 80 100 0 20
1047 80 100 0 40
1048 80 100 0 60
1049 80 100 0 80
1050 80 100 0 100
1051 80 100 20 0
1052 80 100 20 20
1053 80 100 20 40
1054 80 100 20 60
1055 80 100 20 80
1056 80 100 20 100
1057 80 100 40 0
1058 80 100 40 20
1059 80 100 40 40
1060 80 100 40 60
1061 80 100 40 80
1062 80 100 40 100
1063 80 100 60 0
1064 80 100 60 20
1065 80 100 60 40
1066 80 100 60 60
1067 80 100 60 80
1068 80 100 60 100
1069 80 100 80 0
1070 80 100 80 20
1071 80 100 80 40
1072 80 100 80 60
1073 80 100 80 80
1074 80 100 80 100
1075 80 100 100 0
1076 80 100 100 20
1077 80 100 100 40
1078 80 100 100 60
1079 80 100 100 80
1080 80 100 100 100
1081 100 0 0 0
1082 100 0 0 20
1083 100 0 0 40
1084 100 0 0 60
1085 100 0 0 80
1086 100 0 0 100
1087 100 0 20 0
1088 100 0 20 20
1089 100 0 20 40
1090 100 0 20 60
1091 100 0 20 80
1092 100 0 20 100
1093 100 0 40 0
1094 100 0 40 20
1095 100 0 40 40
1096 100 0 40 60
1097 100 0 40 80
1098 100 0 40 100
1099 100 0 60 0
1100 100 0 60 20
1101 100 0 60 40
1102 100 0 60 60
1103 100 0 60 80
1104 100 0 60 100
1105 100 0 80 0
1106 100 0 80 20
1107 100 0 80 40
1108 100 0 80 60
1109 100 0 80 80
1110 100 0 80 100
1111 100 0 100 0
1112 100 0 100 20
1113 100 0 100 40
1114 100 0 100 60
1115 100 0 100 80
1116 100 0 100 100
1117 100 20 0 0
1118 100 20 0 20
1119 100 20 0 40
1120 100 20 0 60
1121 100 20 0 80
1122 100 20 0 100
1123 100 20 20 0
1124 100 20 20 20
1125 100 20 20 40
1126 100 20 20 60
1127 100 20 20 80
1128 100 20 20 100
1129 100 20 40 0
1130 100 20 40 20
1131 100 20 40 40
1132 100 20 40 60
1133 100 20 40 80
1134 100 20 40 100
1135 100 20 60 0
1136 100 20 60 20
1137 100 20 60 40
1138 100 20 60 60
1139 100 20 60 80
1140 100 20 60 100
1141 100 20 80 0
1142 100 20 80 20
1143 100 20 80 40
1144 100 20 80 60
1145 100 20 80 80
1146 100 20 80 100
1147 100 20 100 0
1148 100 20 100 20
1149 100 20 100 40
1150 100 20 100 60
1151 100 20 100 80
1152 100 20 100 100
1153 100 40 0 0
1154 100 40 0 20
1155 100 40 0 40
1156 100 40 0 60
1157 100 40 0 80
1158 100 40 0 100
1159 100 40 20 0
1160 100 40 20 20
1161 100 40 20 40
1162 100 40 20 60
1163 100 40 20 80
1164 100 40 20 100
1165 100 40 40 0
1166 100 40 40 20
1167 100 40 40 40
1168 100 40 40 60
1169 100 40 40 80
1170 100 40 40 100
1171 100 40 60 0
1172 100 40 60 20
1173 100 40 60 40
1174 100 40 60 60
1175 100 40 60 80
1176 100 40 60 100
1177 100 40 80 0
1178 100 40 80 20
1179 100 40 80 40
1180 100 40 80 60
1181 100 40 80 80
1182 100 40 80 100
1183 100 40 100 0
1184 100 40 100 20
1185 100 40 100 40
1186 100 40 100 60
1187 100 40 100 80
1188 100 40 100 100
1189 100 60 0 0
1190 100 60 0 20
1191 100 60 0 40
1192 100 60 0 60
1193 100 60 0 80
1194 100 60 0 100
1195 100 60 20 0
1196 100 60 20 20
1197 100 60 20 40
1198 100 60 20 60
1199 100 60 20 80
1200 100 60 20 100
1201 100 60 40 0
1202 100 60 40 20
1203 100 60 40 40
1204 100 60 40 60
1205 100 60 40 80
1206 100 60 40 100
1207 100 60 60 0
1208 100 60 60 20
1209 100 60 60 40
1210 100 60 60 60
1211 100 60 60 80
1212 100 60 60 100
1213 100 60 80 0
1214 100 60 80 20
1215 100 60 80 40
1216 100 60 80 60
1217 100 60 80 80
1218 100 60 80 100
1219 100 60 100 0
1220 100 60 100 20
1221 100 60 100 40
1222 100 60 100 60
1223 100 60 100 80
1224 100 60 100 100
1225 100 80 0 0
1226 100 80 0 20
1227 100 80 0 40
1228 100 80 0 60
1229 100 80 0 80
1230 100 80 0 100
1231 100 80 20 0
1232 100 80 20 20
1233 100 80 20 40
1234 100 80 20 60
1235 100 80 20 80
1236 100 80 20 100
1237 100 80 40 0
1238 100 80 40 20
1239 100 80 40 40
1240 100 80 40 60
1241 100 80 40 80
1242 100 80 40 100
1243 100 80 60 0
1244 100 80 60 20
1245 100 80 60 40
1246 100 80 60 60
1247 100 80 60 80
1248 100 80 60 100
1249 100 80 80 0
1250 100 80 80 20
1251 100 80 80 40
1252 100 80 80 60
1253 100 80 80 80
1254 100 80 80 100
1255 100 80 100 0
1256 100 80 100 20
1257 100 80 100 40
1258 100 80 100 60
1259 100 80 100 80
1260 100 80 100 100
1261 100 100 0 0
1262 100 100 0 20
1263 100 100 0 40
1264 100 100 0 60
1265 100 100 0 80
1266 100 100 0 100
1267 100 100 20 0
1268 100 100 20 20
1269 100 100 20 40
1270 100 100 20 60
1271 100 100 20 80
1272 100 100 20 100
1273 100 100 40 0
1274 100 100 40 20
1275 100 100 40 40
1276 100 100 40 60
1277 100 100 40 80
1278 100 100 40 100
1279 100 100 60 0
1280 100 100 60 20
1281 100 100 60 40
1282 100 100 60 60
1283 100 100 60 80
1284 100 100 60 100
1285 100 100 80 0
1286 100 100 80 20
1287 100 100 80 40
1288 100 100 80 60
1289 100 100 80 80
1290 100 100 80 100
1291 100 100 100 0
1292 100 100 100 20
1293 100 100 100 40
1294 100 100 100 60
1295 100 100 100 80
1296 100 100 100 100
END_DATA