bench/lcms_compat/stimuli/lab_input.it8
CGATS.17
ORIGINATOR "Custom provider name here"
FILE_DESCRIPTOR TEST
ILLUMINANT           D50
MEASUREMENT_GEOMETRY 0/45
SAMPLE_BACKING       White
NUMBER_OF_FIELDS     4
BEGIN_DATA_FORMAT
SAMPLE_ID IN_LAB_L IN_LAB_A IN_LAB_B 
END_DATA_FORMAT
NUMBER_OF_SETS 4851
BEGIN_DATA
1 0 -100 -100
2 0 -90 -100
3 0 -80 -100
4 0 -70 -100
5 0 -60 -100
6 0 -50 -100
7 0 -40 -100
8 0 -30 -100
9 0 -20 -100
10 0 -10 -100
11 0 0 -100
12 0 10 -100
13 0 20 -100
14 0 30 -100
15 0 40 -100
16 0 50 -100
17 0 60 -100
18 0 70 -100
19 0 80 -100
20 0 90 -100
21 0 100 -100
22 10 -100 -100
23 10 -90 -100
24 10 -80 -100
25 10 -70 -100
26 10 -60 -100
27 10 -50 -100
28 10 -40 -100
29 10 -30 -100
30 10 -20 -100
31 10 -10 -100
32 10 0 -100
33 10 10 -100
34 10 20 -100
35 10 30 -100
36 10 40 -100
37 10 50 -100
38 10 60 -100
39 10 70 -100
40 10 80 -100
41 10 90 -100
42 10 100 -100
43 20 -100 -100
44 20 -90 -100
45 20 -80 -100
46 20 -70 -100
47 20 -60 -100
48 20 -50 -100
49 20 -40 -100
50 20 -30 -100
51 20 -20 -100
52 20 -10 -100
53 20 0 -100
54 20 10 -100
55 20 20 -100
56 20 30 -100
57 20 40 -100
58 20 50 -100
59 20 60 -100
60 20 70 -100
61 20 80 -100
62 20 90 -100
63 20 100 -100
64 30 -100 -100
65 30 -90 -100
66 30 -80 -100
67 30 -70 -100
68 30 -60 -100
69 30 -50 -100
70 30 -40 -100
71 30 -30 -100
72 30 -20 -100
73 30 -10 -100
74 30 0 -100
75 30 10 -100
76 30 20 -100
77 30 30 -100
78 30 40 -100
79 30 50 -100
80 30 60 -100
81 30 70 -100
82 30 80 -100
83 30 90 -100
84 30 100 -100
85 40 -100 -100
86 40 -90 -100
87 40 -80 -100
88 40 -70 -100
89 40 -60 -100
90 40 -50 -100
91 40 -40 -100
92 40 -30 -100
93 40 -20 -100
94 40 -10 -100
95 40 0 -100
96 40 10 -100
97 40 20 -100
98 40 30 -100
99 40 40 -100
100 40 50 -100
101 40 60 -100
102 40 70 -100
103 40 80 -100
104 40 90 -100
105 40 100 -100
106 50 -100 -100
107 50 -90 -100
108 50 -80 -100
109 50 -70 -100
110 50 -60 -100
111 50 -50 -100
112 50 -40 -100
113 50 -30 -100
114 50 -20 -100
115 50 -10 -100
116 50 0 -100
117 50 10 -100
118 50 20 -100
119 50 30 -100
120 50 40 -100
121 50 50 -100
122 50 60 -100
123 50 70 -100
124 50 80 -100
125 50 90 -100
126 50 100 -100
127 60 -100 -100
128 60 -90 -100
129 60 -80 -100
130 60 -70 -100
131 60 -60 -100
132 60 -50 -100
133 60 -40 -100
134 60 -30 -100
135 60 -20 -100
136 60 -10 -100
137 60 0 -100
138 60 10 -100
139 60 20 -100
140 60 30 -100
141 60 40 -100
142 60 50 -100
143 60 60 -100
144 60 70 -100
145 60 80 -100
146 60 90 -100
147 60 100 -100
148 70 -100 -100
149 70 -90 -100
150 70 -80 -100
151 70 -70 -100
152 70 -60 -100
153 70 -50 -100
154 70 -40 -100
155 70 -30 -100
156 70 -20 -100
157 70 -10 -100
158 70 0 -100
159 70 10 -100
160 70 20 -100
161 70 30 -100
162 70 40 -100
163 70 50 -100
164 70 60 -100
165 70 70 -100
166 70 80 -100
167 70 90 -100
168 70 100 -100
169 80 -100 -100
170 80 -90 -100
171 80 -80 -100
172 80 -70 -100
173 80 -60 -100
174 80 -50 -100
175 80 -40 -100
176 80 -30 -100
177 80 -20 -100
178 80 -10 -100
179 80 0 -100
180 80 10 -100
181 80 20 -100
182 80 30 -100
183 80 40 -100
184 80 50 -100
185 80 60 -100
186 80 70 -100
187 80 80 -100
188 80 90 -100
189 80 100 -100
190 90 -100 -100
191 90 -90 -100
192 90 -80 -100
193 90 -70 -100
194 90 -60 -100
195 90 -50 -100
196 90 -40 -100
197 90 -30 -100
198 90 -20 -100
199 90 -10 -100
200 90 0 -100
201 90 10 -100
202 90 20 -100
203 90 30 -100
204 90 40 -100
205 90 50 -100
206 90 60 -100
207 90 70 -100
208 90 80 -100
209 90 90 -100
210 90 100 -100
211 100 -100 -100
212 100 -90 -100
213 100 -80 -100
214 100 -70 -100
215 100 -60 -100
216 100 -50 -100
217 100 -40 -100
218 100 -30 -100
219 100 -20 -100
220 100 -10 -100
221 100 0 -100
222 100 10 -100
223 100 20 -100
224 100 30 -100
225 100 40 -100
226 100 50 -100
227 100 60 -100
228 100 70 -100
229 100 80 -100
230 100 90 -100
231 100 100 -100
232 0 -100 -90
233 0 -90 -90
234 0 -80 -90
235 0 -70 -90
236 0 -60 -90
237 0 -50 -90
238 0 -40 -90
239 0 -30 -90
240 0 -20 -90
241 0 -10 -90
242 0 0 -90
243 0 10 -90
244 0 20 -90
245 0 30 -90
246 0 40 -90
247 0 50 -90
248 0 60 -90
249 0 70 -90
250 0 80 -90
251 0 90 -90
252 0 100 -90
253 10 -100 -90
254 10 -90 -90
255 10 -80 -90
256 10 -70 -90
257 10 -60 -90
258 10 -50 -90
259 10 -40 -90
260 10 -30 -90
261 10 -20 -90
262 10 -10 -90
263 10 0 -90
264 10 10 -90
265 10 20 -90
266 10 30 -90
267 10 40 -90
268 10 50 -90
269 10 60 -90
270 10 70 -90
271 10 80 -90
272 10 90 -90
273 10 100 -90
274 20 -100 -90
275 20 -90 -90
276 20 -80 -90
277 20 -70 -90
278 20 -60 -90
279 20 -50 -90
280 20 -40 -90
281 20 -30 -90
282 20 -20 -90
283 20 -10 -90
284 20 0 -90
285 20 10 -90
286 20 20 -90
287 20 30 -90
288 20 40 -90
289 20 50 -90
290 20 60 -90
291 20 70 -90
292 20 80 -90
293 20 90 -90
294 20 100 -90
295 30 -100 -90
296 30 -90 -90
297 30 -80 -90
298 30 -70 -90
299 30 -60 -90
300 30 -50 -90
301 30 -40 -90
302 30 -30 -90
303 30 -20 -90
304 30 -10 -90
305 30 0 -90
306 30 10 -90
307 30 20 -90
308 30 30 -90
309 30 40 -90
310 30 50 -90
311 30 60 -90
312 30 70 -90
313 30 80 -90
314 30 90 -90
315 30 100 -90
316 40 -100 -90
317 40 -90 -90
318 40 -80 -90
319 40 -70 -90
320 40 -60 -90
321 40 -50 -90
322 40 -40 -90
323 40 -30 -90
324 40 -20 -90
325 40 -10 -90
326 40 0 -90
327 40 10 -90
328 40 20 -90
329 40 30 -90
330 40 40 -90
331 40 50 -90
332 40 60 -90
333 40 70 -90
334 40 80 -90
335 40 90 -90
336 40 100 -90
337 50 -100 -90
338 50 -90 -90
339 50 -80 -90
340 50 -70 -90
341 50 -60 -90
342 50 -50 -90
343 50 -40 -90
344 50 -30 -90
345 50 -20 -90
346 50 -10 -90
347 50 0 -90
348 50 10 -90
349 50 20 -90
350 50 30 -90
351 50 40 -90
352 50 50 -90
353 50 60 -90
354 50 70 -90
355 50 80 -90
356 50 90 -90
357 50 100 -90
358 60 -100 -90
359 60 -90 -90
360 60 -80 -90
361 60 -70 -90
362 60 -60 -90
363 60 -50 -90
364 60 -40 -90
365 60 -30 -90
366 60 -20 -90
367 60 -10 -90
368 60 0 -90
369 60 10 -90
370 60 20 -90
371 60 30 -90
372 60 40 -90
373 60 50 -90
374 60 60 -90
375 60 70 -90
376 60 80 -90
377 60 90 -90
378 60 100 -90
379 70 -100 -90
380 70 -90 -90
381 70 -80 -90
382 70 -70 -90
383 70 -60 -90
384 70 -50 -90
385 70 -40 -90
386 70 -30 -90
387 70 -20 -90
388 70 -10 -90
389 70 0 -90
390 70 10 -90
391 70 20 -90
392 70 30 -90
393 70 40 -90
394 70 50 -90
395 70 60 -90
396 70 70 -90
397 70 80 -90
398 70 90 -90
399 70 100 -90
400 80 -100 -90
401 80 -90 -90
402 80 -80 -90
403 80 -70 -90
404 80 -60 -90
405 80 -50 -90
406 80 -40 -90
407 80 -30 -90
408 80 -20 -90
409 80 -10 -90
410 80 0 -90
411 80 10 -90
412 80 20 -90
413 80 30 -90
414 80 40 -90
415 80 50 -90
416 80 60 -90
417 80 70 -90
418 80 80 -90
419 80 90 -90
420 80 100 -90
421 90 -100 -90
422 90 -90 -90
423 90 -80 -90
424 90 -70 -90
425 90 -60 -90
426 90 -50 -90
427 90 -40 -90
428 90 -30 -90
429 90 -20 -90
430 90 -10 -90
431 90 0 -90
432 90 10 -90
433 90 20 -90
434 90 30 -90
435 90 40 -90
436 90 50 -90
437 90 60 -90
438 90 70 -90
439 90 80 -90
440 90 90 -90
441 90 100 -90
442 100 -100 -90
443 100 -90 -90
444 100 -80 -90
445 100 -70 -90
446 100 -60 -90
447 100 -50 -90
448 100 -40 -90
449 100 -30 -90
450 100 -20 -90
451 100 -10 -90
452 100 0 -90
453 100 10 -90
454 100 20 -90
455 100 30 -90
456 100 40 -90
457 100 50 -90
458 100 60 -90
459 100 70 -90
460 100 80 -90
461 100 90 -90
462 100 100 -90
463 0 -100 -80
464 0 -90 -80
465 0 -80 -80
466 0 -70 -80
467 0 -60 -80
468 0 -50 -80
469 0 -40 -80
470 0 -30 -80
471 0 -20 -80
472 0 -10 -80
473 0 0 -80
474 0 10 -80
475 0 20 -80
476 0 30 -80
477 0 40 -80
478 0 50 -80
479 0 60 -80
480 0 70 -80
481 0 80 -80
482 0 90 -80
483 0 100 -80
484 10 -100 -80
485 10 -90 -80
486 10 -80 -80
487 10 -70 -80
488 10 -60 -80
489 10 -50 -80
490 10 -40 -80
491 10 -30 -80
492 10 -20 -80
493 10 -10 -80
494 10 0 -80
495 10 10 -80
496 10 20 -80
497 10 30 -80
498 10 40 -80
499 10 50 -80
500 10 60 -80
501 10 70 -80
502 10 80 -80
503 10 90 -80
504 10 100 -80
505 20 -100 -80
506 20 -90 -80
507 20 -80 -80
508 20 -70 -80
509 20 -60 -80
510 20 -50 -80
511 20 -40 -80
512 20 -30 -80
513 20 -20 -80
514 20 -10 -80
515 20 0 -80
516 20 10 -80
517 20 20 -80
518 20 30 -80
519 20 40 -80
520 20 50 -80
521 20 60 -80
522 20 70 -80
523 20 80 -80
524 20 90 -80
525 20 100 -80
526 30 -100 -80
527 30 -90 -80
528 30 -80 -80
529 30 -70 -80
530 30 -60 -80
531 30 -50 -80
532 30 -40 -80
533 30 -30 -80
534 30 -20 -80
535 30 -10 -80
536 30 0 -80
537 30 10 -80
538 30 20 -80
539 30 30 -80
540 30 40 -80
541 30 50 -80
542 30 60 -80
543 30 70 -80
544 30 80 -80
545 30 90 -80
546 30 100 -80
547 40 -100 -80
548 40 -90 -80
549 40 -80 -80
550 40 -70 -80
551 40 -60 -80
552 40 -50 -80
553 40 -40 -80
554 40 -30 -80
555 40 -20 -80
556 40 -10 -80
557 40 0 -80
558 40 10 -80
559 40 20 -80
560 40 30 -80
561 40 40 -80
562 40 50 -80
563 40 60 -80
564 40 70 -80
565 40 80 -80
566 40 90 -80
567 40 100 -80
568 50 -100 -80
569 50 -90 -80
570 50 -80 -80
571 50 -70 -80
572 50 -60 -80
573 50 -50 -80
574 50 -40 -80
575 50 -30 -80
576 50 -20 -80
577 50 -10 -80
578 50 0 -80
579 50 10 -80
580 50 20 -80
581 50 30 -80
582 50 40 -80
583 50 50 -80
584 50 60 -80
585 50 70 -80
586 50 80 -80
587 50 90 -80
588 50 100 -80
589 60 -100 -80
590 60 -90 -80
591 60 -80 -80
592 60 -70 -80
593 60 -60 -80
594 60 -50 -80
595 60 -40 -80
596 60 -30 -80
597 60 -20 -80
598 60 -10 -80
599 60 0 -80
600 60 10 -80
601 60 20 -80
602 60 30 -80
603 60 40 -80
604 60 50 -80
605 60 60 -80
606 60 70 -80
607 60 80 -80
608 60 90 -80
609 60 100 -80
610 70 -100 -80
611 70 -90 -80
612 70 -80 -80
613 70 -70 -80
614 70 -60 -80
615 70 -50 -80
616 70 -40 -80
617 70 -30 -80
618 70 -20 -80
619 70 -10 -80
620 70 0 -80
621 70 10 -80
622 70 20 -80
623 70 30 -80
624 70 40 -80
625 70 50 -80
626 70 60 -80
627 70 70 -80
628 70 80 -80
629 70 90 -80
630 70 100 -80
631 80 -100 -80
632 80 -90 -80
633 80 -80 -80
634 80 -70 -80
635 80 -60 -80
636 80 -50 -80
637 80 -40 -80
638 80 -30 -80
639 80 -20 -80
640 80 -10 -80
641 80 0 -80
642 80 10 -80
643 80 20 -80
644 80 30 -80
645 80 40 -80
646 80 50 -80
647 80 60 -80
648 80 70 -80
649 80 80 -80
650 80 90 -80
651 80 100 -80
652 90 -100 -80
653 90 -90 -80
654 90 -80 -80
655 90 -70 -80
656 90 -60 -80
657 90 -50 -80
658 90 -40 -80
659 90 -30 -80
660 90 -20 -80
661 90 -10 -80
662 90 0 -80
663 90 10 -80
664 90 20 -80
665 90 30 -80
666 90 40 -80
667 90 50 -80
668 90 60 -80
669 90 70 -80
670 90 80 -80
671 90 90 -80
672 90 100 -80
673 100 -100 -80
674 100 -90 -80
675 100 -80 -80
676 100 -70 -80
677 100 -60 -80
678 100 -50 -80
679 100 -40 -80
680 100 -30 -80
681 100 -20 -80
682 100 -10 -80
683 100 0 -80
684 100 10 -80
685 100 20 -80
686 100 30 -80
687 100 40 -80
688 100 50 -80
689 100 60 -80
690 100 70 -80
691 100 80 -80
692 100 90 -80
693 100 100 -80
694 0 -100 -70
695 0 -90 -70
696 0 -80 -70
697 0 -70 -70
698 0 -60 -70
699 0 -50 -70
700 0 -40 -70
701 0 -30 -70
702 0 -20 -70
703 0 -10 -70
704 0 0 -70
705 0 10 -70
706 0 20 -70
707 0 30 -70
708 0 40 -70
709 0 50 -70
710 0 60 -70
711 0 70 -70
712 0 80 -70
713 0 90 -70
714 0 100 -70
715 10 -100 -70
716 10 -90 -70
717 10 -80 -70
718 10 -70 -70
719 10 -60 -70
720 10 -50 -70
721 10 -40 -70
722 10 -30 -70
723 10 -20 -70
724 10 -10 -70
725 10 0 -70
726 10 10 -70
727 10 20 -70
728 10 30 -70
729 10 40 -70
730 10 50 -70
731 10 60 -70
732 10 70 -70
733 10 80 -70
734 10 90 -70
735 10 100 -70
736 20 -100 -70
737 20 -90 -70
738 20 -80 -70
739 20 -70 -70
740 20 -60 -70
741 20 -50 -70
742 20 -40 -70
743 20 -30 -70
744 20 -20 -70
745 20 -10 -70
746 20 0 -70
747 20 10 -70
748 20 20 -70
749 20 30 -70
750 20 40 -70
751 20 50 -70
752 20 60 -70
753 20 70 -70
754 20 80 -70
755 20 90 -70
756 20 100 -70
757 30 -100 -70
758 30 -90 -70
759 30 -80 -70
760 30 -70 -70
761 30 -60 -70
762 30 -50 -70
763 30 -40 -70
764 30 -30 -70
765 30 -20 -70
766 30 -10 -70
767 30 0 -70
768 30 10 -70
769 30 20 -70
770 30 30 -70
771 30 40 -70
772 30 50 -70
773 30 60 -70
774 30 70 -70
775 30 80 -70
776 30 90 -70
777 30 100 -70
778 40 -100 -70
779 40 -90 -70
780 40 -80 -70
781 40 -70 -70
782 40 -60 -70
783 40 -50 -70
784 40 -40 -70
785 40 -30 -70
786 40 -20 -70
787 40 -10 -70
788 40 0 -70
789 40 10 -70
790 40 20 -70
791 40 30 -70
792 40 40 -70
793 40 50 -70
794 40 60 -70
795 40 70 -70
796 40 80 -70
797 40 90 -70
798 40 100 -70
799 50 -100 -70
800 50 -90 -70
801 50 -80 -70
802 50 -70 -70
803 50 -60 -70
804 50 -50 -70
805 50 -40 -70
806 50 -30 -70
807 50 -20 -70
808 50 -10 -70
809 50 0 -70
810 50 10 -70
811 50 20 -70
812 50 30 -70
813 50 40 -70
814 50 50 -70
815 50 60 -70
816 50 70 -70
817 50 80 -70
818 50 90 -70
819 50 100 -70
820 60 -100 -70
821 60 -90 -70
822 60 -80 -70
823 60 -70 -70
824 60 -60 -70
825 60 -50 -70
826 60 -40 -70
827 60 -30 -70
828 60 -20 -70
829 60 -10 -70
830 60 0 -70
831 60 10 -70
832 60 20 -70
833 60 30 -70
834 60 40 -70
835 60 50 -70
836 60 60 -70
837 60 70 -70
838 60 80 -70
839 60 90 -70
840 60 100 -70
841 70 -100 -70
842 70 -90 -70
843 70 -80 -70
844 70 -70 -70
845 70 -60 -70
846 70 -50 -70
847 70 -40 -70
848 70 -30 -70
849 70 -20 -70
850 70 -10 -70
851 70 0 -70
852 70 10 -70
853 70 20 -70
854 70 30 -70
855 70 40 -70
856 70 50 -70
857 70 60 -70
858 70 70 -70
859 70 80 -70
860 70 90 -70
861 70 100 -70
862 80 -100 -70
863 80 -90 -70
864 80 -80 -70
865 80 -70 -70
866 80 -60 -70
867 80 -50 -70
868 80 -40 -70
869 80 -30 -70
870 80 -20 -70
871 80 -10 -70
872 80 0 -70
873 80 10 -70
874 80 20 -70
875 80 30 -70
876 80 40 -70
877 80 50 -70
878 80 60 -70
879 80 70 -70
880 80 80 -70
881 80 90 -70
882 80 100 -70
883 90 -100 -70
884 90 -90 -70
885 90 -80 -70
886 90 -70 -70
887 90 -60 -70
888 90 -50 -70
889 90 -40 -70
890 90 -30 -70
891 90 -20 -70
892 90 -10 -70
893 90 0 -70
894 90 10 -70
895 90 20 -70
896 90 30 -70
897 90 40 -70
898 90 50 -70
899 90 60 -70
900 90 70 -70
901 90 80 -70
902 90 90 -70
903 90 100 -70
904 100 -100 -70
905 100 -90 -70
906 100 -80 -70
907 100 -70 -70
908 100 -60 -70
909 100 -50 -70
910 100 -40 -70
911 100 -30 -70
912 100 -20 -70
913 100 -10 -70
914 100 0 -70
915 100 10 -70
916 100 20 -70
917 100 30 -70
918 100 40 -70
919 100 50 -70
920 100 60 -70
921 100 70 -70
922 100 80 -70
923 100 90 -70
924 100 100 -70
925 0 -100 -60
926 0 -90 -60
927 0 -80 -60
928 0 -70 -60
929 0 -60 -60
930 0 -50 -60
931 0 -40 -60
932 0 -30 -60
933 0 -20 -60
934 0 -10 -60
935 0 0 -60
936 0 10 -60
937 0 20 -60
938 0 30 -60
939 0 40 -60
940 0 50 -60
941 0 60 -60
942 0 70 -60
943 0 80 -60
944 0 90 -60
945 0 100 -60
946 10 -100 -60
947 10 -90 -60
948 10 -80 -60
949 10 -70 -60
950 10 -60 -60
951 10 -50 -60
952 10 -40 -60
953 10 -30 -60
954 10 -20 -60
955 10 -10 -60
956 10 0 -60
957 10 10 -60
958 10 20 -60
959 10 30 -60
960 10 40 -60
961 10 50 -60
962 10 60 -60
963 10 70 -60
964 10 80 -60
965 10 90 -60
966 10 100 -60
967 20 -100 -60
968 20 -90 -60
969 20 -80 -60
970 20 -70 -60
971 20 -60 -60
972 20 -50 -60
973 20 -40 -60
974 20 -30 -60
975 20 -20 -60
976 20 -10 -60
977 20 0 -60
978 20 10 -60
979 20 20 -60
980 20 30 -60
981 20 40 -60
982 20 50 -60
983 20 60 -60
984 20 70 -60
985 20 80 -60
986 20 90 -60
987 20 100 -60
988 30 -100 -60
989 30 -90 -60
990 30 -80 -60
991 30 -70 -60
992 30 -60 -60
993 30 -50 -60
994 30 -40 -60
995 30 -30 -60
996 30 -20 -60
997 30 -10 -60
998 30 0 -60
999 30 10 -60
1000 30 20 -60
1001 30 30 -60
1002 30 40 -60
1003 30 50 -60
1004 30 60 -60
1005 30 70 -60
1006 30 80 -60
1007 30 90 -60
1008 30 100 -60
1009 40 -100 -60
1010 40 -90 -60
1011 40 -80 -60
1012 40 -70 -60
1013 40 -60 -60
1014 40 -50 -60
1015 40 -40 -60
1016 40 -30 -60
1017 40 -20 -60
1018 40 -10 -60
1019 40 0 -60
1020 40 10 -60
1021 40 20 -60
1022 40 30 -60
1023 40 40 -60
1024 40 50 -60
1025 40 60 -60
1026 40 70 -60
1027 40 80 -60
1028 40 90 -60
1029 40 100 -60
1030 50 -100 -60
1031 50 -90 -60
1032 50 -80 -60
1033 50 -70 -60
1034 50 -60 -60
1035 50 -50 -60
1036 50 -40 -60
1037 50 -30 -60
1038 50 -20 -60
1039 50 -10 -60
1040 50 0 -60
1041 50 10 -60
1042 50 20 -60
1043 50 30 -60
1044 50 40 -60
1045 50 50 -60
1046 50 60 -60
1047 50 70 -60
1048 50 80 -60
1049 50 90 -60
1050 50 100 -60
1051 60 -100 -60
1052 60 -90 -60
1053 60 -80 -60
1054 60 -70 -60
1055 60 -60 -60
1056 60 -50 -60
1057 60 -40 -60
1058 60 -30 -60
1059 60 -20 -60
1060 60 -10 -60
1061 60 0 -60
1062 60 10 -60
1063 60 20 -60
1064 60 30 -60
1065 60 40 -60
1066 60 50 -60
1067 60 60 -60
1068 60 70 -60
1069 60 80 -60
1070 60 90 -60
1071 60 100 -60
1072 70 -100 -60
1073 70 -90 -60
1074 70 -80 -60
1075 70 -70 -60
1076 70 -60 -60
1077 70 -50 -60
1078 70 -40 -60
1079 70 -30 -60
1080 70 -20 -60
1081 70 -10 -60
1082 70 0 -60
1083 70 10 -60
1084 70 20 -60
1085 70 30 -60
1086 70 40 -60
1087 70 50 -60
1088 70 60 -60
1089 70 70 -60
1090 70 80 -60
1091 70 90 -60
1092 70 100 -60
1093 80 -100 -60
1094 80 -90 -60
1095 80 -80 -60
1096 80 -70 -60
1097 80 -60 -60
1098 80 -50 -60
1099 80 -40 -60
1100 80 -30 -60
1101 80 -20 -60
1102 80 -10 -60
1103 80 0 -60
1104 80 10 -60
1105 80 20 -60
1106 80 30 -60
1107 80 40 -60
1108 80 50 -60
1109 80 60 -60
1110 80 70 -60
1111 80 80 -60
1112 80 90 -60
1113 80 100 -60
1114 90 -100 -60
1115 90 -90 -60
1116 90 -80 -60
1117 90 -70 -60
1118 90 -60 -60
1119 90 -50 -60
1120 90 -40 -60
1121 90 -30 -60
1122 90 -20 -60
1123 90 -10 -60
1124 90 0 -60
1125 90 10 -60
1126 90 20 -60
1127 90 30 -60
1128 90 40 -60
1129 90 50 -60
1130 90 60 -60
1131 90 70 -60
1132 90 80 -60
1133 90 90 -60
1134 90 100 -60
1135 100 -100 -60
1136 100 -90 -60
1137 100 -80 -60
1138 100 -70 -60
1139 100 -60 -60
1140 100 -50 -60
1141 100 -40 -60
1142 100 -30 -60
1143 100 -20 -60
1144 100 -10 -60
1145 100 0 -60
1146 100 10 -60
1147 100 20 -60
1148 100 30 -60
1149 100 40 -60
1150 100 50 -60
1151 100 60 -60
1152 100 70 -60
1153 100 80 -60
1154 100 90 -60
1155 100 100 -60
1156 0 -100 -50
1157 0 -90 -50
1158 0 -80 -50
1159 0 -70 -50
1160 0 -60 -50
1161 0 -50 -50
1162 0 -40 -50
1163 0 -30 -50
1164 0 -20 -50
1165 0 -10 -50
1166 0 0 -50
1167 0 10 -50
1168 0 20 -50
1169 0 30 -50
1170 0 40 -50
1171 0 50 -50
1172 0 60 -50
1173 0 70 -50
1174 0 80 -50
1175 0 90 -50
1176 0 100 -50
1177 10 -100 -50
1178 10 -90 -50
1179 10 -80 -50
1180 10 -70 -50
1181 10 -60 -50
1182 10 -50 -50
1183 10 -40 -50
1184 10 -30 -50
1185 10 -20 -50
1186 10 -10 -50
1187 10 0 -50
1188 10 10 -50
1189 10 20 -50
1190 10 30 -50
1191 10 40 -50
1192 10 50 -50
1193 10 60 -50
1194 10 70 -50
1195 10 80 -50
1196 10 90 -50
1197 10 100 -50
1198 20 -100 -50
1199 20 -90 -50
1200 20 -80 -50
1201 20 -70 -50
1202 20 -60 -50
1203 20 -50 -50
1204 20 -40 -50
1205 20 -30 -50
1206 20 -20 -50
1207 20 -10 -50
1208 20 0 -50
1209 20 10 -50
1210 20 20 -50
1211 20 30 -50
1212 20 40 -50
1213 20 50 -50
1214 20 60 -50
1215 20 70 -50
1216 20 80 -50
1217 20 90 -50
1218 20 100 -50
1219 30 -100 -50
1220 30 -90 -50
1221 30 -80 -50
1222 30 -70 -50
1223 30 -60 -50
1224 30 -50 -50
1225 30 -40 -50
1226 30 -30 -50
1227 30 -20 -50
1228 30 -10 -50
1229 30 0 -50
1230 30 10 -50
1231 30 20 -50
1232 30 30 -50
1233 30 40 -50
1234 30 50 -50
1235 30 60 -50
1236 30 70 -50
1237 30 80 -50
1238 30 90 -50
1239 30 100 -50
1240 40 -100 -50
1241 40 -90 -50
1242 40 -80 -50
1243 40 -70 -50
1244 40 -60 -50
1245 40 -50 -50
1246 40 -40 -50
1247 40 -30 -50
1248 40 -20 -50
1249 40 -10 -50
1250 40 0 -50
1251 40 10 -50
1252 40 20 -50
1253 40 30 -50
1254 40 40 -50
1255 40 50 -50
1256 40 60 -50
1257 40 70 -50
1258 40 80 -50
1259 40 90 -50
1260 40 100 -50
1261 50 -100 -50
1262 50 -90 -50
1263 50 -80 -50
1264 50 -70 -50
1265 50 -60 -50
1266 50 -50 -50
1267 50 -40 -50
1268 50 -30 -50
1269 50 -20 -50
1270 50 -10 -50
1271 50 0 -50
1272 50 10 -50
1273 50 20 -50
1274 50 30 -50
1275 50 40 -50
1276 50 50 -50
1277 50 60 -50
1278 50 70 -50
1279 50 80 -50
1280 50 90 -50
1281 50 100 -50
1282 60 -100 -50
1283 60 -90 -50
1284 60 -80 -50
1285 60 -70 -50
1286 60 -60 -50
1287 60 -50 -50
1288 60 -40 -50
1289 60 -30 -50
1290 60 -20 -50
1291 60 -10 -50
1292 60 0 -50
1293 60 10 -50
1294 60 20 -50
1295 60 30 -50
1296 60 40 -50
1297 60 50 -50
1298 60 60 -50
1299 60 70 -50
1300 60 80 -50
1301 60 90 -50
1302 60 100 -50
1303 70 -100 -50
1304 70 -90 -50
1305 70 -80 -50
1306 70 -70 -50
1307 70 -60 -50
1308 70 -50 -50
1309 70 -40 -50
1310 70 -30 -50
1311 70 -20 -50
1312 70 -10 -50
1313 70 0 -50
1314 70 10 -50
1315 70 20 -50
1316 70 30 -50
1317 70 40 -50
1318 70 50 -50
1319 70 60 -50
1320 70 70 -50
1321 70 80 -50
1322 70 90 -50
1323 70 100 -50
1324 80 -100 -50
1325 80 -90 -50
1326 80 -80 -50
1327 80 -70 -50
1328 80 -60 -50
1329 80 -50 -50
1330 80 -40 -50
1331 80 -30 -50
1332 80 -20 -50
1333 80 -10 -50
1334 80 0 -50
1335 80 10 -50
1336 80 20 -50
1337 80 30 -50
1338 80 40 -50
1339 80 50 -50
1340 80 60 -50
1341 80 70 -50
1342 80 80 -50
1343 80 90 -50
1344 80 100 -50
1345 90 -100 -50
1346 90 -90 -50
1347 90 -80 -50
1348 90 -70 -50
1349 90 -60 -50
1350 90 -50 -50
1351 90 -40 -50
1352 90 -30 -50
1353 90 -20 -50
1354 90 -10 -50
1355 90 0 -50
1356 90 10 -50
1357 90 20 -50
1358 90 30 -50
1359 90 40 -50
1360 90 50 -50
1361 90 60 -50
1362 90 70 -50
1363 90 80 -50
1364 90 90 -50
1365 90 100 -50
1366 100 -100 -50
1367 100 -90 -50
1368 100 -80 -50
1369 100 -70 -50
1370 100 -60 -50
1371 100 -50 -50
1372 100 -40 -50
1373 100 -30 -50
1374 100 -20 -50
1375 100 -10 -50
1376 100 0 -50
1377 100 10 -50
1378 100 20 -50
1379 100 30 -50
1380 100 40 -50
1381 100 50 -50
1382 100 60 -50
1383 100 70 -50
1384 100 80 -50
1385 100 90 -50
1386 100 100 -50
1387 0 -100 -40
1388 0 -90 -40
1389 0 -80 -40
1390 0 -70 -40
1391 0 -60 -40
1392 0 -50 -40
1393 0 -40 -40
1394 0 -30 -40
1395 0 -20 -40
1396 0 -10 -40
1397 0 0 -40
1398 0 10 -40
1399 0 20 -40
1400 0 30 -40
1401 0 40 -40
1402 0 50 -40
1403 0 60 -40
1404 0 70 -40
1405 0 80 -40
1406 0 90 -40
1407 0 100 -40
1408 10 -100 -40
1409 10 -90 -40
1410 10 -80 -40
1411 10 -70 -40
1412 10 -60 -40
1413 10 -50 -40
1414 10 -40 -40
1415 10 -30 -40
1416 10 -20 -40
1417 10 -10 -40
1418 10 0 -40
1419 10 10 -40
1420 10 20 -40
1421 10 30 -40
1422 10 40 -40
1423 10 50 -40
1424 10 60 -40
1425 10 70 -40
1426 10 80 -40
1427 10 90 -40
1428 10 100 -40
1429 20 -100 -40
1430 20 -90 -40
1431 20 -80 -40
1432 20 -70 -40
1433 20 -60 -40
1434 20 -50 -40
1435 20 -40 -40
1436 20 -30 -40
1437 20 -20 -40
1438 20 -10 -40
1439 20 0 -40
1440 20 10 -40
1441 20 20 -40
1442 20 30 -40
1443 20 40 -40
1444 20 50 -40
1445 20 60 -40
1446 20 70 -40
1447 20 80 -40
1448 20 90 -40
1449 20 100 -40
1450 30 -100 -40
1451 30 -90 -40
1452 30 -80 -40
1453 30 -70 -40
1454 30 -60 -40
1455 30 -50 -40
1456 30 -40 -40
1457 30 -30 -40
1458 30 -20 -40
1459 30 -10 -40
1460 30 0 -40
1461 30 10 -40
1462 30 20 -40
1463 30 30 -40
1464 30 40 -40
1465 30 50 -40
1466 30 60 -40
1467 30 70 -40
1468 30 80 -40
1469 30 90 -40
1470 30 100 -40
1471 40 -100 -40
1472 40 -90 -40
1473 40 -80 -40
1474 40 -70 -40
1475 40 -60 -40
1476 40 -50 -40
1477 40 -40 -40
1478 40 -30 -40
1479 40 -20 -40
1480 40 -10 -40
1481 40 0 -40
1482 40 10 -40
1483 40 20 -40
1484 40 30 -40
1485 40 40 -40
1486 40 50 -40
1487 40 60 -40
1488 40 70 -40
1489 40 80 -40
1490 40 90 -40
1491 40 100 -40
1492 50 -100 -40
1493 50 -90 -40
1494 50 -80 -40
1495 50 -70 -40
1496 50 -60 -40
1497 50 -50 -40
1498 50 -40 -40
1499 50 -30 -40
1500 50 -20 -40
1501 50 -10 -40
1502 50 0 -40
1503 50 10 -40
1504 50 20 -40
1505 50 30 -40
1506 50 40 -40
1507 50 50 -40
1508 50 60 -40
1509 50 70 -40
1510 50 80 -40
1511 50 90 -40
1512 50 100 -40
1513 60 -100 -40
1514 60 -90 -40
1515 60 -80 -40
1516 60 -70 -40
1517 60 -60 -40
1518 60 -50 -40
1519 60 -40 -40
1520 60 -30 -40
1521 60 -20 -40
1522 60 -10 -40
1523 60 0 -40
1524 60 10 -40
1525 60 20 -40
1526 60 30 -40
1527 60 40 -40
1528 60 50 -40
1529 60 60 -40
1530 60 70 -40
1531 60 80 -40
1532 60 90 -40
1533 60 100 -40
1534 70 -100 -40
1535 70 -90 -40
1536 70 -80 -40
1537 70 -70 -40
1538 70 -60 -40
1539 70 -50 -40
1540 70 -40 -40
1541 70 -30 -40
1542 70 -20 -40
1543 70 -10 -40
1544 70 0 -40
1545 70 10 -40
1546 70 20 -40
1547 70 30 -40
1548 70 40 -40
1549 70 50 -40
1550 70 60 -40
1551 70 70 -40
1552 70 80 -40
1553 70 90 -40
1554 70 100 -40
1555 80 -100 -40
1556 80 -90 -40
1557 80 -80 -40
1558 80 -70 -40
1559 80 -60 -40
1560 80 -50 -40
1561 80 -40 -40
1562 80 -30 -40
1563 80 -20 -40
1564 80 -10 -40
1565 80 0 -40
1566 80 10 -40
1567 80 20 -40
1568 80 30 -40
1569 80 40 -40
1570 80 50 -40
1571 80 60 -40
1572 80 70 -40
1573 80 80 -40
1574 80 90 -40
1575 80 100 -40
1576 90 -100 -40
1577 90 -90 -40
1578 90 -80 -40
1579 90 -70 -40
1580 90 -60 -40
1581 90 -50 -40
1582 90 -40 -40
1583 90 -30 -40
1584 90 -20 -40
1585 90 -10 -40
