bench/lcms_compat/stimuli/rgb_input.it8
CGATS.17
ORIGINATOR "RGB"
FILE_DESCRIPTOR TEST
ILLUMINANT           D50
MEASUREMENT_GEOMETRY 0/45
SAMPLE_BACKING       White
NUMBER_OF_FIELDS     4
BEGIN_DATA_FORMAT
SAMPLE_ID IN_RGB_R IN_RGB_G IN_RGB_B 
END_DATA_FORMAT
NUMBER_OF_SETS 9261
BEGIN_DATA
0 0 0 0
1 0 0 13
2 0 0 26
3 0 0 38
4 0 0 51
5 0 0 64
6 0 0 77
7 0 0 89
8 0 0 102
9 0 0 115
10 0 0 128
11 0 0 140
12 0 0 153
13 0 0 166
14 0 0 179
15 0 0 191
16 0 0 204
17 0 0 217
18 0 0 230
19 0 0 242
20 0 0 255
21 0 13 0
22 0 13 13
23 0 13 26
24 0 13 38
25 0 13 51
26 0 13 64
27 0 13 77
28 0 13 89
29 0 13 102
30 0 13 115
31 0 13 128
32 0 13 140
33 0 13 153
34 0 13 166
35 0 13 179
36 0 13 191
37 0 13 204
38 0 13 217
39 0 13 230
40 0 13 242
41 0 13 255
42 0 26 0
43 0 26 13
44 0 26 26
45 0 26 38
46 0 26 51
47 0 26 64
48 0 26 77
49 0 26 89
50 0 26 102
51 0 26 115
52 0 26 128
53 0 26 140
54 0 26 153
55 0 26 166
56 0 26 179
57 0 26 191
58 0 26 204
59 0 26 217
60 0 26 230
61 0 26 242
62 0 26 255
63 0 38 0
64 0 38 13
65 0 38 26
66 0 38 38
67 0 38 51
68 0 38 64
69 0 38 77
70 0 38 89
71 0 38 102
72 0 38 115
73 0 38 128
74 0 38 140
75 0 38 153
76 0 38 166
77 0 38 179
78 0 38 191
79 0 38 204
80 0 38 217
81 0 38 230
82 0 38 242
83 0 38 255
84 0 51 0
85 0 51 13
86 0 51 26
87 0 51 38
88 0 51 51
89 0 51 64
90 0 51 77
91 0 51 89
92 0 51 102
93 0 51 115
94 0 51 128
95 0 51 140
96 0 51 153
97 0 51 166
98 0 51 179
99 0 51 191
100 0 51 204
101 0 51 217
102 0 51 230
103 0 51 242
104 0 51 255
105 0 64 0
106 0 64 13
107 0 64 26
108 0 64 38
109 0 64 51
110 0 64 64
111 0 64 77
112 0 64 89
113 0 64 102
114 0 64 115
115 0 64 128
116 0 64 140
117 0 64 153
118 0 64 166
119 0 64 179
120 0 64 191
121 0 64 204
122 0 64 217
123 0 64 230
124 0 64 242
125 0 64 255
126 0 77 0
127 0 77 13
128 0 77 26
129 0 77 38
130 0 77 51
131 0 77 64
132 0 77 77
133 0 77 89
134 0 77 102
135 0 77 115
136 0 77 128
137 0 77 140
138 0 77 153
139 0 77 166
140 0 77 179
141 0 77 191
142 0 77 204
143 0 77 217
144 0 77 230
145 0 77 242
146 0 77 255
147 0 89 0
148 0 89 13
149 0 89 26
150 0 89 38
151 0 89 51
152 0 89 64
153 0 89 77
154 0 89 89
155 0 89 102
156 0 89 115
157 0 89 128
158 0 89 140
159 0 89 153
160 0 89 166
161 0 89 179
162 0 89 191
163 0 89 204
164 0 89 217
165 0 89 230
166 0 89 242
167 0 89 255
168 0 102 0
169 0 102 13
170 0 102 26
171 0 102 38
172 0 102 51
173 0 102 64
174 0 102 77
175 0 102 89
176 0 102 102
177 0 102 115
178 0 102 128
179 0 102 140
180 0 102 153
181 0 102 166
182 0 102 179
183 0 102 191
184 0 102 204
185 0 102 217
186 0 102 230
187 0 102 242
188 0 102 255
189 0 115 0
190 0 115 13
191 0 115 26
192 0 115 38
193 0 115 51
194 0 115 64
195 0 115 77
196 0 115 89
197 0 115 102
198 0 115 115
199 0 115 128
200 0 115 140
201 0 115 153
202 0 115 166
203 0 115 179
204 0 115 191
205 0 115 204
206 0 115 217
207 0 115 230
208 0 115 242
209 0 115 255
210 0 128 0
211 0 128 13
212 0 128 26
213 0 128 38
214 0 128 51
215 0 128 64
216 0 128 77
217 0 128 89
218 0 128 102
219 0 128 115
220 0 128 128
221 0 128 140
222 0 128 153
223 0 128 166
224 0 128 179
225 0 128 191
226 0 128 204
227 0 128 217
228 0 128 230
229 0 128 242
230 0 128 255
231 0 140 0
232 0 140 13
233 0 140 26
234 0 140 38
235 0 140 51
236 0 140 64
237 0 140 77
238 0 140 89
239 0 140 102
240 0 140 115
241 0 140 128
242 0 140 140
243 0 140 153
244 0 140 166
245 0 140 179
246 0 140 191
247 0 140 204
248 0 140 217
249 0 140 230
250 0 140 242
251 0 140 255
252 0 153 0
253 0 153 13
254 0 153 26
255 0 153 38
256 0 153 51
257 0 153 64
258 0 153 77
259 0 153 89
260 0 153 102
261 0 153 115
262 0 153 128
263 0 153 140
264 0 153 153
265 0 153 166
266 0 153 179
267 0 153 191
268 0 153 204
269 0 153 217
270 0 153 230
271 0 153 242
272 0 153 255
273 0 166 0
274 0 166 13
275 0 166 26
276 0 166 38
277 0 166 51
278 0 166 64
279 0 166 77
280 0 166 89
281 0 166 102
282 0 166 115
283 0 166 128
284 0 166 140
285 0 166 153
286 0 166 166
287 0 166 179
288 0 166 191
289 0 166 204
290 0 166 217
291 0 166 230
292 0 166 242
293 0 166 255
294 0 179 0
295 0 179 13
296 0 179 26
297 0 179 38
298 0 179 51
299 0 179 64
300 0 179 77
301 0 179 89
302 0 179 102
303 0 179 115
304 0 179 128
305 0 179 140
306 0 179 153
307 0 179 166
308 0 179 179
309 0 179 191
310 0 179 204
311 0 179 217
312 0 179 230
313 0 179 242
314 0 179 255
315 0 191 0
316 0 191 13
317 0 191 26
318 0 191 38
319 0 191 51
320 0 191 64
321 0 191 77
322 0 191 89
323 0 191 102
324 0 191 115
325 0 191 128
326 0 191 140
327 0 191 153
328 0 191 166
329 0 191 179
330 0 191 191
331 0 191 204
332 0 191 217
333 0 191 230
334 0 191 242
335 0 191 255
336 0 204 0
337 0 204 13
338 0 204 26
339 0 204 38
340 0 204 51
341 0 204 64
342 0 204 77
343 0 204 89
344 0 204 102
345 0 204 115
346 0 204 128
347 0 204 140
348 0 204 153
349 0 204 166
350 0 204 179
351 0 204 191
352 0 204 204
353 0 204 217
354 0 204 230
355 0 204 242
356 0 204 255
357 0 217 0
358 0 217 13
359 0 217 26
360 0 217 38
361 0 217 51
362 0 217 64
363 0 217 77
364 0 217 89
365 0 217 102
366 0 217 115
367 0 217 128
368 0 217 140
369 0 217 153
370 0 217 166
371 0 217 179
372 0 217 191
373 0 217 204
374 0 217 217
375 0 217 230
376 0 217 242
377 0 217 255
378 0 230 0
379 0 230 13
380 0 230 26
381 0 230 38
382 0 230 51
383 0 230 64
384 0 230 77
385 0 230 89
386 0 230 102
387 0 230 115
388 0 230 128
389 0 230 140
390 0 230 153
391 0 230 166
392 0 230 179
393 0 230 191
394 0 230 204
395 0 230 217
396 0 230 230
397 0 230 242
398 0 230 255
399 0 242 0
400 0 242 13
401 0 242 26
402 0 242 38
403 0 242 51
404 0 242 64
405 0 242 77
406 0 242 89
407 0 242 102
408 0 242 115
409 0 242 128
410 0 242 140
411 0 242 153
412 0 242 166
413 0 242 179
414 0 242 191
415 0 242 204
416 0 242 217
417 0 242 230
418 0 242 242
419 0 242 255
420 0 255 0
421 0 255 13
422 0 255 26
423 0 255 38
424 0 255 51
425 0 255 64
426 0 255 77
427 0 255 89
428 0 255 102
429 0 255 115
430 0 255 128
431 0 255 140
432 0 255 153
433 0 255 166
434 0 255 179
435 0 255 191
436 0 255 204
437 0 255 217
438 0 255 230
439 0 255 242
440 0 255 255
441 13 0 0
442 13 0 13
443 13 0 26
444 13 0 38
445 13 0 51
446 13 0 64
447 13 0 77
448 13 0 89
449 13 0 102
450 13 0 115
451 13 0 128
452 13 0 140
453 13 0 153
454 13 0 166
455 13 0 179
456 13 0 191
457 13 0 204
458 13 0 217
459 13 0 230
460 13 0 242
461 13 0 255
462 13 13 0
463 13 13 13
464 13 13 26
465 13 13 38
466 13 13 51
467 13 13 64
468 13 13 77
469 13 13 89
470 13 13 102
471 13 13 115
472 13 13 128
473 13 13 140
474 13 13 153
475 13 13 166
476 13 13 179
477 13 13 191
478 13 13 204
479 13 13 217
480 13 13 230
481 13 13 242
482 13 13 255
483 13 26 0
484 13 26 13
485 13 26 26
486 13 26 38
487 13 26 51
488 13 26 64
489 13 26 77
490 13 26 89
491 13 26 102
492 13 26 115
493 13 26 128
494 13 26 140
495 13 26 153
496 13 26 166
497 13 26 179
498 13 26 191
499 13 26 204
500 13 26 217
501 13 26 230
502 13 26 242
503 13 26 255
504 13 38 0
505 13 38 13
506 13 38 26
507 13 38 38
508 13 38 51
509 13 38 64
510 13 38 77
511 13 38 89
512 13 38 102
513 13 38 115
514 13 38 128
515 13 38 140
516 13 38 153
517 13 38 166
518 13 38 179
519 13 38 191
520 13 38 204
521 13 38 217
522 13 38 230
523 13 38 242
524 13 38 255
525 13 51 0
526 13 51 13
527 13 51 26
528 13 51 38
529 13 51 51
530 13 51 64
531 13 51 77
532 13 51 89
533 13 51 102
534 13 51 115
535 13 51 128
536 13 51 140
537 13 51 153
538 13 51 166
539 13 51 179
540 13 51 191
541 13 51 204
542 13 51 217
543 13 51 230
544 13 51 242
545 13 51 255
546 13 64 0
547 13 64 13
548 13 64 26
549 13 64 38
550 13 64 51
551 13 64 64
552 13 64 77
553 13 64 89
554 13 64 102
555 13 64 115
556 13 64 128
557 13 64 140
558 13 64 153
559 13 64 166
560 13 64 179
561 13 64 191
562 13 64 204
563 13 64 217
564 13 64 230
565 13 64 242
566 13 64 255
567 13 77 0
568 13 77 13
569 13 77 26
570 13 77 38
571 13 77 51
572 13 77 64
573 13 77 77
574 13 77 89
575 13 77 102
576 13 77 115
577 13 77 128
578 13 77 140
579 13 77 153
580 13 77 166
581 13 77 179
582 13 77 191
583 13 77 204
584 13 77 217
585 13 77 230
586 13 77 242
587 13 77 255
588 13 89 0
589 13 89 13
590 13 89 26
591 13 89 38
592 13 89 51
593 13 89 64
594 13 89 77
595 13 89 89
596 13 89 102
597 13 89 115
598 13 89 128
599 13 89 140
600 13 89 153
601 13 89 166
602 13 89 179
603 13 89 191
604 13 89 204
605 13 89 217
606 13 89 230
607 13 89 242
608 13 89 255
609 13 102 0
610 13 102 13
611 13 102 26
612 13 102 38
613 13 102 51
614 13 102 64
615 13 102 77
616 13 102 89
617 13 102 102
618 13 102 115
619 13 102 128
620 13 102 140
621 13 102 153
622 13 102 166
623 13 102 179
624 13 102 191
625 13 102 204
626 13 102 217
627 13 102 230
628 13 102 242
629 13 102 255
630 13 115 0
631 13 115 13
632 13 115 26
633 13 115 38
634 13 115 51
635 13 115 64
636 13 115 77
637 13 115 89
638 13 115 102
639 13 115 115
640 13 115 128
641 13 115 140
642 13 115 153
643 13 115 166
644 13 115 179
645 13 115 191
646 13 115 204
647 13 115 217
648 13 115 230
649 13 115 242
650 13 115 255
651 13 128 0
652 13 128 13
653 13 128 26
654 13 128 38
655 13 128 51
656 13 128 64
657 13 128 77
658 13 128 89
659 13 128 102
660 13 128 115
661 13 128 128
662 13 128 140
663 13 128 153
664 13 128 166
665 13 128 179
666 13 128 191
667 13 128 204
668 13 128 217
669 13 128 230
670 13 128 242
671 13 128 255
672 13 140 0
673 13 140 13
674 13 140 26
675 13 140 38
676 13 140 51
677 13 140 64
678 13 140 77
679 13 140 89
680 13 140 102
681 13 140 115
682 13 140 128
683 13 140 140
684 13 140 153
685 13 140 166
686 13 140 179
687 13 140 191
688 13 140 204
689 13 140 217
690 13 140 230
691 13 140 242
692 13 140 255
693 13 153 0
694 13 153 13
695 13 153 26
696 13 153 38
697 13 153 51
698 13 153 64
699 13 153 77
700 13 153 89
701 13 153 102
702 13 153 115
703 13 153 128
704 13 153 140
705 13 153 153
706 13 153 166
707 13 153 179
708 13 153 191
709 13 153 204
710 13 153 217
711 13 153 230
712 13 153 242
713 13 153 255
714 13 166 0
715 13 166 13
716 13 166 26
717 13 166 38
718 13 166 51
719 13 166 64
720 13 166 77
721 13 166 89
722 13 166 102
723 13 166 115
724 13 166 128
725 13 166 140
726 13 166 153
727 13 166 166
728 13 166 179
729 13 166 191
730 13 166 204
731 13 166 217
732 13 166 230
733 13 166 242
734 13 166 255
735 13 179 0
736 13 179 13
737 13 179 26
738 13 179 38
739 13 179 51
740 13 179 64
741 13 179 77
742 13 179 89
743 13 179 102
744 13 179 115
745 13 179 128
746 13 179 140
747 13 179 153
748 13 179 166
749 13 179 179
750 13 179 191
751 13 179 204
752 13 179 217
753 13 179 230
754 13 179 242
755 13 179 255
756 13 191 0
757 13 191 13
758 13 191 26
759 13 191 38
760 13 191 51
761 13 191 64
762 13 191 77
763 13 191 89
764 13 191 102
765 13 191 115
766 13 191 128
767 13 191 140
768 13 191 153
769 13 191 166
770 13 191 179
771 13 191 191
772 13 191 204
773 13 191 217
774 13 191 230
775 13 191 242
776 13 191 255
777 13 204 0
778 13 204 13
779 13 204 26
780 13 204 38
781 13 204 51
782 13 204 64
783 13 204 77
784 13 204 89
785 13 204 102
786 13 204 115
787 13 204 128
788 13 204 140
789 13 204 153
790 13 204 166
791 13 204 179
792 13 204 191
793 13 204 204
794 13 204 217
795 13 204 230
796 13 204 242
797 13 204 255
798 13 217 0
799 13 217 13
800 13 217 26
801 13 217 38
802 13 217 51
803 13 217 64
804 13 217 77
805 13 217 89
806 13 217 102
807 13 217 115
808 13 217 128
809 13 217 140
810 13 217 153
811 13 217 166
812 13 217 179
813 13 217 191
814 13 217 204
815 13 217 217
816 13 217 230
817 13 217 242
818 13 217 255
819 13 230 0
820 13 230 13
821 13 230 26
822 13 230 38
823 13 230 51
824 13 230 64
825 13 230 77
826 13 230 89
827 13 230 102
828 13 230 115
829 13 230 128
830 13 230 140
831 13 230 153
832 13 230 166
833 13 230 179
834 13 230 191
835 13 230 204
836 13 230 217
837 13 230 230
838 13 230 242
839 13 230 255
840 13 242 0
841 13 242 13
842 13 242 26
843 13 242 38
844 13 242 51
845 13 242 64
846 13 242 77
847 13 242 89
848 13 242 102
849 13 242 115
850 13 242 128
851 13 242 140
852 13 242 153
853 13 242 166
854 13 242 179
855 13 242 191
856 13 242 204
857 13 242 217
858 13 242 230
859 13 242 242
860 13 242 255
861 13 255 0
862 13 255 13
863 13 255 26
864 13 255 38
865 13 255 51
866 13 255 64
867 13 255 77
868 13 255 89
869 13 255 102
870 13 255 115
871 13 255 128
872 13 255 140
873 13 255 153
874 13 255 166
875 13 255 179
876 13 255 191
877 13 255 204
878 13 255 217
879 13 255 230
880 13 255 242
881 13 255 255
882 26 0 0
883 26 0 13
884 26 0 26
885 26 0 38
886 26 0 51
887 26 0 64
888 26 0 77
889 26 0 89
890 26 0 102
891 26 0 115
892 26 0 128
893 26 0 140
894 26 0 153
895 26 0 166
896 26 0 179
897 26 0 191
898 26 0 204
899 26 0 217
900 26 0 230
901 26 0 242
902 26 0 255
903 26 13 0
904 26 13 13
905 26 13 26
906 26 13 38
907 26 13 51
908 26 13 64
909 26 13 77
910 26 13 89
911 26 13 102
912 26 13 115
913 26 13 128
914 26 13 140
915 26 13 153
916 26 13 166
917 26 13 179
918 26 13 191
919 26 13 204
920 26 13 217
921 26 13 230
922 26 13 242
923 26 13 255
924 26 26 0
925 26 26 13
926 26 26 26
927 26 26 38
928 26 26 51
929 26 26 64
930 26 26 77
931 26 26 89
932 26 26 102
933 26 26 115
934 26 26 128
935 26 26 140
936 26 26 153
937 26 26 166
938 26 26 179
939 26 26 191
940 26 26 204
941 26 26 217
942 26 26 230
943 26 26 242
944 26 26 255
945 26 38 0
946 26 38 13
947 26 38 26
948 26 38 38
949 26 38 51
950 26 38 64
951 26 38 77
952 26 38 89
953 26 38 102
954 26 38 115
955 26 38 128
956 26 38 140
957 26 38 153
958 26 38 166
959 26 38 179
960 26 38 191
961 26 38 204
962 26 38 217
963 26 38 230
964 26 38 242
965 26 38 255
966 26 51 0
967 26 51 13
968 26 51 26
969 26 51 38
970 26 51 51
971 26 51 64
972 26 51 77
973 26 51 89
974 26 51 102
975 26 51 115
976 26 51 128
977 26 51 140
978 26 51 153
979 26 51 166
980 26 51 179
981 26 51 191
982 26 51 204
983 26 51 217
984 26 51 230
985 26 51 242
986 26 51 255
987 26 64 0
988 26 64 13
989 26 64 26
990 26 64 38
991 26 64 51
992 26 64 64
993 26 64 77
994 26 64 89
995 26 64 102
996 26 64 115
997 26 64 128
998 26 64 140
999 26 64 153
1000 26 64 166
1001 26 64 179
1002 26 64 191
1003 26 64 204
1004 26 64 217
1005 26 64 230
1006 26 64 242
1007 26 64 255
1008 26 77 0
1009 26 77 13
1010 26 77 26
1011 26 77 38
1012 26 77 51
1013 26 77 64
1014 26 77 77
1015 26 77 89
1016 26 77 102
1017 26 77 115
1018 26 77 128
1019 26 77 140
1020 26 77 153
1021 26 77 166
1022 26 77 179
1023 26 77 191
1024 26 77 204
1025 26 77 217
1026 26 77 230
1027 26 77 242
1028 26 77 255
1029 26 89 0
1030 26 89 13
1031 26 89 26
1032 26 89 38
1033 26 89 51
1034 26 89 64
1035 26 89 77
1036 26 89 89
1037 26 89 102
1038 26 89 115
1039 26 89 128
1040 26 89 140
1041 26 89 153
1042 26 89 166
1043 26 89 179
1044 26 89 191
1045 26 89 204
1046 26 89 217
1047 26 89 230
1048 26 89 242
1049 26 89 255
1050 26 102 0
1051 26 102 13
1052 26 102 26
1053 26 102 38
1054 26 102 51
1055 26 102 64
1056 26 102 77
1057 26 102 89
1058 26 102 102
1059 26 102 115
1060 26 102 128
1061 26 102 140
1062 26 102 153
1063 26 102 166
1064 26 102 179
1065 26 102 191
1066 26 102 204
1067 26 102 217
1068 26 102 230
1069 26 102 242
1070 26 102 255
1071 26 115 0
1072 26 115 13
1073 26 115 26
1074 26 115 38
1075 26 115 51
1076 26 115 64
1077 26 115 77
1078 26 115 89
1079 26 115 102
1080 26 115 115
1081 26 115 128
1082 26 115 140
1083 26 115 153
1084 26 115 166
1085 26 115 179
1086 26 115 191
1087 26 115 204
1088 26 115 217
1089 26 115 230
1090 26 115 242
1091 26 115 255
1092 26 128 0
1093 26 128 13
1094 26 128 26
1095 26 128 38
1096 26 128 51
1097 26 128 64
1098 26 128 77
1099 26 128 89
1100 26 128 102
1101 26 128 115
1102 26 128 128
1103 26 128 140
1104 26 128 153
1105 26 128 166
1106 26 128 179
1107 26 128 191
1108 26 128 204
1109 26 128 217
1110 26 128 230
1111 26 128 242
1112 26 128 255
1113 26 140 0
1114 26 140 13
1115 26 140 26
1116 26 140 38
1117 26 140 51
1118 26 140 64
1119 26 140 77
1120 26 140 89
1121 26 140 102
1122 26 140 115
1123 26 140 128
1124 26 140 140
1125 26 140 153
1126 26 140 166
1127 26 140 179
1128 26 140 191
1129 26 140 204
1130 26 140 217
1131 26 140 230
1132 26 140 242
1133 26 140 255
1134 26 153 0
1135 26 153 13
1136 26 153 26
1137 26 153 38
1138 26 153 51
1139 26 153 64
1140 26 153 77
1141 26 153 89
1142 26 153 102
1143 26 153 115
1144 26 153 128
1145 26 153 140
1146 26 153 153
1147 26 153 166
1148 26 153 179
1149 26 153 191
1150 26 153 204
1151 26 153 217
1152 26 153 230
1153 26 153 242
1154 26 153 255
1155 26 166 0
1156 26 166 13
1157 26 166 26
1158 26 166 38
1159 26 166 51
1160 26 166 64
1161 26 166 77
1162 26 166 89
1163 26 166 102
1164 26 166 115
1165 26 166 128
1166 26 166 140
1167 26 166 153
1168 26 166 166
1169 26 166 179
1170 26 166 191
1171 26 166 204
1172 26 166 217
1173 26 166 230
1174 26 166 242
1175 26 166 255
1176 26 179 0
1177 26 179 13
1178 26 179 26
1179 26 179 38
1180 26 179 51
1181 26 179 64
1182 26 179 77
1183 26 179 89
1184 26 179 102
1185 26 179 115
1186 26 179 128
1187 26 179 140
1188 26 179 153
1189 26 179 166
1190 26 179 179
1191 26 179 191
1192 26 179 204
1193 26 179 217
1194 26 179 230
1195 26 179 242
1196 26 179 255
1197 26 191 0
1198 26 191 13
1199 26 191 26
1200 26 191 38
1201 26 191 51
1202 26 191 64
1203 26 191 77
1204 26 191 89
1205 26 191 102
1206 26 191 115
1207 26 191 128
1208 26 191 140
1209 26 191 153
1210 26 191 166
1211 26 191 179
1212 26 191 191
1213 26 191 204
1214 26 191 217
1215 26 191 230
1216 26 191 242
1217 26 191 255
1218 26 204 0
1219 26 204 13
1220 26 204 26
1221 26 204 38
1222 26 204 51
1223 26 204 64
1224 26 204 77
1225 26 204 89
1226 26 204 102
1227 26 204 115
1228 26 204 128
1229 26 204 140
1230 26 204 153
1231 26 204 166
1232 26 204 179
1233 26 204 191
1234 26 204 204
1235 26 204 217
1236 26 204 230
1237 26 204 242
1238 26 204 255
1239 26 217 0
1240 26 217 13
1241 26 217 26
1242 26 217 38
1243 26 217 51
1244 26 217 64
1245 26 217 77
1246 26 217 89
1247 26 217 102
1248 26 217 115
1249 26 217 128
1250 26 217 140
1251 26 217 153
1252 26 217 166
1253 26 217 179
1254 26 217 191
1255 26 217 204
1256 26 217 217
1257 26 217 230
1258 26 217 242
1259 26 217 255
1260 26 230 0
1261 26 230 13
1262 26 230 26
1263 26 230 38
1264 26 230 51
1265 26 230 64
1266 26 230 77
1267 26 230 89
1268 26 230 102
1269 26 230 115
1270 26 230 128
1271 26 230 140
1272 26 230 153
1273 26 230 166
1274 26 230 179
1275 26 230 191
1276 26 230 204
1277 26 230 217
1278 26 230 230
1279 26 230 242
1280 26 230 255
1281 26 242 0
1282 26 242 13
1283 26 242 26
1284 26 242 38
1285 26 242 51
1286 26 242 64
1287 26 242 77
1288 26 242 89
1289 26 242 102
1290 26 242 115
1291 26 242 128
1292 26 242 140
1293 26 242 153
1294 26 242 166
1295 26 242 179
1296 26 242 191
1297 26 242 204
1298 26 242 217
1299 26 242 230
1300 26 242 242
1301 26 242 255
1302 26 255 0
1303 26 255 13
1304 26 255 26
1305 26 255 38
1306 26 255 51
1307 26 255 64
1308 26 255 77
1309 26 255 89
1310 26 255 102
1311 26 255 115
1312 26 255 128
1313 26 255 140
1314 26 255 153
1315 26 255 166
1316 26 255 179
1317 26 255 191
1318 26 255 204
1319 26 255 217
1320 26 255 230
1321 26 255 242
1322 26 255 255
1323 38 0 0
1324 38 0 13
1325 38 0 26
1326 38 0 38
1327 38 0 51
1328 38 0 64
1329 38 0 77
1330 38 0 89
1331 38 0 102
1332 38 0 115
1333 38 0 128
1334 38 0 140
1335 38 0 153
1336 38 0 166
1337 38 0 179
1338 38 0 191
1339 38 0 204
1340 38 0 217
1341 38 0 230
1342 38 0 242
1343 38 0 255
1344 38 13 0
1345 38 13 13
1346 38 13 26
1347 38 13 38
1348 38 13 51
1349 38 13 64
1350 38 13 77
1351 38 13 89
1352 38 13 102
1353 38 13 115
1354 38 13 128
1355 38 13 140
1356 38 13 153
1357 38 13 166
1358 38 13 179
1359 38 13 191
1360 38 13 204
1361 38 13 217
1362 38 13 230
1363 38 13 242
1364 38 13 255
1365 38 26 0
1366 38 26 13
1367 38 26 26
1368 38 26 38
1369 38 26 51
1370 38 26 64
1371 38 26 77
1372 38 26 89
1373 38 26 102
1374 38 26 115
1375 38 26 128
1376 38 26 140
1377 38 26 153
1378 38 26 166
1379 38 26 179
1380 38 26 191
1381 38 26 204
1382 38 26 217
1383 38 26 230
1384 38 26 242
1385 38 26 255
1386 38 38 0
1387 38 38 13
1388 38 38 26
1389 38 38 38
1390 38 38 51
1391 38 38 64
1392 38 38 77
1393 38 38 89
1394 38 38 102
1395 38 38 115
1396 38 38 128
1397 38 38 140
1398 38 38 153
1399 38 38 166
1400 38 38 179
1401 38 38 191
1402 38 38 204
1403 38 38 217
1404 38 38 230
1405 38 38 242
1406 38 38 255
1407 38 51 0
1408 38 51 13
1409 38 51 26
1410 38 51 38
1411 38 51 51
1412 38 51 64
1413 38 51 77
1414 38 51 89
1415 38 51 102
1416 38 51 115
1417 38 51 128
1418 38 51 140
1419 38 51 153
1420 38 51 166
1421 38 51 179
1422 38 51 191
1423 38 51 204
1424 38 51 217
1425 38 51 230
1426 38 51 242
1427 38 51 255
1428 38 64 0
1429 38 64 13
1430 38 64 26
1431 38 64 38
1432 38 64 51
1433 38 64 64
1434 38 64 77
1435 38 64 89
1436 38 64 102
1437 38 64 115
1438 38 64 128
1439 38 64 140
1440 38 64 153
1441 38 64 166
1442 38 64 179
1443 38 64 191
1444 38 64 204
1445 38 64 217
1446 38 64 230
1447 38 64 242
1448 38 64 255
1449 38 77 0
1450 38 77 13
1451 38 77 26
1452 38 77 38
1453 38 77 51
1454 38 77 64
1455 38 77 77
1456 38 77 89
1457 38 77 102
1458 38 77 115
1459 38 77 128
1460 38 77 140
1461 38 77 153
1462 38 77 166
1463 38 77 179
1464 38 77 191
1465 38 77 204
1466 38 77 217
1467 38 77 230
1468 38 77 242
1469 38 77 255
1470 38 89 0
1471 38 89 13
1472 38 89 26
1473 38 89 38
1474 38 89 51
1475 38 89 64
1476 38 89 77
1477 38 89 89
1478 38 89 102
1479 38 89 115
1480 38 89 128
1481 38 89 140
1482 38 89 153
1483 38 89 166
1484 38 89 179
1485 38 89 191
1486 38 89 204
1487 38 89 217
1488 38 89 230
1489 38 89 242
1490 38 89 255
1491 38 102 0
1492 38 102 13
1493 38 102 26
1494 38 102 38
1495 38 102 51
1496 38 102 64
1497 38 102 77
1498 38 102 89
1499 38 102 102
1500 38 102 115
1501 38 102 128
1502 38 102 140
1503 38 102 153
1504 38 102 166
1505 38 102 179
1506 38 102 191
1507 38 102 204
1508 38 102 217
1509 38 102 230
1510 38 102 242
1511 38 102 255
1512 38 115 0
1513 38 115 13
1514 38 115 26
1515 38 115 38
1516 38 115 51
1517 38 115 64
1518 38 115 77
1519 38 115 89
1520 38 115 102
1521 38 115 115
1522 38 115 128
1523 38 115 140
1524 38 115 153
1525 38 115 166
1526 38 115 179
1527 38 115 191
1528 38 115 204
1529 38 115 217
1530 38 115 230
1531 38 115 242
1532 38 115 255
1533 38 128 0
1534 38 128 13
1535 38 128 26
1536 38 128 38
1537 38 128 51
1538 38 128 64
1539 38 128 77
1540 38 128 89
1541 38 128 102
1542 38 128 115
1543 38 128 128
1544 38 128 140
1545 38 128 153
1546 38 128 166
1547 38 128 179
1548 38 128 191
1549 38 128 204
1550 38 128 217
1551 38 128 230
1552 38 128 242
1553 38 128 255
1554 38 140 0
1555 38 140 13
1556 38 140 26
1557 38 140 38
1558 38 140 51
1559 38 140 64
1560 38 140 77
1561 38 140 89
1562 38 140 102
1563 38 140 115
1564 38 140 128
1565 38 140 140
1566 38 140 153
1567 38 140 166
1568 38 140 179
1569 38 140 191
1570 38 140 204
1571 38 140 217
1572 38 140 230
1573 38 140 242
1574 38 140 255
1575 38 153 0
1576 38 153 13
1577 38 153 26
1578 38 153 38
1579 38 153 51
1580 38 153 64
1581 38 153 77
1582 38 153 89
1583 38 153 102
1584 38 153 115
1585 38 153 128
1586 38 153 140
1587 38 153 153
1588 38 153 166
1589 38 153 179
1590 38 153 191
1591 38 153 204
1592 38 153 217
1593 38 153 230
1594 38 153 242
1595 38 153 255
1596 38 166 0
1597 38 166 13
1598 38 166 26
1599 38 166 38
1600 38 166 51
1601 38 166 64
1602 38 166 77
1603 38 166 89
1604 38 166 102
1605 38 166 115
1606 38 166 128
1607 38 166 140
1608 38 166 153
1609 38 166 166
1610 38 166 179
1611 38 166 191
1612 38 166 204
1613 38 166 217
1614 38 166 230
1615 38 166 242
1616 38 166 255
1617 38 179 0
1618 38 179 13
1619 38 179 26
1620 38 179 38
1621 38 179 51
1622 38 179 64
1623 38 179 77
1624 38 179 89
1625 38 179 102
1626 38 179 115
1627 38 179 128
1628 38 179 140
1629 38 179 153
1630 38 179 166
1631 38 179 179
1632 38 179 191
1633 38 179 204
1634 38 179 217
1635 38 179 230
1636 38 179 242
1637 38 179 255
1638 38 191 0
1639 38 191 13
1640 38 191 26
1641 38 191 38
1642 38 191 51
1643 38 191 64
1644 38 191 77
1645 38 191 89
1646 38 191 102
1647 38 191 115
1648 38 191 128
1649 38 191 140
1650 38 191 153
1651 38 191 166
1652 38 191 179
1653 38 191 191
1654 38 191 204
1655 38 191 217
1656 38 191 230
1657 38 191 242
1658 38 191 255
1659 38 204 0
1660 38 204 13
1661 38 204 26
1662 38 204 38
1663 38 204 51
1664 38 204 64
1665 38 204 77
1666 38 204 89
1667 38 204 102
1668 38 204 115
1669 38 204 128
1670 38 204 140
1671 38 204 153
1672 38 204 166
