bench/lcms_compat/stimuli/xyz_input.it8
CGATS.17
ORIGINATOR	"icctrans"
#
# Data follows
#
NUMBER_OF_SETS	4851
NUMBER_OF_FIELDS	7
BEGIN_DATA_FORMAT
 SAMPLE_ID	IN_LAB_L	IN_LAB_A	IN_LAB_B	IN_XYZ_X	IN_XYZ_Y	IN_XYZ_Z
END_DATA_FORMAT
BEGIN_DATA
 1	0.00000000	-100.00000000	-100.00000000	-2.47642326	0.00000000	21.41521827
 2	0.00000000	-90.00000000	-100.00000000	-2.22878091	0.00000000	21.41521827
 3	0.00000000	-80.00000000	-100.00000000	-1.98113857	0.00000000	21.41521827
 4	0.00000000	-70.00000000	-100.00000000	-1.73349622	0.00000000	21.41521827
 5	0.00000000	-60.00000000	-100.00000000	-1.48585388	0.00000000	21.41521827
 6	0.00000000	-50.00000000	-100.00000000	-1.23821154	0.00000000	21.41521827
 7	0.00000000	-40.00000000	-100.00000000	-0.99056928	0.00000000	21.41521827
 8	0.00000000	-30.00000000	-100.00000000	-0.74292694	0.00000000	21.41521827
 9	0.00000000	-20.00000000	-100.00000000	-0.49528464	0.00000000	21.41521827
 10	0.00000000	-10.00000000	-100.00000000	-0.24764232	0.00000000	21.41521827
 11	0.00000000	0.00000000	-100.00000000	0.00000019	0.00000000	21.41521827
 12	0.00000000	10.00000000	-100.00000000	0.24764251	0.00000000	21.41521827
 13	0.00000000	20.00000000	-100.00000000	0.49528483	0.00000000	21.41521827
 14	0.00000000	30.00000000	-100.00000000	0.74292713	0.00000000	21.41521827
 15	0.00000000	40.00000000	-100.00000000	0.99798594	0.00000000	21.41521827
 16	0.00000000	50.00000000	-100.00000000	1.29873475	0.00000000	21.41521827
 17	0.00000000	60.00000000	-100.00000000	1.65454270	0.00000000	21.41521827
 18	0.00000000	70.00000000	-100.00000000	2.07003791	0.00000000	21.41521827
 19	0.00000000	80.00000000	-100.00000000	2.54984854	0.00000000	21.41521827
 20	0.00000000	90.00000000	-100.00000000	3.09860281	0.00000000	21.41521827
 21	0.00000000	100.00000000	-100.00000000	3.72092895	0.00000000	21.41521827
 22	10.00000000	-100.00000000	-100.00000000	-1.40899943	1.12601998	31.32313378
 23	10.00000000	-90.00000000	-100.00000000	-1.16135708	1.12601998	31.32313378
 24	10.00000000	-80.00000000	-100.00000000	-0.91371474	1.12601998	31.32313378
 25	10.00000000	-70.00000000	-100.00000000	-0.66607244	1.12601998	31.32313378
 26	10.00000000	-60.00000000	-100.00000000	-0.41843005	1.12601998	31.32313378
 27	10.00000000	-50.00000000	-100.00000000	-0.17078773	1.12601998	31.32313378
 28	10.00000000	-40.00000000	-100.00000000	0.07685459	1.12601998	31.32313378
 29	10.00000000	-30.00000000	-100.00000000	0.32449691	1.12601998	31.32313378
 30	10.00000000	-20.00000000	-100.00000000	0.57213924	1.12601998	31.32313378
 31	10.00000000	-10.00000000	-100.00000000	0.81978158	1.12601998	31.32313378
 32	10.00000000	0.00000000	-100.00000000	1.08570867	1.12601998	31.32313378
 33	10.00000000	10.00000000	-100.00000000	1.40304948	1.12601998	31.32313378
 34	10.00000000	20.00000000	-100.00000000	1.77688569	1.12601998	31.32313378
 35	10.00000000	30.00000000	-100.00000000	2.21184563	1.12601998	31.32313378
 36	10.00000000	40.00000000	-100.00000000	2.71255742	1.12601998	31.32313378
 37	10.00000000	50.00000000	-100.00000000	3.28364912	1.12601998	31.32313378
 38	10.00000000	60.00000000	-100.00000000	3.92974877	1.12601998	31.32313378
 39	10.00000000	70.00000000	-100.00000000	4.65548497	1.12601998	31.32313378
 40	10.00000000	80.00000000	-100.00000000	5.46548520	1.12601998	31.32313378
 41	10.00000000	90.00000000	-100.00000000	6.36437808	1.12601998	31.32313378
 42	10.00000000	100.00000000	-100.00000000	7.35679219	1.12601998	31.32313378
 43	20.00000000	-100.00000000	-100.00000000	-0.34157560	2.98905245	43.89458077
 44	20.00000000	-90.00000000	-100.00000000	-0.09393323	2.98905245	43.89458077
 45	20.00000000	-80.00000000	-100.00000000	0.15370909	2.98905245	43.89458077
 46	20.00000000	-70.00000000	-100.00000000	0.40135139	2.98905245	43.89458077
 47	20.00000000	-60.00000000	-100.00000000	0.64899383	2.98905245	43.89458077
 48	20.00000000	-50.00000000	-100.00000000	0.89735174	2.98905245	43.89458077
 49	20.00000000	-40.00000000	-100.00000000	1.17842666	2.98905245	43.89458077
 50	20.00000000	-30.00000000	-100.00000000	1.51280529	2.98905245	43.89458077
 51	20.00000000	-20.00000000	-100.00000000	1.90511568	2.98905245	43.89458077
 52	20.00000000	-10.00000000	-100.00000000	2.35998606	2.98905245	43.89458077
 53	20.00000000	0.00000000	-100.00000000	2.88204493	2.98905245	43.89458077
 54	20.00000000	10.00000000	-100.00000000	3.47591960	2.98905245	43.89458077
 55	20.00000000	20.00000000	-100.00000000	4.14623885	2.98905245	43.89458077
 56	20.00000000	30.00000000	-100.00000000	4.89763073	2.98905245	43.89458077
 57	20.00000000	40.00000000	-100.00000000	5.73472310	2.98905245	43.89458077
 58	20.00000000	50.00000000	-100.00000000	6.66214493	2.98905245	43.89458077
 59	20.00000000	60.00000000	-100.00000000	7.68452333	2.98905245	43.89458077
 60	20.00000000	70.00000000	-100.00000000	8.80648690	2.98905245	43.89458077
 61	20.00000000	80.00000000	-100.00000000	10.03266389	2.98905245	43.89458077
 62	20.00000000	90.00000000	-100.00000000	11.36768251	2.98905245	43.89458077
 63	20.00000000	100.00000000	-100.00000000	12.81617099	2.98905245	43.89458077
 64	30.00000000	-100.00000000	-100.00000000	0.72584833	6.23590595	59.44664964
 65	30.00000000	-90.00000000	-100.00000000	0.97915657	6.23590595	59.44664964
 66	30.00000000	-80.00000000	-100.00000000	1.27627877	6.23590595	59.44664964
 67	30.00000000	-70.00000000	-100.00000000	1.62814085	6.23590595	59.44664964
 68	30.00000000	-60.00000000	-100.00000000	2.03937142	6.23590595	59.44664964
 69	30.00000000	-50.00000000	-100.00000000	2.51459796	6.23590595	59.44664964
 70	30.00000000	-40.00000000	-100.00000000	3.05844889	6.23590595	59.44664964
 71	30.00000000	-30.00000000	-100.00000000	3.67555262	6.23590595	59.44664964
 72	30.00000000	-20.00000000	-100.00000000	4.37053702	6.23590595	59.44664964
 73	30.00000000	-10.00000000	-100.00000000	5.14803012	6.23590595	59.44664964
 74	30.00000000	0.00000000	-100.00000000	6.01266128	6.23590595	59.44664964
 75	30.00000000	10.00000000	-100.00000000	6.96905723	6.23590595	59.44664964
 76	30.00000000	20.00000000	-100.00000000	8.02184620	6.23590595	59.44664964
 77	30.00000000	30.00000000	-100.00000000	9.17565680	6.23590595	59.44664964
 78	30.00000000	40.00000000	-100.00000000	10.43511725	6.23590595	59.44664964
 79	30.00000000	50.00000000	-100.00000000	11.80485504	6.23590595	59.44664964
 80	30.00000000	60.00000000	-100.00000000	13.28949915	6.23590595	59.44664964
 81	30.00000000	70.00000000	-100.00000000	14.89367707	6.23590595	59.44664964
 82	30.00000000	80.00000000	-100.00000000	16.62201850	6.23590595	59.44664964
 83	30.00000000	90.00000000	-100.00000000	18.47915019	6.23590595	59.44664964
 84	30.00000000	100.00000000	-100.00000000	20.46970038	6.23590595	59.44664964
 85	40.00000000	-100.00000000	-100.00000000	2.17979037	11.25097392	78.29642032
 86	40.00000000	-90.00000000	-100.00000000	2.67581899	11.25097392	78.29642032
 87	40.00000000	-80.00000000	-100.00000000	3.24190826	11.25097392	78.29642032
 88	40.00000000	-70.00000000	-100.00000000	3.88268641	11.25097392	78.29642032
 89	40.00000000	-60.00000000	-100.00000000	4.60278186	11.25097392	78.29642032
 90	40.00000000	-50.00000000	-100.00000000	5.40682246	11.25097392	78.29642032
 91	40.00000000	-40.00000000	-100.00000000	6.29943608	11.25097392	78.29642032
 92	40.00000000	-30.00000000	-100.00000000	7.28525206	11.25097392	78.29642032
 93	40.00000000	-20.00000000	-100.00000000	8.36889714	11.25097392	78.29642032
 94	40.00000000	-10.00000000	-100.00000000	9.55500030	11.25097392	78.29642032
 95	40.00000000	0.00000000	-100.00000000	10.84819051	11.25097392	78.29642032
 96	40.00000000	10.00000000	-100.00000000	12.25309376	11.25097392	78.29642032
 97	40.00000000	20.00000000	-100.00000000	13.77433978	11.25097392	78.29642032
 98	40.00000000	30.00000000	-100.00000000	15.41655530	11.25097392	78.29642032
 99	40.00000000	40.00000000	-100.00000000	17.18437080	11.25097392	78.29642032
 100	40.00000000	50.00000000	-100.00000000	19.08241301	11.25097392	78.29642032
 101	40.00000000	60.00000000	-100.00000000	21.11530867	11.25097392	78.29642032
 102	40.00000000	70.00000000	-100.00000000	23.28768899	11.25097392	78.29642032
 103	40.00000000	80.00000000	-100.00000000	25.60417922	11.25097392	78.29642032
 104	40.00000000	90.00000000	-100.00000000	28.06941057	11.25097392	78.29642032
 105	40.00000000	100.00000000	-100.00000000	30.68800829	11.25097392	78.29642032
 106	50.00000000	-100.00000000	-100.00000000	4.84311157	18.41865240	100.76098471
 107	50.00000000	-90.00000000	-100.00000000	5.67414522	18.41865240	100.76098471
 108	50.00000000	-80.00000000	-100.00000000	6.59518833	18.41865240	100.76098471
 109	50.00000000	-70.00000000	-100.00000000	7.61086950	18.41865240	100.76098471
 110	50.00000000	-60.00000000	-100.00000000	8.72581697	18.41865240	100.76098471
 111	50.00000000	-50.00000000	-100.00000000	9.94465823	18.41865240	100.76098471
 112	50.00000000	-40.00000000	-100.00000000	11.27202224	18.41865240	100.76098471
 113	50.00000000	-30.00000000	-100.00000000	12.71253649	18.41865240	100.76098471
 114	50.00000000	-20.00000000	-100.00000000	14.27082995	18.41865240	100.76098471
 115	50.00000000	-10.00000000	-100.00000000	15.95152863	18.41865240	100.76098471
 116	50.00000000	0.00000000	-100.00000000	17.75926522	18.41865240	100.76098471
 117	50.00000000	10.00000000	-100.00000000	19.69866348	18.41865240	100.76098471
 118	50.00000000	20.00000000	-100.00000000	21.77435313	18.41865240	100.76098471
 119	50.00000000	30.00000000	-100.00000000	23.99096240	18.41865240	100.76098471
 120	50.00000000	40.00000000	-100.00000000	26.35311803	18.41865240	100.76098471
 121	50.00000000	50.00000000	-100.00000000	28.86545124	18.41865240	100.76098471
 122	50.00000000	60.00000000	-100.00000000	31.53258726	18.41865240	100.76098471
 123	50.00000000	70.00000000	-100.00000000	34.35915434	18.41865240	100.76098471
 124	50.00000000	80.00000000	-100.00000000	37.34978368	18.41865240	100.76098471
 125	50.00000000	90.00000000	-100.00000000	40.50910053	18.41865240	100.76098471
 126	50.00000000	100.00000000	-100.00000000	43.84173312	18.41865240	100.76098471
 127	60.00000000	-100.00000000	-100.00000000	9.09274427	28.12333705	127.15742869
 128	60.00000000	-90.00000000	-100.00000000	10.34476991	28.12333705	127.15742869
 129	60.00000000	-80.00000000	-100.00000000	11.70675475	28.12333705	127.15742869
 130	60.00000000	-70.00000000	-100.00000000	13.18332553	28.12333705	127.15742869
 131	60.00000000	-60.00000000	-100.00000000	14.77911273	28.12333705	127.15742869
 132	60.00000000	-50.00000000	-100.00000000	16.49874158	28.12333705	127.15742869
 133	60.00000000	-40.00000000	-100.00000000	18.34684182	28.12333705	127.15742869
 134	60.00000000	-30.00000000	-100.00000000	20.32804316	28.12333705	127.15742869
 135	60.00000000	-20.00000000	-100.00000000	22.44697085	28.12333705	127.15742869
 136	60.00000000	-10.00000000	-100.00000000	24.70825461	28.12333705	127.15742869
 137	60.00000000	0.00000000	-100.00000000	27.11652267	28.12333705	127.15742869
 138	60.00000000	10.00000000	-100.00000000	29.67640178	28.12333705	127.15742869
 139	60.00000000	20.00000000	-100.00000000	32.39252313	28.12333705	127.15742869
 140	60.00000000	30.00000000	-100.00000000	35.26951199	28.12333705	127.15742869
 141	60.00000000	40.00000000	-100.00000000	38.31199658	28.12333705	127.15742869
 142	60.00000000	50.00000000	-100.00000000	41.52460811	28.12333705	127.15742869
 143	60.00000000	60.00000000	-100.00000000	44.91196885	28.12333705	127.15742869
 144	60.00000000	70.00000000	-100.00000000	48.47871299	28.12333705	127.15742869
 145	60.00000000	80.00000000	-100.00000000	52.22946579	28.12333705	127.15742869
 146	60.00000000	90.00000000	-100.00000000	56.16885546	28.12333705	127.15742869
 147	60.00000000	100.00000000	-100.00000000	60.30151621	28.12333705	127.15742869
 148	70.00000000	-100.00000000	-100.00000000	15.29931774	40.74941385	157.80283224
 149	70.00000000	-90.00000000	-100.00000000	17.05832231	40.74941385	157.80283224
 150	70.00000000	-80.00000000	-100.00000000	18.94723472	40.74941385	157.80283224
 151	70.00000000	-70.00000000	-100.00000000	20.97068169	40.74941385	157.80283224
 152	70.00000000	-60.00000000	-100.00000000	23.13329445	40.74941385	157.80283224
 153	70.00000000	-50.00000000	-100.00000000	25.43969973	40.74941385	157.80283224
 154	70.00000000	-40.00000000	-100.00000000	27.89452129	40.74941385	157.80283224
 155	70.00000000	-30.00000000	-100.00000000	30.50239630	40.74941385	157.80283224
 156	70.00000000	-20.00000000	-100.00000000	33.26794405	40.74941385	157.80283224
 157	70.00000000	-10.00000000	-100.00000000	36.19579874	40.74941385	157.80283224
 158	70.00000000	0.00000000	-100.00000000	39.29058858	40.74941385	157.80283224
 159	70.00000000	10.00000000	-100.00000000	42.55693586	40.74941385	157.80283224
 160	70.00000000	20.00000000	-100.00000000	45.99947178	40.74941385	157.80283224
 161	70.00000000	30.00000000	-100.00000000	49.62282755	40.74941385	157.80283224
 162	70.00000000	40.00000000	-100.00000000	53.43162544	40.74941385	157.80283224
 163	70.00000000	50.00000000	-100.00000000	57.43049965	40.74941385	157.80283224
 164	70.00000000	60.00000000	-100.00000000	61.62407541	40.74941385	157.80283224
 165	70.00000000	70.00000000	-100.00000000	66.01698395	40.74941385	157.80283224
 166	70.00000000	80.00000000	-100.00000000	70.61385051	40.74941385	157.80283224
 167	70.00000000	90.00000000	-100.00000000	75.41930034	40.74941385	157.80283224
 168	70.00000000	100.00000000	-100.00000000	80.43796465	40.74941385	157.80283224
 169	80.00000000	-100.00000000	-100.00000000	23.83347294	56.68129262	193.01431105
 170	80.00000000	-90.00000000	-100.00000000	26.18544378	56.68129262	193.01431105
 171	80.00000000	-80.00000000	-100.00000000	28.68726885	56.68129262	193.01431105
 172	80.00000000	-70.00000000	-100.00000000	31.34358084	56.68129262	193.01431105
 173	80.00000000	-60.00000000	-100.00000000	34.15900798	56.68129262	193.01431105
 174	80.00000000	-50.00000000	-100.00000000	37.13817254	56.68129262	193.01431105
 175	80.00000000	-40.00000000	-100.00000000	40.28570871	56.68129262	193.01431105
 176	80.00000000	-30.00000000	-100.00000000	43.60623876	56.68129262	193.01431105
 177	80.00000000	-20.00000000	-100.00000000	47.10439689	56.68129262	193.01431105
 178	80.00000000	-10.00000000	-100.00000000	50.78480833	56.68129262	193.01431105
 179	80.00000000	0.00000000	-100.00000000	54.65210729	56.68129262	193.01431105
 180	80.00000000	10.00000000	-100.00000000	58.71090709	56.68129262	193.01431105
 181	80.00000000	20.00000000	-100.00000000	62.96585086	56.68129262	193.01431105
 182	80.00000000	30.00000000	-100.00000000	67.42155789	56.68129262	193.01431105
 183	80.00000000	40.00000000	-100.00000000	72.08265940	56.68129262	193.01431105
 184	80.00000000	50.00000000	-100.00000000	76.95378658	56.68129262	193.01431105
 185	80.00000000	60.00000000	-100.00000000	82.03956470	56.68129262	193.01431105
 186	80.00000000	70.00000000	-100.00000000	87.34461900	56.68129262	193.01431105
 187	80.00000000	80.00000000	-100.00000000	92.87358069	56.68129262	193.01431105
 188	80.00000000	90.00000000	-100.00000000	98.63108099	56.68129262	193.01431105
 189	80.00000000	100.00000000	-100.00000000	104.62174513	56.68129262	193.01431105
 190	90.00000000	-100.00000000	-100.00000000	35.06583113	76.30334890	233.10889740
 191	90.00000000	-90.00000000	-100.00000000	38.09675259	76.30334890	233.10889740
 192	90.00000000	-80.00000000	-100.00000000	41.29748211	76.30334890	233.10889740
 193	90.00000000	-70.00000000	-100.00000000	44.67264495	76.30334890	233.10889740
 194	90.00000000	-60.00000000	-100.00000000	48.22686933	76.30334890	233.10889740
 195	90.00000000	-50.00000000	-100.00000000	51.96478348	76.30334890	233.10889740
 196	90.00000000	-40.00000000	-100.00000000	55.89101265	76.30334890	233.10889740
 197	90.00000000	-30.00000000	-100.00000000	60.01019103	76.30334890	233.10889740
 198	90.00000000	-20.00000000	-100.00000000	64.32694388	76.30334890	233.10889740
 199	90.00000000	-10.00000000	-100.00000000	68.84590239	76.30334890	233.10889740
 200	90.00000000	0.00000000	-100.00000000	73.57169183	76.30334890	233.10889740
 201	90.00000000	10.00000000	-100.00000000	78.50893744	76.30334890	233.10889740
 202	90.00000000	20.00000000	-100.00000000	83.66227043	76.30334890	233.10889740
 203	90.00000000	30.00000000	-100.00000000	89.03632202	76.30334890	233.10889740
 204	90.00000000	40.00000000	-100.00000000	94.63571148	76.30334890	233.10889740
 205	90.00000000	50.00000000	-100.00000000	100.46507600	76.30334890	233.10889740
 206	90.00000000	60.00000000	-100.00000000	106.52904082	76.30334890	233.10889740
 207	90.00000000	70.00000000	-100.00000000	112.83223119	76.30334890	233.10889740
 208	90.00000000	80.00000000	-100.00000000	119.37927237	76.30334890	233.10889740
 209	90.00000000	90.00000000	-100.00000000	126.17480151	76.30334890	233.10889740
 210	90.00000000	100.00000000	-100.00000000	133.22345580	76.30334890	233.10889740
 211	100.00000000	-100.00000000	-100.00000000	49.36704110	99.99999998	278.40375468
 212	100.00000000	-90.00000000	-100.00000000	53.16290200	99.99999998	278.40375468
 213	100.00000000	-80.00000000	-100.00000000	57.14852034	99.99999998	278.40375468
 214	100.00000000	-70.00000000	-100.00000000	61.32851837	99.99999998	278.40375468
 215	100.00000000	-60.00000000	-100.00000000	65.70753328	99.99999998	278.40375468
 216	100.00000000	-50.00000000	-100.00000000	70.29018435	99.99999998	278.40375468
 217	100.00000000	-40.00000000	-100.00000000	75.08109682	99.99999998	278.40375468
 218	100.00000000	-30.00000000	-100.00000000	80.08490789	99.99999998	278.40375468
 219	100.00000000	-20.00000000	-100.00000000	85.30624278	99.99999998	278.40375468
 220	100.00000000	-10.00000000	-100.00000000	90.74973272	99.99999998	278.40375468
 221	100.00000000	0.00000000	-100.00000000	96.42000294	99.99999998	278.40375468
 222	100.00000000	10.00000000	-100.00000000	102.32168467	99.99999998	278.40375468
 223	100.00000000	20.00000000	-100.00000000	108.45939123	99.99999998	278.40375468
 224	100.00000000	30.00000000	-100.00000000	114.83776576	99.99999998	278.40375468
 225	100.00000000	40.00000000	-100.00000000	121.46143349	99.99999998	278.40375468
 226	100.00000000	50.00000000	-100.00000000	128.33501969	99.99999998	278.40375468
 227	100.00000000	60.00000000	-100.00000000	135.46316152	99.99999998	278.40375468
 228	100.00000000	70.00000000	-100.00000000	142.85047231	99.99999998	278.40375468
 229	100.00000000	80.00000000	-100.00000000	150.50158924	99.99999998	278.40375468
 230	100.00000000	90.00000000	-100.00000000	158.42114947	99.99999998	278.40375468
 231	100.00000000	100.00000000	-100.00000000	166.61376633	99.99999998	278.40375468
 232	0.00000000	-100.00000000	-90.00000000	-2.47642326	0.00000000	16.76410784
 233	0.00000000	-90.00000000	-90.00000000	-2.22878091	0.00000000	16.76410784
 234	0.00000000	-80.00000000	-90.00000000	-1.98113857	0.00000000	16.76410784
 235	0.00000000	-70.00000000	-90.00000000	-1.73349622	0.00000000	16.76410784
 236	0.00000000	-60.00000000	-90.00000000	-1.48585388	0.00000000	16.76410784
 237	0.00000000	-50.00000000	-90.00000000	-1.23821154	0.00000000	16.76410784
 238	0.00000000	-40.00000000	-90.00000000	-0.99056928	0.00000000	16.76410784
 239	0.00000000	-30.00000000	-90.00000000	-0.74292694	0.00000000	16.76410784
 240	0.00000000	-20.00000000	-90.00000000	-0.49528464	0.00000000	16.76410784
 241	0.00000000	-10.00000000	-90.00000000	-0.24764232	0.00000000	16.76410784
 242	0.00000000	0.00000000	-90.00000000	0.00000019	0.00000000	16.76410784
 243	0.00000000	10.00000000	-90.00000000	0.24764251	0.00000000	16.76410784
 244	0.00000000	20.00000000	-90.00000000	0.49528483	0.00000000	16.76410784
 245	0.00000000	30.00000000	-90.00000000	0.74292713	0.00000000	16.76410784
 246	0.00000000	40.00000000	-90.00000000	0.99798594	0.00000000	16.76410784
 247	0.00000000	50.00000000	-90.00000000	1.29873475	0.00000000	16.76410784
 248	0.00000000	60.00000000	-90.00000000	1.65454270	0.00000000	16.76410784
 249	0.00000000	70.00000000	-90.00000000	2.07003791	0.00000000	16.76410784
 250	0.00000000	80.00000000	-90.00000000	2.54984854	0.00000000	16.76410784
 251	0.00000000	90.00000000	-90.00000000	3.09860281	0.00000000	16.76410784
 252	0.00000000	100.00000000	-90.00000000	3.72092895	0.00000000	16.76410784
 253	10.00000000	-100.00000000	-90.00000000	-1.40899943	1.12601998	25.27246357
 254	10.00000000	-90.00000000	-90.00000000	-1.16135708	1.12601998	25.27246357
 255	10.00000000	-80.00000000	-90.00000000	-0.91371474	1.12601998	25.27246357
 256	10.00000000	-70.00000000	-90.00000000	-0.66607244	1.12601998	25.27246357
 257	10.00000000	-60.00000000	-90.00000000	-0.41843005	1.12601998	25.27246357
 258	10.00000000	-50.00000000	-90.00000000	-0.17078773	1.12601998	25.27246357
 259	10.00000000	-40.00000000	-90.00000000	0.07685459	1.12601998	25.27246357
 260	10.00000000	-30.00000000	-90.00000000	0.32449691	1.12601998	25.27246357
 261	10.00000000	-20.00000000	-90.00000000	0.57213924	1.12601998	25.27246357
 262	10.00000000	-10.00000000	-90.00000000	0.81978158	1.12601998	25.27246357
 263	10.00000000	0.00000000	-90.00000000	1.08570867	1.12601998	25.27246357
 264	10.00000000	10.00000000	-90.00000000	1.40304948	1.12601998	25.27246357
 265	10.00000000	20.00000000	-90.00000000	1.77688569	1.12601998	25.27246357
 266	10.00000000	30.00000000	-90.00000000	2.21184563	1.12601998	25.27246357
 267	10.00000000	40.00000000	-90.00000000	2.71255742	1.12601998	25.27246357
 268	10.00000000	50.00000000	-90.00000000	3.28364912	1.12601998	25.27246357
 269	10.00000000	60.00000000	-90.00000000	3.92974877	1.12601998	25.27246357
 270	10.00000000	70.00000000	-90.00000000	4.65548497	1.12601998	25.27246357
 271	10.00000000	80.00000000	-90.00000000	5.46548520	1.12601998	25.27246357
 272	10.00000000	90.00000000	-90.00000000	6.36437808	1.12601998	25.27246357
 273	10.00000000	100.00000000	-90.00000000	7.35679219	1.12601998	25.27246357
 274	20.00000000	-100.00000000	-90.00000000	-0.34157560	2.98905245	36.26044197
 275	20.00000000	-90.00000000	-90.00000000	-0.09393323	2.98905245	36.26044197
 276	20.00000000	-80.00000000	-90.00000000	0.15370909	2.98905245	36.26044197
 277	20.00000000	-70.00000000	-90.00000000	0.40135139	2.98905245	36.26044197
 278	20.00000000	-60.00000000	-90.00000000	0.64899383	2.98905245	36.26044197
 279	20.00000000	-50.00000000	-90.00000000	0.89735174	2.98905245	36.26044197
 280	20.00000000	-40.00000000	-90.00000000	1.17842666	2.98905245	36.26044197
 281	20.00000000	-30.00000000	-90.00000000	1.51280529	2.98905245	36.26044197
 282	20.00000000	-20.00000000	-90.00000000	1.90511568	2.98905245	36.26044197
 283	20.00000000	-10.00000000	-90.00000000	2.35998606	2.98905245	36.26044197
 284	20.00000000	0.00000000	-90.00000000	2.88204493	2.98905245	36.26044197
 285	20.00000000	10.00000000	-90.00000000	3.47591960	2.98905245	36.26044197
 286	20.00000000	20.00000000	-90.00000000	4.14623885	2.98905245	36.26044197
 287	20.00000000	30.00000000	-90.00000000	4.89763073	2.98905245	36.26044197
 288	20.00000000	40.00000000	-90.00000000	5.73472310	2.98905245	36.26044197
 289	20.00000000	50.00000000	-90.00000000	6.66214493	2.98905245	36.26044197
 290	20.00000000	60.00000000	-90.00000000	7.68452333	2.98905245	36.26044197
 291	20.00000000	70.00000000	-90.00000000	8.80648690	2.98905245	36.26044197
 292	20.00000000	80.00000000	-90.00000000	10.03266389	2.98905245	36.26044197
 293	20.00000000	90.00000000	-90.00000000	11.36768251	2.98905245	36.26044197
 294	20.00000000	100.00000000	-90.00000000	12.81617099	2.98905245	36.26044197
 295	30.00000000	-100.00000000	-90.00000000	0.72584833	6.23590595	50.04512598
 296	30.00000000	-90.00000000	-90.00000000	0.97915657	6.23590595	50.04512598
 297	30.00000000	-80.00000000	-90.00000000	1.27627877	6.23590595	50.04512598
 298	30.00000000	-70.00000000	-90.00000000	1.62814085	6.23590595	50.04512598
 299	30.00000000	-60.00000000	-90.00000000	2.03937142	6.23590595	50.04512598
 300	30.00000000	-50.00000000	-90.00000000	2.51459796	6.23590595	50.04512598
 301	30.00000000	-40.00000000	-90.00000000	3.05844889	6.23590595	50.04512598
 302	30.00000000	-30.00000000	-90.00000000	3.67555262	6.23590595	50.04512598
 303	30.00000000	-20.00000000	-90.00000000	4.37053702	6.23590595	50.04512598
