bench/lcms_compat/reference/AdobeRGB1998.icc_to_srgb_Relative.it8
CGATS.17
ORIGINATOR	"icctrans"
#
# Data follows
#
NUMBER_OF_SETS	9261.00000000
NUMBER_OF_FIELDS	7.00000000
BEGIN_DATA_FORMAT
 SAMPLE_ID	IN_RGB_R	IN_RGB_G	IN_RGB_B	OUT_RGB_R	OUT_RGB_G	OUT_RGB_B
END_DATA_FORMAT
BEGIN_DATA
 0	0.00000000	0.00000000	0.00000000	0.00000000	0.00000000	0.00000000
 1	0.00000000	0.00000000	13.00000000	-0.00007685	0.00005192	4.93580832
 2	0.00000000	0.00000000	26.00000000	-0.00035291	0.00023844	19.76490542
 3	0.00000000	0.00000000	38.00000000	-0.00081305	0.00054934	33.81700739
 4	0.00000000	0.00000000	51.00000000	-0.00155292	0.00104923	48.62275332
 5	0.00000000	0.00000000	64.00000000	-0.00255867	0.00172876	63.11253101
 6	0.00000000	0.00000000	77.00000000	-0.00384269	0.00259631	77.35639349
 7	0.00000000	0.00000000	89.00000000	-0.00528403	0.00357014	90.32559916
 8	0.00000000	0.00000000	102.00000000	-0.00713151	0.00481838	104.21152845
 9	0.00000000	0.00000000	115.00000000	-0.00928443	0.00627300	117.94976726
 10	0.00000000	0.00000000	128.00000000	-0.01175021	0.00793900	131.55841023
 11	0.00000000	0.00000000	140.00000000	-0.01430985	0.00966841	144.01757687
 12	0.00000000	0.00000000	153.00000000	-0.01739580	0.01175342	157.41468519
 13	0.00000000	0.00000000	166.00000000	-0.02081294	0.01406220	170.71675301
 14	0.00000000	0.00000000	179.00000000	-0.02456669	0.01659841	183.93188149
 15	0.00000000	0.00000000	191.00000000	-0.02833488	0.01914438	196.05920434
 16	0.00000000	0.00000000	204.00000000	-0.03275005	0.02212748	209.12548721
 17	0.00000000	0.00000000	217.00000000	-0.03751597	0.02534755	222.12223381
 18	0.00000000	0.00000000	230.00000000	-0.04263696	0.02880753	235.05397350
 19	0.00000000	0.00000000	242.00000000	-0.04768278	0.03221672	246.93671107
 20	0.00000000	0.00000000	255.00000000	-0.05349810	0.03614583	259.75421369
 21	0.00000000	13.00000000	0.00000000	-1.88515342	4.73254345	-0.20320808
 22	0.00000000	13.00000000	13.00000000	-1.88523036	4.73259570	4.73260045
 23	0.00000000	13.00000000	26.00000000	-1.88550644	4.73278189	19.63835511
 24	0.00000000	13.00000000	38.00000000	-1.88596657	4.73309300	33.73935096
 25	0.00000000	13.00000000	51.00000000	-1.88670635	4.73359267	48.56953718
 26	0.00000000	13.00000000	64.00000000	-1.88771222	4.73427236	63.07277374
 27	0.00000000	13.00000000	77.00000000	-1.88899608	4.73513966	77.32502997
 28	0.00000000	13.00000000	89.00000000	-1.89043751	4.73611384	90.29956296
 29	0.00000000	13.00000000	102.00000000	-1.89228504	4.73736207	104.18967202
 30	0.00000000	13.00000000	115.00000000	-1.89443786	4.73881644	117.93102667
 31	0.00000000	13.00000000	128.00000000	-1.89690358	4.74048265	131.54207110
 32	0.00000000	13.00000000	140.00000000	-1.89946333	4.74221203	144.00301605
 33	0.00000000	13.00000000	153.00000000	-1.90254936	4.74429717	157.40168989
 34	0.00000000	13.00000000	166.00000000	-1.90596645	4.74660602	170.70506483
 35	0.00000000	13.00000000	179.00000000	-1.90972017	4.74914191	183.92125726
 36	0.00000000	13.00000000	191.00000000	-1.91348838	4.75168825	196.04943126
 37	0.00000000	13.00000000	204.00000000	-1.91790350	4.75467109	209.11650449
 38	0.00000000	13.00000000	217.00000000	-1.92266940	4.75789142	222.11393505
 39	0.00000000	13.00000000	230.00000000	-1.92779046	4.76135113	235.04626751
 40	0.00000000	13.00000000	242.00000000	-1.93283635	4.76476050	246.92949146
 41	0.00000000	13.00000000	255.00000000	-1.93865158	4.76868949	259.74746525
 42	0.00000000	26.00000000	0.00000000	-8.65720181	19.17798322	-0.93319365
 43	0.00000000	26.00000000	13.00000000	-8.65727875	19.17801742	4.00261450
 44	0.00000000	26.00000000	26.00000000	-8.65755424	19.17813711	19.17815041
 45	0.00000000	26.00000000	38.00000000	-8.65801496	19.17833280	33.45890701
 46	0.00000000	26.00000000	51.00000000	-8.65875402	19.17865198	48.37785646
 47	0.00000000	26.00000000	64.00000000	-8.65976002	19.17908516	62.92971522
 48	0.00000000	26.00000000	77.00000000	-8.66104435	19.17963803	77.21226722
 49	0.00000000	26.00000000	89.00000000	-8.66248542	19.18025550	90.20595118
 50	0.00000000	26.00000000	102.00000000	-8.66433308	19.18105155	104.11109224
 51	0.00000000	26.00000000	115.00000000	-8.66648566	19.18197680	117.86367148
 52	0.00000000	26.00000000	128.00000000	-8.66895173	19.18303695	131.48337185
 53	0.00000000	26.00000000	140.00000000	-8.67151184	19.18413699	143.95070046
 54	0.00000000	26.00000000	153.00000000	-8.67459727	19.18546502	157.35499799
 55	0.00000000	26.00000000	166.00000000	-8.67801424	19.18693364	170.66300869
 56	0.00000000	26.00000000	179.00000000	-8.68176844	19.18854665	183.88309211
 57	0.00000000	26.00000000	191.00000000	-8.68553594	19.19016726	196.01432115
 58	0.00000000	26.00000000	204.00000000	-8.68995130	19.19206526	209.08423662
 59	0.00000000	26.00000000	217.00000000	-8.69471719	19.19411335	222.08412945
 60	0.00000000	26.00000000	230.00000000	-8.69983837	19.19631343	235.01860499
 61	0.00000000	26.00000000	242.00000000	-8.70488450	19.19848312	246.90357685
 62	0.00000000	26.00000000	255.00000000	-8.71069914	19.20098148	259.72323775
 63	0.00000000	38.00000000	0.00000000	-19.94487707	32.98600718	-2.14993627
 64	0.00000000	38.00000000	13.00000000	-19.94495306	32.98602618	2.78587205
 65	0.00000000	38.00000000	26.00000000	-19.94522855	32.98609838	18.39058947
 66	0.00000000	38.00000000	38.00000000	-19.94569022	32.98621997	32.98623897
 67	0.00000000	38.00000000	51.00000000	-19.94642928	32.98641756	48.05651151
 68	0.00000000	38.00000000	64.00000000	-19.94743623	32.98667975	62.69043826
 69	0.00000000	38.00000000	77.00000000	-19.94871866	32.98702173	77.02386573
 70	0.00000000	38.00000000	89.00000000	-19.95016068	32.98740171	90.04965797
 71	0.00000000	38.00000000	102.00000000	-19.95200738	32.98789188	103.97996888
 72	0.00000000	38.00000000	115.00000000	-19.95416187	32.98845805	117.75129631
 73	0.00000000	38.00000000	128.00000000	-19.95662604	32.98911162	131.38545871
 74	0.00000000	38.00000000	140.00000000	-19.95918520	32.98978798	143.86344194
 75	0.00000000	38.00000000	153.00000000	-19.96227253	32.99060114	157.27714777
 76	0.00000000	38.00000000	166.00000000	-19.96568855	32.99150549	170.59291005
 77	0.00000000	38.00000000	179.00000000	-19.96944275	32.99249724	183.81945312
 78	0.00000000	38.00000000	191.00000000	-19.97321025	32.99349278	195.95577389
 79	0.00000000	38.00000000	204.00000000	-19.97762561	32.99465932	209.03041631
 80	0.00000000	38.00000000	217.00000000	-19.98239055	32.99592085	222.03442812
 81	0.00000000	38.00000000	230.00000000	-19.98751268	32.99727358	234.97247547
 82	0.00000000	38.00000000	242.00000000	-19.99255881	32.99860731	246.86036557
 83	0.00000000	38.00000000	255.00000000	-19.99837440	33.00014243	259.68283832
 84	0.00000000	51.00000000	0.00000000	-38.09447207	47.53457531	-4.10635225
 85	0.00000000	51.00000000	13.00000000	-38.09454806	47.53459051	0.82945601
 86	0.00000000	51.00000000	26.00000000	-38.09482545	47.53463991	17.06491090
 87	0.00000000	51.00000000	38.00000000	-38.09528522	47.53472351	32.21196972
 88	0.00000000	51.00000000	51.00000000	-38.09602618	47.53486030	47.53488310
 89	0.00000000	51.00000000	64.00000000	-38.09703313	47.53504269	62.30349362
 90	0.00000000	51.00000000	77.00000000	-38.09831366	47.53527448	76.71979085
 91	0.00000000	51.00000000	89.00000000	-38.09975758	47.53553666	89.79765549
 92	0.00000000	51.00000000	102.00000000	-38.10160428	47.53586724	103.76870021
 93	0.00000000	51.00000000	115.00000000	-38.10375877	47.53625862	117.57033482
 94	0.00000000	51.00000000	128.00000000	-38.10622104	47.53670700	131.22782797
 95	0.00000000	51.00000000	140.00000000	-38.10878210	47.53717057	143.72298628
 96	0.00000000	51.00000000	153.00000000	-38.11186753	47.53772914	157.15186089
 97	0.00000000	51.00000000	166.00000000	-38.11528355	47.53834851	170.48008651
 98	0.00000000	51.00000000	179.00000000	-38.11903775	47.53902867	183.71705621
 99	0.00000000	51.00000000	191.00000000	-38.12280715	47.53971264	195.86156934
 100	0.00000000	51.00000000	204.00000000	-38.12722251	47.54051059	208.94387215
 101	0.00000000	51.00000000	217.00000000	-38.13198745	47.54137695	221.95446521
 102	0.00000000	51.00000000	230.00000000	-38.13710958	47.54230410	234.89828825
 103	0.00000000	51.00000000	242.00000000	-38.14215571	47.54321605	246.79085970
 104	0.00000000	51.00000000	255.00000000	-38.14796939	47.54426859	259.61781621
 105	0.00000000	64.00000000	0.00000000	-62.76629739	61.77266970	-6.76582527
 106	0.00000000	64.00000000	13.00000000	-62.76637718	61.77268110	-1.83001695
 107	0.00000000	64.00000000	26.00000000	-62.76665457	61.77271910	15.12470081
 108	0.00000000	64.00000000	38.00000000	-62.76711434	61.77278370	31.12940781
 109	0.00000000	64.00000000	51.00000000	-62.76785150	61.77288249	46.81572229
 110	0.00000000	64.00000000	64.00000000	-62.76885845	61.77301928	61.77304968
 111	0.00000000	64.00000000	77.00000000	-62.77013898	61.77319407	76.30414635
 112	0.00000000	64.00000000	89.00000000	-62.77158290	61.77338786	89.45371315
 113	0.00000000	64.00000000	102.00000000	-62.77342960	61.77363865	103.48066047
 114	0.00000000	64.00000000	115.00000000	-62.77558409	61.77392744	117.32377365
 115	0.00000000	64.00000000	128.00000000	-62.77805015	61.77426182	131.01316988
 116	0.00000000	64.00000000	140.00000000	-62.78060742	61.77461140	143.53178054
 117	0.00000000	64.00000000	153.00000000	-62.78369665	61.77502938	156.98134124
 118	0.00000000	64.00000000	166.00000000	-62.78711267	61.77548915	170.32657474
 119	0.00000000	64.00000000	179.00000000	-62.79086307	61.77599832	183.57777089
 120	0.00000000	64.00000000	191.00000000	-62.79463626	61.77650750	195.73342502
 121	0.00000000	64.00000000	204.00000000	-62.79904783	61.77710786	208.82613927
 122	0.00000000	64.00000000	217.00000000	-62.80381657	61.77775003	221.84573025
 123	0.00000000	64.00000000	230.00000000	-62.80893490	61.77844539	234.79738086
 124	0.00000000	64.00000000	242.00000000	-62.81398103	61.77912936	246.69633597
 125	0.00000000	64.00000000	255.00000000	-62.81979851	61.77991591	259.52944815
 126	0.00000000	77.00000000	0.00000000	-94.26433101	75.76911986	-10.16112121
 127	0.00000000	77.00000000	13.00000000	-94.26440701	75.76912746	-5.22531336
 128	0.00000000	77.00000000	26.00000000	-94.26468819	75.76915786	12.34855648
 129	0.00000000	77.00000000	38.00000000	-94.26514417	75.76921105	29.69216723
 130	0.00000000	77.00000000	51.00000000	-94.26588133	75.76928705	45.87991610
 131	0.00000000	77.00000000	64.00000000	-94.26689208	75.76939344	61.08819723
 132	0.00000000	77.00000000	77.00000000	-94.26816881	75.76953024	75.76956823
 133	0.00000000	77.00000000	89.00000000	-94.26961273	75.76968223	89.01227564
 134	0.00000000	77.00000000	102.00000000	-94.27145943	75.76987982	103.11147228
 135	0.00000000	77.00000000	115.00000000	-94.27361771	75.77011541	117.00805619
 136	0.00000000	77.00000000	128.00000000	-94.27607998	75.77037379	130.73845983
 137	0.00000000	77.00000000	140.00000000	-94.27864105	75.77064738	143.28719527
 138	0.00000000	77.00000000	153.00000000	-94.28172648	75.77097416	156.76330894
 139	0.00000000	77.00000000	166.00000000	-94.28514630	75.77133894	170.13033807
 140	0.00000000	77.00000000	179.00000000	-94.28889289	75.77174172	183.39971244
 141	0.00000000	77.00000000	191.00000000	-94.29266989	75.77214450	195.56966901
 142	0.00000000	77.00000000	204.00000000	-94.29708526	75.77261567	208.67569774
 143	0.00000000	77.00000000	217.00000000	-94.30185020	75.77312484	221.70679450
 144	0.00000000	77.00000000	230.00000000	-94.30697232	75.77367201	234.66846138
 145	0.00000000	77.00000000	242.00000000	-94.31201085	75.77421159	246.57559365
 146	0.00000000	77.00000000	255.00000000	-94.31783214	75.77483475	259.41657901
 147	0.00000000	89.00000000	0.00000000	-129.62138057	88.51305842	-13.97239650
 148	0.00000000	89.00000000	13.00000000	-129.62147176	88.51306602	-9.03658865
 149	0.00000000	89.00000000	26.00000000	-129.62174535	88.51308882	8.69434481
 150	0.00000000	89.00000000	38.00000000	-129.62220132	88.51313442	27.99571026
 151	0.00000000	89.00000000	51.00000000	-129.62294608	88.51319522	44.80446741
 152	0.00000000	89.00000000	64.00000000	-129.62394923	88.51328641	60.30887425
 153	0.00000000	89.00000000	77.00000000	-129.62522596	88.51340041	75.16413912
 154	0.00000000	89.00000000	89.00000000	-129.62666988	88.51352960	88.51356760
 155	0.00000000	89.00000000	102.00000000	-129.62850899	88.51369679	102.69511342
 156	0.00000000	89.00000000	115.00000000	-129.63068247	88.51388678	116.65238008
 157	0.00000000	89.00000000	128.00000000	-129.63314474	88.51409957	130.42923242
 158	0.00000000	89.00000000	140.00000000	-129.63569820	88.51432756	143.01201403
 159	0.00000000	89.00000000	153.00000000	-129.63878363	88.51460114	156.51808530
 160	0.00000000	89.00000000	166.00000000	-129.64220345	88.51490512	169.90972191
 161	0.00000000	89.00000000	179.00000000	-129.64595765	88.51523951	183.19958478
 162	0.00000000	89.00000000	191.00000000	-129.64972705	88.51557389	195.38563728
 163	0.00000000	89.00000000	204.00000000	-129.65415001	88.51596147	208.50665241
 164	0.00000000	89.00000000	217.00000000	-129.65890735	88.51638705	221.55071408
 165	0.00000000	89.00000000	230.00000000	-129.66402948	88.51684302	234.52365875
 166	0.00000000	89.00000000	242.00000000	-129.66906041	88.51729140	246.43997133
 167	0.00000000	89.00000000	255.00000000	-129.67488170	88.51780817	259.28978741
 168	0.00000000	102.00000000	0.00000000	-174.94147271	102.15779185	-18.85762621
 169	0.00000000	102.00000000	13.00000000	-174.94154871	102.15779185	-13.92181836
 170	0.00000000	102.00000000	26.00000000	-174.94182229	102.15781465	3.80911558
 171	0.00000000	102.00000000	38.00000000	-174.94227827	102.15785265	25.67000516
 172	0.00000000	102.00000000	51.00000000	-174.94302303	102.15790585	43.38436961
 173	0.00000000	102.00000000	64.00000000	-174.94402617	102.15798184	59.29291137
 174	0.00000000	102.00000000	77.00000000	-174.94531810	102.15807304	74.37960282
 175	0.00000000	102.00000000	89.00000000	-174.94674683	102.15818703	87.86933497
 176	0.00000000	102.00000000	102.00000000	-174.94860113	102.15832382	102.15836942
 177	0.00000000	102.00000000	115.00000000	-174.95074421	102.15848342	116.19449705
 178	0.00000000	102.00000000	128.00000000	-174.95322168	102.15866581	130.03150016
 179	0.00000000	102.00000000	140.00000000	-174.95577514	102.15885580	142.65829861
 180	0.00000000	102.00000000	153.00000000	-174.95886058	102.15908378	156.20303661
 181	0.00000000	102.00000000	166.00000000	-174.96228039	102.15934217	169.62636352
 182	0.00000000	102.00000000	179.00000000	-174.96603459	102.15961576	182.94265777
 183	0.00000000	102.00000000	191.00000000	-174.96980399	102.15989694	195.14942676
 184	0.00000000	102.00000000	204.00000000	-174.97421175	102.16023132	208.28972965
 185	0.00000000	102.00000000	217.00000000	-174.97898430	102.16058090	221.35043442
 186	0.00000000	102.00000000	230.00000000	-174.98410642	102.16096848	234.33786392
 187	0.00000000	102.00000000	242.00000000	-174.98915255	102.16134086	246.26597106
 188	0.00000000	102.00000000	255.00000000	-174.99497384	102.16177404	259.12715614
 189	0.00000000	115.00000000	0.00000000	-227.75448918	115.65739587	-24.55054723
 190	0.00000000	115.00000000	13.00000000	-227.75454998	115.65740347	-19.61473938
 191	0.00000000	115.00000000	26.00000000	-227.75482357	115.65741867	-1.88380508
 192	0.00000000	115.00000000	38.00000000	-227.75529474	115.65744907	22.69307010
 193	0.00000000	115.00000000	51.00000000	-227.75602430	115.65749466	41.66482888
 194	0.00000000	115.00000000	64.00000000	-227.75702745	115.65756306	58.08353126
 195	0.00000000	115.00000000	77.00000000	-227.75830418	115.65764666	73.45287055
 196	0.00000000	115.00000000	89.00000000	-227.75976330	115.65773025	87.11132124
 197	0.00000000	115.00000000	102.00000000	-227.76160240	115.65785185	101.52846962
 198	0.00000000	115.00000000	115.00000000	-227.76376069	115.65798864	115.65804183
 199	0.00000000	115.00000000	128.00000000	-227.76620775	115.65814823	129.56605554
 200	0.00000000	115.00000000	140.00000000	-227.76879162	115.65831542	142.24468321
 201	0.00000000	115.00000000	153.00000000	-227.77186185	115.65850541	155.83488196
 202	0.00000000	115.00000000	166.00000000	-227.77529687	115.65872580	169.29541647
 203	0.00000000	115.00000000	179.00000000	-227.77903587	115.65896899	182.64264107
 204	0.00000000	115.00000000	191.00000000	-227.78280526	115.65921217	194.87366796
 205	0.00000000	115.00000000	204.00000000	-227.78722823	115.65948576	208.03655684
 206	0.00000000	115.00000000	217.00000000	-227.79198557	115.65978974	221.11673176
 207	0.00000000	115.00000000	230.00000000	-227.79712290	115.66011652	234.12110835
 208	0.00000000	115.00000000	242.00000000	-227.80215383	115.66044331	246.06300116
 209	0.00000000	115.00000000	255.00000000	-227.80797511	115.66081569	258.93743992
 210	0.00000000	128.00000000	0.00000000	-288.24201465	129.02966112	-31.07073706
 211	0.00000000	128.00000000	13.00000000	-288.24210584	129.02967632	-26.13492921
 212	0.00000000	128.00000000	26.00000000	-288.24237943	129.02969152	-8.40399669
 213	0.00000000	128.00000000	38.00000000	-288.24283540	129.02970672	18.80372990
 214	0.00000000	128.00000000	51.00000000	-288.24359536	129.02975231	39.59930912
 215	0.00000000	128.00000000	64.00000000	-288.24459851	129.02981311	56.66256331
 216	0.00000000	128.00000000	77.00000000	-288.24587524	129.02988911	72.37429842
 217	0.00000000	128.00000000	89.00000000	-288.24733436	129.02996510	86.23326436
 218	0.00000000	128.00000000	102.00000000	-288.24915826	129.03005630	100.80107465
 219	0.00000000	128.00000000	115.00000000	-288.25131655	129.03017789	115.03979221
 220	0.00000000	128.00000000	128.00000000	-288.25377882	129.03031468	129.03037548
 221	0.00000000	128.00000000	140.00000000	-288.25633228	129.03046668	141.76907033
 222	0.00000000	128.00000000	153.00000000	-288.25943291	129.03063387	155.41184306
 223	0.00000000	128.00000000	166.00000000	-288.26283753	129.03083146	168.91533047
 224	0.00000000	128.00000000	179.00000000	-288.26660693	129.03102905	182.29825795
 225	0.00000000	128.00000000	191.00000000	-288.27037632	129.03124183	194.55722094
 226	0.00000000	128.00000000	204.00000000	-288.27478409	129.03148502	207.74610043
 227	0.00000000	128.00000000	217.00000000	-288.27955663	129.03175861	220.84866375
 228	0.00000000	128.00000000	230.00000000	-288.28466356	129.03204739	233.87252569
 229	0.00000000	128.00000000	242.00000000	-288.28970969	129.03232098	245.83027124
 230	0.00000000	128.00000000	255.00000000	-288.29554617	129.03264016	258.71993959
 231	0.00000000	140.00000000	0.00000000	-351.03194296	141.27242178	-37.83911057
 232	0.00000000	140.00000000	13.00000000	-351.03203416	141.27242178	-32.90330082
 233	0.00000000	140.00000000	26.00000000	-351.03227735	141.27243698	-15.17236736
 234	0.00000000	140.00000000	38.00000000	-351.03276372	141.27246737	13.93012471
 235	0.00000000	140.00000000	51.00000000	-351.03349328	141.27249777	37.33023047
 236	0.00000000	140.00000000	64.00000000	-351.03449643	141.27254337	55.14392920
 237	0.00000000	140.00000000	77.00000000	-351.03577316	141.27261937	71.23435959
 238	0.00000000	140.00000000	89.00000000	-351.03723228	141.27268016	85.31024829
 239	0.00000000	140.00000000	102.00000000	-351.03905618	141.27277136	100.03910914
 240	0.00000000	140.00000000	115.00000000	-351.04121447	141.27289295	114.39359888
 241	0.00000000	140.00000000	128.00000000	-351.04370713	141.27301455	128.47131908
 242	0.00000000	140.00000000	140.00000000	-351.04626060	141.27313614	141.27319694
 243	0.00000000	140.00000000	153.00000000	-351.04936123	141.27328813	154.97114271
 244	0.00000000	140.00000000	166.00000000	-351.05276585	141.27345532	168.51958930
 245	0.00000000	140.00000000	179.00000000	-351.05653524	141.27363771	181.93984598
 246	0.00000000	140.00000000	191.00000000	-351.06027424	141.27383530	194.22802180
 247	0.00000000	140.00000000	204.00000000	-351.06468201	141.27404809	207.44401664
 248	0.00000000	140.00000000	217.00000000	-351.06945455	141.27429128	220.56994110
 249	0.00000000	140.00000000	230.00000000	-351.07459188	141.27453446	233.61412436
 250	0.00000000	140.00000000	242.00000000	-351.07960761	141.27479285	245.58837622
 251	0.00000000	140.00000000	255.00000000	-351.08544409	141.27508163	258.49392772
 252	0.00000000	153.00000000	0.00000000	-426.73272729	154.43681538	-45.99919930
 253	0.00000000	153.00000000	13.00000000	-426.73284888	154.43681538	-41.06338955
 254	0.00000000	153.00000000	26.00000000	-426.73312247	154.43683058	-23.33245419
 255	0.00000000	153.00000000	38.00000000	-426.73357844	154.43686098	6.22153108
 256	0.00000000	153.00000000	51.00000000	-426.73430800	154.43689138	34.39277530
 257	0.00000000	153.00000000	64.00000000	-426.73534155	154.43693697	53.24858330
 258	0.00000000	153.00000000	77.00000000	-426.73661828	154.43698257	69.83101130
 259	0.00000000	153.00000000	89.00000000	-426.73804700	154.43704337	84.18123007
 260	0.00000000	153.00000000	102.00000000	-426.73990130	154.43713456	99.11088735
 261	0.00000000	153.00000000	115.00000000	-426.74205959	154.43722576	113.60842422
 262	0.00000000	153.00000000	128.00000000	-426.74452186	154.43733215	127.79320747
 263	0.00000000	153.00000000	140.00000000	-426.74707532	154.43745375	140.67240357
 264	0.00000000	153.00000000	153.00000000	-426.75017595	154.43759054	154.43765134
 265	0.00000000	153.00000000	166.00000000	-426.75355017	154.43774253	168.04089099
 266	0.00000000	153.00000000	179.00000000	-426.75734997	154.43790972	181.50653243
 267	0.00000000	153.00000000	191.00000000	-426.76111937	154.43807691	193.83015275
 268	0.00000000	153.00000000	204.00000000	-426.76552713	154.43825930	207.07905382
 269	0.00000000	153.00000000	217.00000000	-426.77029967	154.43847209	220.23329437
 270	0.00000000	153.00000000	230.00000000	-426.77540660	154.43870008	233.30208510
 271	0.00000000	153.00000000	242.00000000	-426.78045273	154.43892807	245.29632390
 272	0.00000000	153.00000000	255.00000000	-426.78625882	154.43918645	258.22107196
 273	0.00000000	166.00000000	0.00000000	-510.55787086	167.50784039	-55.03503084
 274	0.00000000	166.00000000	13.00000000	-510.55793166	167.50784039	-50.09922490
 275	0.00000000	166.00000000	26.00000000	-510.55817485	167.50785559	-32.36828953
 276	0.00000000	166.00000000	38.00000000	-510.55866122	167.50787079	-2.81430402
 277	0.00000000	166.00000000	51.00000000	-510.55939078	167.50790119	30.81789672
 278	0.00000000	166.00000000	64.00000000	-510.56042433	167.50794679	51.05859742
 279	0.00000000	166.00000000	77.00000000	-510.56170106	167.50799239	68.23766559
 280	0.00000000	166.00000000	89.00000000	-510.56316018	167.50805318	82.90945351
 281	0.00000000	166.00000000	102.00000000	-510.56498408	167.50812918	98.07044238
 282	0.00000000	166.00000000	115.00000000	-510.56711197	167.50822037	112.73102090
 283	0.00000000	166.00000000	128.00000000	-510.56960464	167.50831157	127.03697205
 284	0.00000000	166.00000000	140.00000000	-510.57215810	167.50841796	140.00328988
 285	0.00000000	166.00000000	153.00000000	-510.57525873	167.50853956	153.84415358
 286	0.00000000	166.00000000	166.00000000	-510.57866335	167.50867635	167.50875235
 287	0.00000000	166.00000000	179.00000000	-510.58243275	167.50882834	181.02514386
 288	0.00000000	166.00000000	191.00000000	-510.58620214	167.50898033	193.38834286
 289	0.00000000	166.00000000	204.00000000	-510.59057951	167.50914752	206.67394996
 290	0.00000000	166.00000000	217.00000000	-510.59538245	167.50934511	219.85972881
 291	0.00000000	166.00000000	230.00000000	-510.60048938	167.50954270	232.95589328
 292	0.00000000	166.00000000	242.00000000	-510.60553551	167.50974029	244.97238368
 293	0.00000000	166.00000000	255.00000000	-510.61137199	167.50998348	257.91848660
 294	0.00000000	179.00000000	0.00000000	-602.64042735	180.49343079	-64.96096462
 295	0.00000000	179.00000000	13.00000000	-602.64042735	180.49343079	-60.02516247
 296	0.00000000	179.00000000	26.00000000	-602.64073133	180.49344599	-42.29423091
 297	0.00000000	179.00000000	38.00000000	-602.64121771	180.49346119	-12.74024136
 298	0.00000000	179.00000000	51.00000000	-602.64194727	180.49347639	26.36390872
 299	0.00000000	179.00000000	64.00000000	-602.64298081	180.49352199	48.52741644
 300	0.00000000	179.00000000	77.00000000	-602.64425755	180.49356759	66.43603787
