bench/lcms_compat/reference/AdobeRGB1998.icc_to_lab_Absolute.it8
CGATS.17
ORIGINATOR	"icctrans"
#
# Data follows
#
NUMBER_OF_SETS	9261.00000000
NUMBER_OF_FIELDS	7.00000000
BEGIN_DATA_FORMAT
 SAMPLE_ID	IN_RGB_R	IN_RGB_G	IN_RGB_B	OUT_LAB_L	OUT_LAB_A	OUT_LAB_B
END_DATA_FORMAT
BEGIN_DATA
 0	0.00000000	0.00000000	0.00000000	0.00000000	0.00000757	0.00000757
 1	0.00000000	0.00000000	13.00000000	0.08202799	0.51179451	-1.87787446
 2	0.00000000	0.00000000	26.00000000	0.37669763	2.35030305	-8.62378928
 3	0.00000000	0.00000000	38.00000000	0.86785406	5.41474742	-18.79426274
 4	0.00000000	0.00000000	51.00000000	1.65759064	10.34211022	-28.95796496
 5	0.00000000	0.00000000	64.00000000	2.73112692	17.04016280	-37.86499861
 6	0.00000000	0.00000000	77.00000000	4.10168916	24.93539435	-45.68777564
 7	0.00000000	0.00000000	89.00000000	5.64016774	30.80246192	-52.03498545
 8	0.00000000	0.00000000	102.00000000	7.61216357	35.34438860	-58.02607837
 9	0.00000000	0.00000000	115.00000000	9.77559313	38.62361264	-63.37204191
 10	0.00000000	0.00000000	128.00000000	11.88081503	41.77820337	-68.54795697
 11	0.00000000	0.00000000	140.00000000	13.77386749	44.61484236	-73.20222463
 12	0.00000000	0.00000000	153.00000000	15.77642411	47.61560214	-78.12572683
 13	0.00000000	0.00000000	166.00000000	17.73401350	50.54895353	-82.93867017
 14	0.00000000	0.00000000	179.00000000	19.65105981	53.42156899	-87.65192966
 15	0.00000000	0.00000000	191.00000000	21.38786763	56.02409494	-91.92205313
 16	0.00000000	0.00000000	204.00000000	23.23685735	58.79472387	-96.46799430
 17	0.00000000	0.00000000	217.00000000	25.05463958	61.51860011	-100.93720998
 18	0.00000000	0.00000000	230.00000000	26.84356570	64.19921947	-105.33547397
 19	0.00000000	0.00000000	242.00000000	28.47104967	66.63794380	-109.33681506
 20	0.00000000	0.00000000	255.00000000	30.21003604	69.24373758	-113.61230479
 21	0.00000000	13.00000000	0.00000000	0.81184544	-2.30861175	1.23465252
 22	0.00000000	13.00000000	13.00000000	0.89387344	-1.79681721	-0.64322191
 23	0.00000000	13.00000000	26.00000000	1.18854307	0.04169893	-7.38912913
 24	0.00000000	13.00000000	38.00000000	1.67969950	3.10614330	-17.51752365
 25	0.00000000	13.00000000	51.00000000	2.46943608	8.03350610	-27.63822737
 26	0.00000000	13.00000000	64.00000000	3.54297236	14.73155868	-36.52263704
 27	0.00000000	13.00000000	77.00000000	4.91353460	22.45028210	-44.33180320
 28	0.00000000	13.00000000	89.00000000	6.45201355	28.12533838	-50.67064586
 29	0.00000000	13.00000000	102.00000000	8.41673091	32.55082411	-56.66787165
 30	0.00000000	13.00000000	115.00000000	10.46105027	36.23531920	-62.21453282
 31	0.00000000	13.00000000	128.00000000	12.46985123	39.72360802	-67.55315515
 32	0.00000000	13.00000000	140.00000000	14.29229081	42.80522746	-72.32661101
 33	0.00000000	13.00000000	153.00000000	16.23294502	46.02107090	-77.35461901
 34	0.00000000	13.00000000	166.00000000	18.14002991	49.13018566	-82.25283737
 35	0.00000000	13.00000000	179.00000000	20.01524419	52.14850050	-87.03673507
 36	0.00000000	13.00000000	191.00000000	21.71944678	54.86470115	-91.36192138
 37	0.00000000	13.00000000	204.00000000	23.53827953	57.74053884	-95.95879692
 38	0.00000000	13.00000000	217.00000000	25.33022761	60.55457664	-100.47164376
 39	0.00000000	13.00000000	230.00000000	27.09682286	63.31316781	-104.90762263
 40	0.00000000	13.00000000	242.00000000	28.70625556	65.81493837	-108.93945708
 41	0.00000000	13.00000000	255.00000000	30.42799830	68.48099691	-113.24407605
 42	0.00000000	26.00000000	0.00000000	3.72824259	-10.60184154	5.66992652
 43	0.00000000	26.00000000	13.00000000	3.81027050	-10.09004700	3.79205209
 44	0.00000000	26.00000000	26.00000000	4.10494022	-8.25153086	-2.95386273
 45	0.00000000	26.00000000	38.00000000	4.59609665	-5.18708649	-12.92596403
 46	0.00000000	26.00000000	51.00000000	5.38583323	-0.25973129	-22.89555746
 47	0.00000000	26.00000000	64.00000000	6.45936951	6.43832129	-31.69970784
 48	0.00000000	26.00000000	77.00000000	7.82993212	13.38036638	-39.46034300
 49	0.00000000	26.00000000	89.00000000	9.29704979	18.73014492	-45.89232627
 50	0.00000000	26.00000000	102.00000000	10.96026227	23.95714444	-52.38645899
 51	0.00000000	26.00000000	115.00000000	12.67055720	28.71143413	-58.49228296
 52	0.00000000	26.00000000	128.00000000	14.40750360	33.08826727	-64.28696062
 53	0.00000000	26.00000000	140.00000000	16.02226049	36.85812098	-69.40932135
 54	0.00000000	26.00000000	153.00000000	17.77485758	40.70345384	-74.75358638
 55	0.00000000	26.00000000	166.00000000	19.52439249	44.34408408	-79.91697352
 56	0.00000000	26.00000000	179.00000000	21.26635909	47.81466585	-84.92527957
 57	0.00000000	26.00000000	191.00000000	22.86500037	50.89078319	-89.42833054
 58	0.00000000	26.00000000	204.00000000	24.58489835	54.10518271	-94.19196393
 59	0.00000000	26.00000000	217.00000000	26.29112303	57.21346152	-98.84934741
 60	0.00000000	26.00000000	230.00000000	27.98291445	60.22948128	-103.41148521
 61	0.00000000	26.00000000	242.00000000	29.53141928	62.94133496	-107.54609465
 62	0.00000000	26.00000000	255.00000000	31.19457960	65.80974025	-111.94955296
 63	0.00000000	38.00000000	0.00000000	8.57539847	-24.36509061	13.03867352
 64	0.00000000	38.00000000	13.00000000	8.65338296	-23.83587021	11.15382266
 65	0.00000000	38.00000000	26.00000000	8.92953575	-21.91754314	4.37598956
 66	0.00000000	38.00000000	38.00000000	9.37668011	-18.66339016	-5.39447176
 67	0.00000000	38.00000000	51.00000000	10.06425619	-13.29568419	-15.29937747
 68	0.00000000	38.00000000	64.00000000	10.94442382	-6.18229869	-24.30646735
 69	0.00000000	38.00000000	77.00000000	11.99065894	0.85149628	-32.54669759
 70	0.00000000	38.00000000	89.00000000	13.07886988	6.94168788	-39.58269644
 71	0.00000000	38.00000000	102.00000000	14.36449289	13.06443614	-46.68992627
 72	0.00000000	38.00000000	115.00000000	15.73714912	18.71450496	-53.35015568
 73	0.00000000	38.00000000	128.00000000	17.17603654	23.93889022	-59.63773909
 74	0.00000000	38.00000000	140.00000000	18.54830384	28.42988443	-65.16295421
 75	0.00000000	38.00000000	153.00000000	20.06989419	32.98427445	-70.89225258
 76	0.00000000	38.00000000	166.00000000	21.61736786	37.26027620	-76.39327060
 77	0.00000000	38.00000000	179.00000000	23.18230271	41.29772675	-81.69793795
 78	0.00000000	38.00000000	191.00000000	24.63669628	44.84200937	-86.44280794
 79	0.00000000	38.00000000	204.00000000	26.21819079	48.51040852	-91.43871526
 80	0.00000000	38.00000000	217.00000000	27.80200839	52.02383679	-96.30171902
 81	0.00000000	38.00000000	230.00000000	29.38512862	55.40214431	-101.04654151
 82	0.00000000	38.00000000	242.00000000	30.84384203	58.41507864	-105.33218335
 83	0.00000000	38.00000000	255.00000000	32.41960406	61.57795292	-109.88272037
 84	0.00000000	51.00000000	0.00000000	14.49140608	-38.40124863	21.64940667
 85	0.00000000	51.00000000	13.00000000	14.54214007	-37.75457653	19.71757513
 86	0.00000000	51.00000000	26.00000000	14.72302079	-35.42558271	12.77546924
 87	0.00000000	51.00000000	38.00000000	15.01986235	-31.52357209	3.23343647
 88	0.00000000	51.00000000	51.00000000	15.48557729	-25.63378173	-6.69307488
 89	0.00000000	51.00000000	64.00000000	16.09736979	-19.06095523	-15.96140835
 90	0.00000000	51.00000000	77.00000000	16.84604287	-12.27786320	-24.58996254
 91	0.00000000	51.00000000	89.00000000	17.64770448	-6.08247045	-32.04219106
 92	0.00000000	51.00000000	102.00000000	18.62246394	0.40380430	-39.62523136
 93	0.00000000	51.00000000	115.00000000	19.69324350	6.57815379	-46.76181081
 94	0.00000000	51.00000000	128.00000000	20.84559798	12.41271031	-53.50990671
 95	0.00000000	51.00000000	140.00000000	21.97012454	17.49855500	-59.43793821
 96	0.00000000	51.00000000	153.00000000	23.24297428	22.69997430	-65.57489771
 97	0.00000000	51.00000000	166.00000000	24.56234992	27.60523748	-71.45197774
 98	0.00000000	51.00000000	179.00000000	25.91917217	32.24191588	-77.10125621
 99	0.00000000	51.00000000	191.00000000	27.19817758	36.30721134	-82.13747557
 100	0.00000000	51.00000000	204.00000000	28.60644460	40.50280941	-87.42186721
 101	0.00000000	51.00000000	217.00000000	30.03298938	44.50454187	-92.54732478
 102	0.00000000	51.00000000	230.00000000	31.47327304	48.33347481	-97.53090176
 103	0.00000000	51.00000000	242.00000000	32.81170428	51.73072052	-102.01786059
 104	0.00000000	51.00000000	255.00000000	34.26842988	55.27789098	-106.76783941
 105	0.00000000	64.00000000	0.00000000	20.01352459	-46.85809004	29.00988531
 106	0.00000000	64.00000000	13.00000000	20.04991770	-46.23211923	27.05332470
 107	0.00000000	64.00000000	26.00000000	20.18004954	-44.06948048	20.04590791
 108	0.00000000	64.00000000	38.00000000	20.39489597	-40.73021206	11.07645881
 109	0.00000000	64.00000000	51.00000000	20.73512375	-35.93128237	1.37884718
 110	0.00000000	64.00000000	64.00000000	21.18774652	-30.27616742	-7.90521744
 111	0.00000000	64.00000000	77.00000000	21.75005078	-24.12441912	-16.69169876
 112	0.00000000	64.00000000	89.00000000	22.36191928	-18.25219902	-24.36806965
 113	0.00000000	64.00000000	102.00000000	23.11873287	-11.87161180	-32.24664289
 114	0.00000000	64.00000000	115.00000000	23.96526635	-5.60151505	-39.71071157
 115	0.00000000	64.00000000	128.00000000	24.89273548	0.47694278	-46.80152628
 116	0.00000000	64.00000000	140.00000000	25.81296861	5.87964487	-53.04900664
 117	0.00000000	64.00000000	153.00000000	26.87117755	11.48908627	-59.52743101
 118	0.00000000	64.00000000	166.00000000	27.98507810	16.84213263	-65.73552269
 119	0.00000000	64.00000000	179.00000000	29.14701402	21.94531959	-71.70161295
 120	0.00000000	64.00000000	191.00000000	30.25618494	26.44484055	-77.01571520
 121	0.00000000	64.00000000	204.00000000	31.49158955	31.10488009	-82.58435059
 122	0.00000000	64.00000000	217.00000000	32.75674582	35.55798274	-87.97626506
 123	0.00000000	64.00000000	230.00000000	34.04676020	39.82067001	-93.20874009
 124	0.00000000	64.00000000	242.00000000	35.25590301	43.60035759	-97.91037980
 125	0.00000000	64.00000000	255.00000000	36.58221662	47.54112613	-102.87736307
 126	0.00000000	77.00000000	0.00000000	25.24195611	-53.66093341	35.26626480
 127	0.00000000	77.00000000	13.00000000	25.26971698	-53.18221989	33.29482418
 128	0.00000000	77.00000000	26.00000000	25.36913157	-51.50720137	26.50626045
 129	0.00000000	77.00000000	38.00000000	25.53378046	-48.85831791	18.22522801
 130	0.00000000	77.00000000	51.00000000	25.79582036	-44.92508057	8.89756453
 131	0.00000000	77.00000000	64.00000000	26.14683807	-40.11111888	-0.25422919
 132	0.00000000	77.00000000	77.00000000	26.58665180	-34.67165756	-9.05289266
 133	0.00000000	77.00000000	89.00000000	27.06976533	-29.29866987	-16.82396206
 134	0.00000000	77.00000000	102.00000000	27.67358720	-23.27799934	-24.86638251
 135	0.00000000	77.00000000	115.00000000	28.35681438	-17.19325665	-32.53792766
 136	0.00000000	77.00000000	128.00000000	29.11432087	-11.15070689	-39.86512768
 137	0.00000000	77.00000000	140.00000000	29.87464964	-5.67311081	-46.34695667
 138	0.00000000	77.00000000	153.00000000	30.75904548	0.10881853	-53.08889690
 139	0.00000000	77.00000000	166.00000000	31.70085251	5.70575100	-59.56425864
 140	0.00000000	77.00000000	179.00000000	32.69430995	11.10369575	-65.79647142
 141	0.00000000	77.00000000	191.00000000	33.65240693	15.90599966	-71.35209250
 142	0.00000000	77.00000000	204.00000000	34.72992778	20.91486049	-77.17542063
 143	0.00000000	77.00000000	217.00000000	35.84387600	25.72830540	-82.81304131
 144	0.00000000	77.00000000	230.00000000	36.98977232	30.35499793	-88.28104290
 145	0.00000000	77.00000000	242.00000000	38.07233572	34.46879399	-93.19045547
 146	0.00000000	77.00000000	255.00000000	39.26852942	38.76545143	-98.37179094
 147	0.00000000	89.00000000	0.00000000	29.86158133	-59.67163327	40.13506514
 148	0.00000000	89.00000000	13.00000000	29.88403440	-59.28389448	38.15447462
 149	0.00000000	89.00000000	26.00000000	29.96451259	-57.91758659	31.93206531
 150	0.00000000	89.00000000	38.00000000	30.09802699	-55.72721693	24.29578227
 151	0.00000000	89.00000000	51.00000000	30.31110466	-52.41051930	15.38082224
 152	0.00000000	89.00000000	64.00000000	30.59764206	-48.25257722	6.43595022
 153	0.00000000	89.00000000	77.00000000	30.95841706	-43.43294623	-2.28740889
 154	0.00000000	89.00000000	89.00000000	31.35689795	-38.55531517	-10.06693664
 155	0.00000000	89.00000000	102.00000000	31.85805380	-32.96279806	-18.17738864
 156	0.00000000	89.00000000	115.00000000	32.42913485	-27.18578565	-25.96094418
 157	0.00000000	89.00000000	128.00000000	33.06707740	-21.33529279	-33.43179169
 158	0.00000000	89.00000000	140.00000000	33.71221125	-15.94246256	-40.06646368
 159	0.00000000	89.00000000	153.00000000	34.46838856	-10.16604292	-46.98935020
 160	0.00000000	89.00000000	166.00000000	35.28010845	-4.49995416	-53.65625966
 161	0.00000000	89.00000000	179.00000000	36.14314198	1.02712286	-60.08622903
 162	0.00000000	89.00000000	191.00000000	36.98168099	5.99038613	-65.82684699
 163	0.00000000	89.00000000	204.00000000	37.93159127	11.20806855	-71.85065235
 164	0.00000000	89.00000000	217.00000000	38.92075419	16.25666004	-77.68667179
 165	0.00000000	89.00000000	230.00000000	39.94535208	21.13669258	-83.34933694
 166	0.00000000	89.00000000	242.00000000	40.91947079	25.49480033	-88.43402269
 167	0.00000000	89.00000000	255.00000000	42.00231731	30.06245923	-93.79960838
 168	0.00000000	102.00000000	0.00000000	34.68207419	-65.94370592	44.53080606
 169	0.00000000	102.00000000	13.00000000	34.70046222	-65.62586437	42.75678766
 170	0.00000000	102.00000000	26.00000000	34.76640582	-64.50034197	37.35241365
 171	0.00000000	102.00000000	38.00000000	34.87594128	-62.67835873	30.38677943
 172	0.00000000	102.00000000	51.00000000	35.05108058	-59.87955812	21.95795012
 173	0.00000000	102.00000000	64.00000000	35.28724909	-56.30600947	13.29777402
 174	0.00000000	102.00000000	77.00000000	35.58563292	-52.07866031	4.72143662
 175	0.00000000	102.00000000	89.00000000	35.91651618	-47.71335575	-3.00629231
 176	0.00000000	102.00000000	102.00000000	36.33456230	-42.60785091	-11.12506586
 177	0.00000000	102.00000000	115.00000000	36.81345284	-37.22946751	-18.96599072
 178	0.00000000	102.00000000	128.00000000	37.35147119	-31.68266195	-26.53067040
 179	0.00000000	102.00000000	140.00000000	37.89872229	-26.48735273	-33.27641043
 180	0.00000000	102.00000000	153.00000000	38.54406774	-20.84147128	-40.33966142
 181	0.00000000	102.00000000	166.00000000	39.24129903	-15.22835168	-47.16248411
 182	0.00000000	102.00000000	179.00000000	39.98746574	-9.68713942	-53.75953051
 183	0.00000000	102.00000000	191.00000000	40.71701169	-4.66042715	-59.66120663
 184	0.00000000	102.00000000	204.00000000	41.54861867	0.67118835	-65.86410019
 185	0.00000000	102.00000000	217.00000000	42.42011309	5.87186289	-71.88167389
 186	0.00000000	102.00000000	230.00000000	43.32844317	10.93404245	-77.72634166
 187	0.00000000	102.00000000	242.00000000	44.19702888	15.48083287	-82.97807026
 188	0.00000000	102.00000000	255.00000000	45.16795874	20.26957911	-88.52234896
 189	0.00000000	115.00000000	0.00000000	39.34084177	-72.00534205	48.62414402
 190	0.00000000	115.00000000	13.00000000	39.35626447	-71.73856217	47.12200862
 191	0.00000000	115.00000000	26.00000000	39.41159844	-70.79076762	42.39497107
 192	0.00000000	115.00000000	38.00000000	39.50358331	-69.24633670	36.05096829
 193	0.00000000	115.00000000	51.00000000	39.65085447	-66.85015868	28.12179697
 194	0.00000000	115.00000000	64.00000000	39.84980285	-63.75047880	19.78674662
 195	0.00000000	115.00000000	77.00000000	40.10175765	-60.02830493	11.40593153
 196	0.00000000	115.00000000	89.00000000	40.38190842	-56.12513158	3.77664012
 197	0.00000000	115.00000000	102.00000000	40.73698223	-51.48802760	-4.29968971
 198	0.00000000	115.00000000	115.00000000	41.14522934	-46.52442995	-12.14769739
 199	0.00000000	115.00000000	128.00000000	41.60574973	-41.32668126	-19.75679669
 200	0.00000000	115.00000000	140.00000000	42.07613766	-36.39072332	-26.56917754
 201	0.00000000	115.00000000	153.00000000	42.63330102	-30.95769125	-33.72632909
 202	0.00000000	115.00000000	166.00000000	43.23815405	-25.48986065	-40.66075179
 203	0.00000000	115.00000000	179.00000000	43.88866425	-20.03187153	-47.38308507
 204	0.00000000	115.00000000	191.00000000	44.52776015	-15.03262419	-53.40972129
 205	0.00000000	115.00000000	204.00000000	45.25981843	-9.68381840	-59.75552517
 206	0.00000000	115.00000000	217.00000000	46.03087902	-4.42393544	-65.92159110
 207	0.00000000	115.00000000	230.00000000	46.83856964	0.73289704	-71.91842932
 208	0.00000000	115.00000000	242.00000000	47.61459529	5.39327097	-77.31245267
 209	0.00000000	115.00000000	255.00000000	48.48610759	10.32827896	-83.01160726
 210	0.00000000	128.00000000	0.00000000	43.86080503	-77.88637768	52.59552372
 211	0.00000000	128.00000000	13.00000000	43.87398958	-77.65824932	51.30298507
 212	0.00000000	128.00000000	26.00000000	43.92129779	-76.84590611	47.13556629
 213	0.00000000	128.00000000	38.00000000	43.99998486	-75.51603067	41.35589403
 214	0.00000000	128.00000000	51.00000000	44.12607849	-73.43795638	33.92107618
 215	0.00000000	128.00000000	64.00000000	44.29664016	-70.72399001	25.93461913
 216	0.00000000	128.00000000	77.00000000	44.51300204	-67.42813426	17.78347892
 217	0.00000000	128.00000000	89.00000000	44.75404024	-63.93083993	10.28727156
 218	0.00000000	128.00000000	102.00000000	45.06023228	-59.72410846	2.29187739
 219	0.00000000	128.00000000	115.00000000	45.41321397	-55.16237724	-5.52462238
 220	0.00000000	128.00000000	128.00000000	45.81256807	-50.32430965	-13.13986215
 221	0.00000000	128.00000000	140.00000000	46.22173607	-45.67560109	-19.98403969
 222	0.00000000	128.00000000	153.00000000	46.70799375	-40.50140354	-27.19812739
 223	0.00000000	128.00000000	166.00000000	47.23778069	-35.23724961	-34.20824203
 224	0.00000000	128.00000000	179.00000000	47.80970812	-29.92943603	-41.02127644
 225	0.00000000	128.00000000	191.00000000	48.37370217	-25.02415004	-47.14230719
 226	0.00000000	128.00000000	204.00000000	49.02220666	-19.73269078	-53.59958950
 227	0.00000000	128.00000000	217.00000000	49.70800877	-14.48855418	-59.88465744
 228	0.00000000	128.00000000	230.00000000	50.42929649	-9.31070122	-66.00618976
 229	0.00000000	128.00000000	242.00000000	51.12499595	-4.60242707	-71.51904795
 230	0.00000000	128.00000000	255.00000000	51.90930963	0.41106951	-77.34972487
 231	0.00000000	140.00000000	0.00000000	47.92523682	-83.17470591	56.16664809
 232	0.00000000	140.00000000	13.00000000	47.93679416	-82.97460105	55.02803159
 233	0.00000000	140.00000000	26.00000000	47.97829092	-82.26091574	51.29295361
 234	0.00000000	140.00000000	38.00000000	48.04733098	-81.08886483	45.98243457
 235	0.00000000	140.00000000	51.00000000	48.15803170	-79.24839179	38.98866665
 236	0.00000000	140.00000000	64.00000000	48.30790460	-76.82864743	31.33387101
 237	0.00000000	140.00000000	77.00000000	48.49823415	-73.86650118	23.41559750
 238	0.00000000	140.00000000	89.00000000	48.71055484	-70.69620590	16.06533271
 239	0.00000000	140.00000000	102.00000000	48.98068011	-66.84758621	8.17114991
 240	0.00000000	140.00000000	115.00000000	49.29265976	-62.63301197	0.41070473
 241	0.00000000	140.00000000	128.00000000	49.64635074	-58.11895299	-7.18323338
 242	0.00000000	140.00000000	140.00000000	50.00951886	-53.74123070	-14.03203148
 243	0.00000000	140.00000000	153.00000000	50.44211149	-48.82487211	-21.27220857
 244	0.00000000	140.00000000	166.00000000	50.91465712	-43.77852249	-28.32618806
 245	0.00000000	140.00000000	179.00000000	51.42617226	-38.64767301	-35.19755694
 246	0.00000000	140.00000000	191.00000000	51.93195939	-33.87011337	-41.38297904
 247	0.00000000	140.00000000	204.00000000	52.51517296	-28.68021506	-47.91938829
 248	0.00000000	140.00000000	217.00000000	53.13376784	-23.50186053	-54.29153237
 249	0.00000000	140.00000000	230.00000000	53.78634334	-18.35702020	-60.50654727
 250	0.00000000	140.00000000	242.00000000	54.41761613	-13.65293342	-66.11023198
 251	0.00000000	140.00000000	255.00000000	55.13139963	-8.61853796	-72.04310822
 252	0.00000000	153.00000000	0.00000000	52.22477913	-88.76894812	59.94435978
 253	0.00000000	153.00000000	13.00000000	52.23492384	-88.59321895	58.94095522
 254	0.00000000	153.00000000	26.00000000	52.27136016	-87.96568263	55.60084325
 255	0.00000000	153.00000000	38.00000000	52.33200192	-86.93243067	50.74515980
 256	0.00000000	153.00000000	51.00000000	52.42928863	-85.30330989	44.20569551
 257	0.00000000	153.00000000	64.00000000	52.56108642	-83.14946766	36.91198689
 258	0.00000000	153.00000000	77.00000000	52.72862315	-80.49486171	29.26065665
 259	0.00000000	153.00000000	89.00000000	52.91571617	-77.63260449	22.08709759
 260	0.00000000	153.00000000	102.00000000	53.15405130	-74.12981185	14.32496530
 261	0.00000000	153.00000000	115.00000000	53.42973471	-70.26018690	6.64854121
 262	0.00000000	153.00000000	128.00000000	53.74282002	-66.07843149	-0.89872780
 263	0.00000000	153.00000000	140.00000000	54.06486988	-61.98811817	-7.73078400
 264	0.00000000	153.00000000	153.00000000	54.44924831	-57.35580954	-14.97580963
 265	0.00000000	153.00000000	166.00000000	54.87003922	-52.56072524	-22.05416101
 266	0.00000000	153.00000000	179.00000000	55.32659292	-47.64584857	-28.96592173
 267	0.00000000	153.00000000	191.00000000	55.77910542	-43.03555596	-35.20044479
 268	0.00000000	153.00000000	204.00000000	56.30214810	-37.99240577	-41.80074382
 269	0.00000000	153.00000000	217.00000000	56.85838461	-32.92620602	-48.24607196
 270	0.00000000	153.00000000	230.00000000	57.44674206	-27.86081943	-54.54197693
 271	0.00000000	153.00000000	242.00000000	58.01738501	-23.20305976	-60.22595513
 272	0.00000000	153.00000000	255.00000000	58.66432786	-18.19191906	-66.25085104
 273	0.00000000	166.00000000	0.00000000	56.42777085	-94.23756908	63.63722962
 274	0.00000000	166.00000000	13.00000000	56.43677711	-94.08160265	62.74432313
 275	0.00000000	166.00000000	26.00000000	56.46910667	-93.52413076	59.73754448
 276	0.00000000	166.00000000	38.00000000	56.52293563	-92.60440911	55.28577936
 277	0.00000000	166.00000000	51.00000000	56.60932064	-91.14975217	49.17225701
 278	0.00000000	166.00000000	64.00000000	56.72641993	-89.21819422	42.23478687
 279	0.00000000	166.00000000	77.00000000	56.87537193	-86.82479765	34.85906345
 280	0.00000000	166.00000000	89.00000000	57.04185367	-84.22889854	27.87620854
 281	0.00000000	166.00000000	102.00000000	57.25414157	-81.03126752	20.26427460
 282	0.00000000	166.00000000	115.00000000	57.49998093	-77.47325245	12.69137216
 283	0.00000000	166.00000000	128.00000000	57.77954459	-73.59946291	5.21075916
 284	0.00000000	166.00000000	140.00000000	58.06752443	-69.78283371	-1.58595893
 285	0.00000000	166.00000000	153.00000000	58.41177106	-65.42915653	-8.81569418
 286	0.00000000	166.00000000	166.00000000	58.78927708	-60.88921714	-15.89839253
 287	0.00000000	166.00000000	179.00000000	59.19962525	-56.20253342	-22.83073294
 288	0.00000000	166.00000000	191.00000000	59.60710645	-51.77723008	-29.09630793
 289	0.00000000	166.00000000	204.00000000	60.07902026	-46.90585348	-35.74126217
 290	0.00000000	166.00000000	217.00000000	60.58193445	-41.98169011	-42.24093500
 291	0.00000000	166.00000000	230.00000000	61.11506224	-37.02937785	-48.59936941
 292	0.00000000	166.00000000	242.00000000	61.63325310	-32.45131510	-54.34722218
 293	0.00000000	166.00000000	255.00000000	62.22200990	-27.50135872	-60.44694367
 294	0.00000000	179.00000000	0.00000000	60.54371595	-99.59292571	67.25363237
 295	0.00000000	179.00000000	13.00000000	60.55178046	-99.45326611	66.45234656
 296	0.00000000	179.00000000	26.00000000	60.58073044	-98.95366511	63.72915429
 297	0.00000000	179.00000000	38.00000000	60.62893867	-98.12816131	59.63572514
 298	0.00000000	179.00000000	51.00000000	60.70632935	-96.81931014	53.91817194
 299	0.00000000	179.00000000	64.00000000	60.81128120	-95.07537092	47.32712162
 300	0.00000000	179.00000000	77.00000000	60.94484925	-92.90520477	40.23036402
 301	0.00000000	179.00000000	89.00000000	61.09423637	-90.54017748	33.44774318
 302	0.00000000	179.00000000	102.00000000	61.28487587	-87.61138964	25.99985403
 303	0.00000000	179.00000000	115.00000000	61.50585413	-84.33304715	18.54603720
 304	0.00000000	179.00000000	128.00000000	61.75740361	-80.74138488	11.14844215
 305	0.00000000	179.00000000	140.00000000	62.01682091	-77.18088093	4.40243614
