bench/lcms_compat/reference/ISOcoated_v2_grey1c_bas.ICC_to_srgb_Absolute.it8
CGATS.17
ORIGINATOR	"icctrans"
#
# Data follows
#
NUMBER_OF_SETS	256.00000000
NUMBER_OF_FIELDS	5.00000000
BEGIN_DATA_FORMAT
 SAMPLE_ID	IN_GRAY	OUT_RGB_R	OUT_RGB_G	OUT_RGB_B
END_DATA_FORMAT
BEGIN_DATA
 1	0.00000000	39.46822375	39.77648601	40.56614064
 2	1.00000000	40.36623336	40.67967474	41.48258686
 3	2.00000000	41.24395207	41.56245857	42.37832420
 4	3.00000000	42.16889083	42.49272466	43.32224295
 5	4.00000000	43.06003422	43.38899776	44.23167475
 6	5.00000000	43.97016518	44.30436864	45.16048171
 7	6.00000000	44.88553226	45.22502124	46.09464258
 8	7.00000000	45.80569848	46.15048438	47.03368999
 9	8.00000000	46.74210504	47.09229045	47.98931971
 10	9.00000000	47.68199220	48.03758852	48.94849084
 11	10.00000000	48.56807046	48.92878510	49.85276632
 12	11.00000000	49.50394124	49.87005159	50.80784507
 13	12.00000000	50.40997602	50.78128830	51.73246086
 14	13.00000000	51.31995119	51.69652618	52.66112722
 15	14.00000000	52.24410720	52.62599051	53.60424422
 16	15.00000000	53.15055616	53.53767179	54.52930078
 17	16.00000000	54.06045534	54.45281088	55.45787595
 18	17.00000000	54.97352354	55.37115321	56.38968855
 19	18.00000000	55.86999804	56.27278022	57.30455026
 20	19.00000000	56.77941084	57.18744434	58.23263906
 21	20.00000000	57.69160889	58.10488991	59.16355871
 22	21.00000000	58.58783640	59.00629275	60.07818483
 23	22.00000000	59.50523637	59.92897823	61.01440899
 24	23.00000000	60.41581951	60.84481269	61.94368333
 25	24.00000000	61.30228914	61.73637025	62.84833878
 26	25.00000000	62.21761063	62.65698485	63.78245786
 27	26.00000000	63.11781272	63.56236607	64.70112696
 28	27.00000000	64.00353760	64.45319787	65.60503766
 29	28.00000000	64.91659060	65.37151739	66.53683126
 30	29.00000000	65.80698922	66.26703814	67.44549930
 31	30.00000000	66.70763969	67.17287913	68.36463198
 32	31.00000000	67.61014447	68.08058962	69.28566456
 33	32.00000000	68.49890158	68.97446126	70.19266069
 34	33.00000000	69.39731777	69.87806797	71.10952109
 35	34.00000000	70.28989747	70.77578500	72.02041581
 36	35.00000000	71.19163468	71.68272033	72.94066563
 37	36.00000000	72.10208863	72.59841040	73.86979938
 38	37.00000000	73.00643250	73.50797519	74.79270905
 39	38.00000000	73.90488669	74.41161230	75.70960745
 40	39.00000000	74.81860086	75.33057779	76.64206222
 41	40.00000000	75.71932733	76.23650998	77.56128609
 42	41.00000000	76.62115574	77.14352891	78.48161951
 43	42.00000000	77.53067493	78.05827662	79.40979570
 44	43.00000000	78.44090089	78.97374630	80.33870906
 45	44.00000000	79.35177281	79.88987714	81.26828358
 46	45.00000000	80.25037140	80.79365104	82.18532637
 47	46.00000000	81.15614399	81.70465976	83.10970277
 48	47.00000000	82.06251696	82.61626124	84.03467193
 49	48.00000000	82.93856755	83.49735036	84.92869556
 50	49.00000000	83.83414149	84.39809203	85.84266052
 51	50.00000000	84.70635429	85.27532816	86.73277035
 52	51.00000000	85.59170678	86.16576478	87.63628587
 53	52.00000000	86.45440489	87.03345582	88.51670623
 54	53.00000000	87.32428461	87.90833607	89.40443739
 55	54.00000000	88.16663101	88.75553861	90.26406527
 56	55.00000000	89.01069492	89.60448146	91.12546384
 57	56.00000000	89.86201644	90.46069711	91.99424922
 58	57.00000000	90.70369408	91.30720809	92.85318553
 59	58.00000000	91.54694483	92.15533018	93.71375576
 60	59.00000000	92.37545997	92.98862547	94.55927879
 61	60.00000000	93.20040330	93.81831855	95.40115401
 62	61.00000000	94.04307649	94.66585547	96.26112387
 63	62.00000000	94.87140924	95.49895316	97.10645691
 64	63.00000000	95.70658922	96.33895129	97.95877397
 65	64.00000000	96.53296888	97.17007309	98.80210832
 66	65.00000000	97.37111270	98.01306546	99.65746522
 67	66.00000000	98.20557073	98.85231122	100.50902992
 68	67.00000000	99.05133694	99.70295638	101.37216121
 69	68.00000000	99.88339350	100.53983107	102.22131684
 70	69.00000000	100.72654545	101.38784677	103.08178067
 71	70.00000000	101.56595841	102.23208547	103.93840671
 72	71.00000000	102.42080614	103.09185773	104.81079429
 73	72.00000000	103.26695234	103.94287527	105.67430556
 74	73.00000000	104.11869943	104.79952410	106.54353172
 75	74.00000000	104.95728403	105.64294204	107.39933699
 76	75.00000000	105.81061944	106.50121719	108.27019706
 77	76.00000000	106.66463882	107.36014590	109.14173350
 78	77.00000000	107.51927376	108.21971297	110.01390830
 79	78.00000000	108.37894723	109.08433378	110.89122802
 80	79.00000000	109.23906147	109.94941816	111.76901132
 81	80.00000000	110.09086937	110.80612019	112.63829067
 82	81.00000000	110.94323203	111.66338459	113.50813240
 83	82.00000000	111.80037484	112.52548233	114.38287586
 84	83.00000000	112.65792802	113.38796005	115.25802210
 85	84.00000000	113.51583838	114.25081015	116.13354832
 86	85.00000000	114.37407553	115.11400983	117.00940132
 87	86.00000000	115.22021413	115.96504256	117.87292019
 88	87.00000000	116.08323142	116.83302239	118.75364453
 89	88.00000000	116.92614779	117.68078730	119.61385757
 90	89.00000000	117.78564647	118.54523331	120.49098730
 91	90.00000000	118.63336578	119.39786196	121.35611728
 92	91.00000000	119.48148027	120.25084019	122.22163484
 93	92.00000000	120.32602295	121.10025421	123.08351219
 94	93.00000000	121.17095321	121.95004821	123.94577712
 95	94.00000000	122.00854987	122.79247060	124.80056405
 96	95.00000000	122.85422489	123.64303216	125.66360414
 97	96.00000000	123.68510351	124.47868332	126.51152864
 98	97.00000000	124.52025309	125.31865105	127.36382291
 99	98.00000000	125.35213485	126.15532055	128.21278095
 100	99.00000000	126.18079439	126.98877543	129.05846357
 101	100.00000000	127.00267509	127.81536788	129.89718497
 102	101.00000000	127.83237576	128.64987910	130.74393153
 103	102.00000000	128.64816159	129.47036147	131.57646686
 104	103.00000000	129.45747256	130.28432339	132.40237534
 105	104.00000000	130.26043028	131.09193206	133.22182417
 106	105.00000000	131.06422395	131.90031588	134.04209375
 107	106.00000000	131.86181635	132.70252883	134.85607088
 108	107.00000000	132.65680969	133.50209713	135.66737294
 109	108.00000000	133.44239473	134.29221153	136.46908432
 110	109.00000000	134.22896773	135.08331388	137.27179885
 111	110.00000000	135.01310885	135.87198436	138.07205111
 112	111.00000000	135.79155028	136.65489435	138.86645168
 113	112.00000000	136.56766623	137.43549407	139.65851158
 114	113.00000000	137.34156311	138.21384430	140.44829160
 115	114.00000000	138.10994267	138.98667723	141.23243272
 116	115.00000000	138.88598263	139.76718575	142.02440143
 117	116.00000000	139.65329826	140.53892434	142.80747861
 118	117.00000000	140.41853160	141.30855024	143.58841270
 119	118.00000000	141.17847562	142.07287163	144.36393589
 120	119.00000000	141.94275141	142.84158558	145.14392763
 121	120.00000000	142.70185947	143.60502541	145.91859967
 122	121.00000000	143.46832395	144.37595844	146.70082569
 123	122.00000000	144.22343463	145.13540089	147.47140914
 124	123.00000000	144.98587132	145.90221494	148.24950099
 125	124.00000000	145.74630171	146.66702271	149.02552575
 126	125.00000000	146.51386052	147.43901968	149.80884612
 127	126.00000000	147.27635801	148.20587933	150.58696836
 128	127.00000000	148.04885656	148.98283124	151.37531966
 129	128.00000000	148.80725026	149.74561751	152.14930773
 130	129.00000000	149.59044904	150.53331524	152.94855684
 131	130.00000000	150.35957336	151.30686253	153.73348832
 132	131.00000000	151.13833398	152.09013730	154.52823848
 133	132.00000000	151.91780895	152.87411124	155.32371819
 134	133.00000000	152.69798309	153.65878433	156.11989707
 135	134.00000000	153.47308069	154.43833530	156.91089302
 136	135.00000000	154.25746500	155.22721857	157.71135807
 137	136.00000000	155.03671199	156.01099491	158.50664020
 138	137.00000000	155.81664294	156.79540962	159.30257589
 139	138.00000000	156.59999371	157.58324414	160.10197699
 140	139.00000000	157.38387644	158.37168664	160.90197086
 141	140.00000000	158.15450549	159.14672345	161.68839186
 142	141.00000000	158.93954337	159.93629068	162.48955607
 143	142.00000000	159.70871329	160.70989877	163.27451795
 144	143.00000000	160.49212486	161.49782449	164.07399505
 145	144.00000000	161.26255631	162.27269411	164.86024886
 146	145.00000000	162.03633159	163.05092275	165.64989209
 147	146.00000000	162.80268967	163.82170379	166.43198133
 148	147.00000000	163.57766569	164.60114837	167.22287089
 149	148.00000000	164.34267104	165.37056148	168.00357699
 150	149.00000000	165.10834515	166.14064336	168.78496706
 151	150.00000000	165.86426139	166.90090656	169.55640167
 152	151.00000000	166.62092239	167.66196012	170.32859623
 153	152.00000000	167.37575948	168.42111379	171.09890610
 154	153.00000000	168.13386440	169.18359607	171.87259018
 155	154.00000000	168.87234718	169.92634982	172.62621135
 156	155.00000000	169.61929590	170.67761511	173.38852644
 157	156.00000000	170.35451084	171.41704023	174.13880378
 158	157.00000000	171.09062254	172.15739250	174.89002347
 159	158.00000000	171.82512313	172.89614886	175.63961685
 160	159.00000000	172.56053567	173.63580197	176.39012218
 161	160.00000000	173.28456402	174.36397970	177.12900013
 162	161.00000000	174.01689112	175.10053217	177.87635922
 163	162.00000000	174.74038750	175.82819313	178.61470520
 164	163.00000000	175.46967477	176.56170577	179.35897887
 165	164.00000000	176.19028330	177.28644848	180.09436101
 166	165.00000000	176.91184938	178.01217914	180.83073109
 167	166.00000000	177.63198674	178.73646587	181.56565726
 168	167.00000000	178.35072577	179.45935428	182.29915470
 169	168.00000000	179.06809688	180.18085957	183.03123862
 170	169.00000000	179.79110688	180.90803415	183.76909822
 171	170.00000000	180.50104558	181.62206143	184.49359775
 172	171.00000000	181.22127414	182.34643936	185.22861511
 173	172.00000000	181.93320394	183.06245774	185.95515132
 174	173.00000000	182.64840156	183.78180474	186.68503135
 175	174.00000000	183.35770190	184.49517846	187.40889251
 176	175.00000000	184.07479942	185.21641016	188.14071804
 177	176.00000000	184.78378057	185.92944950	188.86422962
 178	177.00000000	185.49821824	186.64800614	189.59333450
 179	178.00000000	186.20461553	187.35849202	190.31421661
 180	179.00000000	186.92311138	188.08113724	191.04747087
 181	180.00000000	187.63139337	188.79350781	191.77031368
 182	181.00000000	188.35384101	189.52010483	192.50758052
 183	182.00000000	189.06615078	190.23651838	193.23448151
 184	183.00000000	189.77929652	190.95378309	193.96227926
 185	184.00000000	190.49549729	191.67408764	194.69317764
 186	185.00000000	191.21253401	192.39527375	195.42494237
 187	186.00000000	191.93036109	193.11725020	196.15749747
 188	187.00000000	192.65116721	193.84216011	196.89306200
 189	188.00000000	193.36627364	194.56144631	197.62289643
 190	189.00000000	194.08859968	195.28790653	198.36002648
 191	190.00000000	194.80949700	196.01298362	199.09574300
 192	191.00000000	195.53746194	196.74512833	199.83863354
 193	192.00000000	196.25980318	197.47161895	200.57579398
 194	193.00000000	196.98700815	198.20300370	201.31790936
 195	194.00000000	197.71276921	198.93297493	202.05858082
 196	195.00000000	198.44125092	199.66563642	202.80201852
 197	196.00000000	199.16421533	200.39275020	203.53978693
 198	197.00000000	199.89189148	201.12463653	204.28243428
 199	198.00000000	200.61207443	201.84898406	205.01739085
 200	199.00000000	201.33696914	202.57805854	205.75718075
 201	200.00000000	202.05441624	203.29967022	206.48938626
 202	201.00000000	202.76859552	204.01793808	207.21818715
 203	202.00000000	203.47946137	204.73292291	207.94365942
 204	203.00000000	204.18909609	205.44661582	208.66783977
 205	204.00000000	204.88760501	206.14915252	209.38068151
 206	205.00000000	205.58498919	206.85054928	210.09236813
 207	206.00000000	206.27533615	207.54489362	210.79689592
 208	207.00000000	206.96075857	208.23425263	211.49637759
 209	208.00000000	207.63929576	208.91672641	212.18886763
 210	209.00000000	208.32078159	209.60208803	212.88430631
 211	210.00000000	208.99354309	210.27877092	213.57089907
 212	211.00000000	209.66926843	210.95834166	214.26045567
 213	212.00000000	210.33636063	211.62930965	214.94127274
 214	213.00000000	211.01023167	212.30707169	215.62897503
 215	214.00000000	211.67562157	212.97624618	216.30799860
 216	215.00000000	212.34765351	213.65221471	216.99384660
 217	216.00000000	213.01318020	214.32155639	217.67303735
 218	217.00000000	213.68347943	214.99568582	218.35706145
 219	218.00000000	214.35286671	215.66893369	219.04018879
 220	219.00000000	215.02690494	216.34687811	219.72808868
 221	220.00000000	215.70188552	217.02576488	220.41693091
 222	221.00000000	216.37413025	217.70185500	221.10294610
 223	222.00000000	217.04909563	218.38071138	221.79177314
 224	223.00000000	217.72860557	219.06417310	222.48525113
 225	224.00000000	218.39993834	219.73932087	223.17032397
 226	225.00000000	219.07935709	220.42269140	223.86371076
 227	226.00000000	219.75424647	221.10145658	224.55244660
 228	227.00000000	220.43536752	221.78652942	225.24758130
 229	228.00000000	221.11375272	222.46879041	225.93985856
 230	229.00000000	221.79295868	223.15191776	226.63300216
 231	230.00000000	222.46942878	223.83229405	227.32336432
 232	231.00000000	223.15203935	224.51882601	228.01997334
 233	232.00000000	223.82838786	225.19908071	228.71019870
 234	233.00000000	224.51253355	225.88719338	229.40841883
 235	234.00000000	225.18701255	226.56551778	230.09671390
 236	235.00000000	225.86922795	227.25170016	230.79294294
 237	236.00000000	226.54183745	227.92817026	231.47933811
 238	237.00000000	227.22043544	228.61067444	232.17187375
 239	238.00000000	227.89638877	229.29048836	232.86167353
 240	239.00000000	228.57992649	229.97800827	233.55927050
 241	240.00000000	229.25401032	230.65593749	234.24717039
 242	241.00000000	229.93222833	231.33809209	234.93932605
 243	242.00000000	230.60109884	232.01082319	235.62192142
 244	243.00000000	231.27918005	232.69279540	236.31390989
 245	244.00000000	231.94963127	233.36710721	236.99811637
 246	245.00000000	232.62251437	234.04389650	237.68483073
 247	246.00000000	233.29285920	234.71810192	238.36894602
 248	247.00000000	233.97062123	235.39975494	239.06060010
 249	248.00000000	234.65075433	236.08382463	239.75470126
 250	249.00000000	235.33651114	236.77354842	240.45454770
 251	250.00000000	236.00000113	237.44080782	241.13162577
 252	251.00000000	236.65280610	238.09744298	241.79788202
 253	252.00000000	237.29352772	238.74182761	242.45172054
 254	253.00000000	237.93520689	239.38720018	243.10656220
 255	254.00000000	238.57460618	240.03027767	243.75907838
 256	255.00000000	239.21820045	240.67755014	244.41588074
END_DATA
