bench/lcms_compat/reference/ISOcoated_v2_grey1c_bas.ICC_to_srgb_Perceptual_BPC.it8
CGATS.17
ORIGINATOR	"icctrans"
#
# Data follows
#
NUMBER_OF_SETS	256.00000000
NUMBER_OF_FIELDS	5.00000000
BEGIN_DATA_FORMAT
 SAMPLE_ID	IN_GRAY	OUT_RGB_R	OUT_RGB_G	OUT_RGB_B
END_DATA_FORMAT
BEGIN_DATA
 1	0.00000000	0.00000783	-0.00000803	-0.00000603
 2	1.00000000	3.29641004	3.29639484	3.29640244
 3	2.00000000	6.59279728	6.59280156	6.59280108
 4	3.00000000	10.14674373	10.14673803	10.14674088
 5	4.00000000	13.32784088	13.32783328	13.32783803
 6	5.00000000	16.17160164	16.17159214	16.17159784
 7	6.00000000	18.74939092	18.74939281	18.74939092
 8	7.00000000	21.13122091	21.13121331	21.13122091
 9	8.00000000	23.38951003	23.38950813	23.38951193
 10	9.00000000	25.52285995	25.52284475	25.52284665
 11	10.00000000	27.43414219	27.43414409	27.43414219
 12	11.00000000	29.36495919	29.36496109	29.36496109
 13	12.00000000	31.16112661	31.16111521	31.16112091
 14	13.00000000	32.90292464	32.90293224	32.90292844
 15	14.00000000	34.61630210	34.61629830	34.61629450
 16	15.00000000	36.24907829	36.24909349	36.24908969
 17	16.00000000	37.84594640	37.84594260	37.84594640
 18	17.00000000	39.41047825	39.41048965	39.41048205
 19	18.00000000	40.91338880	40.91337740	40.91338120
 20	19.00000000	42.40765102	42.40765482	42.40765482
 21	20.00000000	43.87861289	43.87859769	43.87860529
 22	21.00000000	45.29901467	45.29901467	45.29901467
 23	22.00000000	46.72966450	46.72966830	46.72966830
 24	23.00000000	48.12826686	48.12827066	48.12827066
 25	24.00000000	49.47091721	49.47091721	49.47091721
 26	25.00000000	50.83919719	50.83919339	50.83919719
 27	26.00000000	52.16820247	52.16820627	52.16820247
 28	27.00000000	53.46087411	53.46087791	53.46087411
 29	28.00000000	54.77892458	54.77892078	54.77892458
 30	29.00000000	56.05101272	56.05100892	56.05101272
 31	30.00000000	57.32529335	57.32528955	57.32528955
 32	31.00000000	58.59040126	58.59040126	58.59039746
 33	32.00000000	59.82539199	59.82539199	59.82539199
 34	33.00000000	61.06350236	61.06351756	61.06350996
 35	34.00000000	62.28391707	62.28390947	62.28390947
 36	35.00000000	63.50760341	63.50760341	63.50759961
 37	36.00000000	64.73419279	64.73419279	64.73419279
 38	37.00000000	65.94418466	65.94418466	65.94418466
 39	38.00000000	67.13844538	67.13845298	67.13845298
 40	39.00000000	68.34538221	68.34537461	68.34537461
 41	40.00000000	69.52803835	69.52804595	69.52803835
 42	41.00000000	70.70538998	70.70538998	70.70538998
 43	42.00000000	71.88626781	71.88625261	71.88626021
 44	43.00000000	73.06184113	73.06183353	73.06184113
 45	44.00000000	74.23229232	74.23230752	74.23229992
 46	45.00000000	75.38142666	75.38141906	75.38141906
 47	46.00000000	76.53437600	76.53437600	76.53437600
 48	47.00000000	77.68294796	77.68294796	77.68294796
 49	48.00000000	78.78840744	78.78841504	78.78840744
 50	49.00000000	79.91397545	79.91396025	79.91396785
 51	50.00000000	81.00591525	81.00592285	81.00591525
 52	51.00000000	82.11019680	82.11018920	82.11018920
 53	52.00000000	83.18240047	83.18241566	83.18241566
 54	53.00000000	84.25984785	84.25984785	84.25984785
 55	54.00000000	85.29980645	85.29979125	85.29979125
 56	55.00000000	86.33865550	86.33866310	86.33866310
 57	56.00000000	87.38328025	87.38328025	87.38328785
 58	57.00000000	88.41307059	88.41305539	88.41306299
 59	58.00000000	89.44189578	89.44190338	89.44190338
 60	59.00000000	90.45001969	90.45003489	90.45002729
 61	60.00000000	91.45121276	91.45121276	91.45121276
 62	61.00000000	92.47133642	92.47134402	92.47134402
 63	62.00000000	93.47164795	93.47163275	93.47164035
 64	63.00000000	94.47782636	94.47783396	94.47782636
 65	64.00000000	95.47111586	95.47110826	95.47110066
 66	65.00000000	96.47629872	96.47630632	96.47629872
 67	66.00000000	97.47486994	97.47486234	97.47486234
 68	67.00000000	98.48483294	98.48482534	98.48481774
 69	68.00000000	99.47637454	99.47638974	99.47638214
 70	69.00000000	100.47912553	100.47912553	100.47913313
 71	70.00000000	101.47547007	101.47547007	101.47547007
 72	71.00000000	102.48817652	102.48820692	102.48818412
 73	72.00000000	103.48872364	103.48873883	103.48873124
 74	73.00000000	104.49407369	104.49405849	104.49406609
 75	74.00000000	105.48214227	105.48212707	105.48214227
 76	75.00000000	106.48586601	106.48588121	106.48587361
 77	76.00000000	107.48870820	107.48870820	107.48870820
 78	77.00000000	108.49063084	108.49063084	108.49063084
 79	78.00000000	109.49683964	109.49683204	109.49683964
 80	79.00000000	110.50199971	110.50201491	110.50200731
 81	80.00000000	111.49594277	111.49595037	111.49594277
 82	81.00000000	112.48907268	112.48905748	112.48906508
 83	82.00000000	113.48632157	113.48634437	113.48633677
 84	83.00000000	114.48268130	114.48267370	114.48267370
 85	84.00000000	115.47806069	115.47806069	115.47806069
 86	85.00000000	116.47249773	116.47251293	116.47251293
 87	86.00000000	117.45167479	117.45168239	117.45167479
 88	87.00000000	118.44910607	118.44909087	118.44909087
 89	88.00000000	119.42208186	119.42208186	119.42208186
 90	89.00000000	120.41300789	120.41301548	120.41300789
 91	90.00000000	121.38922870	121.38922870	121.38922870
 92	91.00000000	122.36476555	122.36477315	122.36477315
 93	92.00000000	123.33514228	123.33513469	123.33513469
 94	93.00000000	124.30489585	124.30488065	124.30488825
 95	94.00000000	125.26521072	125.26520312	125.26521072
 96	95.00000000	126.23380914	126.23380154	126.23380154
 97	96.00000000	127.18448013	127.18448013	127.18448013
 98	97.00000000	128.13912570	128.13912570	128.13912570
 99	98.00000000	129.08912033	129.08910513	129.08910513
 100	99.00000000	130.03455520	130.03455520	130.03455520
 101	100.00000000	130.97138733	130.97138733	130.97138733
 102	101.00000000	131.91633582	131.91633582	131.91633582
 103	102.00000000	132.84461081	132.84461081	132.84461081
 104	103.00000000	133.76473904	133.76473904	133.76473904
 105	104.00000000	134.67691809	134.67693329	134.67693329
 106	105.00000000	135.58930993	135.58929473	135.58930993
 107	106.00000000	136.49396539	136.49396539	136.49396539
 108	107.00000000	137.39500344	137.39498824	137.39498824
 109	108.00000000	138.28468770	138.28470290	138.28470290
 110	109.00000000	139.17488873	139.17488873	139.17488873
 111	110.00000000	140.06171554	140.06171554	140.06171554
 112	111.00000000	140.94145954	140.94144434	140.94145954
 113	112.00000000	141.81804210	141.81802690	141.81802690
 114	113.00000000	142.69149363	142.69149363	142.69149363
 115	114.00000000	143.55818152	143.55818152	143.55818152
 116	115.00000000	144.43295538	144.43297058	144.43295538
 117	116.00000000	145.29736340	145.29737860	145.29736340
 118	117.00000000	146.15889877	146.15889877	146.15889877
 119	118.00000000	147.01398969	147.01397449	147.01398969
 120	119.00000000	147.87345797	147.87347317	147.87345797
 121	120.00000000	148.72660339	148.72660339	148.72660339
 122	121.00000000	149.58757639	149.58759159	149.58759159
 123	122.00000000	150.43531090	150.43531090	150.43529570
 124	123.00000000	151.29081219	151.29081219	151.29079700
 125	124.00000000	152.14357764	152.14359283	152.14359283
 126	125.00000000	153.00394267	153.00394267	153.00395787
 127	126.00000000	153.85815203	153.85815203	153.85815203
 128	127.00000000	154.72315282	154.72313762	154.72315282
 129	128.00000000	155.57192087	155.57195127	155.57195127
 130	129.00000000	156.44804746	156.44803226	156.44803226
 131	130.00000000	157.30800211	157.30797172	157.30800211
 132	131.00000000	158.17829221	158.17830741	158.17830741
 133	132.00000000	159.04899269	159.04900789	159.04900789
 134	133.00000000	159.92007315	159.92005795	159.92005795
 135	134.00000000	160.78505874	160.78505874	160.78505874
 136	135.00000000	161.65999979	161.66001499	161.65999979
 137	136.00000000	162.52889156	162.52890676	162.52890676
 138	137.00000000	163.39813292	163.39813292	163.39813292
 139	138.00000000	164.27079409	164.27079409	164.27079409
 140	139.00000000	165.14372885	165.14369845	165.14369845
 141	140.00000000	166.00147963	166.00147963	166.00147963
 142	141.00000000	166.87494636	166.87496156	166.87494636
 143	142.00000000	167.73043245	167.73041725	167.73043245
 144	143.00000000	168.60139132	168.60139132	168.60139132
 145	144.00000000	169.45760697	169.45760697	169.45760697
 146	145.00000000	170.31719685	170.31718165	170.31718165
 147	146.00000000	171.16822958	171.16822958	171.16822958
 148	147.00000000	172.02853382	172.02851862	172.02851862
 149	148.00000000	172.87745386	172.87743866	172.87743866
 150	149.00000000	173.72681469	173.72679949	173.72679949
 151	150.00000000	174.56506491	174.56504971	174.56504971
 152	151.00000000	175.40383190	175.40384710	175.40384710
 153	152.00000000	176.24031901	176.24030381	176.24031901
 154	153.00000000	177.08014995	177.08014995	177.08014995
 155	154.00000000	177.89798766	177.89798766	177.89798766
 156	155.00000000	178.72494489	178.72494489	178.72494489
 157	156.00000000	179.53863323	179.53863323	179.53863323
 158	157.00000000	180.35308152	180.35308152	180.35308152
 159	158.00000000	181.16552353	181.16553873	181.16553873
 160	159.00000000	181.97874069	181.97874069	181.97872549
 161	160.00000000	182.77909935	182.77908415	182.77909935
 162	161.00000000	183.58842552	183.58842552	183.58842552
 163	162.00000000	184.38776582	184.38776582	184.38776582
 164	163.00000000	185.19329220	185.19329220	185.19329220
 165	164.00000000	185.98898470	185.98899990	185.98899990
 166	165.00000000	186.78555876	186.78555876	186.78555876
 167	166.00000000	187.58035451	187.58033931	187.58033931
 168	167.00000000	188.37338716	188.37338716	188.37337196
 169	168.00000000	189.16467190	189.16470230	189.16468710
 170	169.00000000	189.96203631	189.96203631	189.96203631
 171	170.00000000	190.74474871	190.74477911	190.74476391
 172	171.00000000	191.53867811	191.53863251	191.53866291
 173	172.00000000	192.32319921	192.32318401	192.32319921
 174	173.00000000	193.11115533	193.11117053	193.11117053
 175	174.00000000	193.89243901	193.89245421	193.89243901
 176	175.00000000	194.68214303	194.68212783	194.68212783
 177	176.00000000	195.46269715	195.46268195	195.46269715
 178	177.00000000	196.24911815	196.24907255	196.24908775
 179	178.00000000	197.02648044	197.02648044	197.02649564
 180	179.00000000	197.81700522	197.81702042	197.81702042
 181	180.00000000	198.59616101	198.59613061	198.59614581
 182	181.00000000	199.39066797	199.39066797	199.39066797
 183	182.00000000	200.17386675	200.17386675	200.17385155
 184	183.00000000	200.95784068	200.95784068	200.95784068
 185	184.00000000	201.74499124	201.74502164	201.74500644
 186	185.00000000	202.53294736	202.53291696	202.53293216
 187	186.00000000	203.32157224	203.32158744	203.32157224
 188	187.00000000	204.11329776	204.11328256	204.11328256
 189	188.00000000	204.89867002	204.89867002	204.89867002
 190	189.00000000	205.69174826	205.69174826	205.69174826
 191	190.00000000	206.48315459	206.48313940	206.48313940
 192	191.00000000	207.28213012	207.28213012	207.28211492
 193	192.00000000	208.07478279	208.07476759	208.07476759
 194	193.00000000	208.87264878	208.87260318	208.87260318
 195	194.00000000	209.66872126	209.66876686	209.66873646
 196	195.00000000	210.46769679	210.46771199	210.46769679
 197	196.00000000	211.26044065	211.26045585	211.26045585
 198	197.00000000	212.05823064	212.05827624	212.05826104
 199	198.00000000	212.84767628	212.84769148	212.84769148
 200	199.00000000	213.64216805	213.64215285	213.64215285
 201	200.00000000	214.42834586	214.42834586	214.42834586
 202	201.00000000	215.21078467	215.21075428	215.21076947
 203	202.00000000	215.98946929	215.98946929	215.98946929
 204	203.00000000	216.76667958	216.76667958	216.76667958
 205	204.00000000	217.53156334	217.53157854	217.53156334
 206	205.00000000	218.29510957	218.29510957	218.29510957
 207	206.00000000	219.05087382	219.05085862	219.05085862
 208	207.00000000	219.80109036	219.80109036	219.80107516
 209	208.00000000	220.54367691	220.54369211	220.54367691
 210	209.00000000	221.28937930	221.28933370	221.28934890
 211	210.00000000	222.02541500	222.02543020	222.02543020
 212	211.00000000	222.76459694	222.76456654	222.76456654
 213	212.00000000	223.49423379	223.49423379	223.49423379
 214	213.00000000	224.23116624	224.23119664	224.23118144
 215	214.00000000	224.95876640	224.95872080	224.95875120
 216	215.00000000	225.69347978	225.69352537	225.69351017
 217	216.00000000	226.42100394	226.42104954	226.42103434
 218	217.00000000	227.15366542	227.15365022	227.15365022
 219	218.00000000	227.88521737	227.88521737	227.88520217
 220	219.00000000	228.62178504	228.62178504	228.62178504
 221	220.00000000	229.35926467	229.35927987	229.35927987
 222	221.00000000	230.09364367	230.09364367	230.09364367
 223	222.00000000	230.83092570	230.83091050	230.83092570
 224	223.00000000	231.57308668	231.57310188	231.57308668
 225	224.00000000	232.30618894	232.30614334	232.30617374
 226	225.00000000	233.04806113	233.04806113	233.04806113
 227	226.00000000	233.78485680	233.78487200	233.78487200
 228	227.00000000	234.52843130	234.52841610	234.52843130
 229	228.00000000	235.26887476	235.26887476	235.26887476
 230	229.00000000	236.01013899	236.01013899	236.01013899
 231	230.00000000	236.74834818	236.74833298	236.74833298
 232	231.00000000	237.49313861	237.49313861	237.49313861
 233	232.00000000	238.23104382	238.23101342	238.23102862
 234	233.00000000	238.97736937	238.97736937	238.97736937
 235	234.00000000	239.71302509	239.71302509	239.71304029
 236	235.00000000	240.45707077	240.45710117	240.45707077
 237	236.00000000	241.19053781	241.19055301	241.19055301
 238	237.00000000	241.93047971	241.93049490	241.93049490
 239	238.00000000	242.66744256	242.66742736	242.66742736
 240	239.00000000	243.41261297	243.41261297	243.41261297
 241	240.00000000	244.14737195	244.14734155	244.14735675
 242	241.00000000	244.88658428	244.88658428	244.88658428
 243	242.00000000	245.61550677	245.61550677	245.61550677
 244	243.00000000	246.35441512	246.35439992	246.35441512
 245	244.00000000	247.08491832	247.08491832	247.08491832
 246	245.00000000	247.81803578	247.81800538	247.81802058
 247	246.00000000	248.54828060	248.54826540	248.54826540
 248	247.00000000	249.28652018	249.28650498	249.28652018
 249	248.00000000	250.02728283	250.02728283	250.02726763
 250	249.00000000	250.77409476	250.77410996	250.77410996
 251	250.00000000	251.49657279	251.49655759	251.49657279
 252	251.00000000	252.20739305	252.20740825	252.20740825
 253	252.00000000	252.90494442	252.90495962	252.90494442
 254	253.00000000	253.60348374	253.60351413	253.60349894
 255	254.00000000	254.29951519	254.29949999	254.29949999
 256	255.00000000	255.00000000	255.00000000	255.00000000
END_DATA
