bench/lcms_compat/reference/ISOcoated_v2_grey1c_bas.ICC_to_lab_Relative.it8
CGATS.17
ORIGINATOR	"icctrans"
#
# Data follows
#
NUMBER_OF_SETS	256.00000000
NUMBER_OF_FIELDS	5.00000000
BEGIN_DATA_FORMAT
 SAMPLE_ID	IN_GRAY	OUT_LAB_L	OUT_LAB_A	OUT_LAB_B
END_DATA_FORMAT
BEGIN_DATA
 1	0.00000000	17.44003892	0.00000757	0.00000757
 2	1.00000000	17.88838655	0.00000757	-0.00000763
 3	2.00000000	18.32517684	-0.00000763	-0.00000763
 4	3.00000000	18.78396422	0.00000757	-0.00000763
 5	4.00000000	19.22455877	0.00000757	-0.00000763
 6	5.00000000	19.67312694	0.00000757	-0.00000763
 7	6.00000000	20.12286186	0.00000757	-0.00000763
 8	7.00000000	20.57354152	0.00000757	-0.00000763
 9	8.00000000	21.03075832	0.00000757	-0.00000763
 10	9.00000000	21.48825675	0.00000757	0.00000757
 11	10.00000000	21.91829681	-0.00000763	0.00000757
 12	11.00000000	22.37117589	0.00000757	0.00000757
 13	12.00000000	22.80834019	0.00000757	-0.00000763
 14	13.00000000	23.24618399	-0.00000763	0.00000757
 15	14.00000000	23.68959337	0.00000757	0.00000757
 16	15.00000000	24.12331402	-0.00000763	0.00000757
 17	16.00000000	24.55750704	0.00000757	-0.00000763
 18	17.00000000	24.99205172	-0.00000763	0.00000757
 19	18.00000000	25.41757226	0.00000757	-0.00000763
 20	19.00000000	25.84812939	0.00000757	-0.00000763
 21	20.00000000	26.27888918	0.00000757	-0.00000763
 22	21.00000000	26.70104802	0.00000757	-0.00000763
 23	22.00000000	27.13209689	-0.00000763	-0.00000763
 24	23.00000000	27.55888104	0.00000757	-0.00000763
 25	24.00000000	27.97335684	0.00000757	-0.00000763
 26	25.00000000	28.40031087	-0.00000763	0.00000757
 27	26.00000000	28.81920636	0.00000757	0.00000757
 28	27.00000000	29.23041284	-0.00000763	0.00000757
 29	28.00000000	29.65333164	-0.00000763	0.00000757
 30	29.00000000	30.06481528	0.00000757	-0.00000763
 31	30.00000000	30.48010468	-0.00000763	0.00000757
 32	31.00000000	30.89531958	0.00000757	-0.00000763
 33	32.00000000	31.30331337	-0.00000763	0.00000757
 34	33.00000000	31.71485364	-0.00000763	0.00000757
 35	34.00000000	32.12283850	0.00000757	0.00000757
 36	35.00000000	32.53413439	0.00000757	-0.00000763
 37	36.00000000	32.94852078	-0.00000763	0.00000757
 38	37.00000000	33.35926533	-0.00000763	0.00000757
 39	38.00000000	33.76649022	-0.00000763	0.00000757
 40	39.00000000	34.17977393	0.00000757	0.00000757
 41	40.00000000	34.58635807	-0.00000763	0.00000757
 42	41.00000000	34.99261737	-0.00000763	0.00000757
 43	42.00000000	35.40152013	0.00000757	0.00000757
 44	43.00000000	35.80993414	0.00000757	-0.00000763
 45	44.00000000	36.21783555	-0.00000763	0.00000757
 46	45.00000000	36.61945760	0.00000757	-0.00000763
 47	46.00000000	37.02352047	-0.00000763	-0.00000763
 48	47.00000000	37.42707372	0.00000757	-0.00000763
 49	48.00000000	37.81640232	-0.00000763	0.00000757
 50	49.00000000	38.21368515	0.00000757	-0.00000763
 51	50.00000000	38.59990537	-0.00000763	0.00000757
 52	51.00000000	38.99123967	0.00000757	-0.00000763
 53	52.00000000	39.37190473	-0.00000763	-0.00000763
 54	53.00000000	39.75506723	0.00000757	-0.00000763
 55	54.00000000	40.12547731	0.00000757	0.00000757
 56	55.00000000	40.49603641	-0.00000763	0.00000757
 57	56.00000000	40.86916149	-0.00000763	-0.00000763
 58	57.00000000	41.23745263	0.00000757	0.00000757
 59	58.00000000	41.60585403	-0.00000763	-0.00000763
 60	59.00000000	41.96723700	-0.00000763	0.00000757
 61	60.00000000	42.32650101	0.00000757	-0.00000763
 62	61.00000000	42.69292355	-0.00000763	0.00000757
 63	62.00000000	43.05254519	0.00000757	-0.00000763
 64	63.00000000	43.41459274	-0.00000763	0.00000757
 65	64.00000000	43.77227724	0.00000757	0.00000757
 66	65.00000000	44.13451552	-0.00000763	0.00000757
 67	66.00000000	44.49461102	0.00000757	-0.00000763
 68	67.00000000	44.85904574	0.00000757	0.00000757
 69	68.00000000	45.21704912	-0.00000763	0.00000757
 70	69.00000000	45.57928741	-0.00000763	-0.00000763
 71	70.00000000	45.93938291	0.00000757	0.00000757
 72	71.00000000	46.30557001	-0.00000763	0.00000757
 73	72.00000000	46.66749835	0.00000757	-0.00000763
 74	73.00000000	47.03129232	0.00000757	0.00000757
 75	74.00000000	47.38895893	0.00000757	-0.00000763
 76	75.00000000	47.75240123	-0.00000763	-0.00000763
 77	76.00000000	48.11561108	0.00000757	0.00000757
 78	77.00000000	48.47857058	-0.00000763	-0.00000763
 79	78.00000000	48.84315133	-0.00000763	-0.00000763
 80	79.00000000	49.20741618	-0.00000763	0.00000757
 81	80.00000000	49.56765473	-0.00000763	0.00000757
 82	81.00000000	49.92763102	0.00000757	-0.00000763
 83	82.00000000	50.28913617	-0.00000763	-0.00000763
 84	83.00000000	50.65032244	0.00000757	-0.00000763
 85	84.00000000	51.01116300	0.00000757	-0.00000763
 86	85.00000000	51.37166977	-0.00000763	0.00000757
 87	86.00000000	51.72661543	-0.00000763	0.00000757
 88	87.00000000	52.08816528	0.00000757	-0.00000763
 89	88.00000000	52.44082212	-0.00000763	0.00000757
 90	89.00000000	52.79995799	-0.00000763	0.00000757
 91	90.00000000	53.15371752	-0.00000763	0.00000757
 92	91.00000000	53.50717902	-0.00000763	-0.00000763
 93	92.00000000	53.85870934	-0.00000763	0.00000757
 94	93.00000000	54.20995951	0.00000757	0.00000757
 95	94.00000000	54.55772877	0.00000757	-0.00000763
 96	95.00000000	54.90842462	0.00000757	0.00000757
 97	96.00000000	55.25255203	-0.00000763	0.00000757
 98	97.00000000	55.59803247	-0.00000763	0.00000757
 99	98.00000000	55.94174862	0.00000757	0.00000757
 100	99.00000000	56.28373027	-0.00000763	0.00000757
 101	100.00000000	56.62250519	0.00000757	0.00000757
 102	101.00000000	56.96411729	0.00000757	-0.00000763
 103	102.00000000	57.29960203	0.00000757	-0.00000763
 104	103.00000000	57.63204694	-0.00000763	-0.00000763
 105	104.00000000	57.96151161	-0.00000763	-0.00000763
 106	105.00000000	58.29094648	0.00000757	-0.00000763
 107	106.00000000	58.61748457	-0.00000763	-0.00000763
 108	107.00000000	58.94260406	-0.00000763	0.00000757
 109	108.00000000	59.26352739	-0.00000763	-0.00000763
 110	109.00000000	59.58451629	-0.00000763	0.00000757
 111	110.00000000	59.90417004	0.00000757	-0.00000763
 112	111.00000000	60.22116542	0.00000757	-0.00000763
 113	112.00000000	60.53689718	-0.00000763	-0.00000763
 114	113.00000000	60.85138917	-0.00000763	-0.00000763
 115	114.00000000	61.16333008	-0.00000763	0.00000757
 116	115.00000000	61.47806048	0.00000757	0.00000757
 117	116.00000000	61.78893447	-0.00000763	-0.00000763
 118	117.00000000	62.09865212	0.00000757	-0.00000763
 119	118.00000000	62.40593195	0.00000757	0.00000757
 120	119.00000000	62.71466613	-0.00000763	0.00000757
 121	120.00000000	63.02099824	-0.00000763	0.00000757
 122	121.00000000	63.33001852	-0.00000763	-0.00000763
 123	122.00000000	63.63414526	-0.00000763	0.00000757
 124	123.00000000	63.94094229	-0.00000763	0.00000757
 125	124.00000000	64.24663067	-0.00000763	0.00000757
 126	125.00000000	64.55489397	-0.00000763	-0.00000763
 127	126.00000000	64.86082077	0.00000757	0.00000757
 128	127.00000000	65.17047882	0.00000757	-0.00000763
 129	128.00000000	65.47420621	-0.00000763	-0.00000763
 130	129.00000000	65.78755379	0.00000757	-0.00000763
 131	130.00000000	66.09498262	0.00000757	-0.00000763
 132	131.00000000	66.40597582	-0.00000763	0.00000757
 133	132.00000000	66.71695709	-0.00000763	0.00000757
 134	133.00000000	67.02792048	0.00000757	0.00000757
 135	134.00000000	67.33657718	-0.00000763	0.00000757
 136	135.00000000	67.64863133	0.00000757	0.00000757
 137	136.00000000	67.95837879	-0.00000763	0.00000757
 138	137.00000000	68.26809049	-0.00000763	-0.00000763
 139	138.00000000	68.57886910	0.00000757	-0.00000763
 140	139.00000000	68.88959408	-0.00000763	0.00000757
 141	140.00000000	69.19476986	-0.00000763	0.00000757
 142	141.00000000	69.50538158	-0.00000763	0.00000757
 143	142.00000000	69.80943680	0.00000757	-0.00000763
 144	143.00000000	70.11885047	-0.00000763	0.00000757
 145	144.00000000	70.42286396	-0.00000763	0.00000757
 146	145.00000000	70.72792053	-0.00000763	0.00000757
 147	146.00000000	71.02980018	0.00000757	-0.00000763
 148	147.00000000	71.33480906	-0.00000763	0.00000757
 149	148.00000000	71.63562775	-0.00000763	0.00000757
 150	149.00000000	71.93644643	0.00000757	0.00000757
 151	150.00000000	72.23318815	0.00000757	-0.00000763
 152	151.00000000	72.52997160	-0.00000763	0.00000757
 153	152.00000000	72.82578349	-0.00000763	-0.00000763
 154	153.00000000	73.12263846	0.00000757	-0.00000763
 155	154.00000000	73.41156602	0.00000757	-0.00000763
 156	155.00000000	73.70357513	-0.00000763	-0.00000763
 157	156.00000000	73.99075627	0.00000757	-0.00000763
 158	157.00000000	74.27806258	0.00000757	-0.00000763
 159	158.00000000	74.56452250	-0.00000763	0.00000757
 160	159.00000000	74.85110164	-0.00000763	0.00000757
 161	160.00000000	75.13301373	-0.00000763	-0.00000763
 162	161.00000000	75.41794777	-0.00000763	0.00000757
 163	162.00000000	75.69922805	-0.00000763	0.00000757
 164	163.00000000	75.98254085	-0.00000763	-0.00000763
 165	164.00000000	76.26226544	-0.00000763	-0.00000763
 166	165.00000000	76.54215097	0.00000757	0.00000757
 167	166.00000000	76.82127357	0.00000757	-0.00000763
 168	167.00000000	77.09963918	0.00000757	-0.00000763
 169	168.00000000	77.37727761	-0.00000763	0.00000757
 170	169.00000000	77.65688300	-0.00000763	0.00000757
 171	170.00000000	77.93122530	0.00000757	0.00000757
 172	171.00000000	78.20934653	0.00000757	0.00000757
 173	172.00000000	78.48405838	0.00000757	-0.00000763
 174	173.00000000	78.75983715	-0.00000763	0.00000757
 175	174.00000000	79.03313637	-0.00000763	0.00000757
 176	175.00000000	79.30924296	-0.00000763	0.00000757
 177	176.00000000	79.58202362	0.00000757	-0.00000763
 178	177.00000000	79.85670567	0.00000757	-0.00000763
 179	178.00000000	80.12811542	-0.00000763	0.00000757
 180	179.00000000	80.40397763	-0.00000763	-0.00000763
 181	180.00000000	80.67571521	0.00000757	-0.00000763
 182	181.00000000	80.95269203	0.00000757	-0.00000763
 183	182.00000000	81.22558594	-0.00000763	0.00000757
 184	183.00000000	81.49861693	-0.00000763	0.00000757
 185	184.00000000	81.77261949	0.00000757	-0.00000763
 186	185.00000000	82.04675317	-0.00000763	0.00000757
 187	186.00000000	82.32100010	-0.00000763	-0.00000763
 188	187.00000000	82.59617686	0.00000757	0.00000757
 189	188.00000000	82.86901712	-0.00000763	-0.00000763
 190	189.00000000	83.14439058	-0.00000763	-0.00000763
 191	190.00000000	83.41904879	-0.00000763	0.00000757
 192	191.00000000	83.69619846	0.00000757	0.00000757
 193	192.00000000	83.97101164	-0.00000763	0.00000757
 194	193.00000000	84.24748778	0.00000757	-0.00000763
 195	194.00000000	84.52323675	-0.00000763	0.00000757
 196	195.00000000	84.79981422	-0.00000763	-0.00000763
 197	196.00000000	85.07410884	0.00000757	-0.00000763
 198	197.00000000	85.35002470	-0.00000763	-0.00000763
 199	198.00000000	85.62289476	-0.00000763	0.00000757
 200	199.00000000	85.89738011	0.00000757	0.00000757
 201	200.00000000	86.16886139	-0.00000763	-0.00000763
 202	201.00000000	86.43891215	0.00000757	-0.00000763
 203	202.00000000	86.70755029	-0.00000763	-0.00000763
 204	203.00000000	86.97553277	0.00000757	-0.00000763
 205	204.00000000	87.23914623	0.00000757	0.00000757
 206	205.00000000	87.50216961	-0.00000763	0.00000757
 207	206.00000000	87.76237965	0.00000757	0.00000757
 208	207.00000000	88.02056909	0.00000757	0.00000757
 209	208.00000000	88.27601075	-0.00000763	0.00000757
 210	209.00000000	88.53238821	0.00000757	0.00000757
 211	210.00000000	88.78535628	-0.00000763	0.00000757
 212	211.00000000	89.03925419	0.00000757	0.00000757
 213	212.00000000	89.28979039	0.00000757	-0.00000763
 214	213.00000000	89.54270482	-0.00000763	-0.00000763
 215	214.00000000	89.79227543	0.00000757	-0.00000763
 216	215.00000000	90.04421234	-0.00000763	0.00000757
 217	216.00000000	90.29355049	-0.00000763	-0.00000763
 218	217.00000000	90.54451585	0.00000757	-0.00000763
 219	218.00000000	90.79501033	0.00000757	0.00000757
 220	219.00000000	91.04710221	-0.00000763	-0.00000763
 221	220.00000000	91.29939675	-0.00000763	0.00000757
 222	221.00000000	91.55049920	0.00000757	-0.00000763
 223	222.00000000	91.80248976	0.00000757	-0.00000763
 224	223.00000000	92.05603004	-0.00000763	-0.00000763
 225	224.00000000	92.30635166	0.00000757	-0.00000763
 226	225.00000000	92.55957007	-0.00000763	0.00000757
 227	226.00000000	92.81093478	0.00000757	-0.00000763
 228	227.00000000	93.06448698	-0.00000763	-0.00000763
 229	228.00000000	93.31685901	0.00000757	-0.00000763
 230	229.00000000	93.56939793	0.00000757	0.00000757
 231	230.00000000	93.82078052	0.00000757	-0.00000763
 232	231.00000000	94.07429099	-0.00000763	0.00000757
 233	232.00000000	94.32533383	0.00000757	-0.00000763
 234	233.00000000	94.57913637	-0.00000763	-0.00000763
 235	234.00000000	94.82918978	0.00000757	-0.00000763
 236	235.00000000	95.08198500	0.00000757	0.00000757
 237	236.00000000	95.33107281	0.00000757	-0.00000763
 238	237.00000000	95.58224082	-0.00000763	-0.00000763
 239	238.00000000	95.83227634	0.00000757	-0.00000763
 240	239.00000000	96.08499408	-0.00000763	-0.00000763
 241	240.00000000	96.33405805	0.00000757	-0.00000763
 242	241.00000000	96.58453465	-0.00000763	0.00000757
 243	242.00000000	96.83140516	-0.00000763	0.00000757
 244	243.00000000	97.08154202	0.00000757	0.00000757
 245	244.00000000	97.32872844	0.00000757	0.00000757
 246	245.00000000	97.57668376	0.00000757	-0.00000763
 247	246.00000000	97.82356620	-0.00000763	0.00000757
 248	247.00000000	98.07303548	0.00000757	0.00000757
 249	248.00000000	98.32324386	0.00000757	0.00000757
 250	249.00000000	98.57538939	-0.00000763	-0.00000763
 251	250.00000000	98.81919622	0.00000757	-0.00000763
 252	251.00000000	99.05898571	-0.00000763	-0.00000763
 253	252.00000000	99.29418564	0.00000757	0.00000757
 254	253.00000000	99.52962399	-0.00000763	0.00000757
 255	254.00000000	99.76410270	0.00000757	-0.00000763
 256	255.00000000	100.00000000	0.00000757	-0.00000763
END_DATA
