bench/lcms_compat/reference/ISOcoated_v2_grey1c_bas.ICC_to_lab_Perceptual_BPC.it8
CGATS.17
ORIGINATOR	"icctrans"
#
# Data follows
#
NUMBER_OF_SETS	256.00000000
NUMBER_OF_FIELDS	5.00000000
BEGIN_DATA_FORMAT
 SAMPLE_ID	IN_GRAY	OUT_LAB_L	OUT_LAB_A	OUT_LAB_B
END_DATA_FORMAT
BEGIN_DATA
 1	0.00000000	-0.00000120	0.00000757	0.00000757
 2	1.00000000	0.90378942	0.00000757	-0.00000763
 3	2.00000000	1.80757996	-0.00000763	-0.00000763
 4	3.00000000	2.78198030	0.00000757	-0.00000763
 5	4.00000000	3.74225639	0.00000757	-0.00000763
 6	5.00000000	4.74489890	0.00000757	-0.00000763
 7	6.00000000	5.77578507	-0.00000763	0.00000757
 8	7.00000000	6.83491305	0.00000757	-0.00000763
 9	8.00000000	7.93640837	0.00000757	-0.00000763
 10	9.00000000	9.02200788	0.00000757	0.00000757
 11	10.00000000	9.98484567	-0.00000763	0.00000757
 12	11.00000000	10.94854325	-0.00000763	0.00000757
 13	12.00000000	11.83735132	0.00000757	-0.00000763
 14	13.00000000	12.69253939	-0.00000763	0.00000757
 15	14.00000000	13.52759004	0.00000757	0.00000757
 16	15.00000000	14.31790888	-0.00000763	-0.00000763
 17	16.00000000	15.08588195	0.00000757	-0.00000763
 18	17.00000000	15.83374143	-0.00000763	0.00000757
 19	18.00000000	16.54801816	0.00000757	-0.00000763
 20	19.00000000	17.25433469	-0.00000763	-0.00000763
 21	20.00000000	17.94597954	0.00000757	-0.00000763
 22	21.00000000	18.61053407	0.00000757	-0.00000763
 23	22.00000000	19.27667111	-0.00000763	-0.00000763
 24	23.00000000	19.92485821	0.00000757	-0.00000763
 25	24.00000000	20.54437399	0.00000757	-0.00000763
 26	25.00000000	21.17302418	0.00000757	-0.00000763
 27	26.00000000	21.78110033	-0.00000763	0.00000757
 28	27.00000000	22.37021029	-0.00000763	0.00000757
 29	28.00000000	22.96856642	0.00000757	-0.00000763
 30	29.00000000	23.54388833	0.00000757	-0.00000763
 31	30.00000000	24.11811054	0.00000757	0.00000757
 32	31.00000000	24.68617558	-0.00000763	0.00000757
 33	32.00000000	25.23880899	0.00000757	0.00000757
 34	33.00000000	25.79099238	-0.00000763	0.00000757
 35	34.00000000	26.33349001	0.00000757	0.00000757
 36	35.00000000	26.87571347	-0.00000763	0.00000757
 37	36.00000000	27.41750479	-0.00000763	0.00000757
 38	37.00000000	27.95031667	-0.00000763	0.00000757
 39	38.00000000	28.47462296	-0.00000763	0.00000757
 40	39.00000000	29.00292277	0.00000757	0.00000757
 41	40.00000000	29.51910198	-0.00000763	0.00000757
 42	41.00000000	30.03151119	0.00000757	-0.00000763
 43	42.00000000	30.54402471	0.00000757	-0.00000763
 44	43.00000000	31.05284572	0.00000757	-0.00000763
 45	44.00000000	31.55808747	-0.00000763	0.00000757
 46	45.00000000	32.05281496	0.00000757	-0.00000763
 47	46.00000000	32.54791796	-0.00000763	-0.00000763
 48	47.00000000	33.03988576	0.00000757	-0.00000763
 49	48.00000000	33.51222575	-0.00000763	0.00000757
 50	49.00000000	33.99199843	0.00000757	-0.00000763
 51	50.00000000	34.45634842	-0.00000763	0.00000757
 52	51.00000000	34.92485285	0.00000757	-0.00000763
 53	52.00000000	35.37873030	-0.00000763	-0.00000763
 54	53.00000000	35.83380878	0.00000757	-0.00000763
 55	54.00000000	36.27210855	0.00000757	0.00000757
 56	55.00000000	36.70903444	-0.00000763	-0.00000763
 57	56.00000000	37.14747429	-0.00000763	-0.00000763
 58	57.00000000	37.57879734	0.00000757	-0.00000763
 59	58.00000000	38.00886273	-0.00000763	0.00000757
 60	59.00000000	38.42944205	-0.00000763	0.00000757
 61	60.00000000	38.84631991	0.00000757	0.00000757
 62	61.00000000	39.27027583	-0.00000763	0.00000757
 63	62.00000000	39.68520164	0.00000757	-0.00000763
 64	63.00000000	40.10179043	-0.00000763	0.00000757
 65	64.00000000	40.51227868	0.00000757	0.00000757
 66	65.00000000	40.92693627	-0.00000763	0.00000757
 67	66.00000000	41.33810699	0.00000757	0.00000757
 68	67.00000000	41.75322354	0.00000757	0.00000757
 69	68.00000000	42.16005206	-0.00000763	0.00000757
 70	69.00000000	42.57075191	0.00000757	-0.00000763
 71	70.00000000	42.97811389	0.00000757	0.00000757
 72	71.00000000	43.39145422	-0.00000763	0.00000757
 73	72.00000000	43.79911721	-0.00000763	0.00000757
 74	73.00000000	44.20803487	0.00000757	-0.00000763
 75	74.00000000	44.60925460	0.00000757	-0.00000763
 76	75.00000000	45.01615763	-0.00000763	-0.00000763
 77	76.00000000	45.42202055	0.00000757	0.00000757
 78	77.00000000	45.82684338	-0.00000763	-0.00000763
 79	78.00000000	46.23273313	0.00000757	-0.00000763
 80	79.00000000	46.63754404	-0.00000763	0.00000757
 81	80.00000000	47.03719020	-0.00000763	0.00000757
 82	81.00000000	47.43587375	0.00000757	-0.00000763
 83	82.00000000	47.83559740	-0.00000763	-0.00000763
 84	83.00000000	48.23431969	0.00000757	0.00000757
 85	84.00000000	48.63204360	0.00000757	-0.00000763
 86	85.00000000	49.02878702	-0.00000763	-0.00000763
 87	86.00000000	49.41884279	-0.00000763	0.00000757
 88	87.00000000	49.81556833	0.00000757	-0.00000763
 89	88.00000000	50.20200014	-0.00000763	0.00000757
 90	89.00000000	50.59498549	-0.00000763	0.00000757
 91	90.00000000	50.98156929	0.00000757	-0.00000763
 92	91.00000000	51.36732459	-0.00000763	-0.00000763
 93	92.00000000	51.75049305	0.00000757	0.00000757
 94	93.00000000	52.13286877	0.00000757	-0.00000763
 95	94.00000000	52.51100659	0.00000757	-0.00000763
 96	95.00000000	52.89187431	0.00000757	0.00000757
 97	96.00000000	53.26517820	-0.00000763	-0.00000763
 98	97.00000000	53.63953710	-0.00000763	0.00000757
 99	98.00000000	54.01157737	0.00000757	0.00000757
 100	99.00000000	54.38134074	-0.00000763	0.00000757
 101	100.00000000	54.74725962	0.00000757	0.00000757
 102	101.00000000	55.11587262	0.00000757	-0.00000763
 103	102.00000000	55.47751188	0.00000757	0.00000757
 104	103.00000000	55.83553314	0.00000757	-0.00000763
 105	104.00000000	56.19001985	-0.00000763	0.00000757
 106	105.00000000	56.54414296	0.00000757	-0.00000763
 107	106.00000000	56.89485073	-0.00000763	0.00000757
 108	107.00000000	57.24372864	0.00000757	0.00000757
 109	108.00000000	57.58782029	-0.00000763	0.00000757
 110	109.00000000	57.93169141	-0.00000763	0.00000757
 111	110.00000000	58.27386379	0.00000757	-0.00000763
 112	111.00000000	58.61291885	0.00000757	-0.00000763
 113	112.00000000	58.95037055	0.00000757	0.00000757
 114	113.00000000	59.28624272	0.00000757	-0.00000763
 115	114.00000000	59.61914659	-0.00000763	0.00000757
 116	115.00000000	59.95478630	-0.00000763	0.00000757
 117	116.00000000	60.28608084	-0.00000763	0.00000757
 118	117.00000000	60.61590910	0.00000757	-0.00000763
 119	118.00000000	60.94292402	0.00000757	-0.00000763
 120	119.00000000	61.27127409	-0.00000763	0.00000757
 121	120.00000000	61.59685254	-0.00000763	0.00000757
 122	121.00000000	61.92508340	-0.00000763	0.00000757
 123	122.00000000	62.24790812	0.00000757	0.00000757
 124	123.00000000	62.57336736	-0.00000763	0.00000757
 125	124.00000000	62.89746165	-0.00000763	-0.00000763
 126	125.00000000	63.22408915	0.00000757	-0.00000763
 127	126.00000000	63.54805231	0.00000757	0.00000757
 128	127.00000000	63.87577057	0.00000757	-0.00000763
 129	128.00000000	64.19703364	-0.00000763	-0.00000763
 130	129.00000000	64.52828050	0.00000757	-0.00000763
 131	130.00000000	64.85309601	0.00000757	-0.00000763
 132	131.00000000	65.18149972	-0.00000763	0.00000757
 133	132.00000000	65.50970674	-0.00000763	-0.00000763
 134	133.00000000	65.83772898	0.00000757	0.00000757
 135	134.00000000	66.16313457	-0.00000763	0.00000757
 136	135.00000000	66.49196148	-0.00000763	0.00000757
 137	136.00000000	66.81818962	-0.00000763	-0.00000763
 138	137.00000000	67.14422107	-0.00000763	0.00000757
 139	138.00000000	67.47121811	0.00000757	-0.00000763
 140	139.00000000	67.79799461	0.00000757	0.00000757
 141	140.00000000	68.11878681	-0.00000763	0.00000757
 142	141.00000000	68.44513416	-0.00000763	0.00000757
 143	142.00000000	68.76445413	0.00000757	-0.00000763
 144	143.00000000	69.08925772	-0.00000763	0.00000757
 145	144.00000000	69.40824389	-0.00000763	0.00000757
 146	145.00000000	69.72818971	0.00000757	-0.00000763
 147	146.00000000	70.04466653	0.00000757	-0.00000763
 148	147.00000000	70.36429048	0.00000757	0.00000757
 149	148.00000000	70.67939639	0.00000757	0.00000757
 150	149.00000000	70.99437714	0.00000757	0.00000757
 151	150.00000000	71.30495906	0.00000757	-0.00000763
 152	151.00000000	71.61546350	-0.00000763	0.00000757
 153	152.00000000	71.92483544	0.00000757	-0.00000763
 154	153.00000000	72.23518491	0.00000757	-0.00000763
 155	154.00000000	72.53713608	-0.00000763	0.00000757
 156	155.00000000	72.84219861	0.00000757	0.00000757
 157	156.00000000	73.14210534	-0.00000763	-0.00000763
 158	157.00000000	73.44204187	0.00000757	0.00000757
 159	158.00000000	73.74099493	-0.00000763	0.00000757
 160	159.00000000	74.03997183	-0.00000763	0.00000757
 161	160.00000000	74.33398366	0.00000757	-0.00000763
 162	161.00000000	74.63105321	-0.00000763	0.00000757
 163	162.00000000	74.92421269	0.00000757	0.00000757
 164	163.00000000	75.21941066	-0.00000763	0.00000757
 165	164.00000000	75.51076412	-0.00000763	0.00000757
 166	165.00000000	75.80220103	0.00000757	0.00000757
 167	166.00000000	76.09276175	0.00000757	0.00000757
 168	167.00000000	76.38245225	-0.00000763	0.00000757
 169	168.00000000	76.67129636	-0.00000763	0.00000757
 170	169.00000000	76.96210146	0.00000757	-0.00000763
 171	170.00000000	77.24736333	-0.00000763	0.00000757
 172	171.00000000	77.53645778	0.00002277	-0.00000763
 173	172.00000000	77.82194018	0.00000757	-0.00000763
 174	173.00000000	78.10845375	-0.00000763	0.00000757
 175	174.00000000	78.39231491	-0.00000763	0.00000757
 176	175.00000000	78.67900729	0.00000757	-0.00000763
 177	176.00000000	78.96218300	0.00000757	-0.00000763
 178	177.00000000	79.24726009	0.00002277	-0.00000763
 179	178.00000000	79.52886224	-0.00000763	-0.00000763
 180	179.00000000	79.81501222	-0.00000763	0.00000757
 181	180.00000000	80.09682298	0.00000757	-0.00000763
 182	181.00000000	80.38399220	0.00000757	-0.00000763
 183	182.00000000	80.66685796	-0.00000763	0.00000757
 184	183.00000000	80.94980121	0.00000757	-0.00000763
 185	184.00000000	81.23368621	-0.00000763	-0.00000763
 186	185.00000000	81.51763082	0.00000757	-0.00000763
 187	186.00000000	81.80163503	-0.00000763	0.00000757
 188	187.00000000	82.08653331	0.00000757	0.00000757
 189	188.00000000	82.36895204	0.00000757	-0.00000763
 190	189.00000000	82.65393376	-0.00000763	0.00000757
 191	190.00000000	82.93810487	0.00000757	0.00000757
 192	191.00000000	83.22479129	-0.00000763	0.00000757
 193	192.00000000	83.50900412	0.00000757	0.00000757
 194	193.00000000	83.79486799	0.00002277	-0.00000763
 195	194.00000000	84.07992125	-0.00002283	0.00000757
 196	195.00000000	84.36577916	-0.00000763	-0.00000763
 197	196.00000000	84.64921713	-0.00000763	-0.00000763
 198	197.00000000	84.93425846	-0.00002283	0.00000757
 199	198.00000000	85.21611094	-0.00000763	0.00000757
 200	199.00000000	85.49956679	0.00000757	0.00000757
 201	200.00000000	85.77986956	0.00000757	-0.00000763
 202	201.00000000	86.05864048	0.00000757	-0.00000763
 203	202.00000000	86.33589745	-0.00000763	-0.00000763
 204	203.00000000	86.61243320	0.00000757	-0.00000763
 205	204.00000000	86.88440919	-0.00000763	0.00000757
 206	205.00000000	87.15572357	-0.00000763	0.00000757
 207	206.00000000	87.42409348	0.00000757	0.00000757
 208	207.00000000	87.69032955	0.00000757	0.00000757
 209	208.00000000	87.95369267	-0.00000763	0.00000757
 210	209.00000000	88.21796775	0.00002277	-0.00000763
 211	210.00000000	88.47868443	-0.00000763	-0.00000763
 212	211.00000000	88.74033093	0.00000757	0.00000757
 213	212.00000000	88.99845481	-0.00000763	0.00000757
 214	213.00000000	89.25899863	-0.00000763	0.00000757
 215	214.00000000	89.51605558	0.00000757	-0.00000763
 216	215.00000000	89.77551460	-0.00000763	0.00000757
 217	216.00000000	90.03224969	-0.00000763	-0.00000763
 218	217.00000000	90.29062390	0.00000757	0.00000757
 219	218.00000000	90.54847956	-0.00000763	0.00000757
 220	219.00000000	90.80793262	0.00000757	-0.00000763
 221	220.00000000	91.06755257	-0.00000763	-0.00000763
 222	221.00000000	91.32592082	-0.00000763	-0.00000763
 223	222.00000000	91.58515930	0.00000757	-0.00000763
 224	223.00000000	91.84595346	-0.00000763	0.00000757
 225	224.00000000	92.10340381	0.00002277	-0.00000763
 226	225.00000000	92.36379266	-0.00000763	0.00000757
 227	226.00000000	92.62223840	-0.00000763	-0.00000763
 228	227.00000000	92.88290143	0.00000757	-0.00000763
 229	228.00000000	93.14231277	0.00000757	0.00000757
 230	229.00000000	93.40186119	-0.00000763	0.00000757
 231	230.00000000	93.66018176	0.00000757	-0.00000763
 232	231.00000000	93.92066002	-0.00000763	-0.00000763
 233	232.00000000	94.17856336	0.00000757	-0.00000763
 234	233.00000000	94.43927407	-0.00000763	-0.00000763
 235	234.00000000	94.69609857	0.00000757	-0.00000763
 236	235.00000000	94.95570660	-0.00000763	0.00000757
 237	236.00000000	95.21147013	-0.00000763	-0.00000763
 238	237.00000000	95.46934366	-0.00000763	-0.00000763
 239	238.00000000	95.72601914	0.00000757	-0.00000763
 240	239.00000000	95.98541856	-0.00000763	-0.00000763
 241	240.00000000	96.24103904	0.00000757	-0.00000763
 242	241.00000000	96.49806619	-0.00000763	0.00000757
 243	242.00000000	96.75137401	-0.00000763	0.00000757
 244	243.00000000	97.00800180	0.00000757	-0.00000763
 245	244.00000000	97.26156592	0.00000757	-0.00000763
 246	245.00000000	97.51589298	0.00000757	0.00000757
 247	246.00000000	97.76908755	0.00000757	0.00000757
 248	247.00000000	98.02491665	0.00000757	0.00000757
 249	248.00000000	98.28146696	0.00000757	0.00000757
 250	249.00000000	98.53997827	-0.00000763	-0.00000763
 251	250.00000000	98.78991246	0.00000757	-0.00000763
 252	251.00000000	99.03569221	-0.00000763	-0.00000763
 253	252.00000000	99.27675128	-0.00000763	0.00000757
 254	253.00000000	99.51803088	-0.00000763	0.00000757
 255	254.00000000	99.75830317	0.00000757	-0.00000763
 256	255.00000000	100.00000000	0.00000757	-0.00000763
END_DATA
