bench/lcms_compat/reference/ISOcoated_v2_grey1c_bas.ICC_to_srgb_Relative.it8
CGATS.17
ORIGINATOR	"icctrans"
#
# Data follows
#
NUMBER_OF_SETS	256.00000000
NUMBER_OF_FIELDS	5.00000000
BEGIN_DATA_FORMAT
 SAMPLE_ID	IN_GRAY	OUT_RGB_R	OUT_RGB_G	OUT_RGB_B
END_DATA_FORMAT
BEGIN_DATA
 1	0.00000000	42.80185707	42.80185327	42.80185327
 2	1.00000000	43.75583388	43.75583008	43.75583008
 3	2.00000000	44.68825065	44.68825065	44.68825065
 4	3.00000000	45.67083232	45.67082852	45.67082852
 5	4.00000000	46.61750592	46.61750212	46.61750212
 6	5.00000000	47.58435264	47.58434884	47.58435264
 7	6.00000000	48.55676986	48.55676986	48.55676986
 8	7.00000000	49.53427501	49.53427121	49.53427501
 9	8.00000000	50.52903883	50.52903883	50.52903883
 10	9.00000000	51.52749985	51.52749225	51.52749605
 11	10.00000000	52.46880434	52.46880434	52.46880434
 12	11.00000000	53.46299820	53.46299820	53.46299820
 13	12.00000000	54.42548275	54.42547515	54.42547895
 14	13.00000000	55.39217368	55.39217748	55.39217748
 15	14.00000000	56.37391940	56.37391560	56.37391180
 16	15.00000000	57.33685233	57.33685993	57.33685613
 17	16.00000000	58.30345966	58.30345966	58.30345966
 18	17.00000000	59.27343741	59.27344121	59.27343741
 19	18.00000000	60.22577271	60.22576511	60.22576891
 20	19.00000000	61.19186327	61.19186327	61.19186327
 21	20.00000000	62.16091007	62.16090247	62.16090247
 22	21.00000000	63.11298698	63.11298698	63.11299078
 23	22.00000000	64.08755869	64.08755869	64.08755869
 24	23.00000000	65.05488798	65.05488798	65.05488798
 25	24.00000000	65.99659145	65.99659145	65.99659145
 26	25.00000000	66.96895927	66.96896687	66.96896687
 27	26.00000000	67.92526156	67.92526156	67.92526156
 28	27.00000000	68.86618227	68.86618987	68.86618227
 29	28.00000000	69.83614102	69.83614102	69.83614102
 30	29.00000000	70.78202426	70.78201666	70.78202426
 31	30.00000000	71.73879772	71.73879772	71.73879772
 32	31.00000000	72.69755468	72.69754708	72.69755468
 33	32.00000000	73.64169002	73.64169002	73.64169002
 34	33.00000000	74.59609240	74.59610760	74.59610000
 35	34.00000000	75.54430872	75.54430112	75.54430112
 36	35.00000000	76.50223732	76.50223732	76.50223732
 37	36.00000000	77.46942222	77.46942222	77.46942222
 38	37.00000000	78.43012467	78.43012467	78.43012467
 39	38.00000000	79.38457265	79.38458025	79.38458025
 40	39.00000000	80.35522297	80.35522297	80.35522297
 41	40.00000000	81.31208763	81.31209522	81.31209522
 42	41.00000000	82.27011502	82.27011502	82.27011502
 43	42.00000000	83.23631197	83.23630437	83.23630437
 44	43.00000000	84.20326129	84.20325369	84.20326129
 45	44.00000000	85.17090216	85.17090216	85.17090216
 46	45.00000000	86.12550214	86.12550214	86.12550214
 47	46.00000000	87.08773211	87.08773211	87.08773211
 48	47.00000000	88.05058524	88.05058524	88.05059284
 49	48.00000000	88.98121610	88.98123130	88.98122370
 50	49.00000000	89.93261665	89.93261665	89.93261665
 51	50.00000000	90.85918173	90.85918933	90.85918173
 52	51.00000000	91.79969966	91.79969206	91.79969966
 53	52.00000000	92.71617249	92.71617249	92.71617249
 54	53.00000000	93.64026010	93.64025250	93.64026010
 55	54.00000000	94.53508928	94.53508928	94.53508928
 56	55.00000000	95.43176517	95.43177277	95.43176517
 57	56.00000000	96.33613944	96.33613944	96.33613944
 58	57.00000000	97.23026186	97.23025426	97.23025426
 59	58.00000000	98.12606379	98.12607139	98.12607139
 60	59.00000000	99.00621057	99.00621817	99.00621817
 61	60.00000000	99.88256514	99.88256514	99.88256514
 62	61.00000000	100.77775151	100.77776670	100.77775910
 63	62.00000000	101.65770829	101.65770829	101.65770829
 64	63.00000000	102.54493788	102.54493788	102.54493788
 65	64.00000000	103.42281237	103.42279717	103.42280477
 66	65.00000000	104.31318820	104.31319579	104.31318820
 67	66.00000000	105.19965023	105.19962743	105.19963503
 68	67.00000000	106.09811962	106.09811202	106.09811202
 69	68.00000000	106.98202819	106.98204339	106.98204339
 70	69.00000000	107.87773892	107.87773892	107.87773892
 71	70.00000000	108.76945227	108.76945227	108.76945227
 72	71.00000000	109.67757314	109.67758074	109.67757314
 73	72.00000000	110.57645291	110.57645291	110.57645291
 74	73.00000000	111.48127556	111.48126036	111.48126796
 75	74.00000000	112.37212256	112.37211496	112.37211496
 76	75.00000000	113.27863991	113.27864751	113.27864751
 77	76.00000000	114.18587923	114.18587923	114.18587923
 78	77.00000000	115.09377211	115.09377211	115.09377211
 79	78.00000000	116.00701511	116.00701511	116.00701511
 80	79.00000000	116.92073688	116.92074448	116.92074448
 81	80.00000000	117.82562792	117.82562792	117.82562792
 82	81.00000000	118.73110414	118.73109654	118.73109654
 83	82.00000000	119.64166448	119.64166448	119.64166448
 84	83.00000000	120.55265799	120.55265039	120.55265799
 85	84.00000000	121.46403149	121.46402389	121.46402389
 86	85.00000000	122.37575457	122.37575457	122.37575457
 87	86.00000000	123.27463433	123.27464193	123.27463433
 88	87.00000000	124.19143394	124.19143394	124.19143394
 89	88.00000000	125.08687109	125.08687109	125.08687109
 90	89.00000000	125.99992409	125.99993169	125.99992409
 91	90.00000000	126.90048337	126.90049097	126.90049097
 92	91.00000000	127.80144542	127.80144542	127.80144542
 93	92.00000000	128.69862288	128.69862288	128.69862288
 94	93.00000000	129.59619552	129.59619552	129.59619552
 95	94.00000000	130.48600137	130.48598617	130.48600137
 96	95.00000000	131.38437957	131.38437957	131.38437957
 97	96.00000000	132.26702660	132.26702660	132.26702660
 98	97.00000000	133.15423340	133.15423340	133.15423340
 99	98.00000000	134.03795958	134.03794438	134.03794438
 100	99.00000000	134.91825074	134.91826594	134.91826594
 101	100.00000000	135.79135269	135.79133749	135.79133749
 102	101.00000000	136.67276859	136.67276859	136.67276859
 103	102.00000000	137.53939569	137.53939569	137.53939569
 104	103.00000000	138.39912236	138.39913756	138.39913756
 105	104.00000000	139.25214618	139.25214618	139.25214618
 106	105.00000000	140.10602117	140.10600597	140.10600597
 107	106.00000000	140.95331490	140.95331490	140.95331490
 108	107.00000000	141.79784238	141.79784238	141.79784238
 109	108.00000000	142.63238400	142.63238400	142.63238400
 110	109.00000000	143.46797436	143.46798956	143.46797436
 111	110.00000000	144.30098087	144.30099607	144.30099607
 112	111.00000000	145.12793809	145.12792289	145.12792289
 113	112.00000000	145.95243305	145.95243305	145.95243305
 114	113.00000000	146.77454174	146.77454174	146.77454174
 115	114.00000000	147.59081393	147.59081393	147.59081393
 116	115.00000000	148.41523290	148.41521770	148.41521770
 117	116.00000000	149.23034996	149.23036516	149.23036516
 118	117.00000000	150.04326314	150.04326314	150.04327834
 119	118.00000000	150.85058302	150.85056782	150.85056782
 120	119.00000000	151.66249305	151.66249305	151.66249305
 121	120.00000000	152.46888578	152.46888578	152.46888578
 122	121.00000000	153.28315169	153.28315169	153.28315169
 123	122.00000000	154.08528864	154.08530384	154.08530384
 124	123.00000000	154.89525318	154.89525318	154.89525318
 125	124.00000000	155.70304424	155.70305943	155.70305943
 126	125.00000000	156.51845008	156.51846528	156.51846528
 127	126.00000000	157.32846022	157.32844502	157.32846022
 128	127.00000000	158.14909458	158.14909458	158.14909458
 129	128.00000000	158.95477295	158.95477295	158.95477295
 130	129.00000000	159.78677630	159.78676111	159.78677630
 131	130.00000000	160.60382366	160.60382366	160.60382366
 132	131.00000000	161.43111527	161.43113047	161.43113047
 133	132.00000000	162.25916684	162.25918204	162.25918204
 134	133.00000000	163.08797836	163.08797836	163.08797836
 135	134.00000000	163.91136378	163.91136378	163.91136378
 136	135.00000000	164.74461347	164.74461347	164.74461347
 137	136.00000000	165.57245225	165.57246745	165.57246745
 138	137.00000000	166.40097499	166.40099019	166.40099019
 139	138.00000000	167.23313034	167.23313034	167.23314553
 140	139.00000000	168.06589365	168.06589365	168.06589365
 141	140.00000000	168.88452172	168.88453692	168.88452172
 142	141.00000000	169.71848577	169.71848577	169.71848577
 143	142.00000000	170.53559393	170.53557873	170.53559393
 144	143.00000000	171.36782527	171.36784047	171.36782527
 145	144.00000000	172.18628615	172.18628615	172.18627095
 146	145.00000000	173.00825804	173.00825804	173.00825804
 147	146.00000000	173.82238716	173.82237196	173.82238716
 148	147.00000000	174.64566618	174.64566618	174.64565098
 149	148.00000000	175.45833617	175.45833617	175.45833617
 150	149.00000000	176.27172053	176.27172053	176.27172053
 151	150.00000000	177.07475424	177.07473904	177.07475424
 152	151.00000000	177.87856311	177.87857831	177.87857831
 153	152.00000000	178.68042648	178.68042648	178.68042648
 154	153.00000000	179.48580086	179.48578566	179.48580086
 155	154.00000000	180.27030677	180.27029157	180.27029157
 156	155.00000000	181.06381059	181.06381059	181.06381059
 157	156.00000000	181.84482068	181.84482068	181.84482068
 158	157.00000000	182.62680352	182.62680352	182.62680352
 159	158.00000000	183.40709925	183.40709925	183.40709925
 160	159.00000000	184.18833733	184.18833733	184.18833733
 161	160.00000000	184.95747685	184.95747685	184.95747685
 162	161.00000000	185.73543191	185.73544711	185.73544711
 163	162.00000000	186.50402427	186.50402427	186.50402427
 164	163.00000000	187.27877229	187.27877229	187.27877229
 165	164.00000000	188.04427922	188.04427922	188.04427922
 166	165.00000000	188.81080449	188.81080449	188.81080449
 167	166.00000000	189.57584023	189.57582504	189.57582504
 168	167.00000000	190.33937126	190.33935606	190.33937126
 169	168.00000000	191.10141277	191.10144317	191.10144317
 170	169.00000000	191.86950356	191.86950356	191.86950356
 171	170.00000000	192.62370229	192.62368709	192.62368709
 172	171.00000000	193.38881403	193.38879883	193.38879883
 173	172.00000000	194.14509505	194.14509505	194.14509505
 174	173.00000000	194.90485668	194.90488708	194.90487188
 175	174.00000000	195.65835625	195.65838665	195.65837145
 176	175.00000000	196.42015457	196.42015457	196.42015457
 177	176.00000000	197.17331976	197.17328936	197.17330456
 178	177.00000000	197.93227583	197.93224543	197.93226063
 179	178.00000000	198.68267477	198.68270516	198.68268996
 180	179.00000000	199.44596261	199.44597781	199.44597781
 181	180.00000000	200.19839823	200.19838303	200.19839823
 182	181.00000000	200.96588105	200.96586585	200.96586585
 183	182.00000000	201.72254205	201.72254205	201.72254205
 184	183.00000000	202.48014539	202.48014539	202.48014539
 185	184.00000000	203.24098617	203.24098617	203.24098617
 186	185.00000000	204.00270849	204.00270849	204.00270849
 187	186.00000000	204.76526678	204.76528198	204.76528198
 188	187.00000000	205.53097129	205.53097129	205.53095609
 189	188.00000000	206.29067212	206.29068732	206.29068732
 190	189.00000000	207.05798775	207.05800295	207.05800295
 191	190.00000000	207.82382905	207.82384425	207.82384425
 192	191.00000000	208.59716356	208.59716356	208.59716356
 193	192.00000000	209.36450958	209.36450958	209.36449438
 194	193.00000000	210.13702333	210.13700813	210.13702333
 195	194.00000000	210.90801716	210.90803236	210.90801716
 196	195.00000000	211.68188363	211.68189883	211.68189883
 197	196.00000000	212.44991362	212.44988322	212.44989842
 198	197.00000000	213.22292894	213.22295934	213.22294414
 199	198.00000000	213.98801029	213.98801029	213.98799509
 200	199.00000000	214.75809216	214.75807697	214.75807697
 201	200.00000000	215.52025527	215.52027047	215.52027047
 202	201.00000000	216.27893776	216.27892256	216.27892256
 203	202.00000000	217.03409404	217.03412443	217.03410923
 204	203.00000000	217.78795838	217.78795838	217.78795838
 205	204.00000000	218.52999777	218.52998257	218.52998257
 206	205.00000000	219.27082121	219.27082121	219.27082121
 207	206.00000000	220.00421226	220.00421226	220.00421226
 208	207.00000000	220.73234439	220.73232919	220.73232919
 209	208.00000000	221.45316571	221.45318091	221.45318091
 210	209.00000000	222.17711806	222.17710286	222.17710286
 211	210.00000000	222.89179891	222.89182931	222.89181411
 212	211.00000000	223.60962600	223.60961080	223.60961080
 213	212.00000000	224.31831837	224.31831837	224.31831837
 214	213.00000000	225.03416955	225.03418475	225.03416955
 215	214.00000000	225.74100763	225.74099243	225.74100763
 216	215.00000000	226.45492852	226.45495892	226.45494372
 217	216.00000000	227.16193378	227.16194898	227.16194898
 218	217.00000000	227.87400037	227.87398517	227.87398517
 219	218.00000000	228.58509421	228.58509421	228.58507901
 220	219.00000000	229.30115819	229.30115819	229.30115819
 221	220.00000000	230.01819491	230.01822531	230.01821011
 222	221.00000000	230.73232859	230.73232859	230.73232859
 223	222.00000000	231.44936532	231.44936532	231.44936532
 224	223.00000000	232.17123538	232.17123538	232.17123538
 225	224.00000000	232.88438112	232.88436592	232.88436592
 226	225.00000000	233.60615999	233.60617518	233.60615999
 227	226.00000000	234.32309031	234.32309031	234.32310551
 228	227.00000000	235.04667789	235.04667789	235.04667789
 229	228.00000000	235.76733202	235.76731682	235.76733202
 230	229.00000000	236.48886770	236.48885250	236.48885250
 231	230.00000000	237.20748514	237.20748514	237.20750034
 232	231.00000000	237.93263823	237.93263823	237.93263823
 233	232.00000000	238.65111887	238.65111887	238.65111887
 234	233.00000000	239.37792867	239.37794387	239.37792867
 235	234.00000000	240.09443343	240.09441823	240.09441823
 236	235.00000000	240.81917614	240.81916094	240.81916094
 237	236.00000000	241.53367460	241.53367460	241.53367460
 238	237.00000000	242.25457191	242.25457191	242.25457191
 239	238.00000000	242.97264218	242.97261178	242.97262698
 240	239.00000000	243.69878322	243.69878322	243.69878322
 241	240.00000000	244.41486239	244.41484720	244.41484720
 242	241.00000000	245.13534933	245.13536453	245.13536453
 243	242.00000000	245.84591120	245.84589601	245.84589601
 244	243.00000000	246.56624615	246.56624615	246.56624615
 245	244.00000000	247.27847993	247.27846473	247.27846473
 246	245.00000000	247.99331278	247.99329758	247.99331278
 247	246.00000000	248.70542496	248.70542496	248.70542496
 248	247.00000000	249.42542553	249.42542553	249.42542553
 249	248.00000000	250.14794916	250.14794916	250.14794916
 250	249.00000000	250.87644607	250.87646127	250.87644607
 251	250.00000000	251.58126265	251.58124745	251.58124745
 252	251.00000000	252.27477103	252.27478623	252.27478623
 253	252.00000000	252.95542091	252.95540571	252.95542091
 254	253.00000000	253.63707393	253.63708913	253.63707393
 255	254.00000000	254.31632549	254.31631029	254.31631029
 256	255.00000000	255.00000000	255.00000000	255.00000000
END_DATA
