bench/lcms_compat/reference/ISOcoated_v2_grey1c_bas.ICC_to_lab_Absolute.it8
CGATS.17
ORIGINATOR	"icctrans"
#
# Data follows
#
NUMBER_OF_SETS	256.00000000
NUMBER_OF_FIELDS	5.00000000
BEGIN_DATA_FORMAT
 SAMPLE_ID	IN_GRAY	OUT_LAB_L	OUT_LAB_A	OUT_LAB_B
END_DATA_FORMAT
BEGIN_DATA
 1	0.00000000	15.99855572	-0.00110197	-0.57307008
 2	1.00000000	16.42757803	-0.00111717	-0.58075327
 3	2.00000000	16.84553921	-0.00113237	-0.58823887
 4	3.00000000	17.28454977	-0.00114757	-0.59609684
 5	4.00000000	17.70615131	-0.00116277	-0.60365084
 6	5.00000000	18.13538373	-0.00117797	-0.61133403
 7	6.00000000	18.56573224	-0.00119317	-0.61904001
 8	7.00000000	18.99698377	-0.00120836	-0.62676880
 9	8.00000000	19.43449229	-0.00122356	-0.63460398
 10	9.00000000	19.87227052	-0.00123876	-0.64243916
 11	10.00000000	20.28377205	-0.00125396	-0.64981076
 12	11.00000000	20.71712911	-0.00126916	-0.65756994
 13	12.00000000	21.13544792	-0.00126916	-0.66506314
 14	13.00000000	21.55441940	-0.00129956	-0.67256394
 15	14.00000000	21.97871506	-0.00129956	-0.68016353
 16	15.00000000	22.39373773	-0.00132996	-0.68759593
 17	16.00000000	22.80921489	-0.00132996	-0.69504353
 18	17.00000000	23.22502881	-0.00136036	-0.70248353
 19	18.00000000	23.63220602	-0.00136036	-0.70977914
 20	19.00000000	24.04420376	-0.00137556	-0.71715835
 21	20.00000000	24.45639521	-0.00139076	-0.72453755
 22	21.00000000	24.86035526	-0.00140595	-0.73177236
 23	22.00000000	25.27282238	-0.00142115	-0.73915917
 24	23.00000000	25.68120956	-0.00143635	-0.74647757
 25	24.00000000	26.07781887	-0.00145155	-0.75357559
 26	25.00000000	26.48636997	-0.00146675	-0.76089400
 27	26.00000000	26.88720524	-0.00148195	-0.76806802
 28	27.00000000	27.28068829	-0.00149715	-0.77512044
 29	28.00000000	27.68537700	-0.00151235	-0.78237045
 30	29.00000000	28.07912230	-0.00151235	-0.78942287
 31	30.00000000	28.47650945	-0.00152755	-0.79653609
 32	31.00000000	28.87382805	-0.00154275	-0.80364931
 33	32.00000000	29.26423550	-0.00155795	-0.81064093
 34	33.00000000	29.65803444	-0.00157315	-0.81769335
 35	34.00000000	30.04843295	-0.00158834	-0.82468498
 36	35.00000000	30.44199944	-0.00160354	-0.83173740
 37	36.00000000	30.83852232	-0.00160354	-0.83883542
 38	37.00000000	31.23156130	-0.00163394	-0.84588024
 39	38.00000000	31.62122965	-0.00164914	-0.85285667
 40	39.00000000	32.01669753	-0.00164914	-0.85993949
 41	40.00000000	32.40575790	-0.00167954	-0.86690071
 42	41.00000000	32.79450536	-0.00167954	-0.87386194
 43	42.00000000	33.18578005	-0.00169474	-0.88087636
 44	43.00000000	33.57658982	-0.00170994	-0.88787559
 45	44.00000000	33.96690786	-0.00172514	-0.89486721
 46	45.00000000	34.35121775	-0.00174034	-0.90174484
 47	46.00000000	34.73786116	-0.00175554	-0.90867567
 48	47.00000000	35.12401879	-0.00177073	-0.91558370
 49	48.00000000	35.49656570	-0.00178593	-0.92225614
 50	49.00000000	35.87672412	-0.00178593	-0.92907298
 51	50.00000000	36.24629378	-0.00180113	-0.93568462
 52	51.00000000	36.62075698	-0.00180113	-0.94239506
 53	52.00000000	36.98501587	-0.00183153	-0.94891551
 54	53.00000000	37.35166192	-0.00184673	-0.95548156
 55	54.00000000	37.70610392	-0.00184673	-0.96182722
 56	55.00000000	38.06068897	-0.00186193	-0.96818048
 57	56.00000000	38.41772974	-0.00187713	-0.97457933
 58	57.00000000	38.77014816	-0.00187713	-0.98088700
 59	58.00000000	39.12266493	-0.00189233	-0.98720226
 60	59.00000000	39.46847320	-0.00192273	-0.99338832
 61	60.00000000	39.81224895	-0.00192273	-0.99955159
 62	61.00000000	40.16287923	-0.00193793	-1.00582886
 63	62.00000000	40.50699770	-0.00195312	-1.01199213
 64	63.00000000	40.85343778	-0.00195312	-1.01819339
 65	64.00000000	41.19570255	-0.00196832	-1.02432626
 66	65.00000000	41.54232740	-0.00198352	-1.03053513
 67	66.00000000	41.88689888	-0.00198352	-1.03670600
 68	67.00000000	42.23562479	-0.00199872	-1.04294527
 69	68.00000000	42.57819653	-0.00202912	-1.04908574
 70	69.00000000	42.92482138	-0.00204432	-1.05529460
 71	70.00000000	43.26939583	-0.00204432	-1.06146547
 72	71.00000000	43.61979365	-0.00205952	-1.06773514
 73	72.00000000	43.96612048	-0.00205952	-1.07394400
 74	73.00000000	44.31423247	-0.00207472	-1.08017567
 75	74.00000000	44.65648234	-0.00208992	-1.08630854
 76	75.00000000	45.00426054	-0.00210512	-1.09253260
 77	76.00000000	45.35181224	-0.00212032	-1.09875667
 78	77.00000000	45.69912553	-0.00213552	-1.10498074
 79	78.00000000	46.04799151	-0.00213552	-1.11122760
 80	79.00000000	46.39655352	-0.00215071	-1.11746687
 81	80.00000000	46.74126208	-0.00216591	-1.12364534
 82	81.00000000	47.08572030	-0.00216591	-1.12980860
 83	82.00000000	47.43164480	-0.00218111	-1.13600227
 84	83.00000000	47.77725935	-0.00219631	-1.14219594
 85	84.00000000	48.12254906	-0.00219631	-1.14838201
 86	85.00000000	48.46751094	-0.00222671	-1.15455288
 87	86.00000000	48.80716205	-0.00224191	-1.16064015
 88	87.00000000	49.15312231	-0.00224191	-1.16683382
 89	88.00000000	49.49057996	-0.00225711	-1.17287549
 90	89.00000000	49.83423054	-0.00227231	-1.17903116
 91	90.00000000	50.17274022	-0.00228751	-1.18509564
 92	91.00000000	50.51096678	-0.00228751	-1.19115251
 93	92.00000000	50.84734559	-0.00230271	-1.19717899
 94	93.00000000	51.18345618	-0.00231791	-1.20319787
 95	94.00000000	51.51623487	-0.00231791	-1.20915595
 96	95.00000000	51.85180902	-0.00234830	-1.21516722
 97	96.00000000	52.18110085	-0.00234830	-1.22106451
 98	97.00000000	52.51169205	-0.00236350	-1.22698459
 99	98.00000000	52.84059048	-0.00236350	-1.23287427
 100	99.00000000	53.16783190	-0.00239390	-1.23873356
 101	100.00000000	53.49200368	-0.00239390	-1.24453965
 102	101.00000000	53.81889343	-0.00240910	-1.25039893
 103	102.00000000	54.13991213	-0.00240910	-1.25614423
 104	103.00000000	54.45802808	-0.00243950	-1.26184392
 105	104.00000000	54.77329493	-0.00243950	-1.26749042
 106	105.00000000	55.08852005	-0.00243950	-1.27313691
 107	106.00000000	55.40098548	-0.00245470	-1.27873021
 108	107.00000000	55.71209192	-0.00246990	-1.28430071
 109	108.00000000	56.01918101	-0.00248510	-1.28979522
 110	109.00000000	56.32632971	-0.00248510	-1.29529732
 111	110.00000000	56.63220882	-0.00250030	-1.30077663
 112	111.00000000	56.93553686	-0.00251549	-1.30621034
 113	112.00000000	57.23766088	-0.00251549	-1.31162885
 114	113.00000000	57.53859878	-0.00253069	-1.31700936
 115	114.00000000	57.83709288	-0.00254589	-1.32235187
 116	115.00000000	58.13825130	-0.00256109	-1.32774758
 117	116.00000000	58.43573213	-0.00257629	-1.33307490
 118	117.00000000	58.73209238	-0.00257629	-1.33838701
 119	118.00000000	59.02612805	-0.00259149	-1.34365353
 120	119.00000000	59.32155252	-0.00260669	-1.34893525
 121	120.00000000	59.61467624	-0.00259149	-1.35419416
 122	121.00000000	59.91038084	-0.00262189	-1.35949108
 123	122.00000000	60.20140052	-0.00263709	-1.36469680
 124	123.00000000	60.49496531	-0.00263709	-1.36995572
 125	124.00000000	60.78747511	-0.00265229	-1.37519944
 126	125.00000000	61.08245254	-0.00265229	-1.38048115
 127	126.00000000	61.37519479	-0.00265229	-1.38572487
 128	127.00000000	61.67150736	-0.00266749	-1.39102939
 129	128.00000000	61.96213961	-0.00269789	-1.39623511
 130	129.00000000	62.26198077	-0.00269789	-1.40160042
 131	130.00000000	62.55615354	-0.00269789	-1.40687454
 132	131.00000000	62.85374165	-0.00272828	-1.41220185
 133	132.00000000	63.15131783	-0.00272828	-1.41752917
 134	133.00000000	63.44888210	-0.00274348	-1.42285648
 135	134.00000000	63.74422908	-0.00275868	-1.42814580
 136	135.00000000	64.04283047	-0.00274348	-1.43349591
 137	136.00000000	64.33922648	-0.00277388	-1.43880042
 138	137.00000000	64.63558674	-0.00277388	-1.44411254
 139	138.00000000	64.93297219	-0.00278908	-1.44943985
 140	139.00000000	65.23029804	-0.00280428	-1.45476717
 141	140.00000000	65.52231908	-0.00280428	-1.45999569
 142	141.00000000	65.81954360	-0.00281948	-1.46531540
 143	142.00000000	66.11049175	-0.00283468	-1.47052872
 144	143.00000000	66.40656590	-0.00284988	-1.47582564
 145	144.00000000	66.69747829	-0.00284988	-1.48103896
 146	145.00000000	66.98938608	-0.00286508	-1.48626748
 147	146.00000000	67.27824807	-0.00286508	-1.49144280
 148	147.00000000	67.57010818	-0.00288028	-1.49666372
 149	148.00000000	67.85796285	-0.00289547	-1.50182384
 150	149.00000000	68.14581752	-0.00289547	-1.50698397
 151	150.00000000	68.42976213	-0.00289547	-1.51206809
 152	151.00000000	68.71375442	-0.00292587	-1.51715222
 153	152.00000000	68.99681687	-0.00292587	-1.52221355
 154	153.00000000	69.28087473	-0.00294107	-1.52730528
 155	154.00000000	69.55734491	-0.00295627	-1.53225261
 156	155.00000000	69.83677149	-0.00295627	-1.53726834
 157	156.00000000	70.11156678	-0.00297147	-1.54218528
 158	157.00000000	70.38649321	-0.00297147	-1.54710981
 159	158.00000000	70.66060305	-0.00300187	-1.55201155
 160	159.00000000	70.93482614	-0.00300187	-1.55692849
 161	160.00000000	71.20459080	-0.00300187	-1.56176183
 162	161.00000000	71.47724032	-0.00301707	-1.56664076
 163	162.00000000	71.74639702	-0.00301707	-1.57145891
 164	163.00000000	72.01749682	-0.00303227	-1.57631505
 165	164.00000000	72.28516340	-0.00304747	-1.58111039
 166	165.00000000	72.55297899	-0.00304747	-1.58590573
 167	166.00000000	72.82007337	-0.00306267	-1.59069347
 168	167.00000000	73.08644056	-0.00307786	-1.59545842
 169	168.00000000	73.35210443	-0.00307786	-1.60021576
 170	169.00000000	73.61965775	-0.00309306	-1.60501111
 171	170.00000000	73.88218045	-0.00310826	-1.60970765
 172	171.00000000	74.14831519	-0.00310826	-1.61447260
 173	172.00000000	74.41118360	-0.00310826	-1.61918435
 174	173.00000000	74.67507124	-0.00312346	-1.62391129
 175	174.00000000	74.93659258	-0.00313866	-1.62859264
 176	175.00000000	75.20079613	-0.00315386	-1.63332719
 177	176.00000000	75.46181679	-0.00313866	-1.63800094
 178	177.00000000	75.72466135	-0.00315386	-1.64271268
 179	178.00000000	75.98437071	-0.00316906	-1.64735603
 180	179.00000000	76.24833584	-0.00318426	-1.65209058
 181	180.00000000	76.50836706	-0.00318426	-1.65674913
 182	181.00000000	76.77340508	-0.00319946	-1.66149127
 183	182.00000000	77.03453302	-0.00319946	-1.66616502
 184	183.00000000	77.29579806	-0.00322986	-1.67084637
 185	184.00000000	77.55798697	-0.00321466	-1.67555052
 186	185.00000000	77.82030106	-0.00322986	-1.68023947
 187	186.00000000	78.08272839	-0.00324506	-1.68494362
 188	187.00000000	78.34603786	-0.00324506	-1.68965536
 189	188.00000000	78.60711813	-0.00327545	-1.69433671
 190	189.00000000	78.87062430	-0.00326025	-1.69905606
 191	190.00000000	79.13344502	-0.00329065	-1.70376021
 192	191.00000000	79.39864397	-0.00329065	-1.70850235
 193	192.00000000	79.66161370	-0.00329065	-1.71321410
 194	193.00000000	79.92616892	-0.00330585	-1.71794865
 195	194.00000000	80.19002676	-0.00332105	-1.72267559
 196	195.00000000	80.45468926	-0.00332105	-1.72742534
 197	196.00000000	80.71715832	-0.00332105	-1.73212188
 198	197.00000000	80.98117709	-0.00333625	-1.73684883
 199	198.00000000	81.24229312	-0.00335145	-1.74152258
 200	199.00000000	81.50494099	-0.00336665	-1.74622673
 201	200.00000000	81.76472187	-0.00338185	-1.75088528
 202	201.00000000	82.02312589	-0.00338185	-1.75550583
 203	202.00000000	82.28018284	-0.00339705	-1.76011118
 204	203.00000000	82.53661394	-0.00339705	-1.76470894
 205	204.00000000	82.78886676	-0.00339705	-1.76922309
 206	205.00000000	83.04055333	-0.00341225	-1.77372965
 207	206.00000000	83.28955173	-0.00342745	-1.77818301
 208	207.00000000	83.53660703	-0.00342745	-1.78261358
 209	208.00000000	83.78103971	-0.00344265	-1.78699094
 210	209.00000000	84.02636647	-0.00344265	-1.79138350
 211	210.00000000	84.26842690	-0.00347304	-1.79571527
 212	211.00000000	84.51138139	-0.00345784	-1.80006984
 213	212.00000000	84.75111127	-0.00347304	-1.80436361
 214	213.00000000	84.99312401	-0.00348824	-1.80870298
 215	214.00000000	85.23194194	-0.00347304	-1.81297395
 216	215.00000000	85.47301888	-0.00350344	-1.81729051
 217	216.00000000	85.71160436	-0.00350344	-1.82156909
 218	217.00000000	85.95175743	-0.00350344	-1.82587045
 219	218.00000000	86.19145155	-0.00351864	-1.83015662
 220	219.00000000	86.43267751	-0.00353384	-1.83448079
 221	220.00000000	86.67409420	-0.00354904	-1.83880496
 222	221.00000000	86.91437840	-0.00354904	-1.84310633
 223	222.00000000	87.15550303	-0.00354904	-1.84743050
 224	223.00000000	87.39811778	-0.00357944	-1.85176986
 225	224.00000000	87.63764501	-0.00354904	-1.85606363
 226	225.00000000	87.87994981	-0.00357944	-1.86039540
 227	226.00000000	88.12047839	-0.00359464	-1.86471197
 228	227.00000000	88.36309910	-0.00360984	-1.86905134
 229	228.00000000	88.60459328	-0.00359464	-1.87338310
 230	229.00000000	88.84624839	-0.00360984	-1.87770727
 231	230.00000000	89.08678889	-0.00362504	-1.88200864
 232	231.00000000	89.32937384	-0.00362504	-1.88636321
 233	232.00000000	89.56959248	-0.00364023	-1.89065698
 234	233.00000000	89.81245756	-0.00365543	-1.89501154
 235	234.00000000	90.05172849	-0.00365543	-1.89929011
 236	235.00000000	90.29363394	-0.00367063	-1.90362188
 237	236.00000000	90.53197503	-0.00367063	-1.90789285
 238	237.00000000	90.77231884	-0.00368583	-1.91220182
 239	238.00000000	91.01157784	-0.00368583	-1.91648039
 240	239.00000000	91.25340581	-0.00370103	-1.92081976
 241	240.00000000	91.49173498	-0.00370103	-1.92508313
 242	241.00000000	91.73141122	-0.00371623	-1.92937690
 243	242.00000000	91.96764231	-0.00371623	-1.93360227
 244	243.00000000	92.20699668	-0.00373143	-1.93789604
 245	244.00000000	92.44352579	-0.00373143	-1.94212902
 246	245.00000000	92.68079400	-0.00374663	-1.94637719
 247	246.00000000	92.91703105	-0.00376183	-1.95061016
 248	247.00000000	93.15574765	-0.00376183	-1.95488113
 249	248.00000000	93.39517355	-0.00377703	-1.95916730
 250	249.00000000	93.63644719	-0.00377703	-1.96349907
 251	250.00000000	93.86974573	-0.00377703	-1.96767125
 252	251.00000000	94.09919381	-0.00380743	-1.97178262
 253	252.00000000	94.32425499	-0.00380743	-1.97581041
 254	253.00000000	94.54954863	-0.00380743	-1.97984579
 255	254.00000000	94.77391839	-0.00382262	-1.98386598
 256	255.00000000	94.99964714	-0.00380743	-1.98790896
END_DATA
