bench/lcms_compat/reference/lab_to_USSheetfedCoated.icc_Perceptual_BPC.it8
CGATS.17
ORIGINATOR	"icctrans"
#
# Data follows
#
NUMBER_OF_SETS	4851.00000000
NUMBER_OF_FIELDS	8.00000000
BEGIN_DATA_FORMAT
 SAMPLE_ID	IN_LAB_L	IN_LAB_A	IN_LAB_B	OUT_CMYK_C	OUT_CMYK_M	OUT_CMYK_Y	OUT_CMYK_K
END_DATA_FORMAT
BEGIN_DATA
 1	0.00000000	-100.00000000	-100.00000000	100.00000000	83.92462134	36.51026189	20.06408721
 2	0.00000000	-90.00000000	-100.00000000	100.00000000	83.92462134	36.51026189	20.06408721
 3	0.00000000	-80.00000000	-100.00000000	100.00000000	83.92462134	36.51026189	20.06408721
 4	0.00000000	-70.00000000	-100.00000000	100.00000000	83.92462134	36.51026189	20.06408721
 5	0.00000000	-60.00000000	-100.00000000	100.00000000	83.92462134	36.51026189	20.06408721
 6	0.00000000	-50.00000000	-100.00000000	100.00000000	83.92462134	36.51026189	20.06408721
 7	0.00000000	-40.00000000	-100.00000000	100.00000000	83.92462134	36.51026189	20.06408721
 8	0.00000000	-30.00000000	-100.00000000	100.00000000	83.92462134	36.51026189	20.06408721
 9	0.00000000	-20.00000000	-100.00000000	100.00000000	83.92462134	36.51026189	20.06408721
 10	0.00000000	-10.00000000	-100.00000000	100.00000000	83.92462134	36.51026189	20.06408721
 11	0.00000000	0.00000000	-100.00000000	100.00000000	83.92462134	36.51178777	19.99237090
 12	0.00000000	10.00000000	-100.00000000	100.00000000	84.47546959	36.94209158	19.67498213
 13	0.00000000	20.00000000	-100.00000000	100.00000000	85.32997370	37.68520653	19.67498213
 14	0.00000000	30.00000000	-100.00000000	100.00000000	85.63057780	38.07583749	19.67498213
 15	0.00000000	40.00000000	-100.00000000	100.00000000	86.45914197	38.35812807	19.39574331
 16	0.00000000	50.00000000	-100.00000000	100.00000000	87.00999618	38.80216777	19.27824765
 17	0.00000000	60.00000000	-100.00000000	100.00000000	87.74548173	39.92980719	18.92881691
 18	0.00000000	70.00000000	-100.00000000	100.00000000	88.83344531	40.84992707	18.56260002
 19	0.00000000	80.00000000	-100.00000000	100.00000000	90.40207267	41.92416370	17.46547669
 20	0.00000000	90.00000000	-100.00000000	100.00000000	92.41626859	43.30510497	14.71885294
 21	0.00000000	100.00000000	-100.00000000	100.00000000	95.61608434	42.62455106	10.79575792
 22	10.00000000	-100.00000000	-100.00000000	100.00000000	70.66300511	24.27710444	12.59632260
 23	10.00000000	-90.00000000	-100.00000000	100.00000000	70.66300511	24.27710444	12.59632260
 24	10.00000000	-80.00000000	-100.00000000	100.00000000	70.66300511	24.27710444	12.59632260
 25	10.00000000	-70.00000000	-100.00000000	100.00000000	70.66300511	24.27710444	12.59632260
 26	10.00000000	-60.00000000	-100.00000000	100.00000000	70.66300511	24.27710444	12.59632260
 27	10.00000000	-50.00000000	-100.00000000	100.00000000	70.68436742	24.27710444	12.59632260
 28	10.00000000	-40.00000000	-100.00000000	100.00000000	70.89952230	24.27710444	12.59632260
 29	10.00000000	-30.00000000	-100.00000000	100.00000000	71.13603354	24.73182231	12.59632260
 30	10.00000000	-20.00000000	-100.00000000	100.00000000	71.68078423	24.86610264	12.59632260
 31	10.00000000	-10.00000000	-100.00000000	100.00000000	72.33234048	24.86610264	12.59632260
 32	10.00000000	0.00000000	-100.00000000	100.00000000	72.84351587	25.01869202	12.59632260
 33	10.00000000	10.00000000	-100.00000000	100.00000000	73.68429303	25.01564026	12.59174496
 34	10.00000000	20.00000000	-100.00000000	100.00000000	74.59525466	25.36965013	12.19501048
 35	10.00000000	30.00000000	-100.00000000	100.00000000	75.68780184	25.39864182	12.18432933
 36	10.00000000	40.00000000	-100.00000000	100.00000000	76.69031620	25.61989725	12.05920503
 37	10.00000000	50.00000000	-100.00000000	100.00000000	78.57785821	25.68551302	11.20164767
 38	10.00000000	60.00000000	-100.00000000	100.00000000	81.92111254	25.54818094	9.23933759
 39	10.00000000	70.00000000	-100.00000000	100.00000000	85.52529216	24.19317961	6.39200434
 40	10.00000000	80.00000000	-100.00000000	100.00000000	90.71183205	19.11650300	3.08384839
 41	10.00000000	90.00000000	-100.00000000	100.00000000	96.49805427	11.22453660	1.00862132
 42	10.00000000	100.00000000	-100.00000000	96.27374411	100.00000000	3.41344327	0.10070954
 43	20.00000000	-100.00000000	-100.00000000	100.00000000	52.70466208	17.76760519	6.85587823
 44	20.00000000	-90.00000000	-100.00000000	100.00000000	52.82215476	17.76760519	6.85587823
 45	20.00000000	-80.00000000	-100.00000000	100.00000000	53.06324959	17.68673211	6.85587823
 46	20.00000000	-70.00000000	-100.00000000	100.00000000	53.38826776	17.57381558	6.85587823
 47	20.00000000	-60.00000000	-100.00000000	100.00000000	54.07797098	17.57076383	6.85740411
 48	20.00000000	-50.00000000	-100.00000000	100.00000000	54.47928309	17.43343323	6.85435236
 49	20.00000000	-40.00000000	-100.00000000	100.00000000	54.75547314	17.08552688	6.85282648
 50	20.00000000	-30.00000000	-100.00000000	100.00000000	55.69543242	16.84901267	6.85130060
 51	20.00000000	-20.00000000	-100.00000000	100.00000000	56.28442764	16.81086421	6.84824884
 52	20.00000000	-10.00000000	-100.00000000	100.00000000	57.42732882	16.64454043	6.83604181
 53	20.00000000	0.00000000	-100.00000000	100.00000000	58.65110159	15.91821164	6.52475804
 54	20.00000000	10.00000000	-100.00000000	100.00000000	61.37331128	15.10948390	6.04867637
 55	20.00000000	20.00000000	-100.00000000	100.00000000	64.16265965	14.61814344	5.01869246
 56	20.00000000	30.00000000	-100.00000000	100.00000000	67.53948331	13.08461130	3.88799869
 57	20.00000000	40.00000000	-100.00000000	100.00000000	71.48851752	11.14366353	2.51773857
 58	20.00000000	50.00000000	-100.00000000	100.00000000	75.78240633	7.14274794	1.12153813
 59	20.00000000	60.00000000	-100.00000000	100.00000000	80.08239865	1.31227588	0.13580529
 60	20.00000000	70.00000000	-100.00000000	99.75737929	84.02990699	0.00000000	0.00000000
 61	20.00000000	80.00000000	-100.00000000	91.74792171	87.49980927	0.00000000	0.00000000
 62	20.00000000	90.00000000	-100.00000000	87.24955916	90.72403908	0.00000000	0.00000000
 63	20.00000000	100.00000000	-100.00000000	83.00908208	94.19851899	0.00000000	0.00000000
 64	30.00000000	-100.00000000	-100.00000000	100.00000000	31.00480735	16.16693437	2.90989541
 65	30.00000000	-90.00000000	-100.00000000	100.00000000	31.94323778	15.80987275	2.90989541
 66	30.00000000	-80.00000000	-100.00000000	100.00000000	32.58258998	15.06370604	2.90989541
 67	30.00000000	-70.00000000	-100.00000000	100.00000000	33.22346807	14.50980455	2.84733344
 68	30.00000000	-60.00000000	-100.00000000	100.00000000	34.70817208	13.74532729	2.65201796
 69	30.00000000	-50.00000000	-100.00000000	100.00000000	36.43244207	12.69703209	2.51773857
 70	30.00000000	-40.00000000	-100.00000000	100.00000000	38.31235170	11.69604063	2.42008083
 71	30.00000000	-30.00000000	-100.00000000	100.00000000	40.73701203	10.27084738	2.15762574
 72	30.00000000	-20.00000000	-100.00000000	100.00000000	43.46074760	8.69459063	1.88601520
 73	30.00000000	-10.00000000	-100.00000000	100.00000000	46.53238654	6.89707771	1.48470281
 74	30.00000000	0.00000000	-100.00000000	100.00000000	49.94277954	5.27199209	0.94300760
 75	30.00000000	10.00000000	-100.00000000	100.00000000	53.72396708	3.37682143	0.50202184
 76	30.00000000	20.00000000	-100.00000000	100.00000000	57.90035725	0.00000000	0.06561379
 77	30.00000000	30.00000000	-100.00000000	100.00000000	62.25375533	0.00000000	0.00000000
 78	30.00000000	40.00000000	-100.00000000	98.95170331	66.38284922	0.00000000	0.00000000
 79	30.00000000	50.00000000	-100.00000000	94.28244233	70.63248754	0.00000000	0.00000000
 80	30.00000000	60.00000000	-100.00000000	90.38376212	74.76615310	0.00000000	0.00000000
 81	30.00000000	70.00000000	-100.00000000	86.44083142	78.74265909	0.00000000	0.00000000
 82	30.00000000	80.00000000	-100.00000000	82.17746019	82.98161030	0.00000000	0.00000000
 83	30.00000000	90.00000000	-100.00000000	78.24215889	86.33096814	0.00000000	0.00000000
 84	30.00000000	100.00000000	-100.00000000	73.61714840	89.58266377	0.00000000	0.00000000
 85	40.00000000	-100.00000000	-100.00000000	100.00000000	21.27107680	14.27481472	1.64339673
 86	40.00000000	-90.00000000	-100.00000000	100.00000000	22.15915173	13.28908205	1.40993362
 87	40.00000000	-80.00000000	-100.00000000	100.00000000	23.59807789	12.49713898	1.29549094
 88	40.00000000	-70.00000000	-100.00000000	100.00000000	24.96376038	11.23826951	1.25734340
 89	40.00000000	-60.00000000	-100.00000000	100.00000000	26.36453807	10.21591499	1.21004041
 90	40.00000000	-50.00000000	-100.00000000	100.00000000	28.68543565	7.84008577	0.92164492
 91	40.00000000	-40.00000000	-100.00000000	100.00000000	30.85221648	6.36453778	0.86213471
 92	40.00000000	-30.00000000	-100.00000000	100.00000000	33.36690366	4.10772860	0.55390252
 93	40.00000000	-20.00000000	-100.00000000	100.00000000	36.86579764	2.20340285	0.20904860
 94	40.00000000	-10.00000000	-100.00000000	100.00000000	40.41046798	0.00000000	0.07324331
 95	40.00000000	0.00000000	-100.00000000	100.00000000	44.15655732	0.00000000	0.00000000
 96	40.00000000	10.00000000	-100.00000000	100.00000000	48.34363461	0.00000000	0.00000000
 97	40.00000000	20.00000000	-100.00000000	97.83321619	52.81605124	0.00000000	0.00000000
 98	40.00000000	30.00000000	-100.00000000	92.62989163	57.43343234	0.00000000	0.00000000
 99	40.00000000	40.00000000	-100.00000000	88.46265078	61.85702085	0.00000000	0.00000000
 100	40.00000000	50.00000000	-100.00000000	84.44190025	66.26688242	0.00000000	0.00000000
 101	40.00000000	60.00000000	-100.00000000	81.22987747	70.66910863	0.00000000	0.00000000
 102	40.00000000	70.00000000	-100.00000000	77.97360420	74.59678054	0.00000000	0.00000000
 103	40.00000000	80.00000000	-100.00000000	74.27328825	78.49851251	0.00000000	0.00000000
 104	40.00000000	90.00000000	-100.00000000	70.65537572	81.93942308	0.00000000	0.00000000
 105	40.00000000	100.00000000	-100.00000000	66.77348018	85.28572321	0.00000000	0.00000000
 106	50.00000000	-100.00000000	-100.00000000	100.00000000	12.15991452	10.97428873	0.39215689
 107	50.00000000	-90.00000000	-100.00000000	100.00000000	12.75349110	9.39803123	0.39215689
 108	50.00000000	-80.00000000	-100.00000000	100.00000000	14.34042901	7.82635212	0.39215689
 109	50.00000000	-70.00000000	-100.00000000	100.00000000	16.10589772	6.41947016	0.28686961
 110	50.00000000	-60.00000000	-100.00000000	100.00000000	17.82559007	4.09552157	0.00000000
 111	50.00000000	-50.00000000	-100.00000000	100.00000000	19.76653636	1.93484407	0.00000000
 112	50.00000000	-40.00000000	-100.00000000	100.00000000	22.39261419	0.00000000	0.00000000
 113	50.00000000	-30.00000000	-100.00000000	100.00000000	25.55581033	0.00000000	0.00000000
 114	50.00000000	-20.00000000	-100.00000000	100.00000000	29.03334200	0.00000000	0.00000000
 115	50.00000000	-10.00000000	-100.00000000	100.00000000	33.01899731	0.00000000	0.00000000
 116	50.00000000	0.00000000	-100.00000000	98.09872508	38.28183413	0.00000000	0.00000000
 117	50.00000000	10.00000000	-100.00000000	92.59021878	43.03044081	0.00000000	0.00000000
 118	50.00000000	20.00000000	-100.00000000	87.05577254	47.83703387	0.00000000	0.00000000
 119	50.00000000	30.00000000	-100.00000000	82.52384067	52.98390388	0.00000000	0.00000000
 120	50.00000000	40.00000000	-100.00000000	79.07377481	57.97512531	0.00000000	0.00000000
 121	50.00000000	50.00000000	-100.00000000	76.34240985	62.30258346	0.00000000	0.00000000
 122	50.00000000	60.00000000	-100.00000000	73.25551510	66.59036875	0.00000000	0.00000000
 123	50.00000000	70.00000000	-100.00000000	71.07499838	70.45395374	0.00000000	0.00000000
 124	50.00000000	80.00000000	-100.00000000	67.60509610	74.33584929	0.00000000	0.00000000
 125	50.00000000	90.00000000	-100.00000000	64.01922703	77.61654258	0.00000000	0.00000000
 126	50.00000000	100.00000000	-100.00000000	60.23346186	80.33875227	0.00000000	0.00000000
 127	60.00000000	-100.00000000	-100.00000000	100.00000000	0.51728087	6.72922879	0.00000000
 128	60.00000000	-90.00000000	-100.00000000	100.00000000	1.74410623	4.63111326	0.00000000
 129	60.00000000	-80.00000000	-100.00000000	100.00000000	3.00602727	2.46585794	0.00000000
 130	60.00000000	-70.00000000	-100.00000000	100.00000000	4.22980078	0.35248341	0.00000000
 131	60.00000000	-60.00000000	-100.00000000	100.00000000	6.85282648	0.00000000	0.00000000
 132	60.00000000	-50.00000000	-100.00000000	100.00000000	10.17166376	0.00000000	0.00000000
 133	60.00000000	-40.00000000	-100.00000000	100.00000000	12.69550622	0.00000000	0.00000000
 134	60.00000000	-30.00000000	-100.00000000	100.00000000	16.48584753	0.00000000	0.00000000
 135	60.00000000	-20.00000000	-100.00000000	99.85656738	22.13016003	0.00000000	0.00000000
 136	60.00000000	-10.00000000	-100.00000000	92.96101332	27.69817710	0.00000000	0.00000000
 137	60.00000000	0.00000000	-100.00000000	87.01304793	33.24940801	0.00000000	0.00000000
 138	60.00000000	10.00000000	-100.00000000	81.58083558	38.26199770	0.00000000	0.00000000
 139	60.00000000	20.00000000	-100.00000000	76.02960467	42.47501194	0.00000000	0.00000000
 140	60.00000000	30.00000000	-100.00000000	70.62028050	45.71145177	0.00000000	0.00000000
 141	60.00000000	40.00000000	-100.00000000	65.71755409	48.94331396	0.00000000	0.00000000
 142	60.00000000	50.00000000	-100.00000000	61.92569137	51.73571110	0.00000000	0.00000000
 143	60.00000000	60.00000000	-100.00000000	58.73655081	54.64103222	0.00000000	0.00000000
 144	60.00000000	70.00000000	-100.00000000	56.62165284	57.78439045	0.00000000	0.00000000
 145	60.00000000	80.00000000	-100.00000000	54.28854823	61.46486402	0.00000000	0.00000000
 146	60.00000000	90.00000000	-100.00000000	52.26825476	65.31166434	0.00000000	0.00000000
 147	60.00000000	100.00000000	-100.00000000	50.44632554	70.12894154	0.00000000	0.00000000
 148	70.00000000	-100.00000000	-100.00000000	100.00000000	0.00000000	0.15716793	0.00000000
 149	70.00000000	-90.00000000	-100.00000000	100.00000000	0.00000000	0.00000000	0.00000000
 150	70.00000000	-80.00000000	-100.00000000	100.00000000	0.00000000	0.00000000	0.00000000
 151	70.00000000	-70.00000000	-100.00000000	100.00000000	0.00000000	0.00000000	0.00000000
 152	70.00000000	-60.00000000	-100.00000000	100.00000000	0.00000000	0.00000000	0.00000000
 153	70.00000000	-50.00000000	-100.00000000	100.00000000	0.00000000	0.00000000	0.00000000
 154	70.00000000	-40.00000000	-100.00000000	100.00000000	4.26337086	0.00000000	0.00000000
 155	70.00000000	-30.00000000	-100.00000000	92.54139066	10.22964865	0.00000000	0.00000000
 156	70.00000000	-20.00000000	-100.00000000	83.50347281	15.00267088	0.00000000	0.00000000
 157	70.00000000	-10.00000000	-100.00000000	75.84954500	19.09819245	0.00000000	0.00000000
 158	70.00000000	0.00000000	-100.00000000	68.75562668	23.17387611	0.00000000	0.00000000
 159	70.00000000	10.00000000	-100.00000000	62.48722076	26.51407719	0.00000000	0.00000000
 160	70.00000000	20.00000000	-100.00000000	57.31136203	30.16250730	0.00000000	0.00000000
 161	70.00000000	30.00000000	-100.00000000	52.62836814	32.77485371	0.00000000	0.00000000
 162	70.00000000	40.00000000	-100.00000000	48.85786176	35.72289646	0.00000000	0.00000000
 163	70.00000000	50.00000000	-100.00000000	45.88845670	38.08804452	0.00000000	0.00000000
 164	70.00000000	60.00000000	-100.00000000	43.68658066	40.86213410	0.00000000	0.00000000
 165	70.00000000	70.00000000	-100.00000000	42.04928577	43.45922172	0.00000000	0.00000000
 166	70.00000000	80.00000000	-100.00000000	40.10223448	47.03288376	0.00000000	0.00000000
 167	70.00000000	90.00000000	-100.00000000	38.29098940	50.62180758	0.00000000	0.00000000
 168	70.00000000	100.00000000	-100.00000000	36.54993474	54.50065136	0.00000000	0.00000000
 169	80.00000000	-100.00000000	-100.00000000	100.00000000	0.00000000	0.00000000	0.00000000
 170	80.00000000	-90.00000000	-100.00000000	100.00000000	0.00000000	0.00000000	0.00000000
 171	80.00000000	-80.00000000	-100.00000000	100.00000000	0.00000000	0.00000000	0.00000000
 172	80.00000000	-70.00000000	-100.00000000	100.00000000	0.00000000	0.00000000	0.00000000
 173	80.00000000	-60.00000000	-100.00000000	99.05546904	0.00000000	0.00000000	0.00000000
 174	80.00000000	-50.00000000	-100.00000000	88.00488114	0.00000000	0.00000000	0.00000000
 175	80.00000000	-40.00000000	-100.00000000	79.06156778	0.00000000	0.00000000	0.00000000
 176	80.00000000	-30.00000000	-100.00000000	70.76829076	1.37026021	0.00000000	0.00000000
 177	80.00000000	-20.00000000	-100.00000000	63.14946413	6.30350187	0.00000000	0.00000000
 178	80.00000000	-10.00000000	-100.00000000	56.49500489	10.25864035	0.00000000	0.00000000
 179	80.00000000	0.00000000	-100.00000000	50.48599839	13.63546252	0.00000000	0.00000000
 180	80.00000000	10.00000000	-100.00000000	45.52986920	16.66132659	0.00000000	0.00000000
 181	80.00000000	20.00000000	-100.00000000	40.84382355	19.76958811	0.00000000	0.00000000
 182	80.00000000	30.00000000	-100.00000000	36.98481619	22.12863415	0.00000000	0.00000000
 183	80.00000000	40.00000000	-100.00000000	34.25650299	24.54261035	0.00000000	0.00000000
 184	80.00000000	50.00000000	-100.00000000	31.94934130	26.78263485	0.00000000	0.00000000
 185	80.00000000	60.00000000	-100.00000000	30.42496443	28.71747911	0.00000000	0.00000000
 186	80.00000000	70.00000000	-100.00000000	29.16761935	30.77744842	0.00000000	0.00000000
 187	80.00000000	80.00000000	-100.00000000	27.56389678	33.61104727	0.00000000	0.00000000
 188	80.00000000	90.00000000	-100.00000000	26.09903216	36.81544065	0.00000000	0.00000000
 189	80.00000000	100.00000000	-100.00000000	24.48157519	40.84687531	0.00000000	0.00000000
 190	90.00000000	-100.00000000	-100.00000000	100.00000000	0.00000000	0.00000000	0.00000000
 191	90.00000000	-90.00000000	-100.00000000	100.00000000	0.00000000	0.00000000	0.00000000
 192	90.00000000	-80.00000000	-100.00000000	96.03112936	0.00000000	0.00000000	0.00000000
 193	90.00000000	-70.00000000	-100.00000000	85.98001003	0.00000000	0.00000000	0.00000000
 194	90.00000000	-60.00000000	-100.00000000	76.04944110	0.00000000	0.00000000	0.00000000
 195	90.00000000	-50.00000000	-100.00000000	65.89761376	0.00000000	0.00000000	0.00000000
 196	90.00000000	-40.00000000	-100.00000000	58.60837698	0.00000000	0.00000000	0.00000000
 197	90.00000000	-30.00000000	-100.00000000	52.05615163	0.00000000	0.00000000	0.00000000
 198	90.00000000	-20.00000000	-100.00000000	45.14229000	0.10681315	0.00000000	0.00000000
 199	90.00000000	-10.00000000	-100.00000000	39.41558003	3.51720452	0.00000000	0.00000000
 200	90.00000000	0.00000000	-100.00000000	34.31601524	6.99320957	0.00000000	0.00000000
 201	90.00000000	10.00000000	-100.00000000	30.24643362	9.57656205	0.00000000	0.00000000
 202	90.00000000	20.00000000	-100.00000000	26.56290531	12.13244796	0.00000000	0.00000000
 203	90.00000000	30.00000000	-100.00000000	23.70794266	14.08407688	0.00000000	0.00000000
 204	90.00000000	40.00000000	-100.00000000	21.64187133	15.83886445	0.00000000	0.00000000
 205	90.00000000	50.00000000	-100.00000000	20.19226402	17.29304940	0.00000000	0.00000000
 206	90.00000000	60.00000000	-100.00000000	19.18058991	18.65262836	0.00000000	0.00000000
 207	90.00000000	70.00000000	-100.00000000	18.59616935	20.14190853	0.00000000	0.00000000
 208	90.00000000	80.00000000	-100.00000000	17.41512120	22.36514837	0.00000000	0.00000000
 209	90.00000000	90.00000000	-100.00000000	16.07232839	25.23536980	0.00000000	0.00000000
 210	90.00000000	100.00000000	-100.00000000	14.69596326	28.41992974	0.00000000	0.00000000
 211	100.00000000	-100.00000000	-100.00000000	96.32410407	0.00000000	0.00000000	0.00000000
 212	100.00000000	-90.00000000	-100.00000000	85.11329889	0.00000000	0.00000000	0.00000000
 213	100.00000000	-80.00000000	-100.00000000	74.10238981	0.00000000	0.00000000	0.00000000
 214	100.00000000	-70.00000000	-100.00000000	64.14129734	0.00000000	0.00000000	0.00000000
 215	100.00000000	-60.00000000	-100.00000000	55.85870147	0.00000000	0.00000000	0.00000000
 216	100.00000000	-50.00000000	-100.00000000	46.91081047	0.00000000	0.00000000	0.00000000
 217	100.00000000	-40.00000000	-100.00000000	40.61188698	0.00000000	0.00000000	0.00000000
 218	100.00000000	-30.00000000	-100.00000000	35.23460627	0.00000000	0.00000000	0.00000000
 219	100.00000000	-20.00000000	-100.00000000	29.25307155	0.00000000	0.00000000	0.00000000
 220	100.00000000	-10.00000000	-100.00000000	24.92408603	0.00000000	0.00000000	0.00000000
 221	100.00000000	0.00000000	-100.00000000	20.83161622	1.32753495	0.00000000	0.00000000
 222	100.00000000	10.00000000	-100.00000000	17.85763353	3.60723287	0.00000000	0.00000000
 223	100.00000000	20.00000000	-100.00000000	14.81803656	5.55581003	0.00000000	0.00000000
 224	100.00000000	30.00000000	-100.00000000	12.65888512	6.93522543	0.00000000	0.00000000
 225	100.00000000	40.00000000	-100.00000000	11.18486300	8.19104314	0.00000000	0.00000000
 226	100.00000000	50.00000000	-100.00000000	10.63706428	9.29426998	0.00000000	0.00000000
 227	100.00000000	60.00000000	-100.00000000	10.24338156	10.47379300	0.00000000	0.00000000
 228	100.00000000	70.00000000	-100.00000000	10.16556025	11.53124273	0.00000000	0.00000000
 229	100.00000000	80.00000000	-100.00000000	9.06538516	13.38826567	0.00000000	0.00000000
 230	100.00000000	90.00000000	-100.00000000	7.64477029	15.91210812	0.00000000	0.00000000
 231	100.00000000	100.00000000	-100.00000000	6.26077652	18.42221767	0.00000000	0.00000000
 232	0.00000000	-100.00000000	-90.00000000	100.00000000	84.22064781	41.52590334	26.26535296
 233	0.00000000	-90.00000000	-90.00000000	100.00000000	84.22064781	41.52590334	26.26535296
 234	0.00000000	-80.00000000	-90.00000000	100.00000000	84.22064781	41.52590334	26.26535296
 235	0.00000000	-70.00000000	-90.00000000	100.00000000	84.22064781	41.52590334	26.26535296
 236	0.00000000	-60.00000000	-90.00000000	100.00000000	84.22064781	41.52590334	26.26535296
 237	0.00000000	-50.00000000	-90.00000000	100.00000000	84.22064781	41.52590334	26.26535296
 238	0.00000000	-40.00000000	-90.00000000	100.00000000	84.22064781	41.52590334	26.26535296
 239	0.00000000	-30.00000000	-90.00000000	100.00000000	84.22064781	41.52590334	26.26535296
 240	0.00000000	-20.00000000	-90.00000000	100.00000000	84.22064781	41.52590334	26.26535296
 241	0.00000000	-10.00000000	-90.00000000	100.00000000	84.22064781	41.52590334	26.26535296
 242	0.00000000	0.00000000	-90.00000000	100.00000000	84.22064781	41.58083498	26.24704242
 243	0.00000000	10.00000000	-90.00000000	100.00000000	85.06752253	41.91806018	26.17074847
 244	0.00000000	20.00000000	-90.00000000	100.00000000	85.62600017	42.18509197	26.17074847
 245	0.00000000	30.00000000	-90.00000000	100.00000000	86.55985594	42.45364964	26.17074847
 246	0.00000000	40.00000000	-90.00000000	100.00000000	87.15342879	43.01823378	26.10360980
 247	0.00000000	50.00000000	-90.00000000	100.00000000	87.85839677	43.52178276	25.31624436
 248	0.00000000	60.00000000	-90.00000000	100.00000000	90.15335441	45.40779591	23.57213646
 249	0.00000000	70.00000000	-90.00000000	100.00000000	91.48851633	46.57205939	21.04219049
 250	0.00000000	80.00000000	-90.00000000	100.00000000	94.06271577	45.32997608	16.88868552
 251	0.00000000	90.00000000	-90.00000000	100.00000000	97.70199060	41.69680178	14.91416842
 252	0.00000000	100.00000000	-90.00000000	99.93438721	100.00000000	36.55298650	15.20714164
 253	10.00000000	-100.00000000	-90.00000000	100.00000000	70.36697865	29.76272106	17.20302105
 254	10.00000000	-90.00000000	-90.00000000	100.00000000	70.36697865	29.76272106	17.20302105
 255	10.00000000	-80.00000000	-90.00000000	100.00000000	70.36697865	29.76272106	17.20302105
 256	10.00000000	-70.00000000	-90.00000000	100.00000000	70.36697865	29.76272106	17.20302105
 257	10.00000000	-60.00000000	-90.00000000	100.00000000	70.36697865	29.76272106	17.20302105
 258	10.00000000	-50.00000000	-90.00000000	100.00000000	70.38834095	29.76272106	17.20302105
 259	10.00000000	-40.00000000	-90.00000000	100.00000000	70.60349584	29.76272106	17.20302105
 260	10.00000000	-30.00000000	-90.00000000	100.00000000	71.07194662	29.88174260	17.20302105
 261	10.00000000	-20.00000000	-90.00000000	100.00000000	71.48546576	29.91531193	17.20302105
 262	10.00000000	-10.00000000	-90.00000000	100.00000000	72.32013345	29.91531193	17.20302105
 263	10.00000000	0.00000000	-90.00000000	100.00000000	72.88014293	29.80850041	17.13130325
 264	10.00000000	10.00000000	-90.00000000	100.00000000	74.29159880	29.61623669	16.72541350
