bench/lcms_compat/reference/lab_to_USSheetfedCoated.icc_Relative.it8
CGATS.17
ORIGINATOR	"icctrans"
#
# Data follows
#
NUMBER_OF_SETS	4851.00000000
NUMBER_OF_FIELDS	8.00000000
BEGIN_DATA_FORMAT
 SAMPLE_ID	IN_LAB_L	IN_LAB_A	IN_LAB_B	OUT_CMYK_C	OUT_CMYK_M	OUT_CMYK_Y	OUT_CMYK_K
END_DATA_FORMAT
BEGIN_DATA
 1	0.00000000	-100.00000000	-100.00000000	100.00000000	92.16601849	38.92118633	12.23315820
 2	0.00000000	-90.00000000	-100.00000000	100.00000000	92.16601849	38.92118633	12.23315820
 3	0.00000000	-80.00000000	-100.00000000	100.00000000	92.16601849	38.92118633	12.23315820
 4	0.00000000	-70.00000000	-100.00000000	100.00000000	92.16601849	38.92118633	12.23315820
 5	0.00000000	-60.00000000	-100.00000000	100.00000000	92.16601849	38.92118633	12.23315820
 6	0.00000000	-50.00000000	-100.00000000	100.00000000	92.16601849	38.92118633	12.23315820
 7	0.00000000	-40.00000000	-100.00000000	100.00000000	92.16601849	38.92118633	12.23315820
 8	0.00000000	-30.00000000	-100.00000000	100.00000000	92.16601849	38.92118633	12.23315820
 9	0.00000000	-20.00000000	-100.00000000	100.00000000	92.16601849	38.92118633	12.23315820
 10	0.00000000	-10.00000000	-100.00000000	100.00000000	92.16601849	38.92118633	12.23315820
 11	0.00000000	0.00000000	-100.00000000	100.00000000	92.16601849	38.92118633	12.23315820
 12	0.00000000	10.00000000	-100.00000000	100.00000000	92.55817533	39.73143995	12.15381101
 13	0.00000000	20.00000000	-100.00000000	100.00000000	92.94880629	40.26703238	11.61211580
 14	0.00000000	30.00000000	-100.00000000	100.00000000	93.34859252	41.34279490	11.31151319
 15	0.00000000	40.00000000	-100.00000000	100.00000000	93.91622543	41.87685847	10.77134386
 16	0.00000000	50.00000000	-100.00000000	100.00000000	94.46097612	42.31479466	10.32577977
 17	0.00000000	60.00000000	-100.00000000	100.00000000	94.85771060	42.38040745	9.59487334
 18	0.00000000	70.00000000	-100.00000000	100.00000000	95.88158727	41.49385691	8.91584679
 19	0.00000000	80.00000000	-100.00000000	100.00000000	96.81696892	39.53459859	8.72053131
 20	0.00000000	90.00000000	-100.00000000	100.00000000	98.52445126	36.03265285	9.29732174
 21	0.00000000	100.00000000	-100.00000000	100.00000000	100.00000000	31.35423958	10.47379300
 22	10.00000000	-100.00000000	-100.00000000	100.00000000	76.42176151	20.00610381	7.48302415
 23	10.00000000	-90.00000000	-100.00000000	100.00000000	76.42176151	20.00610381	7.48302415
 24	10.00000000	-80.00000000	-100.00000000	100.00000000	76.42176151	20.00610381	7.48302415
 25	10.00000000	-70.00000000	-100.00000000	100.00000000	76.42176151	20.00610381	7.48302415
 26	10.00000000	-60.00000000	-100.00000000	100.00000000	76.42176151	20.00610381	7.48302415
 27	10.00000000	-50.00000000	-100.00000000	100.00000000	76.47821903	20.00610381	7.48302415
 28	10.00000000	-40.00000000	-100.00000000	100.00000000	76.70557499	20.00610381	7.48302415
 29	10.00000000	-30.00000000	-100.00000000	100.00000000	77.40596533	20.00762969	7.17784390
 30	10.00000000	-20.00000000	-100.00000000	100.00000000	77.93545723	20.00915557	7.09239319
 31	10.00000000	-10.00000000	-100.00000000	100.00000000	78.40543389	20.00915557	7.09086731
 32	10.00000000	0.00000000	-100.00000000	100.00000000	78.90287638	20.04882842	6.70176223
 33	10.00000000	10.00000000	-100.00000000	100.00000000	79.96490598	20.20294517	6.70023635
 34	10.00000000	20.00000000	-100.00000000	100.00000000	80.78278899	20.41962296	6.39353022
 35	10.00000000	30.00000000	-100.00000000	100.00000000	81.73952699	20.55695504	6.17532618
 36	10.00000000	40.00000000	-100.00000000	100.00000000	83.03959966	20.81330568	5.78011759
 37	10.00000000	50.00000000	-100.00000000	100.00000000	84.14892554	21.13984823	5.38948663
 38	10.00000000	60.00000000	-100.00000000	100.00000000	85.70076823	21.18867785	4.98054475
 39	10.00000000	70.00000000	-100.00000000	100.00000000	87.29075789	21.16731554	4.31982912
 40	10.00000000	80.00000000	-100.00000000	100.00000000	90.89646935	17.16487408	2.76798662
 41	10.00000000	90.00000000	-100.00000000	100.00000000	95.89379430	9.96108949	1.23140309
 42	10.00000000	100.00000000	-100.00000000	95.81444860	100.00000000	1.48622878	0.07324331
 43	20.00000000	-100.00000000	-100.00000000	100.00000000	55.28343916	10.36087573	3.28831933
 44	20.00000000	-90.00000000	-100.00000000	100.00000000	55.75036407	10.36087573	3.28831933
 45	20.00000000	-80.00000000	-100.00000000	100.00000000	56.01434112	10.36087573	3.28831933
 46	20.00000000	-70.00000000	-100.00000000	100.00000000	56.29205704	10.26779562	3.28831933
 47	20.00000000	-60.00000000	-100.00000000	100.00000000	56.63538575	9.82375816	3.28221545
 48	20.00000000	-50.00000000	-100.00000000	100.00000000	57.30220675	9.82375816	3.24864574
 49	20.00000000	-40.00000000	-100.00000000	100.00000000	57.91714191	9.53383669	3.24864574
 50	20.00000000	-30.00000000	-100.00000000	100.00000000	58.45884085	9.26375240	3.24864574
 51	20.00000000	-20.00000000	-100.00000000	100.00000000	59.04936194	9.26375240	3.24864574
 52	20.00000000	-10.00000000	-100.00000000	100.00000000	60.12970209	8.90974253	2.89768819
 53	20.00000000	0.00000000	-100.00000000	100.00000000	61.32753491	8.90669078	2.85648890
 54	20.00000000	10.00000000	-100.00000000	100.00000000	62.16067672	8.90363902	2.85038538
 55	20.00000000	20.00000000	-100.00000000	100.00000000	63.86052966	8.89600962	2.61081867
 56	20.00000000	30.00000000	-100.00000000	100.00000000	65.56801796	8.12695473	2.31479369
 57	20.00000000	40.00000000	-100.00000000	100.00000000	68.97993684	6.25772476	1.28480969
 58	20.00000000	50.00000000	-100.00000000	100.00000000	73.06782603	1.98214687	0.30975814
 59	20.00000000	60.00000000	-100.00000000	100.00000000	77.73708701	0.00000000	0.06103609
 60	20.00000000	70.00000000	-100.00000000	95.94873190	81.67696595	0.00000000	0.01068132
 61	20.00000000	80.00000000	-100.00000000	90.55924416	85.72365642	0.00000000	0.00000000
 62	20.00000000	90.00000000	-100.00000000	85.96780300	89.39650655	0.00000000	0.00000000
 63	20.00000000	100.00000000	-100.00000000	81.49843812	93.08003187	0.00000000	0.00000000
 64	30.00000000	-100.00000000	-100.00000000	100.00000000	32.24994242	12.44983599	1.96841378
 65	30.00000000	-90.00000000	-100.00000000	100.00000000	32.54902065	12.22247630	1.96841378
 66	30.00000000	-80.00000000	-100.00000000	100.00000000	32.84809589	12.04089448	1.96688790
 67	30.00000000	-70.00000000	-100.00000000	100.00000000	33.14870000	11.78149059	1.96688790
 68	30.00000000	-60.00000000	-100.00000000	100.00000000	33.71786177	11.32524610	1.96688790
 69	30.00000000	-50.00000000	-100.00000000	100.00000000	34.57236588	11.01091057	1.94094758
 70	30.00000000	-40.00000000	-100.00000000	100.00000000	35.77477634	10.39749756	1.87380798
 71	30.00000000	-30.00000000	-100.00000000	100.00000000	36.80323362	9.72915217	1.87075604
 72	30.00000000	-20.00000000	-100.00000000	100.00000000	39.67650831	7.74395391	1.48012517
 73	30.00000000	-10.00000000	-100.00000000	100.00000000	42.75272787	5.78622110	1.08644236
 74	30.00000000	0.00000000	-100.00000000	100.00000000	46.53849006	2.85343714	0.69428552
 75	30.00000000	10.00000000	-100.00000000	100.00000000	50.61570406	0.09155413	0.29907683
 76	30.00000000	20.00000000	-100.00000000	100.00000000	54.90196347	0.00000000	0.00000000
 77	30.00000000	30.00000000	-100.00000000	100.00000000	59.79552865	0.00000000	0.00000000
 78	30.00000000	40.00000000	-100.00000000	98.42679501	64.17639256	0.00000000	0.00000000
 79	30.00000000	50.00000000	-100.00000000	93.91927719	68.81208420	0.00000000	0.00000000
 80	30.00000000	60.00000000	-100.00000000	89.45448995	73.33943844	0.00000000	0.00000000
 81	30.00000000	70.00000000	-100.00000000	85.55886149	77.94308662	0.00000000	0.00000000
 82	30.00000000	80.00000000	-100.00000000	81.66781068	82.16830492	0.00000000	0.00000000
 83	30.00000000	90.00000000	-100.00000000	77.79049277	85.79232693	0.00000000	0.00000000
 84	30.00000000	100.00000000	-100.00000000	72.97627330	89.23933506	0.00000000	0.00000000
 85	40.00000000	-100.00000000	-100.00000000	100.00000000	17.75539815	14.28702176	1.34889754
 86	40.00000000	-90.00000000	-100.00000000	100.00000000	18.64194721	13.13954443	1.05592432
 87	40.00000000	-80.00000000	-100.00000000	100.00000000	20.03204376	12.29571998	0.96131843
 88	40.00000000	-70.00000000	-100.00000000	100.00000000	21.46334052	10.96208170	0.96131843
 89	40.00000000	-60.00000000	-100.00000000	100.00000000	23.01518321	9.37514305	0.95979245
 90	40.00000000	-50.00000000	-100.00000000	100.00000000	25.24147332	7.59136304	0.85145347
 91	40.00000000	-40.00000000	-100.00000000	100.00000000	27.33653784	5.62447533	0.56763561
 92	40.00000000	-30.00000000	-100.00000000	100.00000000	30.17776906	3.34325172	0.42877854
 93	40.00000000	-20.00000000	-100.00000000	100.00000000	33.05867016	0.06408789	0.17395285
 94	40.00000000	-10.00000000	-100.00000000	100.00000000	36.47821844	0.00000000	0.00000000
 95	40.00000000	0.00000000	-100.00000000	100.00000000	40.73396027	0.00000000	0.00000000
 96	40.00000000	10.00000000	-100.00000000	100.00000000	45.57869732	0.00000000	0.00000000
 97	40.00000000	20.00000000	-100.00000000	98.24215770	50.72556734	0.00000000	0.00000000
 98	40.00000000	30.00000000	-100.00000000	92.68634915	55.75799346	0.00000000	0.00000000
 99	40.00000000	40.00000000	-100.00000000	88.14831972	60.34637690	0.00000000	0.00000000
 100	40.00000000	50.00000000	-100.00000000	84.02532935	65.34981132	0.00000000	0.00000000
 101	40.00000000	60.00000000	-100.00000000	80.52643538	69.93667483	0.00000000	0.00000000
 102	40.00000000	70.00000000	-100.00000000	77.65163779	74.23819304	0.00000000	0.00000000
 103	40.00000000	80.00000000	-100.00000000	73.82162213	78.33066583	0.00000000	0.00000000
 104	40.00000000	90.00000000	-100.00000000	70.15335560	81.83871508	0.00000000	0.00000000
 105	40.00000000	100.00000000	-100.00000000	65.54512978	85.23079157	0.00000000	0.00000000
 106	50.00000000	-100.00000000	-100.00000000	100.00000000	8.82124081	10.77286974	0.38605325
 107	50.00000000	-90.00000000	-100.00000000	100.00000000	10.32120213	9.26985592	0.16632334
 108	50.00000000	-80.00000000	-100.00000000	100.00000000	11.32829785	7.56847486	0.09613184
 109	50.00000000	-70.00000000	-100.00000000	100.00000000	12.75959462	5.77096194	0.07019150
 110	50.00000000	-60.00000000	-100.00000000	100.00000000	14.48691487	3.72625329	0.00000000
 111	50.00000000	-50.00000000	-100.00000000	100.00000000	16.37750864	1.06050204	0.00000000
 112	50.00000000	-40.00000000	-100.00000000	100.00000000	18.47714931	0.00000000	0.00000000
 113	50.00000000	-30.00000000	-100.00000000	100.00000000	21.43129557	0.00000000	0.00000000
 114	50.00000000	-20.00000000	-100.00000000	100.00000000	24.66468364	0.00000000	0.00000000
 115	50.00000000	-10.00000000	-100.00000000	100.00000000	29.60097790	0.00000000	0.00000000
 116	50.00000000	0.00000000	-100.00000000	99.64751601	35.34142077	0.00000000	0.00000000
 117	50.00000000	10.00000000	-100.00000000	92.87251234	40.98420739	0.00000000	0.00000000
 118	50.00000000	20.00000000	-100.00000000	87.28160262	46.73227966	0.00000000	0.00000000
 119	50.00000000	30.00000000	-100.00000000	82.82902241	52.11718678	0.00000000	0.00000000
 120	50.00000000	40.00000000	-100.00000000	78.75639200	57.12519884	0.00000000	0.00000000
 121	50.00000000	50.00000000	-100.00000000	76.04028583	61.71206236	0.00000000	0.00000000
 122	50.00000000	60.00000000	-100.00000000	73.20362926	66.70176387	0.00000000	0.00000000
 123	50.00000000	70.00000000	-100.00000000	70.78354955	70.64316869	0.00000000	0.00000000
 124	50.00000000	80.00000000	-100.00000000	67.20683575	74.34653044	0.00000000	0.00000000
 125	50.00000000	90.00000000	-100.00000000	63.47600222	77.41512060	0.00000000	0.00000000
 126	50.00000000	100.00000000	-100.00000000	59.18364525	80.28534651	0.00000000	0.00000000
 127	60.00000000	-100.00000000	-100.00000000	100.00000000	0.00000000	5.74502163	0.00000000
 128	60.00000000	-90.00000000	-100.00000000	100.00000000	0.00000000	3.87579165	0.00000000
 129	60.00000000	-80.00000000	-100.00000000	100.00000000	0.00000000	1.84023809	0.00000000
 130	60.00000000	-70.00000000	-100.00000000	100.00000000	1.37941558	0.00000000	0.00000000
 131	60.00000000	-60.00000000	-100.00000000	100.00000000	2.98466478	0.00000000	0.00000000
 132	60.00000000	-50.00000000	-100.00000000	100.00000000	4.95765619	0.00000000	0.00000000
 133	60.00000000	-40.00000000	-100.00000000	100.00000000	7.69970268	0.00000000	0.00000000
 134	60.00000000	-30.00000000	-100.00000000	100.00000000	12.53833771	0.00000000	0.00000000
 135	60.00000000	-20.00000000	-100.00000000	100.00000000	19.03715581	0.00000000	0.00000000
 136	60.00000000	-10.00000000	-100.00000000	94.51285601	25.32845140	0.00000000	0.00000000
 137	60.00000000	0.00000000	-100.00000000	87.70886064	31.09788597	0.00000000	0.00000000
 138	60.00000000	10.00000000	-100.00000000	82.42008090	37.00923026	0.00000000	0.00000000
 139	60.00000000	20.00000000	-100.00000000	76.44159794	41.68459475	0.00000000	0.00000000
 140	60.00000000	30.00000000	-100.00000000	70.82322240	45.43526471	0.00000000	0.00000000
 141	60.00000000	40.00000000	-100.00000000	65.85946679	48.75715375	0.00000000	0.00000000
 142	60.00000000	50.00000000	-100.00000000	62.23697066	51.90966725	0.00000000	0.00000000
 143	60.00000000	60.00000000	-100.00000000	59.34538841	54.83481884	0.00000000	0.00000000
 144	60.00000000	70.00000000	-100.00000000	56.96040392	57.98733234	0.00000000	0.00000000
 145	60.00000000	80.00000000	-100.00000000	54.51591015	61.95010543	0.00000000	0.00000000
 146	60.00000000	90.00000000	-100.00000000	52.46814489	66.64835811	0.00000000	0.00000000
 147	60.00000000	100.00000000	-100.00000000	50.60654879	71.80285454	0.00000000	0.00000000
 148	70.00000000	-100.00000000	-100.00000000	100.00000000	0.00000000	0.00000000	0.00000000
 149	70.00000000	-90.00000000	-100.00000000	100.00000000	0.00000000	0.00000000	0.00000000
 150	70.00000000	-80.00000000	-100.00000000	100.00000000	0.00000000	0.00000000	0.00000000
 151	70.00000000	-70.00000000	-100.00000000	100.00000000	0.00000000	0.00000000	0.00000000
 152	70.00000000	-60.00000000	-100.00000000	100.00000000	0.00000000	0.00000000	0.00000000
 153	70.00000000	-50.00000000	-100.00000000	100.00000000	0.00000000	0.00000000	0.00000000
 154	70.00000000	-40.00000000	-100.00000000	100.00000000	0.30060273	0.00000000	0.00000000
 155	70.00000000	-30.00000000	-100.00000000	96.10589743	6.98405430	0.00000000	0.00000000
 156	70.00000000	-20.00000000	-100.00000000	86.05020046	12.55512387	0.00000000	0.00000000
 157	70.00000000	-10.00000000	-100.00000000	77.58297324	17.51583070	0.00000000	0.00000000
 158	70.00000000	0.00000000	-100.00000000	69.71083879	21.60067111	0.00000000	0.00000000
 159	70.00000000	10.00000000	-100.00000000	63.26543093	25.24910271	0.00000000	0.00000000
 160	70.00000000	20.00000000	-100.00000000	57.70046711	29.06843722	0.00000000	0.00000000
 161	70.00000000	30.00000000	-100.00000000	52.91065574	32.60852993	0.00000000	0.00000000
 162	70.00000000	40.00000000	-100.00000000	49.13862944	35.83886325	0.00000000	0.00000000
 163	70.00000000	50.00000000	-100.00000000	46.38284743	38.44510615	0.00000000	0.00000000
 164	70.00000000	60.00000000	-100.00000000	43.77508163	41.23292863	0.00000000	0.00000000
 165	70.00000000	70.00000000	-100.00000000	42.20492840	43.93225014	0.00000000	0.00000000
 166	70.00000000	80.00000000	-100.00000000	40.28686881	47.61120081	0.00000000	0.00000000
 167	70.00000000	90.00000000	-100.00000000	38.40390742	51.35728717	0.00000000	0.00000000
 168	70.00000000	100.00000000	-100.00000000	36.51636541	55.99908233	0.00000000	0.00000000
 169	80.00000000	-100.00000000	-100.00000000	100.00000000	0.00000000	0.00000000	0.00000000
 170	80.00000000	-90.00000000	-100.00000000	100.00000000	0.00000000	0.00000000	0.00000000
 171	80.00000000	-80.00000000	-100.00000000	100.00000000	0.00000000	0.00000000	0.00000000
 172	80.00000000	-70.00000000	-100.00000000	100.00000000	0.00000000	0.00000000	0.00000000
 173	80.00000000	-60.00000000	-100.00000000	100.00000000	0.00000000	0.00000000	0.00000000
 174	80.00000000	-50.00000000	-100.00000000	94.09933686	0.00000000	0.00000000	0.00000000
 175	80.00000000	-40.00000000	-100.00000000	83.80865455	0.00000000	0.00000000	0.00000000
 176	80.00000000	-30.00000000	-100.00000000	74.11154509	0.00000000	0.00000000	0.00000000
 177	80.00000000	-20.00000000	-100.00000000	64.97596502	3.70946825	0.00000000	0.00000000
 178	80.00000000	-10.00000000	-100.00000000	57.63485432	8.05981532	0.00000000	0.00000000
 179	80.00000000	0.00000000	-100.00000000	51.21538043	12.35523000	0.00000000	0.00000000
 180	80.00000000	10.00000000	-100.00000000	45.63058019	15.89074582	0.00000000	0.00000000
 181	80.00000000	20.00000000	-100.00000000	41.02693200	18.78385544	0.00000000	0.00000000
 182	80.00000000	30.00000000	-100.00000000	36.77729368	21.77462429	0.00000000	0.00000000
 183	80.00000000	40.00000000	-100.00000000	34.21530426	24.34424311	0.00000000	0.00000000
 184	80.00000000	50.00000000	-100.00000000	31.95239305	26.88639760	0.00000000	0.00000000
 185	80.00000000	60.00000000	-100.00000000	30.42496443	28.86396646	0.00000000	0.00000000
 186	80.00000000	70.00000000	-100.00000000	29.27595973	30.92698455	0.00000000	0.00000000
 187	80.00000000	80.00000000	-100.00000000	27.47081816	34.16342437	0.00000000	0.00000000
 188	80.00000000	90.00000000	-100.00000000	25.74197054	37.74776757	0.00000000	0.00000000
 189	80.00000000	100.00000000	-100.00000000	24.11688417	41.91958606	0.00000000	0.00000000
 190	90.00000000	-100.00000000	-100.00000000	100.00000000	0.00000000	0.00000000	0.00000000
 191	90.00000000	-90.00000000	-100.00000000	100.00000000	0.00000000	0.00000000	0.00000000
 192	90.00000000	-80.00000000	-100.00000000	100.00000000	0.00000000	0.00000000	0.00000000
 193	90.00000000	-70.00000000	-100.00000000	97.92782664	0.00000000	0.00000000	0.00000000
 194	90.00000000	-60.00000000	-100.00000000	84.61890817	0.00000000	0.00000000	0.00000000
 195	90.00000000	-50.00000000	-100.00000000	71.66551948	0.00000000	0.00000000	0.00000000
 196	90.00000000	-40.00000000	-100.00000000	62.64896393	0.00000000	0.00000000	0.00000000
 197	90.00000000	-30.00000000	-100.00000000	54.58152294	0.00000000	0.00000000	0.00000000
 198	90.00000000	-20.00000000	-100.00000000	47.19615579	0.00000000	0.00000000	0.00000000
 199	90.00000000	-10.00000000	-100.00000000	41.02388024	1.65255200	0.00000000	0.00000000
 200	90.00000000	0.00000000	-100.00000000	35.26207507	5.27046621	0.00000000	0.00000000
 201	90.00000000	10.00000000	-100.00000000	30.75608313	8.36499557	0.00000000	0.00000000
 202	90.00000000	20.00000000	-100.00000000	26.77500546	11.07194647	0.00000000	0.00000000
 203	90.00000000	30.00000000	-100.00000000	23.78881574	13.39742094	0.00000000	0.00000000
 204	90.00000000	40.00000000	-100.00000000	21.51827216	15.77172577	0.00000000	0.00000000
 205	90.00000000	50.00000000	-100.00000000	20.13122737	17.34493077	0.00000000	0.00000000
 206	90.00000000	60.00000000	-100.00000000	19.08598393	18.67704242	0.00000000	0.00000000
 207	90.00000000	70.00000000	-100.00000000	18.54581535	20.39826065	0.00000000	0.00000000
 208	90.00000000	80.00000000	-100.00000000	17.30525643	22.96330184	0.00000000	0.00000000
 209	90.00000000	90.00000000	-100.00000000	15.89990109	25.79385042	0.00000000	0.00000000
 210	90.00000000	100.00000000	-100.00000000	14.27939236	29.83901799	0.00000000	0.00000000
 211	100.00000000	-100.00000000	-100.00000000	96.79560661	0.00000000	0.00000000	0.00000000
 212	100.00000000	-90.00000000	-100.00000000	90.30441642	0.00000000	0.00000000	0.00000000
 213	100.00000000	-80.00000000	-100.00000000	83.39512944	0.00000000	0.00000000	0.00000000
 214	100.00000000	-70.00000000	-100.00000000	75.20714402	0.00000000	0.00000000	0.00000000
 215	100.00000000	-60.00000000	-100.00000000	63.34935427	0.00000000	0.00000000	0.00000000
 216	100.00000000	-50.00000000	-100.00000000	51.41527653	0.00000000	0.00000000	0.00000000
 217	100.00000000	-40.00000000	-100.00000000	44.10009980	0.00000000	0.00000000	0.00000000
 218	100.00000000	-30.00000000	-100.00000000	37.89120317	0.00000000	0.00000000	0.00000000
 219	100.00000000	-20.00000000	-100.00000000	31.07804954	0.00000000	0.00000000	0.00000000
 220	100.00000000	-10.00000000	-100.00000000	25.79232454	0.00000000	0.00000000	0.00000000
 221	100.00000000	0.00000000	-100.00000000	21.70901000	0.00000000	0.00000000	0.00000000
 222	100.00000000	10.00000000	-100.00000000	18.16891730	2.51468681	0.00000000	0.00000000
 223	100.00000000	20.00000000	-100.00000000	15.04844725	4.90882732	0.00000000	0.00000000
 224	100.00000000	30.00000000	-100.00000000	12.65583336	6.93369955	0.00000000	0.00000000
 225	100.00000000	40.00000000	-100.00000000	11.18181124	8.18799138	0.00000000	0.00000000
 226	100.00000000	50.00000000	-100.00000000	10.30289158	9.29121822	0.00000000	0.00000000
 227	100.00000000	60.00000000	-100.00000000	10.17166376	10.47074050	0.00000000	0.00000000
 228	100.00000000	70.00000000	-100.00000000	10.15945673	11.53124273	0.00000000	0.00000000
 229	100.00000000	80.00000000	-100.00000000	8.82276669	13.87045085	0.00000000	0.00000000
 230	100.00000000	90.00000000	-100.00000000	7.24803507	16.44922495	0.00000000	0.00000000
 231	100.00000000	100.00000000	-100.00000000	5.62752746	19.69024241	0.00000000	0.00000000
 232	0.00000000	-100.00000000	-90.00000000	100.00000000	93.05256605	45.16517818	19.61547285
 233	0.00000000	-90.00000000	-90.00000000	100.00000000	93.05256605	45.16517818	19.61547285
 234	0.00000000	-80.00000000	-90.00000000	100.00000000	93.05256605	45.16517818	19.61547285
 235	0.00000000	-70.00000000	-90.00000000	100.00000000	93.05256605	45.16517818	19.61547285
 236	0.00000000	-60.00000000	-90.00000000	100.00000000	93.05256605	45.16517818	19.61547285
 237	0.00000000	-50.00000000	-90.00000000	100.00000000	93.05256605	45.16517818	19.61547285
 238	0.00000000	-40.00000000	-90.00000000	100.00000000	93.05256605	45.16517818	19.61547285
 239	0.00000000	-30.00000000	-90.00000000	100.00000000	93.05256605	45.16517818	19.61547285
 240	0.00000000	-20.00000000	-90.00000000	100.00000000	93.05256605	45.16517818	19.61547285
 241	0.00000000	-10.00000000	-90.00000000	100.00000000	93.05256605	45.16517818	19.61547285
 242	0.00000000	0.00000000	-90.00000000	100.00000000	93.05256605	45.16517818	19.61547285
 243	0.00000000	10.00000000	-90.00000000	100.00000000	93.55611801	45.27809620	19.29808557
 244	0.00000000	20.00000000	-90.00000000	100.00000000	94.09018159	45.11024654	18.87083203
 245	0.00000000	30.00000000	-90.00000000	100.00000000	94.42435503	45.17280757	18.39932799
 246	0.00000000	40.00000000	-90.00000000	100.00000000	94.90501285	45.10566890	17.85915941
 247	0.00000000	50.00000000	-90.00000000	100.00000000	95.73968053	44.81727183	17.16182232
 248	0.00000000	60.00000000	-90.00000000	100.00000000	96.38666511	44.02532876	16.13336354
 249	0.00000000	70.00000000	-90.00000000	100.00000000	97.26253152	41.80819392	16.49347693
 250	0.00000000	80.00000000	-90.00000000	100.00000000	99.03715849	37.91409135	17.59517789
 251	0.00000000	90.00000000	-90.00000000	100.00000000	100.00000000	35.47570109	18.63736957
 252	0.00000000	100.00000000	-90.00000000	98.72892499	100.00000000	34.70817208	19.34843957
 253	10.00000000	-100.00000000	-90.00000000	100.00000000	77.44868994	26.21805072	12.79011220
 254	10.00000000	-90.00000000	-90.00000000	100.00000000	77.44868994	26.21805072	12.79011220
 255	10.00000000	-80.00000000	-90.00000000	100.00000000	77.44868994	26.21805072	12.79011220
 256	10.00000000	-70.00000000	-90.00000000	100.00000000	77.44868994	26.21805072	12.79011220
 257	10.00000000	-60.00000000	-90.00000000	100.00000000	77.44868994	26.21805072	12.79011220
 258	10.00000000	-50.00000000	-90.00000000	100.00000000	77.55855918	26.21805072	12.79011220
 259	10.00000000	-40.00000000	-90.00000000	100.00000000	77.83169150	26.21805072	12.79011220
 260	10.00000000	-30.00000000	-90.00000000	100.00000000	78.26046944	26.46219432	12.71686852
 261	10.00000000	-20.00000000	-90.00000000	100.00000000	78.72129679	26.74143612	12.44983599
 262	10.00000000	-10.00000000	-90.00000000	100.00000000	79.68413830	26.75669491	12.39795536
 263	10.00000000	0.00000000	-90.00000000	100.00000000	80.25787473	27.04814076	12.30487525
 264	10.00000000	10.00000000	-90.00000000	100.00000000	81.30159378	27.26024389	12.12939620
