bench/lcms_compat/reference/lab_to_RISO_MZ770_Black.icc_Relative.it8
CGATS.17
ORIGINATOR	"icctrans"
#
# Data follows
#
NUMBER_OF_SETS	4851.00000000
NUMBER_OF_FIELDS	5.00000000
BEGIN_DATA_FORMAT
 SAMPLE_ID	IN_LAB_L	IN_LAB_A	IN_LAB_B	OUT_GRAY
END_DATA_FORMAT
BEGIN_DATA
 1	0.00000000	-100.00000000	-100.00000000	0.00000000
 2	0.00000000	-90.00000000	-100.00000000	0.00000000
 3	0.00000000	-80.00000000	-100.00000000	0.00000000
 4	0.00000000	-70.00000000	-100.00000000	0.00000000
 5	0.00000000	-60.00000000	-100.00000000	0.00000000
 6	0.00000000	-50.00000000	-100.00000000	0.00000000
 7	0.00000000	-40.00000000	-100.00000000	0.00000000
 8	0.00000000	-30.00000000	-100.00000000	0.00000000
 9	0.00000000	-20.00000000	-100.00000000	0.00000000
 10	0.00000000	-10.00000000	-100.00000000	0.00000000
 11	0.00000000	0.00000000	-100.00000000	0.00000000
 12	0.00000000	10.00000000	-100.00000000	0.00000000
 13	0.00000000	20.00000000	-100.00000000	0.00000000
 14	0.00000000	30.00000000	-100.00000000	0.00000000
 15	0.00000000	40.00000000	-100.00000000	0.00000000
 16	0.00000000	50.00000000	-100.00000000	0.00000000
 17	0.00000000	60.00000000	-100.00000000	0.00000000
 18	0.00000000	70.00000000	-100.00000000	0.00000000
 19	0.00000000	80.00000000	-100.00000000	0.00000000
 20	0.00000000	90.00000000	-100.00000000	0.00000000
 21	0.00000000	100.00000000	-100.00000000	0.00000000
 22	10.00000000	-100.00000000	-100.00000000	0.00000000
 23	10.00000000	-90.00000000	-100.00000000	0.00000000
 24	10.00000000	-80.00000000	-100.00000000	0.00000000
 25	10.00000000	-70.00000000	-100.00000000	0.00000000
 26	10.00000000	-60.00000000	-100.00000000	0.00000000
 27	10.00000000	-50.00000000	-100.00000000	0.00000000
 28	10.00000000	-40.00000000	-100.00000000	0.00000000
 29	10.00000000	-30.00000000	-100.00000000	0.00000000
 30	10.00000000	-20.00000000	-100.00000000	0.00000000
 31	10.00000000	-10.00000000	-100.00000000	0.00000000
 32	10.00000000	0.00000000	-100.00000000	0.00000000
 33	10.00000000	10.00000000	-100.00000000	0.00000000
 34	10.00000000	20.00000000	-100.00000000	0.00000000
 35	10.00000000	30.00000000	-100.00000000	0.00000000
 36	10.00000000	40.00000000	-100.00000000	0.00000000
 37	10.00000000	50.00000000	-100.00000000	0.00000000
 38	10.00000000	60.00000000	-100.00000000	0.00000000
 39	10.00000000	70.00000000	-100.00000000	0.00000000
 40	10.00000000	80.00000000	-100.00000000	0.00000000
 41	10.00000000	90.00000000	-100.00000000	0.00000000
 42	10.00000000	100.00000000	-100.00000000	0.00000000
 43	20.00000000	-100.00000000	-100.00000000	0.00000000
 44	20.00000000	-90.00000000	-100.00000000	0.00000000
 45	20.00000000	-80.00000000	-100.00000000	0.00000000
 46	20.00000000	-70.00000000	-100.00000000	0.00000000
 47	20.00000000	-60.00000000	-100.00000000	0.00000000
 48	20.00000000	-50.00000000	-100.00000000	0.00000000
 49	20.00000000	-40.00000000	-100.00000000	0.00000000
 50	20.00000000	-30.00000000	-100.00000000	0.00000000
 51	20.00000000	-20.00000000	-100.00000000	0.00000000
 52	20.00000000	-10.00000000	-100.00000000	0.00000000
 53	20.00000000	0.00000000	-100.00000000	0.00000000
 54	20.00000000	10.00000000	-100.00000000	0.00000000
 55	20.00000000	20.00000000	-100.00000000	0.00000000
 56	20.00000000	30.00000000	-100.00000000	0.00000000
 57	20.00000000	40.00000000	-100.00000000	0.00000000
 58	20.00000000	50.00000000	-100.00000000	0.00000000
 59	20.00000000	60.00000000	-100.00000000	0.00000000
 60	20.00000000	70.00000000	-100.00000000	0.00000000
 61	20.00000000	80.00000000	-100.00000000	0.00000000
 62	20.00000000	90.00000000	-100.00000000	0.00000000
 63	20.00000000	100.00000000	-100.00000000	0.00000000
 64	30.00000000	-100.00000000	-100.00000000	2.90272385
 65	30.00000000	-90.00000000	-100.00000000	2.90272385
 66	30.00000000	-80.00000000	-100.00000000	2.90272385
 67	30.00000000	-70.00000000	-100.00000000	2.90272385
 68	30.00000000	-60.00000000	-100.00000000	2.90272385
 69	30.00000000	-50.00000000	-100.00000000	2.90272385
 70	30.00000000	-40.00000000	-100.00000000	2.90272385
 71	30.00000000	-30.00000000	-100.00000000	2.90272385
 72	30.00000000	-20.00000000	-100.00000000	2.90272385
 73	30.00000000	-10.00000000	-100.00000000	2.90272385
 74	30.00000000	0.00000000	-100.00000000	2.90272385
 75	30.00000000	10.00000000	-100.00000000	2.90272385
 76	30.00000000	20.00000000	-100.00000000	2.90272385
 77	30.00000000	30.00000000	-100.00000000	2.90272385
 78	30.00000000	40.00000000	-100.00000000	2.90272385
 79	30.00000000	50.00000000	-100.00000000	2.90272385
 80	30.00000000	60.00000000	-100.00000000	2.90272385
 81	30.00000000	70.00000000	-100.00000000	2.90272385
 82	30.00000000	80.00000000	-100.00000000	2.90272385
 83	30.00000000	90.00000000	-100.00000000	2.90272385
 84	30.00000000	100.00000000	-100.00000000	2.90272385
 85	40.00000000	-100.00000000	-100.00000000	39.85992193
 86	40.00000000	-90.00000000	-100.00000000	39.85992193
 87	40.00000000	-80.00000000	-100.00000000	39.85992193
 88	40.00000000	-70.00000000	-100.00000000	39.85992193
 89	40.00000000	-60.00000000	-100.00000000	39.85992193
 90	40.00000000	-50.00000000	-100.00000000	39.85992193
 91	40.00000000	-40.00000000	-100.00000000	39.85992193
 92	40.00000000	-30.00000000	-100.00000000	39.85992193
 93	40.00000000	-20.00000000	-100.00000000	39.85992193
 94	40.00000000	-10.00000000	-100.00000000	39.85992193
 95	40.00000000	0.00000000	-100.00000000	39.85992193
 96	40.00000000	10.00000000	-100.00000000	39.85992193
 97	40.00000000	20.00000000	-100.00000000	39.85992193
 98	40.00000000	30.00000000	-100.00000000	39.85992193
 99	40.00000000	40.00000000	-100.00000000	39.85992193
 100	40.00000000	50.00000000	-100.00000000	39.85992193
 101	40.00000000	60.00000000	-100.00000000	39.85992193
 102	40.00000000	70.00000000	-100.00000000	39.85992193
 103	40.00000000	80.00000000	-100.00000000	39.85992193
 104	40.00000000	90.00000000	-100.00000000	39.85992193
 105	40.00000000	100.00000000	-100.00000000	39.85992193
 106	50.00000000	-100.00000000	-100.00000000	54.87159401
 107	50.00000000	-90.00000000	-100.00000000	54.87159401
 108	50.00000000	-80.00000000	-100.00000000	54.87159401
 109	50.00000000	-70.00000000	-100.00000000	54.87159401
 110	50.00000000	-60.00000000	-100.00000000	54.87159401
 111	50.00000000	-50.00000000	-100.00000000	54.87159401
 112	50.00000000	-40.00000000	-100.00000000	54.87159401
 113	50.00000000	-30.00000000	-100.00000000	54.87159401
 114	50.00000000	-20.00000000	-100.00000000	54.87159401
 115	50.00000000	-10.00000000	-100.00000000	54.87159401
 116	50.00000000	0.00000000	-100.00000000	54.87159401
 117	50.00000000	10.00000000	-100.00000000	54.87159401
 118	50.00000000	20.00000000	-100.00000000	54.87159401
 119	50.00000000	30.00000000	-100.00000000	54.87159401
 120	50.00000000	40.00000000	-100.00000000	54.87159401
 121	50.00000000	50.00000000	-100.00000000	54.87159401
 122	50.00000000	60.00000000	-100.00000000	54.87159401
 123	50.00000000	70.00000000	-100.00000000	54.87159401
 124	50.00000000	80.00000000	-100.00000000	54.87159401
 125	50.00000000	90.00000000	-100.00000000	54.87159401
 126	50.00000000	100.00000000	-100.00000000	54.87159401
 127	60.00000000	-100.00000000	-100.00000000	91.81322694
 128	60.00000000	-90.00000000	-100.00000000	91.81322694
 129	60.00000000	-80.00000000	-100.00000000	91.81322694
 130	60.00000000	-70.00000000	-100.00000000	91.81322694
 131	60.00000000	-60.00000000	-100.00000000	91.81322694
 132	60.00000000	-50.00000000	-100.00000000	91.81322694
 133	60.00000000	-40.00000000	-100.00000000	91.81322694
 134	60.00000000	-30.00000000	-100.00000000	91.81322694
 135	60.00000000	-20.00000000	-100.00000000	91.81322694
 136	60.00000000	-10.00000000	-100.00000000	91.81322694
 137	60.00000000	0.00000000	-100.00000000	91.81322694
 138	60.00000000	10.00000000	-100.00000000	91.81322694
 139	60.00000000	20.00000000	-100.00000000	91.81322694
 140	60.00000000	30.00000000	-100.00000000	91.81322694
 141	60.00000000	40.00000000	-100.00000000	91.81322694
 142	60.00000000	50.00000000	-100.00000000	91.81322694
 143	60.00000000	60.00000000	-100.00000000	91.81322694
 144	60.00000000	70.00000000	-100.00000000	91.81322694
 145	60.00000000	80.00000000	-100.00000000	91.81322694
 146	60.00000000	90.00000000	-100.00000000	91.81322694
 147	60.00000000	100.00000000	-100.00000000	91.81322694
 148	70.00000000	-100.00000000	-100.00000000	148.72373074
 149	70.00000000	-90.00000000	-100.00000000	148.72373074
 150	70.00000000	-80.00000000	-100.00000000	148.72373074
 151	70.00000000	-70.00000000	-100.00000000	148.72373074
 152	70.00000000	-60.00000000	-100.00000000	148.72373074
 153	70.00000000	-50.00000000	-100.00000000	148.72373074
 154	70.00000000	-40.00000000	-100.00000000	148.72373074
 155	70.00000000	-30.00000000	-100.00000000	148.72373074
 156	70.00000000	-20.00000000	-100.00000000	148.72373074
 157	70.00000000	-10.00000000	-100.00000000	148.72373074
 158	70.00000000	0.00000000	-100.00000000	148.72373074
 159	70.00000000	10.00000000	-100.00000000	148.72373074
 160	70.00000000	20.00000000	-100.00000000	148.72373074
 161	70.00000000	30.00000000	-100.00000000	148.72373074
 162	70.00000000	40.00000000	-100.00000000	148.72373074
 163	70.00000000	50.00000000	-100.00000000	148.72373074
 164	70.00000000	60.00000000	-100.00000000	148.72373074
 165	70.00000000	70.00000000	-100.00000000	148.72373074
 166	70.00000000	80.00000000	-100.00000000	148.72373074
 167	70.00000000	90.00000000	-100.00000000	148.72373074
 168	70.00000000	100.00000000	-100.00000000	148.72373074
 169	80.00000000	-100.00000000	-100.00000000	173.28404725
 170	80.00000000	-90.00000000	-100.00000000	173.28404725
 171	80.00000000	-80.00000000	-100.00000000	173.28404725
 172	80.00000000	-70.00000000	-100.00000000	173.28404725
 173	80.00000000	-60.00000000	-100.00000000	173.28404725
 174	80.00000000	-50.00000000	-100.00000000	173.28404725
 175	80.00000000	-40.00000000	-100.00000000	173.28404725
 176	80.00000000	-30.00000000	-100.00000000	173.28404725
 177	80.00000000	-20.00000000	-100.00000000	173.28404725
 178	80.00000000	-10.00000000	-100.00000000	173.28404725
 179	80.00000000	0.00000000	-100.00000000	173.28404725
 180	80.00000000	10.00000000	-100.00000000	173.28404725
 181	80.00000000	20.00000000	-100.00000000	173.28404725
 182	80.00000000	30.00000000	-100.00000000	173.28404725
 183	80.00000000	40.00000000	-100.00000000	173.28404725
 184	80.00000000	50.00000000	-100.00000000	173.28404725
 185	80.00000000	60.00000000	-100.00000000	173.28404725
 186	80.00000000	70.00000000	-100.00000000	173.28404725
 187	80.00000000	80.00000000	-100.00000000	173.28404725
 188	80.00000000	90.00000000	-100.00000000	173.28404725
 189	80.00000000	100.00000000	-100.00000000	173.28404725
 190	90.00000000	-100.00000000	-100.00000000	201.78210765
 191	90.00000000	-90.00000000	-100.00000000	201.78210765
 192	90.00000000	-80.00000000	-100.00000000	201.78210765
 193	90.00000000	-70.00000000	-100.00000000	201.78210765
 194	90.00000000	-60.00000000	-100.00000000	201.78210765
 195	90.00000000	-50.00000000	-100.00000000	201.78210765
 196	90.00000000	-40.00000000	-100.00000000	201.78210765
 197	90.00000000	-30.00000000	-100.00000000	201.78210765
 198	90.00000000	-20.00000000	-100.00000000	201.78210765
 199	90.00000000	-10.00000000	-100.00000000	201.78210765
 200	90.00000000	0.00000000	-100.00000000	201.78210765
 201	90.00000000	10.00000000	-100.00000000	201.78210765
 202	90.00000000	20.00000000	-100.00000000	201.78210765
 203	90.00000000	30.00000000	-100.00000000	201.78210765
 204	90.00000000	40.00000000	-100.00000000	201.78210765
 205	90.00000000	50.00000000	-100.00000000	201.78210765
 206	90.00000000	60.00000000	-100.00000000	201.78210765
 207	90.00000000	70.00000000	-100.00000000	201.78210765
 208	90.00000000	80.00000000	-100.00000000	201.78210765
 209	90.00000000	90.00000000	-100.00000000	201.78210765
 210	90.00000000	100.00000000	-100.00000000	201.78210765
 211	100.00000000	-100.00000000	-100.00000000	255.00000000
 212	100.00000000	-90.00000000	-100.00000000	255.00000000
 213	100.00000000	-80.00000000	-100.00000000	255.00000000
 214	100.00000000	-70.00000000	-100.00000000	255.00000000
 215	100.00000000	-60.00000000	-100.00000000	255.00000000
 216	100.00000000	-50.00000000	-100.00000000	255.00000000
 217	100.00000000	-40.00000000	-100.00000000	255.00000000
 218	100.00000000	-30.00000000	-100.00000000	255.00000000
 219	100.00000000	-20.00000000	-100.00000000	255.00000000
 220	100.00000000	-10.00000000	-100.00000000	255.00000000
 221	100.00000000	0.00000000	-100.00000000	255.00000000
 222	100.00000000	10.00000000	-100.00000000	255.00000000
 223	100.00000000	20.00000000	-100.00000000	255.00000000
 224	100.00000000	30.00000000	-100.00000000	255.00000000
 225	100.00000000	40.00000000	-100.00000000	255.00000000
 226	100.00000000	50.00000000	-100.00000000	255.00000000
 227	100.00000000	60.00000000	-100.00000000	255.00000000
 228	100.00000000	70.00000000	-100.00000000	255.00000000
 229	100.00000000	80.00000000	-100.00000000	255.00000000
 230	100.00000000	90.00000000	-100.00000000	255.00000000
 231	100.00000000	100.00000000	-100.00000000	255.00000000
 232	0.00000000	-100.00000000	-90.00000000	0.00000000
 233	0.00000000	-90.00000000	-90.00000000	0.00000000
 234	0.00000000	-80.00000000	-90.00000000	0.00000000
 235	0.00000000	-70.00000000	-90.00000000	0.00000000
 236	0.00000000	-60.00000000	-90.00000000	0.00000000
 237	0.00000000	-50.00000000	-90.00000000	0.00000000
 238	0.00000000	-40.00000000	-90.00000000	0.00000000
 239	0.00000000	-30.00000000	-90.00000000	0.00000000
 240	0.00000000	-20.00000000	-90.00000000	0.00000000
 241	0.00000000	-10.00000000	-90.00000000	0.00000000
 242	0.00000000	0.00000000	-90.00000000	0.00000000
 243	0.00000000	10.00000000	-90.00000000	0.00000000
 244	0.00000000	20.00000000	-90.00000000	0.00000000
 245	0.00000000	30.00000000	-90.00000000	0.00000000
 246	0.00000000	40.00000000	-90.00000000	0.00000000
 247	0.00000000	50.00000000	-90.00000000	0.00000000
 248	0.00000000	60.00000000	-90.00000000	0.00000000
 249	0.00000000	70.00000000	-90.00000000	0.00000000
 250	0.00000000	80.00000000	-90.00000000	0.00000000
 251	0.00000000	90.00000000	-90.00000000	0.00000000
 252	0.00000000	100.00000000	-90.00000000	0.00000000
 253	10.00000000	-100.00000000	-90.00000000	0.00000000
 254	10.00000000	-90.00000000	-90.00000000	0.00000000
 255	10.00000000	-80.00000000	-90.00000000	0.00000000
 256	10.00000000	-70.00000000	-90.00000000	0.00000000
 257	10.00000000	-60.00000000	-90.00000000	0.00000000
 258	10.00000000	-50.00000000	-90.00000000	0.00000000
 259	10.00000000	-40.00000000	-90.00000000	0.00000000
 260	10.00000000	-30.00000000	-90.00000000	0.00000000
 261	10.00000000	-20.00000000	-90.00000000	0.00000000
 262	10.00000000	-10.00000000	-90.00000000	0.00000000
 263	10.00000000	0.00000000	-90.00000000	0.00000000
 264	10.00000000	10.00000000	-90.00000000	0.00000000
 265	10.00000000	20.00000000	-90.00000000	0.00000000
 266	10.00000000	30.00000000	-90.00000000	0.00000000
 267	10.00000000	40.00000000	-90.00000000	0.00000000
 268	10.00000000	50.00000000	-90.00000000	0.00000000
 269	10.00000000	60.00000000	-90.00000000	0.00000000
 270	10.00000000	70.00000000	-90.00000000	0.00000000
 271	10.00000000	80.00000000	-90.00000000	0.00000000
 272	10.00000000	90.00000000	-90.00000000	0.00000000
 273	10.00000000	100.00000000	-90.00000000	0.00000000
 274	20.00000000	-100.00000000	-90.00000000	0.00000000
 275	20.00000000	-90.00000000	-90.00000000	0.00000000
 276	20.00000000	-80.00000000	-90.00000000	0.00000000
 277	20.00000000	-70.00000000	-90.00000000	0.00000000
 278	20.00000000	-60.00000000	-90.00000000	0.00000000
 279	20.00000000	-50.00000000	-90.00000000	0.00000000
 280	20.00000000	-40.00000000	-90.00000000	0.00000000
 281	20.00000000	-30.00000000	-90.00000000	0.00000000
 282	20.00000000	-20.00000000	-90.00000000	0.00000000
 283	20.00000000	-10.00000000	-90.00000000	0.00000000
 284	20.00000000	0.00000000	-90.00000000	0.00000000
 285	20.00000000	10.00000000	-90.00000000	0.00000000
 286	20.00000000	20.00000000	-90.00000000	0.00000000
 287	20.00000000	30.00000000	-90.00000000	0.00000000
 288	20.00000000	40.00000000	-90.00000000	0.00000000
 289	20.00000000	50.00000000	-90.00000000	0.00000000
 290	20.00000000	60.00000000	-90.00000000	0.00000000
 291	20.00000000	70.00000000	-90.00000000	0.00000000
 292	20.00000000	80.00000000	-90.00000000	0.00000000
 293	20.00000000	90.00000000	-90.00000000	0.00000000
 294	20.00000000	100.00000000	-90.00000000	0.00000000
 295	30.00000000	-100.00000000	-90.00000000	2.90272385
 296	30.00000000	-90.00000000	-90.00000000	2.90272385
 297	30.00000000	-80.00000000	-90.00000000	2.90272385
 298	30.00000000	-70.00000000	-90.00000000	2.90272385
 299	30.00000000	-60.00000000	-90.00000000	2.90272385
 300	30.00000000	-50.00000000	-90.00000000	2.90272385
 301	30.00000000	-40.00000000	-90.00000000	2.90272385
 302	30.00000000	-30.00000000	-90.00000000	2.90272385
 303	30.00000000	-20.00000000	-90.00000000	2.90272385
 304	30.00000000	-10.00000000	-90.00000000	2.90272385
 305	30.00000000	0.00000000	-90.00000000	2.90272385
 306	30.00000000	10.00000000	-90.00000000	2.90272385
 307	30.00000000	20.00000000	-90.00000000	2.90272385
 308	30.00000000	30.00000000	-90.00000000	2.90272385
 309	30.00000000	40.00000000	-90.00000000	2.90272385
 310	30.00000000	50.00000000	-90.00000000	2.90272385
 311	30.00000000	60.00000000	-90.00000000	2.90272385
 312	30.00000000	70.00000000	-90.00000000	2.90272385
 313	30.00000000	80.00000000	-90.00000000	2.90272385
 314	30.00000000	90.00000000	-90.00000000	2.90272385
 315	30.00000000	100.00000000	-90.00000000	2.90272385
 316	40.00000000	-100.00000000	-90.00000000	39.85992193
 317	40.00000000	-90.00000000	-90.00000000	39.85992193
 318	40.00000000	-80.00000000	-90.00000000	39.85992193
 319	40.00000000	-70.00000000	-90.00000000	39.85992193
 320	40.00000000	-60.00000000	-90.00000000	39.85992193
 321	40.00000000	-50.00000000	-90.00000000	39.85992193
 322	40.00000000	-40.00000000	-90.00000000	39.85992193
 323	40.00000000	-30.00000000	-90.00000000	39.85992193
 324	40.00000000	-20.00000000	-90.00000000	39.85992193
 325	40.00000000	-10.00000000	-90.00000000	39.85992193
 326	40.00000000	0.00000000	-90.00000000	39.85992193
 327	40.00000000	10.00000000	-90.00000000	39.85992193
 328	40.00000000	20.00000000	-90.00000000	39.85992193
 329	40.00000000	30.00000000	-90.00000000	39.85992193
 330	40.00000000	40.00000000	-90.00000000	39.85992193
 331	40.00000000	50.00000000	-90.00000000	39.85992193
 332	40.00000000	60.00000000	-90.00000000	39.85992193
 333	40.00000000	70.00000000	-90.00000000	39.85992193
 334	40.00000000	80.00000000	-90.00000000	39.85992193
 335	40.00000000	90.00000000	-90.00000000	39.85992193
 336	40.00000000	100.00000000	-90.00000000	39.85992193
 337	50.00000000	-100.00000000	-90.00000000	54.87159401
 338	50.00000000	-90.00000000	-90.00000000	54.87159401
 339	50.00000000	-80.00000000	-90.00000000	54.87159401
 340	50.00000000	-70.00000000	-90.00000000	54.87159401
 341	50.00000000	-60.00000000	-90.00000000	54.87159401
 342	50.00000000	-50.00000000	-90.00000000	54.87159401
 343	50.00000000	-40.00000000	-90.00000000	54.87159401
 344	50.00000000	-30.00000000	-90.00000000	54.87159401
 345	50.00000000	-20.00000000	-90.00000000	54.87159401
 346	50.00000000	-10.00000000	-90.00000000	54.87159401
 347	50.00000000	0.00000000	-90.00000000	54.87159401
 348	50.00000000	10.00000000	-90.00000000	54.87159401
 349	50.00000000	20.00000000	-90.00000000	54.87159401
 350	50.00000000	30.00000000	-90.00000000	54.87159401
 351	50.00000000	40.00000000	-90.00000000	54.87159401
 352	50.00000000	50.00000000	-90.00000000	54.87159401
 353	50.00000000	60.00000000	-90.00000000	54.87159401
 354	50.00000000	70.00000000	-90.00000000	54.87159401
 355	50.00000000	80.00000000	-90.00000000	54.87159401
 356	50.00000000	90.00000000	-90.00000000	54.87159401
 357	50.00000000	100.00000000	-90.00000000	54.87159401
 358	60.00000000	-100.00000000	-90.00000000	91.81322694
 359	60.00000000	-90.00000000	-90.00000000	91.81322694
 360	60.00000000	-80.00000000	-90.00000000	91.81322694
 361	60.00000000	-70.00000000	-90.00000000	91.81322694
 362	60.00000000	-60.00000000	-90.00000000	91.81322694
 363	60.00000000	-50.00000000	-90.00000000	91.81322694
 364	60.00000000	-40.00000000	-90.00000000	91.81322694
 365	60.00000000	-30.00000000	-90.00000000	91.81322694
 366	60.00000000	-20.00000000	-90.00000000	91.81322694
 367	60.00000000	-10.00000000	-90.00000000	91.81322694
 368	60.00000000	0.00000000	-90.00000000	91.81322694
 369	60.00000000	10.00000000	-90.00000000	91.81322694
 370	60.00000000	20.00000000	-90.00000000	91.81322694
 371	60.00000000	30.00000000	-90.00000000	91.81322694
 372	60.00000000	40.00000000	-90.00000000	91.81322694
 373	60.00000000	50.00000000	-90.00000000	91.81322694
 374	60.00000000	60.00000000	-90.00000000	91.81322694
 375	60.00000000	70.00000000	-90.00000000	91.81322694
 376	60.00000000	80.00000000	-90.00000000	91.81322694
 377	60.00000000	90.00000000	-90.00000000	91.81322694
 378	60.00000000	100.00000000	-90.00000000	91.81322694
 379	70.00000000	-100.00000000	-90.00000000	148.72373074
 380	70.00000000	-90.00000000	-90.00000000	148.72373074
 381	70.00000000	-80.00000000	-90.00000000	148.72373074
 382	70.00000000	-70.00000000	-90.00000000	148.72373074
 383	70.00000000	-60.00000000	-90.00000000	148.72373074
 384	70.00000000	-50.00000000	-90.00000000	148.72373074
 385	70.00000000	-40.00000000	-90.00000000	148.72373074
 386	70.00000000	-30.00000000	-90.00000000	148.72373074
 387	70.00000000	-20.00000000	-90.00000000	148.72373074
 388	70.00000000	-10.00000000	-90.00000000	148.72373074
 389	70.00000000	0.00000000	-90.00000000	148.72373074
 390	70.00000000	10.00000000	-90.00000000	148.72373074
 391	70.00000000	20.00000000	-90.00000000	148.72373074
 392	70.00000000	30.00000000	-90.00000000	148.72373074
 393	70.00000000	40.00000000	-90.00000000	148.72373074
 394	70.00000000	50.00000000	-90.00000000	148.72373074
 395	70.00000000	60.00000000	-90.00000000	148.72373074
 396	70.00000000	70.00000000	-90.00000000	148.72373074
 397	70.00000000	80.00000000	-90.00000000	148.72373074
 398	70.00000000	90.00000000	-90.00000000	148.72373074
 399	70.00000000	100.00000000	-90.00000000	148.72373074
 400	80.00000000	-100.00000000	-90.00000000	173.28404725
 401	80.00000000	-90.00000000	-90.00000000	173.28404725
 402	80.00000000	-80.00000000	-90.00000000	173.28404725
 403	80.00000000	-70.00000000	-90.00000000	173.28404725
 404	80.00000000	-60.00000000	-90.00000000	173.28404725
 405	80.00000000	-50.00000000	-90.00000000	173.28404725
 406	80.00000000	-40.00000000	-90.00000000	173.28404725
 407	80.00000000	-30.00000000	-90.00000000	173.28404725
 408	80.00000000	-20.00000000	-90.00000000	173.28404725
 409	80.00000000	-10.00000000	-90.00000000	173.28404725
 410	80.00000000	0.00000000	-90.00000000	173.28404725
 411	80.00000000	10.00000000	-90.00000000	173.28404725
 412	80.00000000	20.00000000	-90.00000000	173.28404725
 413	80.00000000	30.00000000	-90.00000000	173.28404725
 414	80.00000000	40.00000000	-90.00000000	173.28404725
 415	80.00000000	50.00000000	-90.00000000	173.28404725
 416	80.00000000	60.00000000	-90.00000000	173.28404725
 417	80.00000000	70.00000000	-90.00000000	173.28404725
 418	80.00000000	80.00000000	-90.00000000	173.28404725
 419	80.00000000	90.00000000	-90.00000000	173.28404725
 420	80.00000000	100.00000000	-90.00000000	173.28404725
 421	90.00000000	-100.00000000	-90.00000000	201.78210765
 422	90.00000000	-90.00000000	-90.00000000	201.78210765
 423	90.00000000	-80.00000000	-90.00000000	201.78210765
 424	90.00000000	-70.00000000	-90.00000000	201.78210765
 425	90.00000000	-60.00000000	-90.00000000	201.78210765
 426	90.00000000	-50.00000000	-90.00000000	201.78210765
 427	90.00000000	-40.00000000	-90.00000000	201.78210765
 428	90.00000000	-30.00000000	-90.00000000	201.78210765
 429	90.00000000	-20.00000000	-90.00000000	201.78210765
 430	90.00000000	-10.00000000	-90.00000000	201.78210765
 431	90.00000000	0.00000000	-90.00000000	201.78210765
 432	90.00000000	10.00000000	-90.00000000	201.78210765
 433	90.00000000	20.00000000	-90.00000000	201.78210765
 434	90.00000000	30.00000000	-90.00000000	201.78210765
 435	90.00000000	40.00000000	-90.00000000	201.78210765
