bench/lcms_compat/reference/lab_to_sRGB_v4_ICC_preference.icc_Perceptual_BPC.it8
CGATS.17
ORIGINATOR	"icctrans"
#
# Data follows
#
NUMBER_OF_SETS	4851.00000000
NUMBER_OF_FIELDS	7.00000000
BEGIN_DATA_FORMAT
 SAMPLE_ID	IN_LAB_L	IN_LAB_A	IN_LAB_B	OUT_RGB_R	OUT_RGB_G	OUT_RGB_B
END_DATA_FORMAT
BEGIN_DATA
 1	0.00000000	-100.00000000	-100.00000000	0.00000000	179.69945580	194.64264035
 2	0.00000000	-90.00000000	-100.00000000	0.00000000	175.98947167	200.70121765
 3	0.00000000	-80.00000000	-100.00000000	0.00000000	170.95679373	206.44362152
 4	0.00000000	-70.00000000	-100.00000000	0.00000000	156.50396526	199.94630456
 5	0.00000000	-60.00000000	-100.00000000	0.00000000	144.67717588	196.91380888
 6	0.00000000	-50.00000000	-100.00000000	0.00000000	136.03130221	198.06873411
 7	0.00000000	-40.00000000	-100.00000000	0.00000000	122.24950254	194.88781840
 8	0.00000000	-30.00000000	-100.00000000	0.00000000	107.42245495	192.81022668
 9	0.00000000	-20.00000000	-100.00000000	0.00000000	92.14375600	196.20406777
 10	0.00000000	-10.00000000	-100.00000000	0.00000000	72.69051746	194.22970891
 11	0.00000000	0.00000000	-100.00000000	0.00000000	51.35970466	190.06160617
 12	0.00000000	10.00000000	-100.00000000	0.00000000	35.75194716	197.08802193
 13	0.00000000	20.00000000	-100.00000000	0.00000000	18.27306177	205.95326543
 14	0.00000000	30.00000000	-100.00000000	0.00000000	0.00000000	216.28316313
 15	0.00000000	40.00000000	-100.00000000	0.00000000	0.00000000	224.82580394
 16	0.00000000	50.00000000	-100.00000000	0.00000000	0.00000000	233.38137925
 17	0.00000000	60.00000000	-100.00000000	0.00000000	0.00000000	240.27227908
 18	0.00000000	70.00000000	-100.00000000	0.00000000	0.00000000	246.84702069
 19	0.00000000	80.00000000	-100.00000000	30.99025548	0.00000000	249.94405210
 20	0.00000000	90.00000000	-100.00000000	68.68373126	0.00000000	253.16368014
 21	0.00000000	100.00000000	-100.00000000	109.06775147	0.00000000	256.57685459
 22	10.00000000	-100.00000000	-100.00000000	0.00000000	184.23533320	204.39185321
 23	10.00000000	-90.00000000	-100.00000000	0.00000000	180.76406747	211.45695090
 24	10.00000000	-80.00000000	-100.00000000	0.00000000	175.88623881	217.12194532
 25	10.00000000	-70.00000000	-100.00000000	0.00000000	168.55013967	220.20608783
 26	10.00000000	-60.00000000	-100.00000000	0.00000000	158.29766661	219.60600883
 27	10.00000000	-50.00000000	-100.00000000	0.00000000	147.19350725	218.68981719
 28	10.00000000	-40.00000000	-100.00000000	0.00000000	136.79264456	222.84500062
 29	10.00000000	-30.00000000	-100.00000000	0.00000000	123.33346277	224.66449499
 30	10.00000000	-20.00000000	-100.00000000	0.00000000	107.45471522	224.60643411
 31	10.00000000	-10.00000000	-100.00000000	0.00000000	92.81477720	227.11633623
 32	10.00000000	0.00000000	-100.00000000	0.00000000	79.02652547	229.60684419
 33	10.00000000	10.00000000	-100.00000000	0.00000000	61.57345399	232.51032919
 34	10.00000000	20.00000000	-100.00000000	0.00000000	43.01062167	235.09765595
 35	10.00000000	30.00000000	-100.00000000	0.00000000	21.97659764	236.18804544
 36	10.00000000	40.00000000	-100.00000000	0.00000000	3.32342588	239.09797490
 37	10.00000000	50.00000000	-100.00000000	0.00000000	0.00000000	244.31775481
 38	10.00000000	60.00000000	-100.00000000	0.00000000	0.00000000	250.95701694
 39	10.00000000	70.00000000	-100.00000000	17.87948649	0.00000000	258.15118611
 40	10.00000000	80.00000000	-100.00000000	59.91525337	0.00000000	265.05499005
 41	10.00000000	90.00000000	-100.00000000	97.73131818	0.00000000	269.10046577
 42	10.00000000	100.00000000	-100.00000000	128.48227769	0.00000000	268.46817970
 43	20.00000000	-100.00000000	-100.00000000	0.00000000	190.11968225	219.07049596
 44	20.00000000	-90.00000000	-100.00000000	0.00000000	186.94521099	225.12907326
 45	20.00000000	-80.00000000	-100.00000000	0.00000000	181.26088321	230.21336764
 46	20.00000000	-70.00000000	-100.00000000	0.00000000	174.41515535	234.66533035
 47	20.00000000	-60.00000000	-100.00000000	0.00000000	165.65958917	237.50429481
 48	20.00000000	-50.00000000	-100.00000000	0.00000000	158.26541394	241.60787702
 49	20.00000000	-40.00000000	-100.00000000	0.00000000	151.18095249	247.14381516
 50	20.00000000	-30.00000000	-100.00000000	0.00000000	140.97365141	249.84726369
 51	20.00000000	-20.00000000	-100.00000000	0.00000000	128.61776322	250.66022247
 52	20.00000000	-10.00000000	-100.00000000	0.00000000	113.42940822	253.73790532
 53	20.00000000	0.00000000	-100.00000000	0.00000000	97.25385860	257.38338411
 54	20.00000000	10.00000000	-100.00000000	0.00000000	79.73626658	260.26104569
 55	20.00000000	20.00000000	-100.00000000	0.00000000	60.35400443	263.10645461
 56	20.00000000	30.00000000	-100.00000000	0.00000000	37.77146280	265.84860027
 57	20.00000000	40.00000000	-100.00000000	0.00000000	19.97643437	268.15848112
 58	20.00000000	50.00000000	-100.00000000	5.83331256	4.44610200	270.48769534
 59	20.00000000	60.00000000	-100.00000000	27.06734978	0.00000000	281.90799773
 60	20.00000000	70.00000000	-100.00000000	53.00500117	0.00000000	287.16648996
 61	20.00000000	80.00000000	-100.00000000	86.62070677	0.00000000	282.32737362
 62	20.00000000	90.00000000	-100.00000000	120.22997171	0.00000000	279.31422651
 63	20.00000000	100.00000000	-100.00000000	151.99391127	0.00000000	277.04954803
 64	30.00000000	-100.00000000	-100.00000000	0.00000000	198.01711768	232.11030185
 65	30.00000000	-90.00000000	-100.00000000	0.00000000	196.66861564	238.33017290
 66	30.00000000	-80.00000000	-100.00000000	0.00000000	194.56521571	247.09864318
 67	30.00000000	-70.00000000	-100.00000000	0.00000000	192.11340487	257.03495800
 68	30.00000000	-60.00000000	-100.00000000	0.00000000	184.75149751	259.04158473
 69	30.00000000	-50.00000000	-100.00000000	0.00000000	176.46692365	260.17070174
 70	30.00000000	-40.00000000	-100.00000000	0.00000000	166.87901974	262.28056133
 71	30.00000000	-30.00000000	-100.00000000	0.00000000	156.74269885	265.14530361
 72	30.00000000	-20.00000000	-100.00000000	0.00000000	145.86438417	269.13274884
 73	30.00000000	-10.00000000	-100.00000000	0.00000000	132.80521452	276.84308231
 74	30.00000000	0.00000000	-100.00000000	0.00000000	118.75888065	285.72122991
 75	30.00000000	10.00000000	-100.00000000	0.00000000	103.28662768	288.23113203
 76	30.00000000	20.00000000	-100.00000000	0.00000000	84.25278023	290.89585304
 77	30.00000000	30.00000000	-100.00000000	0.00000000	59.99913007	293.78640354
 78	30.00000000	40.00000000	-100.00000000	12.52419921	39.86841828	299.80628371
 79	30.00000000	50.00000000	-100.00000000	36.08100191	21.52494628	306.78103745
 80	30.00000000	60.00000000	-100.00000000	59.07647498	6.68499601	313.76226604
 81	30.00000000	70.00000000	-100.00000000	87.56272942	0.00000000	310.81362426
 82	30.00000000	80.00000000	-100.00000000	121.26231551	0.00000000	298.43841791
 83	30.00000000	90.00000000	-100.00000000	146.49024099	0.00000000	291.49591684
 84	30.00000000	100.00000000	-100.00000000	168.42754304	0.00000000	286.01800919
 85	40.00000000	-100.00000000	-100.00000000	0.00000000	206.01134151	237.09780782
 86	40.00000000	-90.00000000	-100.00000000	0.00000000	205.94682097	245.24043649
 87	40.00000000	-80.00000000	-100.00000000	0.00000000	205.97262919	255.42192936
 88	40.00000000	-70.00000000	-100.00000000	0.00000000	206.17263526	269.37791169
 89	40.00000000	-60.00000000	-100.00000000	0.00000000	200.58508068	274.39768553
 90	40.00000000	-50.00000000	-100.00000000	0.00000000	191.81659520	274.55900967
 91	40.00000000	-40.00000000	-100.00000000	0.00000000	182.17064559	277.57215679
 92	40.00000000	-30.00000000	-100.00000000	0.00000000	172.37627596	281.49506629
 93	40.00000000	-20.00000000	-100.00000000	0.00000000	162.36899614	287.14715660
 94	40.00000000	-10.00000000	-100.00000000	0.00000000	149.90987509	294.43808377
 95	40.00000000	0.00000000	-100.00000000	0.00000000	136.16680294	302.18711436
 96	40.00000000	10.00000000	-100.00000000	0.00000000	120.11383474	304.30989325
 97	40.00000000	20.00000000	-100.00000000	1.71038714	103.05433854	307.37462640
 98	40.00000000	30.00000000	-100.00000000	20.02805080	84.65925962	311.69757843
 99	40.00000000	40.00000000	-100.00000000	41.96536236	61.88961983	314.09132838
 100	40.00000000	50.00000000	-100.00000000	64.59306836	39.73937720	316.89800978
 101	40.00000000	60.00000000	-100.00000000	86.42069310	24.85425733	323.50503445
 102	40.00000000	70.00000000	-100.00000000	113.14551786	12.23385109	319.73052979
 103	40.00000000	80.00000000	-100.00000000	143.50288689	1.29099735	308.31667185
 104	40.00000000	90.00000000	-100.00000000	164.74982679	0.00000000	300.07081032
 105	40.00000000	100.00000000	-100.00000000	183.37717205	0.00000000	293.30896676
 106	50.00000000	-100.00000000	-100.00000000	0.00000000	236.48483992	270.15218854
 107	50.00000000	-90.00000000	-100.00000000	0.00000000	234.47176874	277.08824515
 108	50.00000000	-80.00000000	-100.00000000	0.00000000	229.51651543	280.95953822
 109	50.00000000	-70.00000000	-100.00000000	0.00000000	222.39980131	284.79857862
 110	50.00000000	-60.00000000	-100.00000000	0.00000000	214.77335215	287.40523875
 111	50.00000000	-50.00000000	-100.00000000	0.00000000	206.75332010	289.01182294
 112	50.00000000	-40.00000000	-100.00000000	0.00000000	196.56538278	291.85075700
 113	50.00000000	-30.00000000	-100.00000000	0.00000000	185.73222488	294.33485091
 114	50.00000000	-20.00000000	-100.00000000	0.00000000	173.76994997	295.71560562
 115	50.00000000	-10.00000000	-100.00000000	0.00000000	159.91071045	298.42552900
 116	50.00000000	0.00000000	-100.00000000	0.00000000	145.10947108	301.74837470
 117	50.00000000	10.00000000	-100.00000000	11.13053089	130.19209474	304.06470001
 118	50.00000000	20.00000000	-100.00000000	27.49964308	114.70693767	307.17463553
 119	50.00000000	30.00000000	-100.00000000	48.09491225	98.48622367	311.32337451
 120	50.00000000	40.00000000	-100.00000000	68.52242991	76.28436461	311.12979770
 121	50.00000000	50.00000000	-100.00000000	88.62088144	55.01161650	310.98786771
 122	50.00000000	60.00000000	-100.00000000	107.69989327	41.69437610	314.38813806
 123	50.00000000	70.00000000	-100.00000000	135.03765553	27.17703469	316.92381799
 124	50.00000000	80.00000000	-100.00000000	167.64039248	11.89833764	318.88527274
 125	50.00000000	90.00000000	-100.00000000	182.97070026	4.78806702	308.49088490
 126	50.00000000	100.00000000	-100.00000000	196.94607675	0.00000000	300.27083158
 127	60.00000000	-100.00000000	-100.00000000	0.00000000	248.96976918	280.81757784
 128	60.00000000	-90.00000000	-100.00000000	0.00000000	246.30501777	286.35354638
 129	60.00000000	-80.00000000	-100.00000000	0.00000000	241.93047971	290.48292160
 130	60.00000000	-70.00000000	-100.00000000	0.00000000	235.31056613	295.59300900
 131	60.00000000	-60.00000000	-100.00000000	0.00000000	227.29699373	298.33518505
 132	60.00000000	-50.00000000	-100.00000000	0.00000000	217.92845964	298.76103580
 133	60.00000000	-40.00000000	-100.00000000	0.00000000	205.77906758	297.93517292
 134	60.00000000	-30.00000000	-100.00000000	0.00000000	193.34575474	297.32863426
 135	60.00000000	-20.00000000	-100.00000000	0.00000000	181.18345857	297.71578789
 136	60.00000000	-10.00000000	-100.00000000	6.05268857	167.89847463	298.76748025
 137	60.00000000	0.00000000	-100.00000000	17.56332826	153.96828532	300.16759872
 138	60.00000000	10.00000000	-100.00000000	35.89389235	138.71538699	301.70964718
 139	60.00000000	20.00000000	-100.00000000	55.74070998	124.13997710	304.12920535
 140	60.00000000	30.00000000	-100.00000000	77.49091387	110.42269796	307.67146647
 141	60.00000000	40.00000000	-100.00000000	100.79609692	95.66662297	313.05899978
 142	60.00000000	50.00000000	-100.00000000	123.72058600	80.93637139	318.16908717
 143	60.00000000	60.00000000	-100.00000000	144.33522463	66.91584572	321.16290092
 144	60.00000000	70.00000000	-100.00000000	165.96928775	50.23056865	320.66606998
 145	60.00000000	80.00000000	-100.00000000	187.90014535	32.05485575	318.01423788
 146	60.00000000	90.00000000	-100.00000000	198.08808267	17.35040478	311.92985237
 147	60.00000000	100.00000000	-100.00000000	206.43717706	7.34957037	305.45834363
 148	70.00000000	-100.00000000	-100.00000000	0.00000000	261.04818106	290.44419408
 149	70.00000000	-90.00000000	-100.00000000	0.00000000	256.32521689	292.54113436
 150	70.00000000	-80.00000000	-100.00000000	0.00000000	251.39578700	295.12846112
 151	70.00000000	-70.00000000	-100.00000000	0.00000000	243.53060424	299.77403104
 152	70.00000000	-60.00000000	-100.00000000	0.00000000	234.41370785	302.18066990
 153	70.00000000	-50.00000000	-100.00000000	0.00000000	223.94832462	302.18711436
 154	70.00000000	-40.00000000	-100.00000000	0.00000000	211.71503305	300.00630498
 155	70.00000000	-30.00000000	-100.00000000	1.36842829	199.31400329	298.30937684
 156	70.00000000	-20.00000000	-100.00000000	7.05922178	187.19041944	298.92877400
 157	70.00000000	-10.00000000	-100.00000000	21.36364494	174.21513408	298.85779381
 158	70.00000000	0.00000000	-100.00000000	40.18456891	160.76239675	298.53520632
 159	70.00000000	10.00000000	-100.00000000	58.99905033	146.89671278	300.27083158
 160	70.00000000	20.00000000	-100.00000000	78.67811456	133.37301046	302.85815835
 161	70.00000000	30.00000000	-100.00000000	99.43469077	120.26868403	306.49070263
 162	70.00000000	40.00000000	-100.00000000	122.77857095	107.46761933	310.74267447
 163	70.00000000	50.00000000	-100.00000000	145.07075876	94.87946481	314.11069214
 164	70.00000000	60.00000000	-100.00000000	162.52384543	82.78813362	314.34299648
 165	70.00000000	70.00000000	-100.00000000	179.25427169	66.92229778	314.11713660
 166	70.00000000	80.00000000	-100.00000000	195.52659452	48.92724238	313.72356892
 167	70.00000000	90.00000000	-100.00000000	210.88917017	31.41610242	315.76244831
 168	70.00000000	100.00000000	-100.00000000	219.98022795	18.66664276	312.69768476
 169	80.00000000	-100.00000000	-100.00000000	0.00000000	268.59722078	294.10257697
 170	80.00000000	-90.00000000	-100.00000000	0.00000000	261.83537722	295.01233935
 171	80.00000000	-80.00000000	-100.00000000	0.00000000	255.64128399	297.02538013
 172	80.00000000	-70.00000000	-100.00000000	0.00000000	248.76974791	301.27090752
 173	80.00000000	-60.00000000	-100.00000000	0.00000000	240.62713444	304.20662999
 174	80.00000000	-50.00000000	-100.00000000	0.00000000	231.03923053	305.65836489
 175	80.00000000	-40.00000000	-100.00000000	1.61360633	217.96717197	302.03226507
 176	80.00000000	-30.00000000	-100.00000000	9.87881346	204.79832500	298.71586382
 177	80.00000000	-20.00000000	-100.00000000	23.09282195	192.96507597	298.67069185
 178	80.00000000	-10.00000000	-100.00000000	42.06215456	180.51888943	298.27067971
 179	80.00000000	0.00000000	-100.00000000	63.81235465	167.69846857	297.75451541
 180	80.00000000	10.00000000	-100.00000000	80.24598643	154.05861408	298.50295365
 181	80.00000000	20.00000000	-100.00000000	99.06047165	141.06398016	300.38050890
 182	80.00000000	30.00000000	-100.00000000	120.79131559	128.87586057	303.63240480
 183	80.00000000	40.00000000	-100.00000000	139.42512810	118.08141500	307.81339645
 184	80.00000000	50.00000000	-100.00000000	156.72979474	106.86756313	310.92980683
 185	80.00000000	60.00000000	-100.00000000	171.70523196	93.64710733	310.30393481
 186	80.00000000	70.00000000	-100.00000000	189.02283311	81.38156310	309.58774924
 187	80.00000000	80.00000000	-100.00000000	207.52759695	69.40637648	308.98768544
 188	80.00000000	90.00000000	-100.00000000	223.94186497	52.88241215	311.82017505
 189	80.00000000	100.00000000	-100.00000000	237.38169819	37.88114771	313.98165107
 190	90.00000000	-100.00000000	-100.00000000	0.00000000	273.63635838	295.76077759
 191	90.00000000	-90.00000000	-100.00000000	0.00000000	266.10668242	296.54149890
 192	90.00000000	-80.00000000	-100.00000000	0.00000000	259.37061667	298.39324594
 193	90.00000000	-70.00000000	-100.00000000	0.00000000	253.48628283	301.69675827
 194	90.00000000	-60.00000000	-100.00000000	0.00000000	245.89854598	304.60022807
 195	90.00000000	-50.00000000	-100.00000000	0.75547059	236.31708652	307.01331139
 196	90.00000000	-40.00000000	-100.00000000	13.80817691	224.98068362	304.76799667
 197	90.00000000	-30.00000000	-100.00000000	29.12558533	213.14740419	302.18066990
 198	90.00000000	-20.00000000	-100.00000000	47.42388725	200.71412176	300.92892587
 199	90.00000000	-10.00000000	-100.00000000	63.17358993	187.78400838	299.52883780
 200	90.00000000	0.00000000	-100.00000000	77.74900362	174.57644910	298.21906328
 201	90.00000000	10.00000000	-100.00000000	95.90536416	161.60762340	299.94821370
 202	90.00000000	20.00000000	-100.00000000	115.17148554	149.59371686	301.77418292
 203	90.00000000	30.00000000	-100.00000000	135.77967972	138.74119520	303.70982945
 204	90.00000000	40.00000000	-100.00000000	150.21957368	127.23701611	307.30367661
 205	90.00000000	50.00000000	-100.00000000	164.13042963	115.40375948	310.06518602
 206	90.00000000	60.00000000	-100.00000000	179.68010724	102.95755774	309.45870817
 207	90.00000000	70.00000000	-100.00000000	197.04930961	92.28570119	308.40054095
 208	90.00000000	80.00000000	-100.00000000	215.11533380	82.32357815	307.28431284
 209	90.00000000	90.00000000	-100.00000000	228.14866483	68.01916212	309.38128352
 210	90.00000000	100.00000000	-100.00000000	240.14968246	54.18574221	311.16208076
 211	100.00000000	-100.00000000	-100.00000000	0.00000000	277.35924661	297.72870719
 212	100.00000000	-90.00000000	-100.00000000	0.00000000	269.84248996	298.07710290
 213	100.00000000	-80.00000000	-100.00000000	0.00000000	263.77746820	299.21266437
 214	100.00000000	-70.00000000	-100.00000000	0.00000000	258.26086342	302.07096219
 215	100.00000000	-60.00000000	-100.00000000	0.00000000	250.71829855	304.65828896
 216	100.00000000	-50.00000000	-100.00000000	4.38158146	240.71101874	306.92299783
 217	100.00000000	-40.00000000	-100.00000000	28.19002613	230.32306015	304.98735130
 218	100.00000000	-30.00000000	-100.00000000	51.69521146	219.66408491	302.45164096
 219	100.00000000	-20.00000000	-100.00000000	64.58661631	208.37926805	300.36761999
 220	100.00000000	-10.00000000	-100.00000000	79.20074612	196.02985471	299.72885907
 221	100.00000000	0.00000000	-100.00000000	94.93754089	183.07393312	299.90951657
 222	100.00000000	10.00000000	-100.00000000	114.39077184	169.53086704	300.77407658
 223	100.00000000	20.00000000	-100.00000000	131.43736392	157.45889962	301.74837470
 224	100.00000000	30.00000000	-100.00000000	145.55465519	147.16769904	302.84523904
 225	100.00000000	40.00000000	-100.00000000	158.60092074	136.27648026	306.24553978
 226	100.00000000	50.00000000	-100.00000000	172.35046774	124.80455384	309.09091830
 227	100.00000000	60.00000000	-100.00000000	188.71313453	111.93895340	309.10380721
 228	100.00000000	70.00000000	-100.00000000	204.58541483	99.69277292	308.16826701
 229	100.00000000	80.00000000	-100.00000000	220.01897067	88.20793480	306.84557319
 230	100.00000000	90.00000000	-100.00000000	232.54258186	83.58175144	307.38754570
 231	100.00000000	100.00000000	-100.00000000	244.97589469	73.03892836	308.78121972
 232	0.00000000	-100.00000000	-90.00000000	0.00000000	177.24120051	185.31929344
 233	0.00000000	-90.00000000	-90.00000000	0.00000000	171.89879358	187.61625499
 234	0.00000000	-80.00000000	-90.00000000	0.00000000	164.85305965	190.29391050
 235	0.00000000	-70.00000000	-90.00000000	0.00000000	152.12295234	185.22894949
 236	0.00000000	-60.00000000	-90.00000000	0.00000000	139.67030615	180.73825926
 237	0.00000000	-50.00000000	-90.00000000	0.00000000	127.53380299	176.95083529
 238	0.00000000	-40.00000000	-90.00000000	0.00000000	114.63594988	173.96995604
 239	0.00000000	-30.00000000	-90.00000000	0.00000000	100.51219136	171.34391695
 240	0.00000000	-20.00000000	-90.00000000	0.00000000	83.17525685	169.38247740
 241	0.00000000	-10.00000000	-90.00000000	0.00000000	65.03826007	167.37586588
 242	0.00000000	0.00000000	-90.00000000	0.00000000	46.46251984	165.55635631
 243	0.00000000	10.00000000	-90.00000000	0.00000000	27.88676631	167.63394803
 244	0.00000000	20.00000000	-90.00000000	0.00000000	10.24658622	172.40208417
 245	0.00000000	30.00000000	-90.00000000	0.00000000	0.00000000	179.84786063
 246	0.00000000	40.00000000	-90.00000000	0.00000000	0.00000000	187.26784408
 247	0.00000000	50.00000000	-90.00000000	0.00000000	0.00000000	195.19107252
 248	0.00000000	60.00000000	-90.00000000	0.00000000	0.00000000	204.47572231
 249	0.00000000	70.00000000	-90.00000000	21.66044701	0.00000000	214.17976320
 250	0.00000000	80.00000000	-90.00000000	54.17283811	0.00000000	221.78686380
 251	0.00000000	90.00000000	-90.00000000	87.78855130	0.00000000	230.67147106
 252	0.00000000	100.00000000	-90.00000000	123.27539429	0.00000000	242.54987687
 253	10.00000000	-100.00000000	-90.00000000	0.00000000	181.36411607	192.62312472
 254	10.00000000	-90.00000000	-90.00000000	0.00000000	177.44766623	199.46240813
 255	10.00000000	-80.00000000	-90.00000000	0.00000000	170.73742390	202.61750042
 256	10.00000000	-70.00000000	-90.00000000	0.00000000	158.96225095	198.42358947
 257	10.00000000	-60.00000000	-90.00000000	0.00000000	147.60000944	195.83629310
 258	10.00000000	-50.00000000	-90.00000000	0.00000000	136.47650152	194.18455213
 259	10.00000000	-40.00000000	-90.00000000	0.00000000	125.90141818	194.81685340
 260	10.00000000	-30.00000000	-90.00000000	0.00000000	112.54546165	195.35239667
 261	10.00000000	-20.00000000	-90.00000000	0.00000000	96.98932439	195.80404043
 262	10.00000000	-10.00000000	-90.00000000	0.00000000	81.53641239	195.33949256
 263	10.00000000	0.00000000	-90.00000000	0.00000000	67.04488680	194.92653072
 264	10.00000000	10.00000000	-90.00000000	0.00000000	50.43704577	195.57176650
 265	10.00000000	20.00000000	-90.00000000	0.00000000	33.70660812	197.26867944
 266	10.00000000	30.00000000	-90.00000000	0.00000000	18.18273302	202.90785044
 267	10.00000000	40.00000000	-90.00000000	0.00000000	2.94920035	209.00514007
 268	10.00000000	50.00000000	-90.00000000	0.00000000	0.00000000	215.61859399
 269	10.00000000	60.00000000	-90.00000000	11.45959133	0.00000000	222.61272669
 270	10.00000000	70.00000000	-90.00000000	34.59701434	0.00000000	229.96818960
 271	10.00000000	80.00000000	-90.00000000	74.91650641	0.00000000	241.41428500
 272	10.00000000	90.00000000	-90.00000000	111.52602196	0.00000000	250.75055122
 273	10.00000000	100.00000000	-90.00000000	141.90274715	0.00000000	256.58977389
 274	20.00000000	-100.00000000	-90.00000000	0.00000000	187.09363103	206.69525921
 275	20.00000000	-90.00000000	-90.00000000	0.00000000	183.52557689	213.90233248
 276	20.00000000	-80.00000000	-90.00000000	0.00000000	177.54445463	217.98007607
 277	20.00000000	-70.00000000	-90.00000000	0.00000000	169.99541491	220.36093712
 278	20.00000000	-60.00000000	-90.00000000	0.00000000	158.98805916	219.14792061
 279	20.00000000	-50.00000000	-90.00000000	0.00000000	149.98729974	219.72214580
 280	20.00000000	-40.00000000	-90.00000000	0.00000000	141.67047322	221.75459594
 281	20.00000000	-30.00000000	-90.00000000	0.00000000	130.63084960	222.69015133
 282	20.00000000	-20.00000000	-90.00000000	0.00000000	117.71363273	222.87725329
 283	20.00000000	-10.00000000	-90.00000000	0.00000000	104.09314200	225.03874451
 284	20.00000000	0.00000000	-90.00000000	0.00000000	90.04035607	227.75508195
 285	20.00000000	10.00000000	-90.00000000	0.00000000	74.03255984	230.83276480
 286	20.00000000	20.00000000	-90.00000000	0.00000000	57.45698288	234.29111123
 287	20.00000000	30.00000000	-90.00000000	0.00000000	40.02971962	238.39469343
 288	20.00000000	40.00000000	-90.00000000	0.00000000	22.65407469	243.00152063
 289	20.00000000	50.00000000	-90.00000000	21.97659764	5.32359414	247.98902661
 290	20.00000000	60.00000000	-90.00000000	46.70769788	0.00000000	259.03510988
 291	20.00000000	70.00000000	-90.00000000	74.39389005	0.00000000	266.52608871
 292	20.00000000	80.00000000	-90.00000000	106.84820697	0.00000000	268.17784488
 293	20.00000000	90.00000000	-90.00000000	137.13461101	0.00000000	269.28759813
 294	20.00000000	100.00000000	-90.00000000	165.14339447	0.00000000	270.16507745
 295	30.00000000	-100.00000000	-90.00000000	0.00000000	195.51369041	219.80603009
 296	30.00000000	-90.00000000	-90.00000000	0.00000000	193.25542599	225.63879311
 297	30.00000000	-80.00000000	-90.00000000	0.00000000	190.31971872	232.80712366
