bench/lcms_compat/reference/lab_to_RISO_MZ770_Black.icc_Perceptual_BPC.it8
CGATS.17
ORIGINATOR	"icctrans"
#
# Data follows
#
NUMBER_OF_SETS	4851.00000000
NUMBER_OF_FIELDS	5.00000000
BEGIN_DATA_FORMAT
 SAMPLE_ID	IN_LAB_L	IN_LAB_A	IN_LAB_B	OUT_GRAY
END_DATA_FORMAT
BEGIN_DATA
 1	0.00000000	-100.00000000	-100.00000000	0.00000000
 2	0.00000000	-90.00000000	-100.00000000	0.00000000
 3	0.00000000	-80.00000000	-100.00000000	0.00000000
 4	0.00000000	-70.00000000	-100.00000000	0.00000000
 5	0.00000000	-60.00000000	-100.00000000	0.00000000
 6	0.00000000	-50.00000000	-100.00000000	0.00000000
 7	0.00000000	-40.00000000	-100.00000000	0.00000000
 8	0.00000000	-30.00000000	-100.00000000	0.00000000
 9	0.00000000	-20.00000000	-100.00000000	0.00000000
 10	0.00000000	-10.00000000	-100.00000000	0.00000000
 11	0.00000000	0.00000000	-100.00000000	0.00000000
 12	0.00000000	10.00000000	-100.00000000	0.00000000
 13	0.00000000	20.00000000	-100.00000000	0.00000000
 14	0.00000000	30.00000000	-100.00000000	0.00000000
 15	0.00000000	40.00000000	-100.00000000	0.00000000
 16	0.00000000	50.00000000	-100.00000000	0.00000000
 17	0.00000000	60.00000000	-100.00000000	0.00000000
 18	0.00000000	70.00000000	-100.00000000	0.00000000
 19	0.00000000	80.00000000	-100.00000000	0.00000000
 20	0.00000000	90.00000000	-100.00000000	0.00000000
 21	0.00000000	100.00000000	-100.00000000	0.00000000
 22	10.00000000	-100.00000000	-100.00000000	11.54474666
 23	10.00000000	-90.00000000	-100.00000000	11.54474666
 24	10.00000000	-80.00000000	-100.00000000	11.54474666
 25	10.00000000	-70.00000000	-100.00000000	11.54474666
 26	10.00000000	-60.00000000	-100.00000000	11.54474666
 27	10.00000000	-50.00000000	-100.00000000	11.54474666
 28	10.00000000	-40.00000000	-100.00000000	11.54474666
 29	10.00000000	-30.00000000	-100.00000000	11.54474666
 30	10.00000000	-20.00000000	-100.00000000	11.54474666
 31	10.00000000	-10.00000000	-100.00000000	11.54474666
 32	10.00000000	0.00000000	-100.00000000	11.54474666
 33	10.00000000	10.00000000	-100.00000000	11.54474666
 34	10.00000000	20.00000000	-100.00000000	11.54474666
 35	10.00000000	30.00000000	-100.00000000	11.54474666
 36	10.00000000	40.00000000	-100.00000000	11.54474666
 37	10.00000000	50.00000000	-100.00000000	11.54474666
 38	10.00000000	60.00000000	-100.00000000	11.54474666
 39	10.00000000	70.00000000	-100.00000000	11.54474666
 40	10.00000000	80.00000000	-100.00000000	11.54474666
 41	10.00000000	90.00000000	-100.00000000	11.54474666
 42	10.00000000	100.00000000	-100.00000000	11.54474666
 43	20.00000000	-100.00000000	-100.00000000	23.74708224
 44	20.00000000	-90.00000000	-100.00000000	23.74708224
 45	20.00000000	-80.00000000	-100.00000000	23.74708224
 46	20.00000000	-70.00000000	-100.00000000	23.74708224
 47	20.00000000	-60.00000000	-100.00000000	23.74708224
 48	20.00000000	-50.00000000	-100.00000000	23.74708224
 49	20.00000000	-40.00000000	-100.00000000	23.74708224
 50	20.00000000	-30.00000000	-100.00000000	23.74708224
 51	20.00000000	-20.00000000	-100.00000000	23.74708224
 52	20.00000000	-10.00000000	-100.00000000	23.74708224
 53	20.00000000	0.00000000	-100.00000000	23.74708224
 54	20.00000000	10.00000000	-100.00000000	23.74708224
 55	20.00000000	20.00000000	-100.00000000	23.74708224
 56	20.00000000	30.00000000	-100.00000000	23.74708224
 57	20.00000000	40.00000000	-100.00000000	23.74708224
 58	20.00000000	50.00000000	-100.00000000	23.74708224
 59	20.00000000	60.00000000	-100.00000000	23.74708224
 60	20.00000000	70.00000000	-100.00000000	23.74708224
 61	20.00000000	80.00000000	-100.00000000	23.74708224
 62	20.00000000	90.00000000	-100.00000000	23.74708224
 63	20.00000000	100.00000000	-100.00000000	23.74708224
 64	30.00000000	-100.00000000	-100.00000000	38.31906661
 65	30.00000000	-90.00000000	-100.00000000	38.31906661
 66	30.00000000	-80.00000000	-100.00000000	38.31906661
 67	30.00000000	-70.00000000	-100.00000000	38.31906661
 68	30.00000000	-60.00000000	-100.00000000	38.31906661
 69	30.00000000	-50.00000000	-100.00000000	38.31906661
 70	30.00000000	-40.00000000	-100.00000000	38.31906661
 71	30.00000000	-30.00000000	-100.00000000	38.31906661
 72	30.00000000	-20.00000000	-100.00000000	38.31906661
 73	30.00000000	-10.00000000	-100.00000000	38.31906661
 74	30.00000000	0.00000000	-100.00000000	38.31906661
 75	30.00000000	10.00000000	-100.00000000	38.31906661
 76	30.00000000	20.00000000	-100.00000000	38.31906661
 77	30.00000000	30.00000000	-100.00000000	38.31906661
 78	30.00000000	40.00000000	-100.00000000	38.31906661
 79	30.00000000	50.00000000	-100.00000000	38.31906661
 80	30.00000000	60.00000000	-100.00000000	38.31906661
 81	30.00000000	70.00000000	-100.00000000	38.31906661
 82	30.00000000	80.00000000	-100.00000000	38.31906661
 83	30.00000000	90.00000000	-100.00000000	38.31906661
 84	30.00000000	100.00000000	-100.00000000	38.31906661
 85	40.00000000	-100.00000000	-100.00000000	59.84046578
 86	40.00000000	-90.00000000	-100.00000000	59.84046578
 87	40.00000000	-80.00000000	-100.00000000	59.84046578
 88	40.00000000	-70.00000000	-100.00000000	59.84046578
 89	40.00000000	-60.00000000	-100.00000000	59.84046578
 90	40.00000000	-50.00000000	-100.00000000	59.84046578
 91	40.00000000	-40.00000000	-100.00000000	59.84046578
 92	40.00000000	-30.00000000	-100.00000000	59.84046578
 93	40.00000000	-20.00000000	-100.00000000	59.84046578
 94	40.00000000	-10.00000000	-100.00000000	59.84046578
 95	40.00000000	0.00000000	-100.00000000	59.84046578
 96	40.00000000	10.00000000	-100.00000000	59.84046578
 97	40.00000000	20.00000000	-100.00000000	59.84046578
 98	40.00000000	30.00000000	-100.00000000	59.84046578
 99	40.00000000	40.00000000	-100.00000000	59.84046578
 100	40.00000000	50.00000000	-100.00000000	59.84046578
 101	40.00000000	60.00000000	-100.00000000	59.84046578
 102	40.00000000	70.00000000	-100.00000000	59.84046578
 103	40.00000000	80.00000000	-100.00000000	59.84046578
 104	40.00000000	90.00000000	-100.00000000	59.84046578
 105	40.00000000	100.00000000	-100.00000000	59.84046578
 106	50.00000000	-100.00000000	-100.00000000	85.68871558
 107	50.00000000	-90.00000000	-100.00000000	85.68871558
 108	50.00000000	-80.00000000	-100.00000000	85.68871558
 109	50.00000000	-70.00000000	-100.00000000	85.68871558
 110	50.00000000	-60.00000000	-100.00000000	85.68871558
 111	50.00000000	-50.00000000	-100.00000000	85.68871558
 112	50.00000000	-40.00000000	-100.00000000	85.68871558
 113	50.00000000	-30.00000000	-100.00000000	85.68871558
 114	50.00000000	-20.00000000	-100.00000000	85.68871558
 115	50.00000000	-10.00000000	-100.00000000	85.68871558
 116	50.00000000	0.00000000	-100.00000000	85.68871558
 117	50.00000000	10.00000000	-100.00000000	85.68871558
 118	50.00000000	20.00000000	-100.00000000	85.68871558
 119	50.00000000	30.00000000	-100.00000000	85.68871558
 120	50.00000000	40.00000000	-100.00000000	85.68871558
 121	50.00000000	50.00000000	-100.00000000	85.68871558
 122	50.00000000	60.00000000	-100.00000000	85.68871558
 123	50.00000000	70.00000000	-100.00000000	85.68871558
 124	50.00000000	80.00000000	-100.00000000	85.68871558
 125	50.00000000	90.00000000	-100.00000000	85.68871558
 126	50.00000000	100.00000000	-100.00000000	85.68871558
 127	60.00000000	-100.00000000	-100.00000000	129.02724445
 128	60.00000000	-90.00000000	-100.00000000	129.02724445
 129	60.00000000	-80.00000000	-100.00000000	129.02724445
 130	60.00000000	-70.00000000	-100.00000000	129.02724445
 131	60.00000000	-60.00000000	-100.00000000	129.02724445
 132	60.00000000	-50.00000000	-100.00000000	129.02724445
 133	60.00000000	-40.00000000	-100.00000000	129.02724445
 134	60.00000000	-30.00000000	-100.00000000	129.02724445
 135	60.00000000	-20.00000000	-100.00000000	129.02724445
 136	60.00000000	-10.00000000	-100.00000000	129.02724445
 137	60.00000000	0.00000000	-100.00000000	129.02724445
 138	60.00000000	10.00000000	-100.00000000	129.02724445
 139	60.00000000	20.00000000	-100.00000000	129.02724445
 140	60.00000000	30.00000000	-100.00000000	129.02724445
 141	60.00000000	40.00000000	-100.00000000	129.02724445
 142	60.00000000	50.00000000	-100.00000000	129.02724445
 143	60.00000000	60.00000000	-100.00000000	129.02724445
 144	60.00000000	70.00000000	-100.00000000	129.02724445
 145	60.00000000	80.00000000	-100.00000000	129.02724445
 146	60.00000000	90.00000000	-100.00000000	129.02724445
 147	60.00000000	100.00000000	-100.00000000	129.02724445
 148	70.00000000	-100.00000000	-100.00000000	158.42023283
 149	70.00000000	-90.00000000	-100.00000000	158.42023283
 150	70.00000000	-80.00000000	-100.00000000	158.42023283
 151	70.00000000	-70.00000000	-100.00000000	158.42023283
 152	70.00000000	-60.00000000	-100.00000000	158.42023283
 153	70.00000000	-50.00000000	-100.00000000	158.42023283
 154	70.00000000	-40.00000000	-100.00000000	158.42023283
 155	70.00000000	-30.00000000	-100.00000000	158.42023283
 156	70.00000000	-20.00000000	-100.00000000	158.42023283
 157	70.00000000	-10.00000000	-100.00000000	158.42023283
 158	70.00000000	0.00000000	-100.00000000	158.42023283
 159	70.00000000	10.00000000	-100.00000000	158.42023283
 160	70.00000000	20.00000000	-100.00000000	158.42023283
 161	70.00000000	30.00000000	-100.00000000	158.42023283
 162	70.00000000	40.00000000	-100.00000000	158.42023283
 163	70.00000000	50.00000000	-100.00000000	158.42023283
 164	70.00000000	60.00000000	-100.00000000	158.42023283
 165	70.00000000	70.00000000	-100.00000000	158.42023283
 166	70.00000000	80.00000000	-100.00000000	158.42023283
 167	70.00000000	90.00000000	-100.00000000	158.42023283
 168	70.00000000	100.00000000	-100.00000000	158.42023283
 169	80.00000000	-100.00000000	-100.00000000	180.98054945
 170	80.00000000	-90.00000000	-100.00000000	180.98054945
 171	80.00000000	-80.00000000	-100.00000000	180.98054945
 172	80.00000000	-70.00000000	-100.00000000	180.98054945
 173	80.00000000	-60.00000000	-100.00000000	180.98054945
 174	80.00000000	-50.00000000	-100.00000000	180.98054945
 175	80.00000000	-40.00000000	-100.00000000	180.98054945
 176	80.00000000	-30.00000000	-100.00000000	180.98054945
 177	80.00000000	-20.00000000	-100.00000000	180.98054945
 178	80.00000000	-10.00000000	-100.00000000	180.98054945
 179	80.00000000	0.00000000	-100.00000000	180.98054945
 180	80.00000000	10.00000000	-100.00000000	180.98054945
 181	80.00000000	20.00000000	-100.00000000	180.98054945
 182	80.00000000	30.00000000	-100.00000000	180.98054945
 183	80.00000000	40.00000000	-100.00000000	180.98054945
 184	80.00000000	50.00000000	-100.00000000	180.98054945
 185	80.00000000	60.00000000	-100.00000000	180.98054945
 186	80.00000000	70.00000000	-100.00000000	180.98054945
 187	80.00000000	80.00000000	-100.00000000	180.98054945
 188	80.00000000	90.00000000	-100.00000000	180.98054945
 189	80.00000000	100.00000000	-100.00000000	180.98054945
 190	90.00000000	-100.00000000	-100.00000000	204.01556700
 191	90.00000000	-90.00000000	-100.00000000	204.01556700
 192	90.00000000	-80.00000000	-100.00000000	204.01556700
 193	90.00000000	-70.00000000	-100.00000000	204.01556700
 194	90.00000000	-60.00000000	-100.00000000	204.01556700
 195	90.00000000	-50.00000000	-100.00000000	204.01556700
 196	90.00000000	-40.00000000	-100.00000000	204.01556700
 197	90.00000000	-30.00000000	-100.00000000	204.01556700
 198	90.00000000	-20.00000000	-100.00000000	204.01556700
 199	90.00000000	-10.00000000	-100.00000000	204.01556700
 200	90.00000000	0.00000000	-100.00000000	204.01556700
 201	90.00000000	10.00000000	-100.00000000	204.01556700
 202	90.00000000	20.00000000	-100.00000000	204.01556700
 203	90.00000000	30.00000000	-100.00000000	204.01556700
 204	90.00000000	40.00000000	-100.00000000	204.01556700
 205	90.00000000	50.00000000	-100.00000000	204.01556700
 206	90.00000000	60.00000000	-100.00000000	204.01556700
 207	90.00000000	70.00000000	-100.00000000	204.01556700
 208	90.00000000	80.00000000	-100.00000000	204.01556700
 209	90.00000000	90.00000000	-100.00000000	204.01556700
 210	90.00000000	100.00000000	-100.00000000	204.01556700
 211	100.00000000	-100.00000000	-100.00000000	255.00000000
 212	100.00000000	-90.00000000	-100.00000000	255.00000000
 213	100.00000000	-80.00000000	-100.00000000	255.00000000
 214	100.00000000	-70.00000000	-100.00000000	255.00000000
 215	100.00000000	-60.00000000	-100.00000000	255.00000000
 216	100.00000000	-50.00000000	-100.00000000	255.00000000
 217	100.00000000	-40.00000000	-100.00000000	255.00000000
 218	100.00000000	-30.00000000	-100.00000000	255.00000000
 219	100.00000000	-20.00000000	-100.00000000	255.00000000
 220	100.00000000	-10.00000000	-100.00000000	255.00000000
 221	100.00000000	0.00000000	-100.00000000	255.00000000
 222	100.00000000	10.00000000	-100.00000000	255.00000000
 223	100.00000000	20.00000000	-100.00000000	255.00000000
 224	100.00000000	30.00000000	-100.00000000	255.00000000
 225	100.00000000	40.00000000	-100.00000000	255.00000000
 226	100.00000000	50.00000000	-100.00000000	255.00000000
 227	100.00000000	60.00000000	-100.00000000	255.00000000
 228	100.00000000	70.00000000	-100.00000000	255.00000000
 229	100.00000000	80.00000000	-100.00000000	255.00000000
 230	100.00000000	90.00000000	-100.00000000	255.00000000
 231	100.00000000	100.00000000	-100.00000000	255.00000000
 232	0.00000000	-100.00000000	-90.00000000	0.00000000
 233	0.00000000	-90.00000000	-90.00000000	0.00000000
 234	0.00000000	-80.00000000	-90.00000000	0.00000000
 235	0.00000000	-70.00000000	-90.00000000	0.00000000
 236	0.00000000	-60.00000000	-90.00000000	0.00000000
 237	0.00000000	-50.00000000	-90.00000000	0.00000000
 238	0.00000000	-40.00000000	-90.00000000	0.00000000
 239	0.00000000	-30.00000000	-90.00000000	0.00000000
 240	0.00000000	-20.00000000	-90.00000000	0.00000000
 241	0.00000000	-10.00000000	-90.00000000	0.00000000
 242	0.00000000	0.00000000	-90.00000000	0.00000000
 243	0.00000000	10.00000000	-90.00000000	0.00000000
 244	0.00000000	20.00000000	-90.00000000	0.00000000
 245	0.00000000	30.00000000	-90.00000000	0.00000000
 246	0.00000000	40.00000000	-90.00000000	0.00000000
 247	0.00000000	50.00000000	-90.00000000	0.00000000
 248	0.00000000	60.00000000	-90.00000000	0.00000000
 249	0.00000000	70.00000000	-90.00000000	0.00000000
 250	0.00000000	80.00000000	-90.00000000	0.00000000
 251	0.00000000	90.00000000	-90.00000000	0.00000000
 252	0.00000000	100.00000000	-90.00000000	0.00000000
 253	10.00000000	-100.00000000	-90.00000000	11.54474666
 254	10.00000000	-90.00000000	-90.00000000	11.54474666
 255	10.00000000	-80.00000000	-90.00000000	11.54474666
 256	10.00000000	-70.00000000	-90.00000000	11.54474666
 257	10.00000000	-60.00000000	-90.00000000	11.54474666
 258	10.00000000	-50.00000000	-90.00000000	11.54474666
 259	10.00000000	-40.00000000	-90.00000000	11.54474666
 260	10.00000000	-30.00000000	-90.00000000	11.54474666
 261	10.00000000	-20.00000000	-90.00000000	11.54474666
 262	10.00000000	-10.00000000	-90.00000000	11.54474666
 263	10.00000000	0.00000000	-90.00000000	11.54474666
 264	10.00000000	10.00000000	-90.00000000	11.54474666
 265	10.00000000	20.00000000	-90.00000000	11.54474666
 266	10.00000000	30.00000000	-90.00000000	11.54474666
 267	10.00000000	40.00000000	-90.00000000	11.54474666
 268	10.00000000	50.00000000	-90.00000000	11.54474666
 269	10.00000000	60.00000000	-90.00000000	11.54474666
 270	10.00000000	70.00000000	-90.00000000	11.54474666
 271	10.00000000	80.00000000	-90.00000000	11.54474666
 272	10.00000000	90.00000000	-90.00000000	11.54474666
 273	10.00000000	100.00000000	-90.00000000	11.54474666
 274	20.00000000	-100.00000000	-90.00000000	23.74708224
 275	20.00000000	-90.00000000	-90.00000000	23.74708224
 276	20.00000000	-80.00000000	-90.00000000	23.74708224
 277	20.00000000	-70.00000000	-90.00000000	23.74708224
 278	20.00000000	-60.00000000	-90.00000000	23.74708224
 279	20.00000000	-50.00000000	-90.00000000	23.74708224
 280	20.00000000	-40.00000000	-90.00000000	23.74708224
 281	20.00000000	-30.00000000	-90.00000000	23.74708224
 282	20.00000000	-20.00000000	-90.00000000	23.74708224
 283	20.00000000	-10.00000000	-90.00000000	23.74708224
 284	20.00000000	0.00000000	-90.00000000	23.74708224
 285	20.00000000	10.00000000	-90.00000000	23.74708224
 286	20.00000000	20.00000000	-90.00000000	23.74708224
 287	20.00000000	30.00000000	-90.00000000	23.74708224
 288	20.00000000	40.00000000	-90.00000000	23.74708224
 289	20.00000000	50.00000000	-90.00000000	23.74708224
 290	20.00000000	60.00000000	-90.00000000	23.74708224
 291	20.00000000	70.00000000	-90.00000000	23.74708224
 292	20.00000000	80.00000000	-90.00000000	23.74708224
 293	20.00000000	90.00000000	-90.00000000	23.74708224
 294	20.00000000	100.00000000	-90.00000000	23.74708224
 295	30.00000000	-100.00000000	-90.00000000	38.31906661
 296	30.00000000	-90.00000000	-90.00000000	38.31906661
 297	30.00000000	-80.00000000	-90.00000000	38.31906661
 298	30.00000000	-70.00000000	-90.00000000	38.31906661
 299	30.00000000	-60.00000000	-90.00000000	38.31906661
 300	30.00000000	-50.00000000	-90.00000000	38.31906661
 301	30.00000000	-40.00000000	-90.00000000	38.31906661
 302	30.00000000	-30.00000000	-90.00000000	38.31906661
 303	30.00000000	-20.00000000	-90.00000000	38.31906661
 304	30.00000000	-10.00000000	-90.00000000	38.31906661
 305	30.00000000	0.00000000	-90.00000000	38.31906661
 306	30.00000000	10.00000000	-90.00000000	38.31906661
 307	30.00000000	20.00000000	-90.00000000	38.31906661
 308	30.00000000	30.00000000	-90.00000000	38.31906661
 309	30.00000000	40.00000000	-90.00000000	38.31906661
 310	30.00000000	50.00000000	-90.00000000	38.31906661
 311	30.00000000	60.00000000	-90.00000000	38.31906661
 312	30.00000000	70.00000000	-90.00000000	38.31906661
 313	30.00000000	80.00000000	-90.00000000	38.31906661
 314	30.00000000	90.00000000	-90.00000000	38.31906661
 315	30.00000000	100.00000000	-90.00000000	38.31906661
 316	40.00000000	-100.00000000	-90.00000000	59.84046578
 317	40.00000000	-90.00000000	-90.00000000	59.84046578
 318	40.00000000	-80.00000000	-90.00000000	59.84046578
 319	40.00000000	-70.00000000	-90.00000000	59.84046578
 320	40.00000000	-60.00000000	-90.00000000	59.84046578
 321	40.00000000	-50.00000000	-90.00000000	59.84046578
 322	40.00000000	-40.00000000	-90.00000000	59.84046578
 323	40.00000000	-30.00000000	-90.00000000	59.84046578
 324	40.00000000	-20.00000000	-90.00000000	59.84046578
 325	40.00000000	-10.00000000	-90.00000000	59.84046578
 326	40.00000000	0.00000000	-90.00000000	59.84046578
 327	40.00000000	10.00000000	-90.00000000	59.84046578
 328	40.00000000	20.00000000	-90.00000000	59.84046578
 329	40.00000000	30.00000000	-90.00000000	59.84046578
 330	40.00000000	40.00000000	-90.00000000	59.84046578
 331	40.00000000	50.00000000	-90.00000000	59.84046578
 332	40.00000000	60.00000000	-90.00000000	59.84046578
 333	40.00000000	70.00000000	-90.00000000	59.84046578
 334	40.00000000	80.00000000	-90.00000000	59.84046578
 335	40.00000000	90.00000000	-90.00000000	59.84046578
 336	40.00000000	100.00000000	-90.00000000	59.84046578
 337	50.00000000	-100.00000000	-90.00000000	85.68871558
 338	50.00000000	-90.00000000	-90.00000000	85.68871558
 339	50.00000000	-80.00000000	-90.00000000	85.68871558
 340	50.00000000	-70.00000000	-90.00000000	85.68871558
 341	50.00000000	-60.00000000	-90.00000000	85.68871558
 342	50.00000000	-50.00000000	-90.00000000	85.68871558
 343	50.00000000	-40.00000000	-90.00000000	85.68871558
 344	50.00000000	-30.00000000	-90.00000000	85.68871558
 345	50.00000000	-20.00000000	-90.00000000	85.68871558
 346	50.00000000	-10.00000000	-90.00000000	85.68871558
 347	50.00000000	0.00000000	-90.00000000	85.68871558
 348	50.00000000	10.00000000	-90.00000000	85.68871558
 349	50.00000000	20.00000000	-90.00000000	85.68871558
 350	50.00000000	30.00000000	-90.00000000	85.68871558
 351	50.00000000	40.00000000	-90.00000000	85.68871558
 352	50.00000000	50.00000000	-90.00000000	85.68871558
 353	50.00000000	60.00000000	-90.00000000	85.68871558
 354	50.00000000	70.00000000	-90.00000000	85.68871558
 355	50.00000000	80.00000000	-90.00000000	85.68871558
 356	50.00000000	90.00000000	-90.00000000	85.68871558
 357	50.00000000	100.00000000	-90.00000000	85.68871558
 358	60.00000000	-100.00000000	-90.00000000	129.02724445
 359	60.00000000	-90.00000000	-90.00000000	129.02724445
 360	60.00000000	-80.00000000	-90.00000000	129.02724445
 361	60.00000000	-70.00000000	-90.00000000	129.02724445
 362	60.00000000	-60.00000000	-90.00000000	129.02724445
 363	60.00000000	-50.00000000	-90.00000000	129.02724445
 364	60.00000000	-40.00000000	-90.00000000	129.02724445
 365	60.00000000	-30.00000000	-90.00000000	129.02724445
 366	60.00000000	-20.00000000	-90.00000000	129.02724445
 367	60.00000000	-10.00000000	-90.00000000	129.02724445
 368	60.00000000	0.00000000	-90.00000000	129.02724445
 369	60.00000000	10.00000000	-90.00000000	129.02724445
 370	60.00000000	20.00000000	-90.00000000	129.02724445
 371	60.00000000	30.00000000	-90.00000000	129.02724445
 372	60.00000000	40.00000000	-90.00000000	129.02724445
 373	60.00000000	50.00000000	-90.00000000	129.02724445
 374	60.00000000	60.00000000	-90.00000000	129.02724445
 375	60.00000000	70.00000000	-90.00000000	129.02724445
 376	60.00000000	80.00000000	-90.00000000	129.02724445
 377	60.00000000	90.00000000	-90.00000000	129.02724445
 378	60.00000000	100.00000000	-90.00000000	129.02724445
 379	70.00000000	-100.00000000	-90.00000000	158.42023283
 380	70.00000000	-90.00000000	-90.00000000	158.42023283
 381	70.00000000	-80.00000000	-90.00000000	158.42023283
 382	70.00000000	-70.00000000	-90.00000000	158.42023283
 383	70.00000000	-60.00000000	-90.00000000	158.42023283
 384	70.00000000	-50.00000000	-90.00000000	158.42023283
 385	70.00000000	-40.00000000	-90.00000000	158.42023283
 386	70.00000000	-30.00000000	-90.00000000	158.42023283
 387	70.00000000	-20.00000000	-90.00000000	158.42023283
 388	70.00000000	-10.00000000	-90.00000000	158.42023283
 389	70.00000000	0.00000000	-90.00000000	158.42023283
 390	70.00000000	10.00000000	-90.00000000	158.42023283
 391	70.00000000	20.00000000	-90.00000000	158.42023283
 392	70.00000000	30.00000000	-90.00000000	158.42023283
 393	70.00000000	40.00000000	-90.00000000	158.42023283
 394	70.00000000	50.00000000	-90.00000000	158.42023283
 395	70.00000000	60.00000000	-90.00000000	158.42023283
 396	70.00000000	70.00000000	-90.00000000	158.42023283
 397	70.00000000	80.00000000	-90.00000000	158.42023283
 398	70.00000000	90.00000000	-90.00000000	158.42023283
 399	70.00000000	100.00000000	-90.00000000	158.42023283
 400	80.00000000	-100.00000000	-90.00000000	180.98054945
 401	80.00000000	-90.00000000	-90.00000000	180.98054945
 402	80.00000000	-80.00000000	-90.00000000	180.98054945
 403	80.00000000	-70.00000000	-90.00000000	180.98054945
 404	80.00000000	-60.00000000	-90.00000000	180.98054945
 405	80.00000000	-50.00000000	-90.00000000	180.98054945
 406	80.00000000	-40.00000000	-90.00000000	180.98054945
 407	80.00000000	-30.00000000	-90.00000000	180.98054945
 408	80.00000000	-20.00000000	-90.00000000	180.98054945
 409	80.00000000	-10.00000000	-90.00000000	180.98054945
 410	80.00000000	0.00000000	-90.00000000	180.98054945
 411	80.00000000	10.00000000	-90.00000000	180.98054945
 412	80.00000000	20.00000000	-90.00000000	180.98054945
 413	80.00000000	30.00000000	-90.00000000	180.98054945
 414	80.00000000	40.00000000	-90.00000000	180.98054945
 415	80.00000000	50.00000000	-90.00000000	180.98054945
 416	80.00000000	60.00000000	-90.00000000	180.98054945
 417	80.00000000	70.00000000	-90.00000000	180.98054945
 418	80.00000000	80.00000000	-90.00000000	180.98054945
 419	80.00000000	90.00000000	-90.00000000	180.98054945
 420	80.00000000	100.00000000	-90.00000000	180.98054945
 421	90.00000000	-100.00000000	-90.00000000	204.01556700
 422	90.00000000	-90.00000000	-90.00000000	204.01556700
 423	90.00000000	-80.00000000	-90.00000000	204.01556700
 424	90.00000000	-70.00000000	-90.00000000	204.01556700
 425	90.00000000	-60.00000000	-90.00000000	204.01556700
 426	90.00000000	-50.00000000	-90.00000000	204.01556700
 427	90.00000000	-40.00000000	-90.00000000	204.01556700
 428	90.00000000	-30.00000000	-90.00000000	204.01556700
 429	90.00000000	-20.00000000	-90.00000000	204.01556700
 430	90.00000000	-10.00000000	-90.00000000	204.01556700
 431	90.00000000	0.00000000	-90.00000000	204.01556700
 432	90.00000000	10.00000000	-90.00000000	204.01556700
