bench/lcms_compat/reference/lab_to_RISO_MZ770_RedGreen.icc_Relative.it8
CGATS.17
ORIGINATOR	"icctrans"
#
# Data follows
#
NUMBER_OF_SETS	4851.00000000
NUMBER_OF_FIELDS	6.00000000
BEGIN_DATA_FORMAT
 SAMPLE_ID	IN_LAB_L	IN_LAB_A	IN_LAB_B	OUT_CH1	OUT_CH2
END_DATA_FORMAT
BEGIN_DATA
 1	0.00000000	-100.00000000	-100.00000000	0.44231325	1.00000000
 2	0.00000000	-90.00000000	-100.00000000	0.44199282	1.00000000
 3	0.00000000	-80.00000000	-100.00000000	0.44145876	1.00000000
 4	0.00000000	-70.00000000	-100.00000000	0.44310674	1.00000000
 5	0.00000000	-60.00000000	-100.00000000	0.44661632	1.00000000
 6	0.00000000	-50.00000000	-100.00000000	0.44908828	1.00000000
 7	0.00000000	-40.00000000	-100.00000000	0.45503929	1.00000000
 8	0.00000000	-30.00000000	-100.00000000	0.46871138	1.00000000
 9	0.00000000	-20.00000000	-100.00000000	0.48444343	1.00000000
 10	0.00000000	-10.00000000	-100.00000000	0.50777447	1.00000000
 11	0.00000000	0.00000000	-100.00000000	0.52329290	1.00000000
 12	0.00000000	10.00000000	-100.00000000	0.52739757	1.00000000
 13	0.00000000	20.00000000	-100.00000000	0.51705194	1.00000000
 14	0.00000000	30.00000000	-100.00000000	0.51253527	1.00000000
 15	0.00000000	40.00000000	-100.00000000	0.55410087	1.00000000
 16	0.00000000	50.00000000	-100.00000000	0.57477683	1.00000000
 17	0.00000000	60.00000000	-100.00000000	0.64583808	1.00000000
 18	0.00000000	70.00000000	-100.00000000	0.73366904	1.00000000
 19	0.00000000	80.00000000	-100.00000000	0.72408634	1.00000000
 20	0.00000000	90.00000000	-100.00000000	0.79993898	1.00000000
 21	0.00000000	100.00000000	-100.00000000	0.88842601	1.00000000
 22	10.00000000	-100.00000000	-100.00000000	0.41010147	1.00000000
 23	10.00000000	-90.00000000	-100.00000000	0.40978104	1.00000000
 24	10.00000000	-80.00000000	-100.00000000	0.41002518	1.00000000
 25	10.00000000	-70.00000000	-100.00000000	0.40962845	1.00000000
 26	10.00000000	-60.00000000	-100.00000000	0.40949112	1.00000000
 27	10.00000000	-50.00000000	-100.00000000	0.41110855	1.00000000
 28	10.00000000	-40.00000000	-100.00000000	0.41196308	1.00000000
 29	10.00000000	-30.00000000	-100.00000000	0.41477072	1.00000000
 30	10.00000000	-20.00000000	-100.00000000	0.41966888	1.00000000
 31	10.00000000	-10.00000000	-100.00000000	0.42798504	1.00000000
 32	10.00000000	0.00000000	-100.00000000	0.43512627	1.00000000
 33	10.00000000	10.00000000	-100.00000000	0.42648965	1.00000000
 34	10.00000000	20.00000000	-100.00000000	0.42735943	1.00000000
 35	10.00000000	30.00000000	-100.00000000	0.44431219	1.00000000
 36	10.00000000	40.00000000	-100.00000000	0.46088350	1.00000000
 37	10.00000000	50.00000000	-100.00000000	0.47063401	1.00000000
 38	10.00000000	60.00000000	-100.00000000	0.50342566	1.00000000
 39	10.00000000	70.00000000	-100.00000000	0.52063781	1.00000000
 40	10.00000000	80.00000000	-100.00000000	0.52980852	1.00000000
 41	10.00000000	90.00000000	-100.00000000	0.71384758	1.00000000
 42	10.00000000	100.00000000	-100.00000000	0.85175860	1.00000000
 43	20.00000000	-100.00000000	-100.00000000	0.34879074	0.98541236
 44	20.00000000	-90.00000000	-100.00000000	0.34903488	0.98319983
 45	20.00000000	-80.00000000	-100.00000000	0.34905013	0.98051423
 46	20.00000000	-70.00000000	-100.00000000	0.34892806	0.97793543
 47	20.00000000	-60.00000000	-100.00000000	0.34975204	0.97567713
 48	20.00000000	-50.00000000	-100.00000000	0.35118639	0.97299153
 49	20.00000000	-40.00000000	-100.00000000	0.35426870	0.97047377
 50	20.00000000	-30.00000000	-100.00000000	0.35880065	0.96977186
 51	20.00000000	-20.00000000	-100.00000000	0.36479744	0.96940565
 52	20.00000000	-10.00000000	-100.00000000	0.36951247	0.96916151
 53	20.00000000	0.00000000	-100.00000000	0.36400396	0.96891737
 54	20.00000000	10.00000000	-100.00000000	0.38735026	0.94889754
 55	20.00000000	20.00000000	-100.00000000	0.39038682	0.95324636
 56	20.00000000	30.00000000	-100.00000000	0.40366217	0.95133901
 57	20.00000000	40.00000000	-100.00000000	0.40189213	0.92671090
 58	20.00000000	50.00000000	-100.00000000	0.39450675	0.89436179
 59	20.00000000	60.00000000	-100.00000000	0.42877853	0.85632104
 60	20.00000000	70.00000000	-100.00000000	0.49025711	0.81382465
 61	20.00000000	80.00000000	-100.00000000	0.56206608	0.77572292
 62	20.00000000	90.00000000	-100.00000000	0.59151596	0.74366367
 63	20.00000000	100.00000000	-100.00000000	0.63605708	0.67565423
 64	30.00000000	-100.00000000	-100.00000000	0.22858015	0.80720228
 65	30.00000000	-90.00000000	-100.00000000	0.22897688	0.80343330
 66	30.00000000	-80.00000000	-100.00000000	0.22882429	0.80039674
 67	30.00000000	-70.00000000	-100.00000000	0.22833601	0.79913026
 68	30.00000000	-60.00000000	-100.00000000	0.22887006	0.79967958
 69	30.00000000	-50.00000000	-100.00000000	0.22952621	0.79975587
 70	30.00000000	-40.00000000	-100.00000000	0.23044175	0.79789424
 71	30.00000000	-30.00000000	-100.00000000	0.23019761	0.79601741
 72	30.00000000	-20.00000000	-100.00000000	0.23012131	0.79290456
 73	30.00000000	-10.00000000	-100.00000000	0.23315786	0.78652626
 74	30.00000000	0.00000000	-100.00000000	0.23607233	0.77941561
 75	30.00000000	10.00000000	-100.00000000	0.24826428	0.76952773
 76	30.00000000	20.00000000	-100.00000000	0.25468832	0.76220340
 77	30.00000000	30.00000000	-100.00000000	0.27609673	0.74277866
 78	30.00000000	40.00000000	-100.00000000	0.29236287	0.72913712
 79	30.00000000	50.00000000	-100.00000000	0.31119248	0.71302360
 80	30.00000000	60.00000000	-100.00000000	0.33934540	0.68236822
 81	30.00000000	70.00000000	-100.00000000	0.38527504	0.61802089
 82	30.00000000	80.00000000	-100.00000000	0.44153506	0.54560161
 83	30.00000000	90.00000000	-100.00000000	0.48816663	0.46779585
 84	30.00000000	100.00000000	-100.00000000	0.53284502	0.40447089
 85	40.00000000	-100.00000000	-100.00000000	0.17984283	0.68476385
 86	40.00000000	-90.00000000	-100.00000000	0.18008697	0.68174261
 87	40.00000000	-80.00000000	-100.00000000	0.17975128	0.67882812
 88	40.00000000	-70.00000000	-100.00000000	0.17996490	0.67582208
 89	40.00000000	-60.00000000	-100.00000000	0.18066682	0.67287707
 90	40.00000000	-50.00000000	-100.00000000	0.18170443	0.67008471
 91	40.00000000	-40.00000000	-100.00000000	0.18310827	0.66671246
 92	40.00000000	-30.00000000	-100.00000000	0.18551919	0.66050202
 93	40.00000000	-20.00000000	-100.00000000	0.18873884	0.65117878
 94	40.00000000	-10.00000000	-100.00000000	0.19269092	0.63530940
 95	40.00000000	0.00000000	-100.00000000	0.19511712	0.61800563
 96	40.00000000	10.00000000	-100.00000000	0.20839246	0.57250327
 97	40.00000000	20.00000000	-100.00000000	0.22020294	0.53720915
 98	40.00000000	30.00000000	-100.00000000	0.23300527	0.49947357
 99	40.00000000	40.00000000	-100.00000000	0.24798962	0.45938811
 100	40.00000000	50.00000000	-100.00000000	0.25893036	0.43564507
 101	40.00000000	60.00000000	-100.00000000	0.27402151	0.41057450
 102	40.00000000	70.00000000	-100.00000000	0.31029221	0.37674525
 103	40.00000000	80.00000000	-100.00000000	0.31291676	0.36189821
 104	40.00000000	90.00000000	-100.00000000	0.34679180	0.34363317
 105	40.00000000	100.00000000	-100.00000000	0.38410011	0.31889829
 106	50.00000000	-100.00000000	-100.00000000	0.06494240	0.52185857
 107	50.00000000	-90.00000000	-100.00000000	0.06489662	0.51737237
 108	50.00000000	-80.00000000	-100.00000000	0.06547646	0.51319140
 109	50.00000000	-70.00000000	-100.00000000	0.06698710	0.50818646
 110	50.00000000	-60.00000000	-100.00000000	0.07533379	0.49674219
 111	50.00000000	-50.00000000	-100.00000000	0.10185397	0.47512016
 112	50.00000000	-40.00000000	-100.00000000	0.13864347	0.44710460
 113	50.00000000	-30.00000000	-100.00000000	0.16618600	0.41940948
 114	50.00000000	-20.00000000	-100.00000000	0.18321508	0.39443046
 115	50.00000000	-10.00000000	-100.00000000	0.19545281	0.37264058
 116	50.00000000	0.00000000	-100.00000000	0.20593576	0.35539788
 117	50.00000000	10.00000000	-100.00000000	0.21206988	0.35086596
 118	50.00000000	20.00000000	-100.00000000	0.21512169	0.34930953
 119	50.00000000	30.00000000	-100.00000000	0.21724269	0.34979782
 120	50.00000000	40.00000000	-100.00000000	0.22215609	0.34723431
 121	50.00000000	50.00000000	-100.00000000	0.23163195	0.33925384
 122	50.00000000	60.00000000	-100.00000000	0.24095522	0.33096817
 123	50.00000000	70.00000000	-100.00000000	0.25032425	0.32196537
 124	50.00000000	80.00000000	-100.00000000	0.27556267	0.29739833
 125	50.00000000	90.00000000	-100.00000000	0.30836958	0.26456091
 126	50.00000000	100.00000000	-100.00000000	0.33270770	0.23717098
 127	60.00000000	-100.00000000	-100.00000000	0.02372778	0.38959333
 128	60.00000000	-90.00000000	-100.00000000	0.03097581	0.38388649
 129	60.00000000	-80.00000000	-100.00000000	0.04501411	0.37654689
 130	60.00000000	-70.00000000	-100.00000000	0.06636149	0.36835280
 131	60.00000000	-60.00000000	-100.00000000	0.09507897	0.36034179
 132	60.00000000	-50.00000000	-100.00000000	0.12565805	0.35130847
 133	60.00000000	-40.00000000	-100.00000000	0.15182726	0.33986419
 134	60.00000000	-30.00000000	-100.00000000	0.17154193	0.32631418
 135	60.00000000	-20.00000000	-100.00000000	0.18490882	0.31166553
 136	60.00000000	-10.00000000	-100.00000000	0.19218738	0.30017549
 137	60.00000000	0.00000000	-100.00000000	0.19479667	0.29553673
 138	60.00000000	10.00000000	-100.00000000	0.19839780	0.30304417
 139	60.00000000	20.00000000	-100.00000000	0.20151064	0.30585185
 140	60.00000000	30.00000000	-100.00000000	0.20413519	0.30481422
 141	60.00000000	40.00000000	-100.00000000	0.20779736	0.29764247
 142	60.00000000	50.00000000	-100.00000000	0.21158160	0.28593880
 143	60.00000000	60.00000000	-100.00000000	0.21358053	0.27498284
 144	60.00000000	70.00000000	-100.00000000	0.21744107	0.26312658
 145	60.00000000	80.00000000	-100.00000000	0.23025864	0.24246585
 146	60.00000000	90.00000000	-100.00000000	0.24757764	0.21850920
 147	60.00000000	100.00000000	-100.00000000	0.26321813	0.20238040
 148	70.00000000	-100.00000000	-100.00000000	0.04283207	0.34679180
 149	70.00000000	-90.00000000	-100.00000000	0.05931182	0.34073395
 150	70.00000000	-80.00000000	-100.00000000	0.08136111	0.33383688
 151	70.00000000	-70.00000000	-100.00000000	0.10463111	0.32494086
 152	70.00000000	-60.00000000	-100.00000000	0.12654307	0.31335926
 153	70.00000000	-50.00000000	-100.00000000	0.14602885	0.29820707
 154	70.00000000	-40.00000000	-100.00000000	0.16324101	0.27838561
 155	70.00000000	-30.00000000	-100.00000000	0.17732510	0.25778592
 156	70.00000000	-20.00000000	-100.00000000	0.18289463	0.24951553
 157	70.00000000	-10.00000000	-100.00000000	0.18611430	0.25203326
 158	70.00000000	0.00000000	-100.00000000	0.18857099	0.26135653
 159	70.00000000	10.00000000	-100.00000000	0.18951705	0.25879303
 160	70.00000000	20.00000000	-100.00000000	0.19018845	0.25471884
 161	70.00000000	30.00000000	-100.00000000	0.19069199	0.24974442
 162	70.00000000	40.00000000	-100.00000000	0.19174486	0.24879836
 163	70.00000000	50.00000000	-100.00000000	0.19385062	0.24713512
 164	70.00000000	60.00000000	-100.00000000	0.19765010	0.24170291
 165	70.00000000	70.00000000	-100.00000000	0.20355535	0.23117419
 166	70.00000000	80.00000000	-100.00000000	0.21065080	0.21811245
 167	70.00000000	90.00000000	-100.00000000	0.21774624	0.20547798
 168	70.00000000	100.00000000	-100.00000000	0.22442970	0.19403373
 169	80.00000000	-100.00000000	-100.00000000	0.06219577	0.32854199
 170	80.00000000	-90.00000000	-100.00000000	0.07669184	0.32074463
 171	80.00000000	-80.00000000	-100.00000000	0.09216449	0.31039903
 172	80.00000000	-70.00000000	-100.00000000	0.10934615	0.29735255
 173	80.00000000	-60.00000000	-100.00000000	0.12904555	0.28073549
 174	80.00000000	-50.00000000	-100.00000000	0.14792095	0.26395056
 175	80.00000000	-40.00000000	-100.00000000	0.16556039	0.24744029
 176	80.00000000	-30.00000000	-100.00000000	0.17599756	0.23706417
 177	80.00000000	-20.00000000	-100.00000000	0.18129244	0.23158617
 178	80.00000000	-10.00000000	-100.00000000	0.18171969	0.23315786
 179	80.00000000	0.00000000	-100.00000000	0.17978179	0.23816282
 180	80.00000000	10.00000000	-100.00000000	0.18059053	0.23614863
 181	80.00000000	20.00000000	-100.00000000	0.18150607	0.23448539
 182	80.00000000	30.00000000	-100.00000000	0.18265049	0.23343252
 183	80.00000000	40.00000000	-100.00000000	0.18428321	0.23248646
 184	80.00000000	50.00000000	-100.00000000	0.18664835	0.23115893
 185	80.00000000	60.00000000	-100.00000000	0.18968490	0.22742046
 186	80.00000000	70.00000000	-100.00000000	0.19346914	0.22099641
 187	80.00000000	80.00000000	-100.00000000	0.19867246	0.21081865
 188	80.00000000	90.00000000	-100.00000000	0.20474556	0.19938964
 189	80.00000000	100.00000000	-100.00000000	0.21138322	0.19008164
 190	90.00000000	-100.00000000	-100.00000000	0.07165637	0.30649272
 191	90.00000000	-90.00000000	-100.00000000	0.08467231	0.29639125
 192	90.00000000	-80.00000000	-100.00000000	0.09861906	0.28499275
 193	90.00000000	-70.00000000	-100.00000000	0.11346608	0.27150378
 194	90.00000000	-60.00000000	-100.00000000	0.12947281	0.25766385
 195	90.00000000	-50.00000000	-100.00000000	0.14753948	0.24325933
 196	90.00000000	-40.00000000	-100.00000000	0.16414130	0.23027390
 197	90.00000000	-30.00000000	-100.00000000	0.17187762	0.22461280
 198	90.00000000	-20.00000000	-100.00000000	0.17679103	0.22162203
 199	90.00000000	-10.00000000	-100.00000000	0.17483787	0.22505531
 200	90.00000000	0.00000000	-100.00000000	0.17103837	0.23021287
 201	90.00000000	10.00000000	-100.00000000	0.17261006	0.22871748
 202	90.00000000	20.00000000	-100.00000000	0.17405966	0.22728314
 203	90.00000000	30.00000000	-100.00000000	0.17512779	0.22613871
 204	90.00000000	40.00000000	-100.00000000	0.17607385	0.22505531
 205	90.00000000	50.00000000	-100.00000000	0.17746243	0.22246128
 206	90.00000000	60.00000000	-100.00000000	0.17938507	0.21905851
 207	90.00000000	70.00000000	-100.00000000	0.18379492	0.21281758
 208	90.00000000	80.00000000	-100.00000000	0.18962386	0.20495918
 209	90.00000000	90.00000000	-100.00000000	0.19555962	0.19638361
 210	90.00000000	100.00000000	-100.00000000	0.20149538	0.18738079
 211	100.00000000	-100.00000000	-100.00000000	0.07057298	0.28493172
 212	100.00000000	-90.00000000	-100.00000000	0.08255131	0.27444878
 213	100.00000000	-80.00000000	-100.00000000	0.09721523	0.26326391
 214	100.00000000	-70.00000000	-100.00000000	0.11238270	0.25180438
 215	100.00000000	-60.00000000	-100.00000000	0.12803845	0.23958190
 216	100.00000000	-50.00000000	-100.00000000	0.14367895	0.22726788
 217	100.00000000	-40.00000000	-100.00000000	0.15342946	0.22116426
 218	100.00000000	-30.00000000	-100.00000000	0.16043335	0.21803616
 219	100.00000000	-20.00000000	-100.00000000	0.16369879	0.21730374
 220	100.00000000	-10.00000000	-100.00000000	0.16095217	0.22034028
 221	100.00000000	0.00000000	-100.00000000	0.15791562	0.22352941
 222	100.00000000	10.00000000	-100.00000000	0.16086061	0.22198825
 223	100.00000000	20.00000000	-100.00000000	0.16382086	0.22041658
 224	100.00000000	30.00000000	-100.00000000	0.16685741	0.21828032
 225	100.00000000	40.00000000	-100.00000000	0.16992447	0.21576257
 226	100.00000000	50.00000000	-100.00000000	0.17297627	0.21280232
 227	100.00000000	60.00000000	-100.00000000	0.17595178	0.20885023
 228	100.00000000	70.00000000	-100.00000000	0.17926300	0.20442511
 229	100.00000000	80.00000000	-100.00000000	0.18475623	0.19742122
 230	100.00000000	90.00000000	-100.00000000	0.19069199	0.18980697
 231	100.00000000	100.00000000	-100.00000000	0.19583429	0.18229954
 232	0.00000000	-100.00000000	-90.00000000	0.44678417	1.00000000
 233	0.00000000	-90.00000000	-90.00000000	0.44666210	1.00000000
 234	0.00000000	-80.00000000	-90.00000000	0.44629589	1.00000000
 235	0.00000000	-70.00000000	-90.00000000	0.44652477	1.00000000
 236	0.00000000	-60.00000000	-90.00000000	0.44995803	1.00000000
 237	0.00000000	-50.00000000	-90.00000000	0.45403218	1.00000000
 238	0.00000000	-40.00000000	-90.00000000	0.45815215	1.00000000
 239	0.00000000	-30.00000000	-90.00000000	0.47667658	1.00000000
 240	0.00000000	-20.00000000	-90.00000000	0.49633020	1.00000000
 241	0.00000000	-10.00000000	-90.00000000	0.52944231	1.00000000
 242	0.00000000	0.00000000	-90.00000000	0.55779356	1.00000000
 243	0.00000000	10.00000000	-90.00000000	0.55860227	1.00000000
 244	0.00000000	20.00000000	-90.00000000	0.53438622	1.00000000
 245	0.00000000	30.00000000	-90.00000000	0.55254441	1.00000000
 246	0.00000000	40.00000000	-90.00000000	0.60102236	1.00000000
 247	0.00000000	50.00000000	-90.00000000	0.63984132	1.00000000
 248	0.00000000	60.00000000	-90.00000000	0.73960477	1.00000000
 249	0.00000000	70.00000000	-90.00000000	0.79586482	1.00000000
 250	0.00000000	80.00000000	-90.00000000	0.81910431	1.00000000
 251	0.00000000	90.00000000	-90.00000000	0.92214847	1.00000000
 252	0.00000000	100.00000000	-90.00000000	0.97198445	1.00000000
 253	10.00000000	-100.00000000	-90.00000000	0.41318381	1.00000000
 254	10.00000000	-90.00000000	-90.00000000	0.41153583	1.00000000
 255	10.00000000	-80.00000000	-90.00000000	0.41124591	1.00000000
 256	10.00000000	-70.00000000	-90.00000000	0.41147479	1.00000000
 257	10.00000000	-60.00000000	-90.00000000	0.41091019	1.00000000
 258	10.00000000	-50.00000000	-90.00000000	0.41182575	1.00000000
 259	10.00000000	-40.00000000	-90.00000000	0.41377890	1.00000000
 260	10.00000000	-30.00000000	-90.00000000	0.41580835	1.00000000
 261	10.00000000	-20.00000000	-90.00000000	0.42121005	1.00000000
 262	10.00000000	-10.00000000	-90.00000000	0.42932785	1.00000000
 263	10.00000000	0.00000000	-90.00000000	0.43717098	1.00000000
 264	10.00000000	10.00000000	-90.00000000	0.42868695	1.00000000
 265	10.00000000	20.00000000	-90.00000000	0.43114367	1.00000000
 266	10.00000000	30.00000000	-90.00000000	0.45233846	1.00000000
 267	10.00000000	40.00000000	-90.00000000	0.46443886	1.00000000
 268	10.00000000	50.00000000	-90.00000000	0.49057755	1.00000000
 269	10.00000000	60.00000000	-90.00000000	0.51590753	1.00000000
 270	10.00000000	70.00000000	-90.00000000	0.59307241	1.00000000
 271	10.00000000	80.00000000	-90.00000000	0.69233233	1.00000000
 272	10.00000000	90.00000000	-90.00000000	0.88068968	1.00000000
 273	10.00000000	100.00000000	-90.00000000	0.98509192	0.96765089
 274	20.00000000	-100.00000000	-90.00000000	0.34874496	0.98741132
 275	20.00000000	-90.00000000	-90.00000000	0.34877548	0.98541236
 276	20.00000000	-80.00000000	-90.00000000	0.34908065	0.98294044
 277	20.00000000	-70.00000000	-90.00000000	0.34897384	0.97994965
 278	20.00000000	-60.00000000	-90.00000000	0.34908065	0.97718775
 279	20.00000000	-50.00000000	-90.00000000	0.35025558	0.97454792
 280	20.00000000	-40.00000000	-90.00000000	0.35245287	0.97138935
 281	20.00000000	-30.00000000	-90.00000000	0.35725948	0.96997023
 282	20.00000000	-20.00000000	-90.00000000	0.36327153	0.96945143
 283	20.00000000	-10.00000000	-90.00000000	0.36942092	0.96917677
 284	20.00000000	0.00000000	-90.00000000	0.36404973	0.96891737
 285	20.00000000	10.00000000	-90.00000000	0.38823530	0.94848555
 286	20.00000000	20.00000000	-90.00000000	0.39246204	0.95437551
 287	20.00000000	30.00000000	-90.00000000	0.40976578	0.94457924
 288	20.00000000	40.00000000	-90.00000000	0.41049820	0.90820169
 289	20.00000000	50.00000000	-90.00000000	0.43346304	0.86060882
 290	20.00000000	60.00000000	-90.00000000	0.49575037	0.81986725
 291	20.00000000	70.00000000	-90.00000000	0.56395817	0.78587013
 292	20.00000000	80.00000000	-90.00000000	0.63697261	0.74764627
 293	20.00000000	90.00000000	-90.00000000	0.72014952	0.71570915
 294	20.00000000	100.00000000	-90.00000000	0.78591591	0.66843671
 295	30.00000000	-100.00000000	-90.00000000	0.22766460	0.81120014
 296	30.00000000	-90.00000000	-90.00000000	0.22862592	0.80720228
 297	30.00000000	-80.00000000	-90.00000000	0.22899213	0.80292976
 298	30.00000000	-70.00000000	-90.00000000	0.22867170	0.80000001
 299	30.00000000	-60.00000000	-90.00000000	0.22848859	0.79926759
 300	30.00000000	-50.00000000	-90.00000000	0.22917525	0.79981691
 301	30.00000000	-40.00000000	-90.00000000	0.23004502	0.79908448
 302	30.00000000	-30.00000000	-90.00000000	0.23027390	0.79665828
 303	30.00000000	-20.00000000	-90.00000000	0.23006028	0.79372853
 304	30.00000000	-10.00000000	-90.00000000	0.23262379	0.78744185
 305	30.00000000	0.00000000	-90.00000000	0.23607233	0.77941561
 306	30.00000000	10.00000000	-90.00000000	0.25836575	0.76133364
 307	30.00000000	20.00000000	-90.00000000	0.27823299	0.74685282
 308	30.00000000	30.00000000	-90.00000000	0.30701151	0.72642100
 309	30.00000000	40.00000000	-90.00000000	0.32466620	0.71454948
 310	30.00000000	50.00000000	-90.00000000	0.35242236	0.68532842
 311	30.00000000	60.00000000	-90.00000000	0.41614404	0.61561000
 312	30.00000000	70.00000000	-90.00000000	0.45918974	0.53958952
 313	30.00000000	80.00000000	-90.00000000	0.50437170	0.46420997
 314	30.00000000	90.00000000	-90.00000000	0.54538798	0.40473029
 315	30.00000000	100.00000000	-90.00000000	0.58071262	0.36763561
 316	40.00000000	-100.00000000	-90.00000000	0.17965972	0.68708324
 317	40.00000000	-90.00000000	-90.00000000	0.17982757	0.68480963
 318	40.00000000	-80.00000000	-90.00000000	0.18014801	0.68136108
 319	40.00000000	-70.00000000	-90.00000000	0.17978179	0.67815673
 320	40.00000000	-60.00000000	-90.00000000	0.18011749	0.67489129
 321	40.00000000	-50.00000000	-90.00000000	0.18104829	0.67171741
 322	40.00000000	-40.00000000	-90.00000000	0.18251316	0.66811627
 323	40.00000000	-30.00000000	-90.00000000	0.18489356	0.66240942
 324	40.00000000	-20.00000000	-90.00000000	0.19032578	0.64812696
 325	40.00000000	-10.00000000	-90.00000000	0.19711605	0.62471962
 326	40.00000000	0.00000000	-90.00000000	0.20350957	0.59713131
 327	40.00000000	10.00000000	-90.00000000	0.22082856	0.53922331
 328	40.00000000	20.00000000	-90.00000000	0.23225757	0.51134509
 329	40.00000000	30.00000000	-90.00000000	0.24446478	0.47862974
 330	40.00000000	40.00000000	-90.00000000	0.26207370	0.44139773
 331	40.00000000	50.00000000	-90.00000000	0.28332952	0.41263446
 332	40.00000000	60.00000000	-90.00000000	0.30905622	0.38455787
 333	40.00000000	70.00000000	-90.00000000	0.33218890	0.36429390
 334	40.00000000	80.00000000	-90.00000000	0.34154269	0.34859234
 335	40.00000000	90.00000000	-90.00000000	0.38144502	0.32339972
 336	40.00000000	100.00000000	-90.00000000	0.42059967	0.29643703
 337	50.00000000	-100.00000000	-90.00000000	0.06459144	0.52730602
 338	50.00000000	-90.00000000	-90.00000000	0.06497291	0.52184331
 339	50.00000000	-80.00000000	-90.00000000	0.06495766	0.51689935
 340	50.00000000	-70.00000000	-90.00000000	0.06572061	0.51216906
 341	50.00000000	-60.00000000	-90.00000000	0.06840619	0.50522619
 342	50.00000000	-50.00000000	-90.00000000	0.08424506	0.48851758
 343	50.00000000	-40.00000000	-90.00000000	0.12182803	0.46018159
 344	50.00000000	-30.00000000	-90.00000000	0.15866330	0.42832074
 345	50.00000000	-20.00000000	-90.00000000	0.18033113	0.39958802
 346	50.00000000	-10.00000000	-90.00000000	0.19423209	0.37467003
 347	50.00000000	0.00000000	-90.00000000	0.20592050	0.35541314
 348	50.00000000	10.00000000	-90.00000000	0.21266499	0.35043868
 349	50.00000000	20.00000000	-90.00000000	0.21556421	0.34934005
 350	50.00000000	30.00000000	-90.00000000	0.21826506	0.34969100
 351	50.00000000	40.00000000	-90.00000000	0.22615397	0.34387732
 352	50.00000000	50.00000000	-90.00000000	0.23707943	0.33455405
 353	50.00000000	60.00000000	-90.00000000	0.24666210	0.32549021
 354	50.00000000	70.00000000	-90.00000000	0.26921493	0.30362400
 355	50.00000000	80.00000000	-90.00000000	0.30566874	0.26768902
 356	50.00000000	90.00000000	-90.00000000	0.33267719	0.23720150
 357	50.00000000	100.00000000	-90.00000000	0.35411611	0.21237506
 358	60.00000000	-100.00000000	-90.00000000	0.01910430	0.39513236
 359	60.00000000	-90.00000000	-90.00000000	0.02369726	0.38959333
 360	60.00000000	-80.00000000	-90.00000000	0.03147936	0.38330662
 361	60.00000000	-70.00000000	-90.00000000	0.04948501	0.37470055
 362	60.00000000	-60.00000000	-90.00000000	0.07579156	0.36572823
 363	60.00000000	-50.00000000	-90.00000000	0.10879683	0.35651180
 364	60.00000000	-40.00000000	-90.00000000	0.14152743	0.34544900
 365	60.00000000	-30.00000000	-90.00000000	0.16560617	0.33098343
 366	60.00000000	-20.00000000	-90.00000000	0.18208590	0.31493095
 367	60.00000000	-10.00000000	-90.00000000	0.19168383	0.30104524
