bench/lcms_compat/reference/lab_to_D50_XYZ.icc_Absolute.it8
CGATS.17
ORIGINATOR	"icctrans"
#
# Data follows
#
NUMBER_OF_SETS	4851.00000000
NUMBER_OF_FIELDS	7.00000000
BEGIN_DATA_FORMAT
 SAMPLE_ID	IN_LAB_L	IN_LAB_A	IN_LAB_B	OUT_RGB_R	OUT_RGB_G	OUT_RGB_B
END_DATA_FORMAT
BEGIN_DATA
 1	0.00000000	-100.00000000	-100.00000000	-6.31487925	0.00000000	54.60880771
 2	0.00000000	-90.00000000	-100.00000000	-5.68339113	0.00000000	54.60880771
 3	0.00000000	-80.00000000	-100.00000000	-5.05190349	0.00000000	54.60880771
 4	0.00000000	-70.00000000	-100.00000000	-4.42041538	0.00000000	54.60880771
 5	0.00000000	-60.00000000	-100.00000000	-3.78892750	0.00000000	54.60880771
 6	0.00000000	-50.00000000	-100.00000000	-3.15743939	0.00000000	54.60880771
 7	0.00000000	-40.00000000	-100.00000000	-2.52595175	0.00000000	54.60880771
 8	0.00000000	-30.00000000	-100.00000000	-1.89446375	0.00000000	54.60880771
 9	0.00000000	-20.00000000	-100.00000000	-1.26297587	0.00000000	54.60880771
 10	0.00000000	-10.00000000	-100.00000000	-0.63148794	0.00000000	54.60880771
 11	0.00000000	0.00000000	-100.00000000	0.00000048	0.00000000	54.60880771
 12	0.00000000	10.00000000	-100.00000000	0.63148841	0.00000000	54.60880771
 13	0.00000000	20.00000000	-100.00000000	1.26297635	0.00000000	54.60880771
 14	0.00000000	30.00000000	-100.00000000	1.89446423	0.00000000	54.60880771
 15	0.00000000	40.00000000	-100.00000000	2.54486404	0.00000000	54.60880771
 16	0.00000000	50.00000000	-100.00000000	3.31177357	0.00000000	54.60880771
 17	0.00000000	60.00000000	-100.00000000	4.21908366	0.00000000	54.60880771
 18	0.00000000	70.00000000	-100.00000000	5.27859648	0.00000000	54.60880771
 19	0.00000000	80.00000000	-100.00000000	6.50211372	0.00000000	54.60880771
 20	0.00000000	90.00000000	-100.00000000	7.90143709	0.00000000	54.60880771
 21	0.00000000	100.00000000	-100.00000000	9.48836921	0.00000000	54.60880771
 22	10.00000000	-100.00000000	-100.00000000	-3.59294850	2.87135107	79.87399399
 23	10.00000000	-90.00000000	-100.00000000	-2.96146063	2.87135107	79.87399399
 24	10.00000000	-80.00000000	-100.00000000	-2.32997251	2.87135107	79.87399399
 25	10.00000000	-70.00000000	-100.00000000	-1.69848475	2.87135107	79.87399399
 26	10.00000000	-60.00000000	-100.00000000	-1.06699664	2.87135107	79.87399399
 27	10.00000000	-50.00000000	-100.00000000	-0.43550870	2.87135107	79.87399399
 28	10.00000000	-40.00000000	-100.00000000	0.19597922	2.87135107	79.87399399
 29	10.00000000	-30.00000000	-100.00000000	0.82746711	2.87135107	79.87399399
 30	10.00000000	-20.00000000	-100.00000000	1.45895511	2.87135107	79.87399399
 31	10.00000000	-10.00000000	-100.00000000	2.09044310	2.87135107	79.87399399
 32	10.00000000	0.00000000	-100.00000000	2.76855709	2.87135107	79.87399399
 33	10.00000000	10.00000000	-100.00000000	3.57777616	2.87135107	79.87399399
 34	10.00000000	20.00000000	-100.00000000	4.53105832	2.87135107	79.87399399
 35	10.00000000	30.00000000	-100.00000000	5.64020645	2.87135107	79.87399399
 36	10.00000000	40.00000000	-100.00000000	6.91702154	2.87135107	79.87399399
 37	10.00000000	50.00000000	-100.00000000	8.37330479	2.87135107	79.87399399
 38	10.00000000	60.00000000	-100.00000000	10.02085933	2.87135107	79.87399399
 39	10.00000000	70.00000000	-100.00000000	11.87148638	2.87135107	79.87399399
 40	10.00000000	80.00000000	-100.00000000	13.93698715	2.87135107	79.87399399
 41	10.00000000	90.00000000	-100.00000000	16.22916475	2.87135107	79.87399399
 42	10.00000000	100.00000000	-100.00000000	18.75981946	2.87135107	79.87399399
 43	20.00000000	-100.00000000	-100.00000000	-0.87101776	7.62208368	111.93117902
 44	20.00000000	-90.00000000	-100.00000000	-0.23952974	7.62208368	111.93117902
 45	20.00000000	-80.00000000	-100.00000000	0.39195820	7.62208368	111.93117902
 46	20.00000000	-70.00000000	-100.00000000	1.02344599	7.62208368	111.93117902
 47	20.00000000	-60.00000000	-100.00000000	1.65493422	7.62208368	111.93117902
 48	20.00000000	-50.00000000	-100.00000000	2.28824695	7.62208368	111.93117902
 49	20.00000000	-40.00000000	-100.00000000	3.00498800	7.62208368	111.93117902
 50	20.00000000	-30.00000000	-100.00000000	3.85765346	7.62208368	111.93117902
 51	20.00000000	-20.00000000	-100.00000000	4.85804502	7.62208368	111.93117902
 52	20.00000000	-10.00000000	-100.00000000	6.01796460	7.62208368	111.93117902
 53	20.00000000	0.00000000	-100.00000000	7.34921462	7.62208368	111.93117902
 54	20.00000000	10.00000000	-100.00000000	8.86359533	7.62208368	111.93117902
 55	20.00000000	20.00000000	-100.00000000	10.57290891	7.62208368	111.93117902
 56	20.00000000	30.00000000	-100.00000000	12.48895800	7.62208368	111.93117902
 57	20.00000000	40.00000000	-100.00000000	14.62354381	7.62208368	111.93117902
 58	20.00000000	50.00000000	-100.00000000	16.98847041	7.62208368	111.93117902
 59	20.00000000	60.00000000	-100.00000000	19.59553521	7.62208368	111.93117902
 60	20.00000000	70.00000000	-100.00000000	22.45654229	7.62208368	111.93117902
 61	20.00000000	80.00000000	-100.00000000	25.58329381	7.62208368	111.93117902
 62	20.00000000	90.00000000	-100.00000000	28.98759004	7.62208368	111.93117902
 63	20.00000000	100.00000000	-100.00000000	32.68123694	7.62208368	111.93117902
 64	30.00000000	-100.00000000	-100.00000000	1.85091322	15.90156058	151.58895940
 65	30.00000000	-90.00000000	-100.00000000	2.49684935	15.90156058	151.58895940
 66	30.00000000	-80.00000000	-100.00000000	3.25451088	15.90156058	151.58895940
 67	30.00000000	-70.00000000	-100.00000000	4.15175934	15.90156058	151.58895940
 68	30.00000000	-60.00000000	-100.00000000	5.20039715	15.90156058	151.58895940
 69	30.00000000	-50.00000000	-100.00000000	6.41222480	15.90156058	151.58895940
 70	30.00000000	-40.00000000	-100.00000000	7.79904446	15.90156058	151.58895940
 71	30.00000000	-30.00000000	-100.00000000	9.37265877	15.90156058	151.58895940
 72	30.00000000	-20.00000000	-100.00000000	11.14486942	15.90156058	151.58895940
 73	30.00000000	-10.00000000	-100.00000000	13.12747668	15.90156058	151.58895940
 74	30.00000000	0.00000000	-100.00000000	15.33228653	15.90156058	151.58895940
 75	30.00000000	10.00000000	-100.00000000	17.77109541	15.90156058	151.58895940
 76	30.00000000	20.00000000	-100.00000000	20.45570835	15.90156058	151.58895940
 77	30.00000000	30.00000000	-100.00000000	23.39792468	15.90156058	151.58895940
 78	30.00000000	40.00000000	-100.00000000	26.60954844	15.90156058	151.58895940
 79	30.00000000	50.00000000	-100.00000000	30.10237992	15.90156058	151.58895940
 80	30.00000000	60.00000000	-100.00000000	33.88822317	15.90156058	151.58895940
 81	30.00000000	70.00000000	-100.00000000	37.97887467	15.90156058	151.58895940
 82	30.00000000	80.00000000	-100.00000000	42.38614798	15.90156058	151.58895940
 83	30.00000000	90.00000000	-100.00000000	47.12183386	15.90156058	151.58895940
 84	30.00000000	100.00000000	-100.00000000	52.19773449	15.90156058	151.58895940
 85	40.00000000	-100.00000000	-100.00000000	5.55846523	28.68998431	199.65587854
 86	40.00000000	-90.00000000	-100.00000000	6.82333851	28.68998431	199.65587854
 87	40.00000000	-80.00000000	-100.00000000	8.26686585	28.68998431	199.65587854
 88	40.00000000	-70.00000000	-100.00000000	9.90085037	28.68998431	199.65587854
 89	40.00000000	-60.00000000	-100.00000000	11.73709329	28.68998431	199.65587854
 90	40.00000000	-50.00000000	-100.00000000	13.78739772	28.68998431	199.65587854
 91	40.00000000	-40.00000000	-100.00000000	16.06356204	28.68998431	199.65587854
 92	40.00000000	-30.00000000	-100.00000000	18.57739314	28.68998431	199.65587854
 93	40.00000000	-20.00000000	-100.00000000	21.34068847	28.68998431	199.65587854
 94	40.00000000	-10.00000000	-100.00000000	24.36525017	28.68998431	199.65587854
 95	40.00000000	0.00000000	-100.00000000	27.66288612	28.68998431	199.65587854
 96	40.00000000	10.00000000	-100.00000000	31.24538898	28.68998431	199.65587854
 97	40.00000000	20.00000000	-100.00000000	35.12456663	28.68998431	199.65587854
 98	40.00000000	30.00000000	-100.00000000	39.31221552	28.68998431	199.65587854
 99	40.00000000	40.00000000	-100.00000000	43.82014543	28.68998431	199.65587854
 100	40.00000000	50.00000000	-100.00000000	48.66015472	28.68998431	199.65587854
 101	40.00000000	60.00000000	-100.00000000	53.84403795	28.68998431	199.65587854
 102	40.00000000	70.00000000	-100.00000000	59.38360870	28.68998431	199.65587854
 103	40.00000000	80.00000000	-100.00000000	65.29065773	28.68998431	199.65587854
 104	40.00000000	90.00000000	-100.00000000	71.57699481	28.68998431	199.65587854
 105	40.00000000	100.00000000	-100.00000000	78.25442210	28.68998431	199.65587854
 106	50.00000000	-100.00000000	-100.00000000	12.34993486	46.96756214	256.94051027
 107	50.00000000	-90.00000000	-100.00000000	14.46907070	46.96756214	256.94051027
 108	50.00000000	-80.00000000	-100.00000000	16.81773037	46.96756214	256.94051027
 109	50.00000000	-70.00000000	-100.00000000	19.40771699	46.96756214	256.94051027
 110	50.00000000	-60.00000000	-100.00000000	22.25083273	46.96756214	256.94051027
 111	50.00000000	-50.00000000	-100.00000000	25.35887785	46.96756214	256.94051027
 112	50.00000000	-40.00000000	-100.00000000	28.74365643	46.96756214	256.94051027
 113	50.00000000	-30.00000000	-100.00000000	32.41696872	46.96756214	256.94051027
 114	50.00000000	-20.00000000	-100.00000000	36.39061689	46.96756214	256.94051027
 115	50.00000000	-10.00000000	-100.00000000	40.67639932	46.96756214	256.94051027
 116	50.00000000	0.00000000	-100.00000000	45.28612576	46.96756214	256.94051027
 117	50.00000000	10.00000000	-100.00000000	50.23159079	46.96756214	256.94051027
 118	50.00000000	20.00000000	-100.00000000	55.52460037	46.96756214	256.94051027
 119	50.00000000	30.00000000	-100.00000000	61.17695287	46.96756214	256.94051027
 120	50.00000000	40.00000000	-100.00000000	67.20045045	46.96756214	256.94051027
 121	50.00000000	50.00000000	-100.00000000	73.60689908	46.96756214	256.94051027
 122	50.00000000	60.00000000	-100.00000000	80.40810093	46.96756214	256.94051027
 123	50.00000000	70.00000000	-100.00000000	87.61584297	46.96756214	256.94051027
 124	50.00000000	80.00000000	-100.00000000	95.24195015	46.96756214	256.94051027
 125	50.00000000	90.00000000	-100.00000000	103.29820946	46.96756214	256.94051027
 126	50.00000000	100.00000000	-100.00000000	111.79642305	46.96756214	256.94051027
 127	60.00000000	-100.00000000	-100.00000000	23.18649832	71.71450943	324.25143600
 128	60.00000000	-90.00000000	-100.00000000	26.37916300	71.71450943	324.25143600
 129	60.00000000	-80.00000000	-100.00000000	29.85222414	71.71450943	324.25143600
 130	60.00000000	-70.00000000	-100.00000000	33.61748010	71.71450943	324.25143600
 131	60.00000000	-60.00000000	-100.00000000	37.68673874	71.71450943	324.25143600
 132	60.00000000	-50.00000000	-100.00000000	42.07179084	71.71450943	324.25143600
 133	60.00000000	-40.00000000	-100.00000000	46.78444616	71.71450943	324.25143600
 134	60.00000000	-30.00000000	-100.00000000	51.83651067	71.71450943	324.25143600
 135	60.00000000	-20.00000000	-100.00000000	57.23977514	71.71450943	324.25143600
 136	60.00000000	-10.00000000	-100.00000000	63.00604932	71.71450943	324.25143600
 137	60.00000000	0.00000000	-100.00000000	69.14713159	71.71450943	324.25143600
 138	60.00000000	10.00000000	-100.00000000	75.67482412	71.71450943	324.25143600
 139	60.00000000	20.00000000	-100.00000000	82.60093287	71.71450943	324.25143600
 140	60.00000000	30.00000000	-100.00000000	89.93725240	71.71450943	324.25143600
 141	60.00000000	40.00000000	-100.00000000	97.69559249	71.71450943	324.25143600
 142	60.00000000	50.00000000	-100.00000000	105.88774770	71.71450943	324.25143600
 143	60.00000000	60.00000000	-100.00000000	114.52552021	71.71450943	324.25143600
 144	60.00000000	70.00000000	-100.00000000	123.62071976	71.71450943	324.25143600
 145	60.00000000	80.00000000	-100.00000000	133.18513334	71.71450943	324.25143600
 146	60.00000000	90.00000000	-100.00000000	143.23057830	71.71450943	324.25143600
 147	60.00000000	100.00000000	-100.00000000	153.76887202	71.71450943	324.25143600
 148	70.00000000	-100.00000000	-100.00000000	39.01325896	103.91100258	402.39722192
 149	70.00000000	-90.00000000	-100.00000000	43.49872068	103.91100258	402.39722192
 150	70.00000000	-80.00000000	-100.00000000	48.31544861	103.91100258	402.39722192
 151	70.00000000	-70.00000000	-100.00000000	53.47523734	103.91100258	402.39722192
 152	70.00000000	-60.00000000	-100.00000000	58.98990043	103.91100258	402.39722192
 153	70.00000000	-50.00000000	-100.00000000	64.87123623	103.91100258	402.39722192
 154	70.00000000	-40.00000000	-100.00000000	71.13102794	103.91100258	402.39722192
 155	70.00000000	-30.00000000	-100.00000000	77.78111190	103.91100258	402.39722192
 156	70.00000000	-20.00000000	-100.00000000	84.83325988	103.91100258	402.39722192
 157	70.00000000	-10.00000000	-100.00000000	92.29928926	103.91100258	402.39722192
 158	70.00000000	0.00000000	-100.00000000	100.19100219	103.91100258	402.39722192
 159	70.00000000	10.00000000	-100.00000000	108.52018565	103.91100258	402.39722192
 160	70.00000000	20.00000000	-100.00000000	117.29864940	103.91100258	402.39722192
 161	70.00000000	30.00000000	-100.00000000	126.53821081	103.91100258	402.39722192
 162	70.00000000	40.00000000	-100.00000000	136.25064164	103.91100258	402.39722192
 163	70.00000000	50.00000000	-100.00000000	146.44777447	103.91100258	402.39722192
 164	70.00000000	60.00000000	-100.00000000	157.14138865	103.91100258	402.39722192
 165	70.00000000	70.00000000	-100.00000000	168.34330916	103.91100258	402.39722192
 166	70.00000000	80.00000000	-100.00000000	180.06531537	103.91100258	402.39722192
 167	70.00000000	90.00000000	-100.00000000	192.31921703	103.91100258	402.39722192
 168	70.00000000	100.00000000	-100.00000000	205.11680871	103.91100258	402.39722192
 169	80.00000000	-100.00000000	-100.00000000	60.77535622	144.53729779	492.18649507
 170	80.00000000	-90.00000000	-100.00000000	66.77288219	144.53729779	492.18649507
 171	80.00000000	-80.00000000	-100.00000000	73.15253466	144.53729779	492.18649507
 172	80.00000000	-70.00000000	-100.00000000	79.92613479	144.53729779	492.18649507
 173	80.00000000	-60.00000000	-100.00000000	87.10546955	144.53729779	492.18649507
 174	80.00000000	-50.00000000	-100.00000000	94.70234111	144.53729779	492.18649507
 175	80.00000000	-40.00000000	-100.00000000	102.72855923	144.53729779	492.18649507
 176	80.00000000	-30.00000000	-100.00000000	111.19591087	144.53729779	492.18649507
 177	80.00000000	-20.00000000	-100.00000000	120.11621341	144.53729779	492.18649507
 178	80.00000000	-10.00000000	-100.00000000	129.50126141	144.53729779	492.18649507
 179	80.00000000	0.00000000	-100.00000000	139.36287224	144.53729779	492.18649507
 180	80.00000000	10.00000000	-100.00000000	149.71281767	144.53729779	492.18649507
 181	80.00000000	20.00000000	-100.00000000	160.56292266	144.53729779	492.18649507
 182	80.00000000	30.00000000	-100.00000000	171.92496657	144.53729779	492.18649507
 183	80.00000000	40.00000000	-100.00000000	183.81077439	144.53729779	492.18649507
 184	80.00000000	50.00000000	-100.00000000	196.23215586	144.53729779	492.18649507
 185	80.00000000	60.00000000	-100.00000000	209.20089036	144.53729779	492.18649507
 186	80.00000000	70.00000000	-100.00000000	222.72877246	144.53729779	492.18649507
 187	80.00000000	80.00000000	-100.00000000	236.82762712	144.53729779	492.18649507
 188	80.00000000	90.00000000	-100.00000000	251.50926411	144.53729779	492.18649507
 189	80.00000000	100.00000000	-100.00000000	266.78544760	144.53729779	492.18649507
 190	90.00000000	-100.00000000	-100.00000000	89.41786587	194.57354486	594.42770004
 191	90.00000000	-90.00000000	-100.00000000	97.14671955	194.57354486	594.42770004
 192	90.00000000	-80.00000000	-100.00000000	105.30858278	194.57354486	594.42770004
 193	90.00000000	-70.00000000	-100.00000000	113.91524255	194.57354486	594.42770004
 194	90.00000000	-60.00000000	-100.00000000	122.97851622	194.57354486	594.42770004
 195	90.00000000	-50.00000000	-100.00000000	132.51019835	194.57354486	594.42770004
 196	90.00000000	-40.00000000	-100.00000000	142.52208352	194.57354486	594.42770004
 197	90.00000000	-30.00000000	-100.00000000	153.02598149	194.57354486	594.42770004
 198	90.00000000	-20.00000000	-100.00000000	164.03370202	194.57354486	594.42770004
 199	90.00000000	-10.00000000	-100.00000000	175.55705488	194.57354486	594.42770004
 200	90.00000000	0.00000000	-100.00000000	187.60781944	194.57354486	594.42770004
 201	90.00000000	10.00000000	-100.00000000	200.19779027	194.57354486	594.42770004
 202	90.00000000	20.00000000	-100.00000000	213.33879232	194.57354486	594.42770004
 203	90.00000000	30.00000000	-100.00000000	227.04262018	194.57354486	594.42770004
 204	90.00000000	40.00000000	-100.00000000	241.32106841	194.57354486	594.42770004
 205	90.00000000	50.00000000	-100.00000000	256.18593156	194.57354486	594.42770004
 206	90.00000000	60.00000000	-100.00000000	271.64906502	194.57354486	594.42770004
 207	90.00000000	70.00000000	-100.00000000	287.72220254	194.57354486	594.42770004
 208	90.00000000	80.00000000	-100.00000000	304.41713870	194.57354486	594.42770004
 209	90.00000000	90.00000000	-100.00000000	321.74572885	194.57354486	594.42770004
 210	90.00000000	100.00000000	-100.00000000	339.71979797	194.57354486	594.42770004
 211	100.00000000	-100.00000000	-100.00000000	125.88595301	255.00000000	709.92958546
 212	100.00000000	-90.00000000	-100.00000000	135.56540161	255.00000000	709.92958546
 213	100.00000000	-80.00000000	-100.00000000	145.72873145	255.00000000	709.92958546
 214	100.00000000	-70.00000000	-100.00000000	156.38772190	255.00000000	709.92958546
 215	100.00000000	-60.00000000	-100.00000000	167.55421311	255.00000000	709.92958546
 216	100.00000000	-50.00000000	-100.00000000	179.23996925	255.00000000	709.92958546
 217	100.00000000	-40.00000000	-100.00000000	191.45680010	255.00000000	709.92958546
 218	100.00000000	-30.00000000	-100.00000000	204.21651542	255.00000000	709.92958546
 219	100.00000000	-20.00000000	-100.00000000	217.53092498	255.00000000	709.92958546
 220	100.00000000	-10.00000000	-100.00000000	231.41182333	255.00000000	709.92958546
 221	100.00000000	0.00000000	-100.00000000	245.87100506	255.00000000	709.92958546
 222	100.00000000	10.00000000	-100.00000000	260.92029512	255.00000000	709.92958546
 223	100.00000000	20.00000000	-100.00000000	276.57144248	255.00000000	709.92958546
 224	100.00000000	30.00000000	-100.00000000	292.83630252	255.00000000	709.92958546
 225	100.00000000	40.00000000	-100.00000000	309.72666979	255.00000000	709.92958546
 226	100.00000000	50.00000000	-100.00000000	327.25430846	255.00000000	709.92958546
 227	100.00000000	60.00000000	-100.00000000	345.43107390	255.00000000	709.92958546
 228	100.00000000	70.00000000	-100.00000000	364.26869988	255.00000000	709.92958546
 229	100.00000000	80.00000000	-100.00000000	383.77904177	255.00000000	709.92958546
 230	100.00000000	90.00000000	-100.00000000	403.97392452	255.00000000	709.92958546
 231	100.00000000	100.00000000	-100.00000000	424.86511230	255.00000000	709.92958546
 232	0.00000000	-100.00000000	-90.00000000	-6.31487925	0.00000000	42.74847373
 233	0.00000000	-90.00000000	-90.00000000	-5.68339113	0.00000000	42.74847373
 234	0.00000000	-80.00000000	-90.00000000	-5.05190349	0.00000000	42.74847373
 235	0.00000000	-70.00000000	-90.00000000	-4.42041538	0.00000000	42.74847373
 236	0.00000000	-60.00000000	-90.00000000	-3.78892750	0.00000000	42.74847373
 237	0.00000000	-50.00000000	-90.00000000	-3.15743939	0.00000000	42.74847373
 238	0.00000000	-40.00000000	-90.00000000	-2.52595175	0.00000000	42.74847373
 239	0.00000000	-30.00000000	-90.00000000	-1.89446375	0.00000000	42.74847373
 240	0.00000000	-20.00000000	-90.00000000	-1.26297587	0.00000000	42.74847373
 241	0.00000000	-10.00000000	-90.00000000	-0.63148794	0.00000000	42.74847373
 242	0.00000000	0.00000000	-90.00000000	0.00000048	0.00000000	42.74847373
 243	0.00000000	10.00000000	-90.00000000	0.63148841	0.00000000	42.74847373
 244	0.00000000	20.00000000	-90.00000000	1.26297635	0.00000000	42.74847373
 245	0.00000000	30.00000000	-90.00000000	1.89446423	0.00000000	42.74847373
 246	0.00000000	40.00000000	-90.00000000	2.54486404	0.00000000	42.74847373
 247	0.00000000	50.00000000	-90.00000000	3.31177357	0.00000000	42.74847373
 248	0.00000000	60.00000000	-90.00000000	4.21908366	0.00000000	42.74847373
 249	0.00000000	70.00000000	-90.00000000	5.27859648	0.00000000	42.74847373
 250	0.00000000	80.00000000	-90.00000000	6.50211372	0.00000000	42.74847373
 251	0.00000000	90.00000000	-90.00000000	7.90143709	0.00000000	42.74847373
 252	0.00000000	100.00000000	-90.00000000	9.48836921	0.00000000	42.74847373
 253	10.00000000	-100.00000000	-90.00000000	-3.59294850	2.87135107	64.44478512
 254	10.00000000	-90.00000000	-90.00000000	-2.96146063	2.87135107	64.44478512
 255	10.00000000	-80.00000000	-90.00000000	-2.32997251	2.87135107	64.44478512
 256	10.00000000	-70.00000000	-90.00000000	-1.69848475	2.87135107	64.44478512
 257	10.00000000	-60.00000000	-90.00000000	-1.06699664	2.87135107	64.44478512
 258	10.00000000	-50.00000000	-90.00000000	-0.43550870	2.87135107	64.44478512
 259	10.00000000	-40.00000000	-90.00000000	0.19597922	2.87135107	64.44478512
 260	10.00000000	-30.00000000	-90.00000000	0.82746711	2.87135107	64.44478512
 261	10.00000000	-20.00000000	-90.00000000	1.45895511	2.87135107	64.44478512
 262	10.00000000	-10.00000000	-90.00000000	2.09044310	2.87135107	64.44478512
 263	10.00000000	0.00000000	-90.00000000	2.76855709	2.87135107	64.44478512
 264	10.00000000	10.00000000	-90.00000000	3.57777616	2.87135107	64.44478512
 265	10.00000000	20.00000000	-90.00000000	4.53105832	2.87135107	64.44478512
 266	10.00000000	30.00000000	-90.00000000	5.64020645	2.87135107	64.44478512
 267	10.00000000	40.00000000	-90.00000000	6.91702154	2.87135107	64.44478512
 268	10.00000000	50.00000000	-90.00000000	8.37330479	2.87135107	64.44478512
 269	10.00000000	60.00000000	-90.00000000	10.02085933	2.87135107	64.44478512
 270	10.00000000	70.00000000	-90.00000000	11.87148638	2.87135107	64.44478512
 271	10.00000000	80.00000000	-90.00000000	13.93698715	2.87135107	64.44478512
 272	10.00000000	90.00000000	-90.00000000	16.22916475	2.87135107	64.44478512
 273	10.00000000	100.00000000	-90.00000000	18.75981946	2.87135107	64.44478512
 274	20.00000000	-100.00000000	-90.00000000	-0.87101776	7.62208368	92.46412441
 275	20.00000000	-90.00000000	-90.00000000	-0.23952974	7.62208368	92.46412441
 276	20.00000000	-80.00000000	-90.00000000	0.39195820	7.62208368	92.46412441
 277	20.00000000	-70.00000000	-90.00000000	1.02344599	7.62208368	92.46412441
 278	20.00000000	-60.00000000	-90.00000000	1.65493422	7.62208368	92.46412441
 279	20.00000000	-50.00000000	-90.00000000	2.28824695	7.62208368	92.46412441
 280	20.00000000	-40.00000000	-90.00000000	3.00498800	7.62208368	92.46412441
 281	20.00000000	-30.00000000	-90.00000000	3.85765346	7.62208368	92.46412441
 282	20.00000000	-20.00000000	-90.00000000	4.85804502	7.62208368	92.46412441
 283	20.00000000	-10.00000000	-90.00000000	6.01796460	7.62208368	92.46412441
 284	20.00000000	0.00000000	-90.00000000	7.34921462	7.62208368	92.46412441
 285	20.00000000	10.00000000	-90.00000000	8.86359533	7.62208368	92.46412441
 286	20.00000000	20.00000000	-90.00000000	10.57290891	7.62208368	92.46412441
 287	20.00000000	30.00000000	-90.00000000	12.48895800	7.62208368	92.46412441
 288	20.00000000	40.00000000	-90.00000000	14.62354381	7.62208368	92.46412441
 289	20.00000000	50.00000000	-90.00000000	16.98847041	7.62208368	92.46412441
 290	20.00000000	60.00000000	-90.00000000	19.59553521	7.62208368	92.46412441
 291	20.00000000	70.00000000	-90.00000000	22.45654229	7.62208368	92.46412441
 292	20.00000000	80.00000000	-90.00000000	25.58329381	7.62208368	92.46412441
 293	20.00000000	90.00000000	-90.00000000	28.98759004	7.62208368	92.46412441
 294	20.00000000	100.00000000	-90.00000000	32.68123694	7.62208368	92.46412441
 295	30.00000000	-100.00000000	-90.00000000	1.85091322	15.90156058	127.61507303
 296	30.00000000	-90.00000000	-90.00000000	2.49684935	15.90156058	127.61507303
 297	30.00000000	-80.00000000	-90.00000000	3.25451088	15.90156058	127.61507303
 298	30.00000000	-70.00000000	-90.00000000	4.15175934	15.90156058	127.61507303
 299	30.00000000	-60.00000000	-90.00000000	5.20039715	15.90156058	127.61507303
