bench/lcms_compat/reference/lab_to_RISO_MZ770_RedGreen.icc_Perceptual.it8
CGATS.17
ORIGINATOR	"icctrans"
#
# Data follows
#
NUMBER_OF_SETS	4851.00000000
NUMBER_OF_FIELDS	6.00000000
BEGIN_DATA_FORMAT
 SAMPLE_ID	IN_LAB_L	IN_LAB_A	IN_LAB_B	OUT_CH1	OUT_CH2
END_DATA_FORMAT
BEGIN_DATA
 1	0.00000000	-100.00000000	-100.00000000	0.66814679	0.97459370
 2	0.00000000	-90.00000000	-100.00000000	0.68813610	0.96507210
 3	0.00000000	-80.00000000	-100.00000000	0.70975816	0.95478749
 4	0.00000000	-70.00000000	-100.00000000	0.73231095	0.94396889
 5	0.00000000	-60.00000000	-100.00000000	0.75149155	0.93400472
 6	0.00000000	-50.00000000	-100.00000000	0.76565194	0.92535287
 7	0.00000000	-40.00000000	-100.00000000	0.76905471	0.92393380
 8	0.00000000	-30.00000000	-100.00000000	0.76870376	0.92491037
 9	0.00000000	-20.00000000	-100.00000000	0.76412606	0.92822158
 10	0.00000000	-10.00000000	-100.00000000	0.75725949	0.93279928
 11	0.00000000	0.00000000	-100.00000000	0.74886703	0.93818569
 12	0.00000000	10.00000000	-100.00000000	0.75631344	0.92436105
 13	0.00000000	20.00000000	-100.00000000	0.76107424	0.90283054
 14	0.00000000	30.00000000	-100.00000000	0.76179141	0.86971849
 15	0.00000000	40.00000000	-100.00000000	0.73838407	0.84068054
 16	0.00000000	50.00000000	-100.00000000	0.71004808	0.81268024
 17	0.00000000	60.00000000	-100.00000000	0.68607616	0.78461891
 18	0.00000000	70.00000000	-100.00000000	0.66335547	0.75965512
 19	0.00000000	80.00000000	-100.00000000	0.64144349	0.73675138
 20	0.00000000	90.00000000	-100.00000000	0.60344851	0.69990081
 21	0.00000000	100.00000000	-100.00000000	0.59952694	0.68284124
 22	10.00000000	-100.00000000	-100.00000000	0.53362328	0.95425344
 23	10.00000000	-90.00000000	-100.00000000	0.53788054	0.94500649
 24	10.00000000	-80.00000000	-100.00000000	0.54630351	0.93304342
 25	10.00000000	-70.00000000	-100.00000000	0.55596244	0.91630429
 26	10.00000000	-60.00000000	-100.00000000	0.56247807	0.89884794
 27	10.00000000	-50.00000000	-100.00000000	0.56426334	0.88033873
 28	10.00000000	-40.00000000	-100.00000000	0.55635917	0.86427099
 29	10.00000000	-30.00000000	-100.00000000	0.54685283	0.85087359
 30	10.00000000	-20.00000000	-100.00000000	0.54059660	0.84560919
 31	10.00000000	-10.00000000	-100.00000000	0.53476769	0.83859009
 32	10.00000000	0.00000000	-100.00000000	0.52924389	0.83041126
 33	10.00000000	10.00000000	-100.00000000	0.52135497	0.80973524
 34	10.00000000	20.00000000	-100.00000000	0.51070422	0.78628212
 35	10.00000000	30.00000000	-100.00000000	0.49593347	0.75864804
 36	10.00000000	40.00000000	-100.00000000	0.48146793	0.71723509
 37	10.00000000	50.00000000	-100.00000000	0.46575111	0.67125964
 38	10.00000000	60.00000000	-100.00000000	0.44476998	0.62064546
 39	10.00000000	70.00000000	-100.00000000	0.42937362	0.57033646
 40	10.00000000	80.00000000	-100.00000000	0.41773099	0.52019531
 41	10.00000000	90.00000000	-100.00000000	0.40218204	0.47794309
 42	10.00000000	100.00000000	-100.00000000	0.39707026	0.45142290
 43	20.00000000	-100.00000000	-100.00000000	0.39934385	0.79316396
 44	20.00000000	-90.00000000	-100.00000000	0.39438468	0.78651100
 45	20.00000000	-80.00000000	-100.00000000	0.38921186	0.77940035
 46	20.00000000	-70.00000000	-100.00000000	0.38260472	0.77064162
 47	20.00000000	-60.00000000	-100.00000000	0.37596703	0.76188296
 48	20.00000000	-50.00000000	-100.00000000	0.36926833	0.75309378
 49	20.00000000	-40.00000000	-100.00000000	0.36064699	0.74187839
 50	20.00000000	-30.00000000	-100.00000000	0.35199511	0.72970170
 51	20.00000000	-20.00000000	-100.00000000	0.34503701	0.71612114
 52	20.00000000	-10.00000000	-100.00000000	0.33551538	0.69733733
 53	20.00000000	0.00000000	-100.00000000	0.32428473	0.67508966
 54	20.00000000	10.00000000	-100.00000000	0.32549021	0.65198749
 55	20.00000000	20.00000000	-100.00000000	0.32181278	0.61884487
 56	20.00000000	30.00000000	-100.00000000	0.31079575	0.57059586
 57	20.00000000	40.00000000	-100.00000000	0.29959562	0.51886779
 58	20.00000000	50.00000000	-100.00000000	0.29137102	0.47051194
 59	20.00000000	60.00000000	-100.00000000	0.29527733	0.43904784
 60	20.00000000	70.00000000	-100.00000000	0.31017014	0.41136798
 61	20.00000000	80.00000000	-100.00000000	0.33240253	0.38620585
 62	20.00000000	90.00000000	-100.00000000	0.32278934	0.37863737
 63	20.00000000	100.00000000	-100.00000000	0.32002747	0.37100786
 64	30.00000000	-100.00000000	-100.00000000	0.22954147	0.63334095
 65	30.00000000	-90.00000000	-100.00000000	0.23059434	0.62030977
 66	30.00000000	-80.00000000	-100.00000000	0.23192187	0.60582894
 67	30.00000000	-70.00000000	-100.00000000	0.23253223	0.58664834
 68	30.00000000	-60.00000000	-100.00000000	0.23274586	0.56693369
 69	30.00000000	-50.00000000	-100.00000000	0.23234913	0.54641032
 70	30.00000000	-40.00000000	-100.00000000	0.23233387	0.52043945
 71	30.00000000	-30.00000000	-100.00000000	0.23247120	0.49135578
 72	30.00000000	-20.00000000	-100.00000000	0.23297475	0.45528343
 73	30.00000000	-10.00000000	-100.00000000	0.23460746	0.43237963
 74	30.00000000	0.00000000	-100.00000000	0.23700313	0.41821927
 75	30.00000000	10.00000000	-100.00000000	0.23614863	0.40624094
 76	30.00000000	20.00000000	-100.00000000	0.23564507	0.39388114
 77	30.00000000	30.00000000	-100.00000000	0.23564507	0.38091096
 78	30.00000000	40.00000000	-100.00000000	0.23837644	0.37541771
 79	30.00000000	50.00000000	-100.00000000	0.24299993	0.37111467
 80	30.00000000	60.00000000	-100.00000000	0.25258258	0.36409551
 81	30.00000000	70.00000000	-100.00000000	0.26173800	0.35709164
 82	30.00000000	80.00000000	-100.00000000	0.27057299	0.35008773
 83	30.00000000	90.00000000	-100.00000000	0.28363469	0.34335852
 84	30.00000000	100.00000000	-100.00000000	0.29773402	0.33133441
 85	40.00000000	-100.00000000	-100.00000000	0.17801175	0.45101091
 86	40.00000000	-90.00000000	-100.00000000	0.17969024	0.43918517
 87	40.00000000	-80.00000000	-100.00000000	0.18101777	0.42740521
 88	40.00000000	-70.00000000	-100.00000000	0.18214695	0.41712064
 89	40.00000000	-60.00000000	-100.00000000	0.18356603	0.40643930
 90	40.00000000	-50.00000000	-100.00000000	0.18539712	0.39513236
 91	40.00000000	-40.00000000	-100.00000000	0.18738079	0.38385597
 92	40.00000000	-30.00000000	-100.00000000	0.19018845	0.37288472
 93	40.00000000	-20.00000000	-100.00000000	0.19612421	0.36301214
 94	40.00000000	-10.00000000	-100.00000000	0.20247196	0.35216296
 95	40.00000000	0.00000000	-100.00000000	0.20910963	0.34064239
 96	40.00000000	10.00000000	-100.00000000	0.21094072	0.34106967
 97	40.00000000	20.00000000	-100.00000000	0.21304646	0.34164950
 98	40.00000000	30.00000000	-100.00000000	0.21556421	0.34245822
 99	40.00000000	40.00000000	-100.00000000	0.21899748	0.34015411
 100	40.00000000	50.00000000	-100.00000000	0.22386511	0.33574426
 101	40.00000000	60.00000000	-100.00000000	0.23361562	0.32607004
 102	40.00000000	70.00000000	-100.00000000	0.24246585	0.31360343
 103	40.00000000	80.00000000	-100.00000000	0.25073624	0.29930571
 104	40.00000000	90.00000000	-100.00000000	0.27481499	0.27312124
 105	40.00000000	100.00000000	-100.00000000	0.29384297	0.24905775
 106	50.00000000	-100.00000000	-100.00000000	0.07415885	0.37764552
 107	50.00000000	-90.00000000	-100.00000000	0.07775997	0.37395284
 108	50.00000000	-80.00000000	-100.00000000	0.08136111	0.37015337
 109	50.00000000	-70.00000000	-100.00000000	0.09922942	0.36479744
 110	50.00000000	-60.00000000	-100.00000000	0.11920348	0.35848022
 111	50.00000000	-50.00000000	-100.00000000	0.14235142	0.35074389
 112	50.00000000	-40.00000000	-100.00000000	0.16047913	0.34026092
 113	50.00000000	-30.00000000	-100.00000000	0.17625695	0.32851148
 114	50.00000000	-20.00000000	-100.00000000	0.18770123	0.31429008
 115	50.00000000	-10.00000000	-100.00000000	0.19386588	0.30786604
 116	50.00000000	0.00000000	-100.00000000	0.19653620	0.30663005
 117	50.00000000	10.00000000	-100.00000000	0.20059510	0.31131455
 118	50.00000000	20.00000000	-100.00000000	0.20402838	0.31299305
 119	50.00000000	30.00000000	-100.00000000	0.20651560	0.31020066
 120	50.00000000	40.00000000	-100.00000000	0.21029983	0.30278477
 121	50.00000000	50.00000000	-100.00000000	0.21481651	0.29308003
 122	50.00000000	60.00000000	-100.00000000	0.22107270	0.27885863
 123	50.00000000	70.00000000	-100.00000000	0.22964828	0.26207370
 124	50.00000000	80.00000000	-100.00000000	0.23974976	0.24359502
 125	50.00000000	90.00000000	-100.00000000	0.25580224	0.22504005
 126	50.00000000	100.00000000	-100.00000000	0.27359426	0.20730907
 127	60.00000000	-100.00000000	-100.00000000	0.04663157	0.35135424
 128	60.00000000	-90.00000000	-100.00000000	0.06161593	0.34569314
 129	60.00000000	-80.00000000	-100.00000000	0.07972839	0.33954376
 130	60.00000000	-70.00000000	-100.00000000	0.10283055	0.33102921
 131	60.00000000	-60.00000000	-100.00000000	0.12512398	0.32135502
 132	60.00000000	-50.00000000	-100.00000000	0.14613566	0.30997178
 133	60.00000000	-40.00000000	-100.00000000	0.16113527	0.29237813
 134	60.00000000	-30.00000000	-100.00000000	0.17352560	0.27507439
 135	60.00000000	-20.00000000	-100.00000000	0.18153659	0.26518655
 136	60.00000000	-10.00000000	-100.00000000	0.18646525	0.26338598
 137	60.00000000	0.00000000	-100.00000000	0.18934920	0.26697186
 138	60.00000000	10.00000000	-100.00000000	0.19105822	0.26776531
 139	60.00000000	20.00000000	-100.00000000	0.19278248	0.26648355
 140	60.00000000	30.00000000	-100.00000000	0.19453727	0.26207370
 141	60.00000000	40.00000000	-100.00000000	0.19665827	0.25615320
 142	60.00000000	50.00000000	-100.00000000	0.19917601	0.24933241
 143	60.00000000	60.00000000	-100.00000000	0.20294499	0.24045166
 144	60.00000000	70.00000000	-100.00000000	0.20926222	0.22941940
 145	60.00000000	80.00000000	-100.00000000	0.21731900	0.21698329
 146	60.00000000	90.00000000	-100.00000000	0.22769512	0.20509651
 147	60.00000000	100.00000000	-100.00000000	0.23891051	0.19256885
 148	70.00000000	-100.00000000	-100.00000000	0.07365530	0.32031739
 149	70.00000000	-90.00000000	-100.00000000	0.08879225	0.31128404
 150	70.00000000	-80.00000000	-100.00000000	0.10553139	0.30102998
 151	70.00000000	-70.00000000	-100.00000000	0.12506294	0.28807506
 152	70.00000000	-60.00000000	-100.00000000	0.14168002	0.27496758
 153	70.00000000	-50.00000000	-100.00000000	0.15396354	0.26163119
 154	70.00000000	-40.00000000	-100.00000000	0.16331731	0.24835584
 155	70.00000000	-30.00000000	-100.00000000	0.17077897	0.23752193
 156	70.00000000	-20.00000000	-100.00000000	0.17367819	0.23631647
 157	70.00000000	-10.00000000	-100.00000000	0.17608911	0.23636225
 158	70.00000000	0.00000000	-100.00000000	0.17817959	0.23724727
 159	70.00000000	10.00000000	-100.00000000	0.17915617	0.23590448
 160	70.00000000	20.00000000	-100.00000000	0.18020906	0.23450065
 161	70.00000000	30.00000000	-100.00000000	0.18133822	0.23299001
 162	70.00000000	40.00000000	-100.00000000	0.18303196	0.23039597
 163	70.00000000	50.00000000	-100.00000000	0.18506142	0.22719158
 164	70.00000000	60.00000000	-100.00000000	0.18799116	0.22261387
 165	70.00000000	70.00000000	-100.00000000	0.19262989	0.21571679
 166	70.00000000	80.00000000	-100.00000000	0.19842832	0.20730907
 167	70.00000000	90.00000000	-100.00000000	0.20527962	0.19810788
 168	70.00000000	100.00000000	-100.00000000	0.21229877	0.18870832
 169	80.00000000	-100.00000000	-100.00000000	0.07580682	0.29100481
 170	80.00000000	-90.00000000	-100.00000000	0.08946364	0.27977416
 171	80.00000000	-80.00000000	-100.00000000	0.10402075	0.26799420
 172	80.00000000	-70.00000000	-100.00000000	0.11808957	0.25777066
 173	80.00000000	-60.00000000	-100.00000000	0.13176166	0.24809644
 174	80.00000000	-50.00000000	-100.00000000	0.14486915	0.23924620
 175	80.00000000	-40.00000000	-100.00000000	0.15532158	0.23208973
 176	80.00000000	-30.00000000	-100.00000000	0.16324101	0.22661173
 177	80.00000000	-20.00000000	-100.00000000	0.16375983	0.22615397
 178	80.00000000	-10.00000000	-100.00000000	0.16427863	0.22572671
 179	80.00000000	0.00000000	-100.00000000	0.16479744	0.22528420
 180	80.00000000	10.00000000	-100.00000000	0.16685741	0.22432289
 181	80.00000000	20.00000000	-100.00000000	0.16890211	0.22334631
 182	80.00000000	30.00000000	-100.00000000	0.17096208	0.22238499
 183	80.00000000	40.00000000	-100.00000000	0.17357138	0.21934845
 184	80.00000000	50.00000000	-100.00000000	0.17636378	0.21560998
 185	80.00000000	60.00000000	-100.00000000	0.17933929	0.21110857
 186	80.00000000	70.00000000	-100.00000000	0.18333715	0.20566110
 187	80.00000000	80.00000000	-100.00000000	0.18800642	0.19958800
 188	80.00000000	90.00000000	-100.00000000	0.19412528	0.19209583
 189	80.00000000	100.00000000	-100.00000000	0.20013733	0.18448158
 190	90.00000000	-100.00000000	-100.00000000	0.07644770	0.26694134
 191	90.00000000	-90.00000000	-100.00000000	0.08714427	0.25774014
 192	90.00000000	-80.00000000	-100.00000000	0.09808499	0.24875258
 193	90.00000000	-70.00000000	-100.00000000	0.11056687	0.24127565
 194	90.00000000	-60.00000000	-100.00000000	0.12310979	0.23385976
 195	90.00000000	-50.00000000	-100.00000000	0.13568322	0.22650492
 196	90.00000000	-40.00000000	-100.00000000	0.14271763	0.22233921
 197	90.00000000	-30.00000000	-100.00000000	0.14740215	0.21951629
 198	90.00000000	-20.00000000	-100.00000000	0.14822614	0.21895170
 199	90.00000000	-10.00000000	-100.00000000	0.14906539	0.21837187
 200	90.00000000	0.00000000	-100.00000000	0.14988936	0.21780728
 201	90.00000000	10.00000000	-100.00000000	0.15378042	0.21594568
 202	90.00000000	20.00000000	-100.00000000	0.15767147	0.21406882
 203	90.00000000	30.00000000	-100.00000000	0.16154726	0.21220721
 204	90.00000000	40.00000000	-100.00000000	0.16568246	0.20935377
 205	90.00000000	50.00000000	-100.00000000	0.16997024	0.20590524
 206	90.00000000	60.00000000	-100.00000000	0.17454796	0.20105287
 207	90.00000000	70.00000000	-100.00000000	0.17915617	0.19613947
 208	90.00000000	80.00000000	-100.00000000	0.18376440	0.19119555
 209	90.00000000	90.00000000	-100.00000000	0.18841840	0.18512246
 210	90.00000000	100.00000000	-100.00000000	0.19305715	0.17888151
 211	100.00000000	-100.00000000	-100.00000000	0.06549172	0.24586862
 212	100.00000000	-90.00000000	-100.00000000	0.07466239	0.23869687
 213	100.00000000	-80.00000000	-100.00000000	0.08540475	0.23221180
 214	100.00000000	-70.00000000	-100.00000000	0.09752041	0.22629130
 215	100.00000000	-60.00000000	-100.00000000	0.10948348	0.22046235
 216	100.00000000	-50.00000000	-100.00000000	0.12120241	0.21475548
 217	100.00000000	-40.00000000	-100.00000000	0.12542915	0.21266499
 218	100.00000000	-30.00000000	-100.00000000	0.12755017	0.21158160
 219	100.00000000	-20.00000000	-100.00000000	0.12866408	0.21098650
 220	100.00000000	-10.00000000	-100.00000000	0.12974747	0.21037613
 221	100.00000000	0.00000000	-100.00000000	0.13083085	0.20976578
 222	100.00000000	10.00000000	-100.00000000	0.13694972	0.20718700
 223	100.00000000	20.00000000	-100.00000000	0.14306860	0.20460823
 224	100.00000000	30.00000000	-100.00000000	0.14918746	0.20202945
 225	100.00000000	40.00000000	-100.00000000	0.15526055	0.19926757
 226	100.00000000	50.00000000	-100.00000000	0.16119631	0.19607843
 227	100.00000000	60.00000000	-100.00000000	0.16675059	0.19137865
 228	100.00000000	70.00000000	-100.00000000	0.17232013	0.18663310
 229	100.00000000	80.00000000	-100.00000000	0.17785916	0.18184176
 230	100.00000000	90.00000000	-100.00000000	0.18294041	0.17676051
 231	100.00000000	100.00000000	-100.00000000	0.18742657	0.17129777
 232	0.00000000	-100.00000000	-90.00000000	0.67225146	0.98199433
 233	0.00000000	-90.00000000	-90.00000000	0.69202715	0.97422749
 234	0.00000000	-80.00000000	-90.00000000	0.71454948	0.96522468
 235	0.00000000	-70.00000000	-90.00000000	0.74119174	0.95477223
 236	0.00000000	-60.00000000	-90.00000000	0.76668954	0.94476235
 237	0.00000000	-50.00000000	-90.00000000	0.79046309	0.93545431
 238	0.00000000	-40.00000000	-90.00000000	0.80036622	0.93273824
 239	0.00000000	-30.00000000	-90.00000000	0.80482185	0.93266195
 240	0.00000000	-20.00000000	-90.00000000	0.80126649	0.93655300
 241	0.00000000	-10.00000000	-90.00000000	0.79516292	0.94209200
 242	0.00000000	0.00000000	-90.00000000	0.78739607	0.94874495
 243	0.00000000	10.00000000	-90.00000000	0.79430836	0.93743801
 244	0.00000000	20.00000000	-90.00000000	0.79801631	0.91636533
 245	0.00000000	30.00000000	-90.00000000	0.79688716	0.88065916
 246	0.00000000	40.00000000	-90.00000000	0.77483785	0.85145342
 247	0.00000000	50.00000000	-90.00000000	0.74938583	0.82481116
 248	0.00000000	60.00000000	-90.00000000	0.73118180	0.80190736
 249	0.00000000	70.00000000	-90.00000000	0.70141149	0.77256429
 250	0.00000000	80.00000000	-90.00000000	0.66396582	0.73893338
 251	0.00000000	90.00000000	-90.00000000	0.66057831	0.72587168
 252	0.00000000	100.00000000	-90.00000000	0.67460138	0.72509348
 253	10.00000000	-100.00000000	-90.00000000	0.54316014	0.96122682
 254	10.00000000	-90.00000000	-90.00000000	0.54351109	0.95455861
 255	10.00000000	-80.00000000	-90.00000000	0.54738688	0.94576943
 256	10.00000000	-70.00000000	-90.00000000	0.55877012	0.92993057
 257	10.00000000	-60.00000000	-90.00000000	0.56829172	0.91270316
 258	10.00000000	-50.00000000	-90.00000000	0.57503623	0.89341575
 259	10.00000000	-40.00000000	-90.00000000	0.57080948	0.87440300
 260	10.00000000	-30.00000000	-90.00000000	0.56343937	0.85803008
 261	10.00000000	-20.00000000	-90.00000000	0.55448234	0.85195696
 262	10.00000000	-10.00000000	-90.00000000	0.54689860	0.84495306
 263	10.00000000	0.00000000	-90.00000000	0.54024565	0.83735406
 264	10.00000000	10.00000000	-90.00000000	0.53051043	0.81367207
 265	10.00000000	20.00000000	-90.00000000	0.52002746	0.78620583
 266	10.00000000	30.00000000	-90.00000000	0.50846112	0.75309378
 267	10.00000000	40.00000000	-90.00000000	0.49001297	0.70432591
 268	10.00000000	50.00000000	-90.00000000	0.47051194	0.65217060
 269	10.00000000	60.00000000	-90.00000000	0.45371175	0.60202944
 270	10.00000000	70.00000000	-90.00000000	0.44776073	0.55971617
 271	10.00000000	80.00000000	-90.00000000	0.44905776	0.52262151
 272	10.00000000	90.00000000	-90.00000000	0.44585335	0.49393454
 273	10.00000000	100.00000000	-90.00000000	0.45981535	0.48693064
 274	20.00000000	-100.00000000	-90.00000000	0.40416571	0.79954225
 275	20.00000000	-90.00000000	-90.00000000	0.39935911	0.79310292
 276	20.00000000	-80.00000000	-90.00000000	0.39417106	0.78611428
 277	20.00000000	-70.00000000	-90.00000000	0.38762492	0.77732509
 278	20.00000000	-60.00000000	-90.00000000	0.38069734	0.76809341
 279	20.00000000	-50.00000000	-90.00000000	0.37318990	0.75819027
 280	20.00000000	-40.00000000	-90.00000000	0.36449227	0.74682230
 281	20.00000000	-30.00000000	-90.00000000	0.35558099	0.73444724
 282	20.00000000	-20.00000000	-90.00000000	0.34703594	0.71950865
 283	20.00000000	-10.00000000	-90.00000000	0.33635461	0.69910735
 284	20.00000000	0.00000000	-90.00000000	0.32426947	0.67507440
 285	20.00000000	10.00000000	-90.00000000	0.32458991	0.64888990
 286	20.00000000	20.00000000	-90.00000000	0.32170597	0.61335164
 287	20.00000000	30.00000000	-90.00000000	0.31398490	0.56377506
 288	20.00000000	40.00000000	-90.00000000	0.31514457	0.51026171
 289	20.00000000	50.00000000	-90.00000000	0.31995118	0.46079195
 290	20.00000000	60.00000000	-90.00000000	0.33052567	0.43132678
 291	20.00000000	70.00000000	-90.00000000	0.34528115	0.40666819
 292	20.00000000	80.00000000	-90.00000000	0.36282903	0.38521400
 293	20.00000000	90.00000000	-90.00000000	0.35077441	0.37836272
 294	20.00000000	100.00000000	-90.00000000	0.34749371	0.37254903
 295	30.00000000	-100.00000000	-90.00000000	0.22888532	0.64531928
 296	30.00000000	-90.00000000	-90.00000000	0.22961776	0.63299000
 297	30.00000000	-80.00000000	-90.00000000	0.23070115	0.61953157
 298	30.00000000	-70.00000000	-90.00000000	0.23196766	0.60102236
 299	30.00000000	-60.00000000	-90.00000000	0.23260853	0.58069736
 300	30.00000000	-50.00000000	-90.00000000	0.23227283	0.55764097
 301	30.00000000	-40.00000000	-90.00000000	0.23236439	0.53183794
 302	30.00000000	-30.00000000	-90.00000000	0.23253223	0.50244910
 303	30.00000000	-20.00000000	-90.00000000	0.23268482	0.46144807
 304	30.00000000	-10.00000000	-90.00000000	0.23469901	0.43581292
 305	30.00000000	0.00000000	-90.00000000	0.23796445	0.42040130
 306	30.00000000	10.00000000	-90.00000000	0.23968871	0.41034561
 307	30.00000000	20.00000000	-90.00000000	0.24240482	0.40016785
 308	30.00000000	30.00000000	-90.00000000	0.24655527	0.38979173
 309	30.00000000	40.00000000	-90.00000000	0.25502405	0.38117036
 310	30.00000000	50.00000000	-90.00000000	0.26456091	0.37274739
 311	30.00000000	60.00000000	-90.00000000	0.27403677	0.36331731
 312	30.00000000	70.00000000	-90.00000000	0.28717479	0.35494012
 313	30.00000000	80.00000000	-90.00000000	0.30272374	0.34724957
 314	30.00000000	90.00000000	-90.00000000	0.31427482	0.33592737
 315	30.00000000	100.00000000	-90.00000000	0.32745862	0.31865415
 316	40.00000000	-100.00000000	-90.00000000	0.17605859	0.46449989
 317	40.00000000	-90.00000000	-90.00000000	0.17787442	0.45145342
 318	40.00000000	-80.00000000	-90.00000000	0.17984283	0.43797970
 319	40.00000000	-70.00000000	-90.00000000	0.18113984	0.42592508
 320	40.00000000	-60.00000000	-90.00000000	0.18265049	0.41380942
 321	40.00000000	-50.00000000	-90.00000000	0.18449683	0.40161747
 322	40.00000000	-40.00000000	-90.00000000	0.18710613	0.38867781
 323	40.00000000	-30.00000000	-90.00000000	0.19099718	0.37550926
 324	40.00000000	-20.00000000	-90.00000000	0.19917601	0.36208132
 325	40.00000000	-10.00000000	-90.00000000	0.20614938	0.35202563
 326	40.00000000	0.00000000	-90.00000000	0.21229877	0.34422827
 327	40.00000000	10.00000000	-90.00000000	0.21448082	0.34505227
 328	40.00000000	20.00000000	-90.00000000	0.21741055	0.34575418
 329	40.00000000	30.00000000	-90.00000000	0.22142367	0.34627298
 330	40.00000000	40.00000000	-90.00000000	0.22792400	0.34155795
 331	40.00000000	50.00000000	-90.00000000	0.23555352	0.33461508
 332	40.00000000	60.00000000	-90.00000000	0.24530403	0.32397956
 333	40.00000000	70.00000000	-90.00000000	0.25990692	0.30690470
 334	40.00000000	80.00000000	-90.00000000	0.27779049	0.28555733
 335	40.00000000	90.00000000	-90.00000000	0.30156404	0.25523767
 336	40.00000000	100.00000000	-90.00000000	0.31952393	0.23022813
 337	50.00000000	-100.00000000	-90.00000000	0.06964218	0.38171968
 338	50.00000000	-90.00000000	-90.00000000	0.07376211	0.37775233
 339	50.00000000	-80.00000000	-90.00000000	0.07675288	0.37375447
 340	50.00000000	-70.00000000	-90.00000000	0.08799878	0.36878005
 341	50.00000000	-60.00000000	-90.00000000	0.10589761	0.36263067
 342	50.00000000	-50.00000000	-90.00000000	0.13377585	0.35471123
 343	50.00000000	-40.00000000	-90.00000000	0.15494011	0.34456396
 344	50.00000000	-30.00000000	-90.00000000	0.17328145	0.33270770
 345	50.00000000	-20.00000000	-90.00000000	0.18706036	0.31636530
 346	50.00000000	-10.00000000	-90.00000000	0.19423209	0.30942243
 347	50.00000000	0.00000000	-90.00000000	0.19700924	0.30876631
 348	50.00000000	10.00000000	-90.00000000	0.20166324	0.31377128
 349	50.00000000	20.00000000	-90.00000000	0.20552376	0.31490043
 350	50.00000000	30.00000000	-90.00000000	0.20819409	0.31021592
 351	50.00000000	40.00000000	-90.00000000	0.21303120	0.29996186
 352	50.00000000	50.00000000	-90.00000000	0.21887541	0.28676280
 353	50.00000000	60.00000000	-90.00000000	0.22662699	0.26753643
 354	50.00000000	70.00000000	-90.00000000	0.23807126	0.24809644
 355	50.00000000	80.00000000	-90.00000000	0.25198749	0.22851911
 356	50.00000000	90.00000000	-90.00000000	0.27418935	0.20823987
 357	50.00000000	100.00000000	-90.00000000	0.29654384	0.18948653
 358	60.00000000	-100.00000000	-90.00000000	0.03541619	0.35681698
 359	60.00000000	-90.00000000	-90.00000000	0.04759289	0.35133898
 360	60.00000000	-80.00000000	-90.00000000	0.06248569	0.34537271
 361	60.00000000	-70.00000000	-90.00000000	0.08583200	0.33737698
 362	60.00000000	-60.00000000	-90.00000000	0.10978866	0.32809949
 363	60.00000000	-50.00000000	-90.00000000	0.13467613	0.31688410
 364	60.00000000	-40.00000000	-90.00000000	0.15353628	0.29968718
 365	60.00000000	-30.00000000	-90.00000000	0.16951248	0.28172731
 366	60.00000000	-20.00000000	-90.00000000	0.18001068	0.26663616
 367	60.00000000	-10.00000000	-90.00000000	0.18614481	0.26298925
