bench/lcms_compat/reference/lab_to_USSheetfedCoated.icc_Relative_BPC.it8
CGATS.17
ORIGINATOR	"icctrans"
#
# Data follows
#
NUMBER_OF_SETS	4851.00000000
NUMBER_OF_FIELDS	8.00000000
BEGIN_DATA_FORMAT
 SAMPLE_ID	IN_LAB_L	IN_LAB_A	IN_LAB_B	OUT_CMYK_C	OUT_CMYK_M	OUT_CMYK_Y	OUT_CMYK_K
END_DATA_FORMAT
BEGIN_DATA
 1	0.00000000	-100.00000000	-100.00000000	100.00000000	80.17700315	30.41886091	15.57793617
 2	0.00000000	-90.00000000	-100.00000000	100.00000000	80.17700315	30.41886091	15.57793617
 3	0.00000000	-80.00000000	-100.00000000	100.00000000	80.17700315	30.41886091	15.57793617
 4	0.00000000	-70.00000000	-100.00000000	100.00000000	80.17700315	30.41886091	15.57793617
 5	0.00000000	-60.00000000	-100.00000000	100.00000000	80.17700315	30.41886091	15.57793617
 6	0.00000000	-50.00000000	-100.00000000	100.00000000	80.18310666	30.41886091	15.57793617
 7	0.00000000	-40.00000000	-100.00000000	100.00000000	80.20599484	30.41886091	15.57793617
 8	0.00000000	-30.00000000	-100.00000000	100.00000000	80.73396087	30.43564558	15.57793617
 9	0.00000000	-20.00000000	-100.00000000	100.00000000	81.39314651	30.81101775	15.19035697
 10	0.00000000	-10.00000000	-100.00000000	100.00000000	81.84329271	30.85069060	15.18577933
 11	0.00000000	0.00000000	-100.00000000	100.00000000	82.79240131	31.20317459	15.18577933
 12	0.00000000	10.00000000	-100.00000000	100.00000000	83.37071538	31.77843988	14.81345892
 13	0.00000000	20.00000000	-100.00000000	100.00000000	84.03601050	32.25757182	14.79362100
 14	0.00000000	30.00000000	-100.00000000	100.00000000	84.21912193	32.38117099	14.77378458
 15	0.00000000	40.00000000	-100.00000000	100.00000000	85.42000651	32.82825947	14.41672444
 16	0.00000000	50.00000000	-100.00000000	100.00000000	85.88235378	33.19142461	14.33279961
 17	0.00000000	60.00000000	-100.00000000	100.00000000	86.98253036	33.75753462	13.97573799
 18	0.00000000	70.00000000	-100.00000000	100.00000000	87.67986298	34.26260650	13.61867636
 19	0.00000000	80.00000000	-100.00000000	100.00000000	89.42702413	35.38109362	12.56733090
 20	0.00000000	90.00000000	-100.00000000	100.00000000	92.13244915	35.60387492	9.43923071
 21	0.00000000	100.00000000	-100.00000000	100.00000000	96.12878561	32.14770854	5.90218976
 22	10.00000000	-100.00000000	-100.00000000	100.00000000	65.01258612	18.39932799	8.53894874
 23	10.00000000	-90.00000000	-100.00000000	100.00000000	65.01258612	18.39932799	8.53894874
 24	10.00000000	-80.00000000	-100.00000000	100.00000000	65.17738700	18.39932799	8.53894874
 25	10.00000000	-70.00000000	-100.00000000	100.00000000	65.52071571	18.35049987	8.48401636
 26	10.00000000	-60.00000000	-100.00000000	100.00000000	66.05630517	18.33981872	8.41992795
 27	10.00000000	-50.00000000	-100.00000000	100.00000000	66.84824824	18.39932799	8.41992795
 28	10.00000000	-40.00000000	-100.00000000	100.00000000	67.39452481	18.23605746	8.31006318
 29	10.00000000	-30.00000000	-100.00000000	100.00000000	67.81414747	18.23605746	8.31006318
 30	10.00000000	-20.00000000	-100.00000000	100.00000000	68.69611740	18.23605746	8.14679191
 31	10.00000000	-10.00000000	-100.00000000	100.00000000	69.07454133	18.23605746	8.09948891
 32	10.00000000	0.00000000	-100.00000000	100.00000000	69.87258792	18.25589389	8.02777112
 33	10.00000000	10.00000000	-100.00000000	100.00000000	70.59891820	18.34439635	8.02777112
 34	10.00000000	20.00000000	-100.00000000	100.00000000	71.31456733	18.34439635	7.86907747
 35	10.00000000	30.00000000	-100.00000000	100.00000000	72.84351587	18.34439635	7.34416693
 36	10.00000000	40.00000000	-100.00000000	100.00000000	74.95079041	18.11398417	6.68955520
 37	10.00000000	50.00000000	-100.00000000	100.00000000	77.66689658	17.65316278	5.36659807
 38	10.00000000	60.00000000	-100.00000000	100.00000000	81.05745316	16.08148366	3.61486226
 39	10.00000000	70.00000000	-100.00000000	100.00000000	84.74403024	11.32524610	2.08285656
 40	10.00000000	80.00000000	-100.00000000	100.00000000	89.47280049	3.88342105	0.74769207
 41	10.00000000	90.00000000	-100.00000000	98.39627743	93.28297973	0.00000000	0.04730297
 42	10.00000000	100.00000000	-100.00000000	91.50987864	97.75387049	0.00000000	0.00915541
 43	20.00000000	-100.00000000	-100.00000000	100.00000000	46.93522453	12.23468408	3.59960310
 44	20.00000000	-90.00000000	-100.00000000	100.00000000	47.28007913	12.05920503	3.59960310
 45	20.00000000	-80.00000000	-100.00000000	100.00000000	47.64782190	11.68688461	3.59960310
 46	20.00000000	-70.00000000	-100.00000000	100.00000000	48.26733768	11.45189628	3.59502546
 47	20.00000000	-60.00000000	-100.00000000	100.00000000	48.86549115	11.38170436	3.58129255
 48	20.00000000	-50.00000000	-100.00000000	100.00000000	49.21950102	11.15739718	3.58129255
 49	20.00000000	-40.00000000	-100.00000000	100.00000000	49.84206855	11.08873114	3.56603339
 50	20.00000000	-30.00000000	-100.00000000	100.00000000	50.69047213	10.88426039	3.35088111
 51	20.00000000	-20.00000000	-100.00000000	100.00000000	52.03478932	10.27542502	3.10826283
 52	20.00000000	-10.00000000	-100.00000000	100.00000000	53.33028436	9.39955786	2.92210262
 53	20.00000000	0.00000000	-100.00000000	100.00000000	55.16136289	8.83192196	2.68406197
 54	20.00000000	10.00000000	-100.00000000	100.00000000	57.26253390	7.75616094	2.26138700
 55	20.00000000	20.00000000	-100.00000000	100.00000000	59.92370248	6.58731982	1.69985499
 56	20.00000000	30.00000000	-100.00000000	100.00000000	63.64232898	3.79644483	0.85908296
 57	20.00000000	40.00000000	-100.00000000	100.00000000	67.70885587	0.00000000	0.19989319
 58	20.00000000	50.00000000	-100.00000000	100.00000000	71.99206352	0.00000000	0.00000000
 59	20.00000000	60.00000000	-100.00000000	96.80171013	76.12268329	0.00000000	0.00000000
 60	20.00000000	70.00000000	-100.00000000	92.58411527	80.16784787	0.00000000	0.00000000
 61	20.00000000	80.00000000	-100.00000000	88.69916797	83.95819068	0.00000000	0.00000000
 62	20.00000000	90.00000000	-100.00000000	84.03753638	87.77752519	0.00000000	0.00000000
 63	20.00000000	100.00000000	-100.00000000	79.97711301	91.03837609	0.00000000	0.00000000
 64	30.00000000	-100.00000000	-100.00000000	100.00000000	28.37720215	13.41878325	2.02182047
 65	30.00000000	-90.00000000	-100.00000000	100.00000000	28.80903482	13.14412206	2.02182047
 66	30.00000000	-80.00000000	-100.00000000	100.00000000	29.18898165	12.99458295	2.02029459
 67	30.00000000	-70.00000000	-100.00000000	100.00000000	30.19607961	12.65125573	1.99588016
 68	30.00000000	-60.00000000	-100.00000000	100.00000000	31.22758865	11.72350645	1.89974830
 69	30.00000000	-50.00000000	-100.00000000	100.00000000	32.71839619	10.53025126	1.62813757
 70	30.00000000	-40.00000000	-100.00000000	100.00000000	34.79667306	9.24391523	1.55336848
 71	30.00000000	-30.00000000	-100.00000000	100.00000000	36.95124686	7.56389722	1.38094146
 72	30.00000000	-20.00000000	-100.00000000	100.00000000	39.70855176	5.66720068	1.12458989
 73	30.00000000	-10.00000000	-100.00000000	100.00000000	42.95719862	3.60265523	0.74769207
 74	30.00000000	0.00000000	-100.00000000	100.00000000	46.58426940	0.84992750	0.36469062
 75	30.00000000	10.00000000	-100.00000000	100.00000000	50.30899644	0.00000000	0.00762951
 76	30.00000000	20.00000000	-100.00000000	100.00000000	54.52353954	0.00000000	0.00000000
 77	30.00000000	30.00000000	-100.00000000	100.00000000	58.49393606	0.00000000	0.00000000
 78	30.00000000	40.00000000	-100.00000000	96.39124274	63.26085329	0.00000000	0.00000000
 79	30.00000000	50.00000000	-100.00000000	91.81506038	67.76073575	0.00000000	0.00000000
 80	30.00000000	60.00000000	-100.00000000	87.94384599	71.99511528	0.00000000	0.00000000
 81	30.00000000	70.00000000	-100.00000000	83.95361304	76.33325458	0.00000000	0.00000000
 82	30.00000000	80.00000000	-100.00000000	80.18158078	80.27771711	0.00000000	0.00000000
 83	30.00000000	90.00000000	-100.00000000	76.72693729	83.79644752	0.00000000	0.00000000
 84	30.00000000	100.00000000	-100.00000000	72.55665064	87.20836043	0.00000000	0.00000000
 85	40.00000000	-100.00000000	-100.00000000	100.00000000	17.94003248	12.75501698	0.89570461
 86	40.00000000	-90.00000000	-100.00000000	100.00000000	18.88456494	11.87914833	0.81330584
 87	40.00000000	-80.00000000	-100.00000000	100.00000000	20.24719566	10.80186144	0.78431377
 88	40.00000000	-70.00000000	-100.00000000	100.00000000	21.48928046	9.32478830	0.78431377
 89	40.00000000	-60.00000000	-100.00000000	100.00000000	23.17082435	7.83245564	0.78431377
 90	40.00000000	-50.00000000	-100.00000000	100.00000000	25.13313591	6.06546104	0.53406577
 91	40.00000000	-40.00000000	-100.00000000	100.00000000	27.33958960	3.82848866	0.39215689
 92	40.00000000	-30.00000000	-100.00000000	100.00000000	30.33188283	1.65712982	0.28229191
 93	40.00000000	-20.00000000	-100.00000000	100.00000000	32.96406567	0.00000000	0.00000000
 94	40.00000000	-10.00000000	-100.00000000	100.00000000	36.39734387	0.00000000	0.00000000
 95	40.00000000	0.00000000	-100.00000000	100.00000000	40.35401046	0.00000000	0.00000000
 96	40.00000000	10.00000000	-100.00000000	100.00000000	45.33150196	0.00000000	0.00000000
 97	40.00000000	20.00000000	-100.00000000	96.59571052	50.23422837	0.00000000	0.00000000
 98	40.00000000	30.00000000	-100.00000000	91.27031565	54.94773984	0.00000000	0.00000000
 99	40.00000000	40.00000000	-100.00000000	86.90928221	59.77721810	0.00000000	0.00000000
 100	40.00000000	50.00000000	-100.00000000	82.94804096	64.88441229	0.00000000	0.00000000
 101	40.00000000	60.00000000	-100.00000000	79.63378429	69.13710237	0.00000000	0.00000000
 102	40.00000000	70.00000000	-100.00000000	76.49195194	73.03730845	0.00000000	0.00000000
 103	40.00000000	80.00000000	-100.00000000	73.03730845	77.03974843	0.00000000	0.00000000
 104	40.00000000	90.00000000	-100.00000000	69.35530901	80.45319319	0.00000000	0.00000000
 105	40.00000000	100.00000000	-100.00000000	65.24452567	83.82543921	0.00000000	0.00000000
 106	50.00000000	-100.00000000	-100.00000000	100.00000000	8.72968659	9.42397192	0.18005646
 107	50.00000000	-90.00000000	-100.00000000	100.00000000	10.07705778	7.93163925	0.00000000
 108	50.00000000	-80.00000000	-100.00000000	100.00000000	10.98039225	6.33707196	0.00000000
 109	50.00000000	-70.00000000	-100.00000000	100.00000000	12.51544952	4.17486839	0.00000000
 110	50.00000000	-60.00000000	-100.00000000	100.00000000	14.17715698	1.97146572	0.00000000
 111	50.00000000	-50.00000000	-100.00000000	100.00000000	15.90447873	0.00000000	0.00000000
 112	50.00000000	-40.00000000	-100.00000000	100.00000000	18.20553839	0.00000000	0.00000000
 113	50.00000000	-30.00000000	-100.00000000	100.00000000	21.32295668	0.00000000	0.00000000
 114	50.00000000	-20.00000000	-100.00000000	100.00000000	24.38696921	0.00000000	0.00000000
 115	50.00000000	-10.00000000	-100.00000000	100.00000000	29.59792614	0.00000000	0.00000000
 116	50.00000000	0.00000000	-100.00000000	97.77828455	35.24376154	0.00000000	0.00000000
 117	50.00000000	10.00000000	-100.00000000	91.32982492	40.58136940	0.00000000	0.00000000
 118	50.00000000	20.00000000	-100.00000000	86.19058728	46.04715109	0.00000000	0.00000000
 119	50.00000000	30.00000000	-100.00000000	81.76088929	51.55870914	0.00000000	0.00000000
 120	50.00000000	40.00000000	-100.00000000	78.16586494	56.55909181	0.00000000	0.00000000
 121	50.00000000	50.00000000	-100.00000000	74.99046326	61.33058667	0.00000000	0.00000000
 122	50.00000000	60.00000000	-100.00000000	72.45288491	65.84878564	0.00000000	0.00000000
 123	50.00000000	70.00000000	-100.00000000	70.02517581	70.01296878	0.00000000	0.00000000
 124	50.00000000	80.00000000	-100.00000000	66.75059199	73.39131832	0.00000000	0.00000000
 125	50.00000000	90.00000000	-100.00000000	63.23033571	76.46753788	0.00000000	0.00000000
 126	50.00000000	100.00000000	-100.00000000	58.95475745	79.48271632	0.00000000	0.00000000
 127	60.00000000	-100.00000000	-100.00000000	100.00000000	0.00000000	4.70130481	0.00000000
 128	60.00000000	-90.00000000	-100.00000000	100.00000000	0.00000000	3.19371335	0.00000000
 129	60.00000000	-80.00000000	-100.00000000	100.00000000	0.00000000	0.61799041	0.00000000
 130	60.00000000	-70.00000000	-100.00000000	100.00000000	0.77668424	0.00000000	0.00000000
 131	60.00000000	-60.00000000	-100.00000000	100.00000000	2.25833524	0.00000000	0.00000000
 132	60.00000000	-50.00000000	-100.00000000	100.00000000	4.10315096	0.00000000	0.00000000
 133	60.00000000	-40.00000000	-100.00000000	100.00000000	7.54863843	0.00000000	0.00000000
 134	60.00000000	-30.00000000	-100.00000000	100.00000000	12.99763471	0.00000000	0.00000000
 135	60.00000000	-20.00000000	-100.00000000	100.00000000	19.43083853	0.00000000	0.00000000
 136	60.00000000	-10.00000000	-100.00000000	93.11054945	25.34523606	0.00000000	0.00000000
 137	60.00000000	0.00000000	-100.00000000	86.80704832	30.89188933	0.00000000	0.00000000
 138	60.00000000	10.00000000	-100.00000000	81.60067201	36.59571111	0.00000000	0.00000000
 139	60.00000000	20.00000000	-100.00000000	75.59167147	40.83161652	0.00000000	0.00000000
 140	60.00000000	30.00000000	-100.00000000	69.41481829	44.20996308	0.00000000	0.00000000
 141	60.00000000	40.00000000	-100.00000000	64.80506659	47.37468660	0.00000000	0.00000000
 142	60.00000000	50.00000000	-100.00000000	61.42366529	50.63096285	0.00000000	0.00000000
 143	60.00000000	60.00000000	-100.00000000	58.08652043	53.87655497	0.00000000	0.00000000
 144	60.00000000	70.00000000	-100.00000000	55.94262481	56.70099854	0.00000000	0.00000000
 145	60.00000000	80.00000000	-100.00000000	53.45540643	60.30060053	0.00000000	0.00000000
 146	60.00000000	90.00000000	-100.00000000	51.33592486	64.55176473	0.00000000	0.00000000
 147	60.00000000	100.00000000	-100.00000000	49.52163100	70.07400393	0.00000000	0.00000000
 148	70.00000000	-100.00000000	-100.00000000	100.00000000	0.00000000	0.00000000	0.00000000
 149	70.00000000	-90.00000000	-100.00000000	100.00000000	0.00000000	0.00000000	0.00000000
 150	70.00000000	-80.00000000	-100.00000000	100.00000000	0.00000000	0.00000000	0.00000000
 151	70.00000000	-70.00000000	-100.00000000	100.00000000	0.00000000	0.00000000	0.00000000
 152	70.00000000	-60.00000000	-100.00000000	100.00000000	0.00000000	0.00000000	0.00000000
 153	70.00000000	-50.00000000	-100.00000000	100.00000000	0.00000000	0.00000000	0.00000000
 154	70.00000000	-40.00000000	-100.00000000	100.00000000	0.72785537	0.00000000	0.00000000
 155	70.00000000	-30.00000000	-100.00000000	94.09933686	7.18547329	0.00000000	0.00000000
 156	70.00000000	-20.00000000	-100.00000000	84.51514244	12.40711063	0.00000000	0.00000000
 157	70.00000000	-10.00000000	-100.00000000	76.33172870	16.91767722	0.00000000	0.00000000
 158	70.00000000	0.00000000	-100.00000000	68.85023117	21.24208510	0.00000000	0.00000000
 159	70.00000000	10.00000000	-100.00000000	62.25985885	24.53040332	0.00000000	0.00000000
 160	70.00000000	20.00000000	-100.00000000	56.83069825	28.44434381	0.00000000	0.00000000
 161	70.00000000	30.00000000	-100.00000000	52.45441198	32.04699755	0.00000000	0.00000000
 162	70.00000000	40.00000000	-100.00000000	48.73579144	34.87449586	0.00000000	0.00000000
 163	70.00000000	50.00000000	-100.00000000	45.78316808	37.83627152	0.00000000	0.00000000
 164	70.00000000	60.00000000	-100.00000000	43.24101508	40.41351974	0.00000000	0.00000000
 165	70.00000000	70.00000000	-100.00000000	41.70748591	43.45922172	0.00000000	0.00000000
 166	70.00000000	80.00000000	-100.00000000	40.03204405	46.72312438	0.00000000	0.00000000
 167	70.00000000	90.00000000	-100.00000000	38.16433847	50.36087632	0.00000000	0.00000000
 168	70.00000000	100.00000000	-100.00000000	36.29510999	54.40909266	0.00000000	0.00000000
 169	80.00000000	-100.00000000	-100.00000000	100.00000000	0.00000000	0.00000000	0.00000000
 170	80.00000000	-90.00000000	-100.00000000	100.00000000	0.00000000	0.00000000	0.00000000
 171	80.00000000	-80.00000000	-100.00000000	100.00000000	0.00000000	0.00000000	0.00000000
 172	80.00000000	-70.00000000	-100.00000000	100.00000000	0.00000000	0.00000000	0.00000000
 173	80.00000000	-60.00000000	-100.00000000	100.00000000	0.00000000	0.00000000	0.00000000
 174	80.00000000	-50.00000000	-100.00000000	93.27382445	0.00000000	0.00000000	0.00000000
 175	80.00000000	-40.00000000	-100.00000000	82.59403110	0.00000000	0.00000000	0.00000000
 176	80.00000000	-30.00000000	-100.00000000	72.71381617	0.00000000	0.00000000	0.00000000
 177	80.00000000	-20.00000000	-100.00000000	64.03143406	3.71252000	0.00000000	0.00000000
 178	80.00000000	-10.00000000	-100.00000000	56.84291124	7.85534456	0.00000000	0.00000000
 179	80.00000000	0.00000000	-100.00000000	50.88120699	12.20569164	0.00000000	0.00000000
 180	80.00000000	10.00000000	-100.00000000	45.38033009	15.71374089	0.00000000	0.00000000
 181	80.00000000	20.00000000	-100.00000000	40.64545631	18.53360832	0.00000000	0.00000000
 182	80.00000000	30.00000000	-100.00000000	36.58045232	21.52590156	0.00000000	0.00000000
 183	80.00000000	40.00000000	-100.00000000	33.98031592	24.02838171	0.00000000	0.00000000
 184	80.00000000	50.00000000	-100.00000000	31.70519471	26.43778026	0.00000000	0.00000000
 185	80.00000000	60.00000000	-100.00000000	30.16250730	28.64881456	0.00000000	0.00000000
 186	80.00000000	70.00000000	-100.00000000	29.03639376	30.71030676	0.00000000	0.00000000
 187	80.00000000	80.00000000	-100.00000000	27.47997344	33.16090703	0.00000000	0.00000000
 188	80.00000000	90.00000000	-100.00000000	25.72060823	36.56824529	0.00000000	0.00000000
 189	80.00000000	100.00000000	-100.00000000	24.13214296	40.81330597	0.00000000	0.00000000
 190	90.00000000	-100.00000000	-100.00000000	100.00000000	0.00000000	0.00000000	0.00000000
 191	90.00000000	-90.00000000	-100.00000000	100.00000000	0.00000000	0.00000000	0.00000000
 192	90.00000000	-80.00000000	-100.00000000	100.00000000	0.00000000	0.00000000	0.00000000
 193	90.00000000	-70.00000000	-100.00000000	96.03570700	0.00000000	0.00000000	0.00000000
 194	90.00000000	-60.00000000	-100.00000000	83.45769644	0.00000000	0.00000000	0.00000000
 195	90.00000000	-50.00000000	-100.00000000	71.66551948	0.00000000	0.00000000	0.00000000
 196	90.00000000	-40.00000000	-100.00000000	62.14541793	0.00000000	0.00000000	0.00000000
 197	90.00000000	-30.00000000	-100.00000000	54.20920253	0.00000000	0.00000000	0.00000000
 198	90.00000000	-20.00000000	-100.00000000	47.02678025	0.00000000	0.00000000	0.00000000
 199	90.00000000	-10.00000000	-100.00000000	40.92622399	1.68917365	0.00000000	0.00000000
 200	90.00000000	0.00000000	-100.00000000	35.26207507	5.27046621	0.00000000	0.00000000
 201	90.00000000	10.00000000	-100.00000000	30.78965545	8.29785615	0.00000000	0.00000000
 202	90.00000000	20.00000000	-100.00000000	26.84061825	11.02922112	0.00000000	0.00000000
 203	90.00000000	30.00000000	-100.00000000	23.85137677	13.31654787	0.00000000	0.00000000
 204	90.00000000	40.00000000	-100.00000000	21.58083469	15.70916325	0.00000000	0.00000000
 205	90.00000000	50.00000000	-100.00000000	20.18158287	17.18928814	0.00000000	0.00000000
 206	90.00000000	60.00000000	-100.00000000	19.08598393	18.67704242	0.00000000	0.00000000
 207	90.00000000	70.00000000	-100.00000000	18.54581535	20.39826065	0.00000000	0.00000000
 208	90.00000000	80.00000000	-100.00000000	17.61959195	22.49027193	0.00000000	0.00000000
 209	90.00000000	90.00000000	-100.00000000	16.07232839	25.36354661	0.00000000	0.00000000
 210	90.00000000	100.00000000	-100.00000000	14.51438218	29.06233370	0.00000000	0.00000000
 211	100.00000000	-100.00000000	-100.00000000	96.59113288	0.00000000	0.00000000	0.00000000
 212	100.00000000	-90.00000000	-100.00000000	90.23422599	0.00000000	0.00000000	0.00000000
 213	100.00000000	-80.00000000	-100.00000000	83.39512944	0.00000000	0.00000000	0.00000000
 214	100.00000000	-70.00000000	-100.00000000	73.80636334	0.00000000	0.00000000	0.00000000
 215	100.00000000	-60.00000000	-100.00000000	62.20492721	0.00000000	0.00000000	0.00000000
 216	100.00000000	-50.00000000	-100.00000000	51.41527653	0.00000000	0.00000000	0.00000000
 217	100.00000000	-40.00000000	-100.00000000	43.87121499	0.00000000	0.00000000	0.00000000
 218	100.00000000	-30.00000000	-100.00000000	37.64705956	0.00000000	0.00000000	0.00000000
 219	100.00000000	-20.00000000	-100.00000000	30.93919158	0.00000000	0.00000000	0.00000000
 220	100.00000000	-10.00000000	-100.00000000	25.76333284	0.00000000	0.00000000	0.00000000
 221	100.00000000	0.00000000	-100.00000000	21.70901000	0.00000000	0.00000000	0.00000000
 222	100.00000000	10.00000000	-100.00000000	18.19638312	2.49637607	0.00000000	0.00000000
 223	100.00000000	20.00000000	-100.00000000	15.16136378	4.79591042	0.00000000	0.00000000
 224	100.00000000	30.00000000	-100.00000000	12.68177330	6.90775886	0.00000000	0.00000000
 225	100.00000000	40.00000000	-100.00000000	11.21690720	8.11779946	0.00000000	0.00000000
 226	100.00000000	50.00000000	-100.00000000	10.34561694	9.24849287	0.00000000	0.00000000
 227	100.00000000	60.00000000	-100.00000000	10.17166376	10.47074050	0.00000000	0.00000000
 228	100.00000000	70.00000000	-100.00000000	10.15945673	11.53124273	0.00000000	0.00000000
 229	100.00000000	80.00000000	-100.00000000	8.95551965	13.47066462	0.00000000	0.00000000
 230	100.00000000	90.00000000	-100.00000000	7.39452168	16.15472585	0.00000000	0.00000000
 231	100.00000000	100.00000000	-100.00000000	5.82894646	18.96391213	0.00000000	0.00000000
 232	0.00000000	-100.00000000	-90.00000000	100.00000000	80.17700315	36.38666272	22.12253064
 233	0.00000000	-90.00000000	-90.00000000	100.00000000	80.17700315	36.38666272	22.12253064
 234	0.00000000	-80.00000000	-90.00000000	100.00000000	80.17700315	36.38666272	22.12253064
 235	0.00000000	-70.00000000	-90.00000000	100.00000000	80.17700315	36.38666272	22.12253064
 236	0.00000000	-60.00000000	-90.00000000	100.00000000	80.17700315	36.38666272	22.12253064
 237	0.00000000	-50.00000000	-90.00000000	100.00000000	80.18310666	36.38666272	22.12253064
 238	0.00000000	-40.00000000	-90.00000000	100.00000000	80.20599484	36.38666272	22.12253064
 239	0.00000000	-30.00000000	-90.00000000	100.00000000	80.73396087	36.39124036	22.12253064
 240	0.00000000	-20.00000000	-90.00000000	100.00000000	81.61440492	36.70557737	21.81887478
 241	0.00000000	-10.00000000	-90.00000000	100.00000000	82.12863207	36.78950071	21.74563259
 242	0.00000000	0.00000000	-90.00000000	100.00000000	83.31578374	36.88105643	21.74563259
 243	0.00000000	10.00000000	-90.00000000	100.00000000	83.91241431	37.62569726	21.65713012
 244	0.00000000	20.00000000	-90.00000000	100.00000000	84.53650475	37.71572411	21.65255249
 245	0.00000000	30.00000000	-90.00000000	100.00000000	85.48256755	38.05142343	21.33058608
 246	0.00000000	40.00000000	-90.00000000	100.00000000	86.37979627	38.51834834	21.13221884
 247	0.00000000	50.00000000	-90.00000000	100.00000000	87.35332489	39.28740323	20.57679147
 248	0.00000000	60.00000000	-90.00000000	100.00000000	89.04402256	40.85297883	19.01579350
 249	0.00000000	70.00000000	-90.00000000	100.00000000	91.09635949	42.71915853	16.44464731
 250	0.00000000	80.00000000	-90.00000000	100.00000000	93.47371459	41.98977649	12.24231347
 251	0.00000000	90.00000000	-90.00000000	100.00000000	97.65621424	37.01838851	10.54398417
 252	0.00000000	100.00000000	-90.00000000	99.20195341	100.00000000	31.18333817	10.09536907
 253	10.00000000	-100.00000000	-90.00000000	100.00000000	65.05531669	24.20080900	12.62989193
 254	10.00000000	-90.00000000	-90.00000000	100.00000000	65.05531669	24.20080900	12.62989193
 255	10.00000000	-80.00000000	-90.00000000	100.00000000	65.19874930	24.20080900	12.62989193
 256	10.00000000	-70.00000000	-90.00000000	100.00000000	65.53444862	24.15960878	12.62989193
 257	10.00000000	-60.00000000	-90.00000000	100.00000000	66.06240869	24.10620302	12.62989193
 258	10.00000000	-50.00000000	-90.00000000	100.00000000	66.85130000	24.10162538	12.62989193
 259	10.00000000	-40.00000000	-90.00000000	100.00000000	67.40673184	23.96581918	12.53833771
 260	10.00000000	-30.00000000	-90.00000000	100.00000000	68.15441847	23.96581918	12.53833771
 261	10.00000000	-20.00000000	-90.00000000	100.00000000	69.11116242	23.83001447	12.36743703
 262	10.00000000	-10.00000000	-90.00000000	100.00000000	70.12894154	23.66979420	12.20569164
 263	10.00000000	0.00000000	-90.00000000	100.00000000	71.01091146	23.68658036	12.08819747
 264	10.00000000	10.00000000	-90.00000000	100.00000000	72.31097817	23.69420975	11.79827601
