bench/lcms_compat/reference/lab_to_srgb_virt_Relative.it8
CGATS.17
ORIGINATOR	"icctrans"
#
# Data follows
#
NUMBER_OF_SETS	4851.00000000
NUMBER_OF_FIELDS	7.00000000
BEGIN_DATA_FORMAT
 SAMPLE_ID	IN_LAB_L	IN_LAB_A	IN_LAB_B	OUT_RGB_R	OUT_RGB_G	OUT_RGB_B
END_DATA_FORMAT
BEGIN_DATA
 1	0.00000000	-100.00000000	-100.00000000	-601.91986442	49.58136588	148.71018827
 2	0.00000000	-90.00000000	-100.00000000	-576.34857416	47.48741604	148.75055730
 3	0.00000000	-80.00000000	-100.00000000	-550.77734470	45.28859183	148.79091114
 4	0.00000000	-70.00000000	-100.00000000	-525.20605445	42.96927229	148.83126497
 5	0.00000000	-60.00000000	-100.00000000	-499.63476419	40.50966047	148.87158841
 6	0.00000000	-50.00000000	-100.00000000	-474.06350434	37.88401276	148.91191185
 7	0.00000000	-40.00000000	-100.00000000	-448.49224448	35.05785361	148.95220488
 8	0.00000000	-30.00000000	-100.00000000	-422.92092383	31.98323719	148.99249792
 9	0.00000000	-20.00000000	-100.00000000	-397.34966397	28.59009337	149.03277576
 10	0.00000000	-10.00000000	-100.00000000	-371.77840412	24.76890441	149.07303840
 11	0.00000000	0.00000000	-100.00000000	-346.20711386	20.33096865	149.11328584
 12	0.00000000	10.00000000	-100.00000000	-320.63585401	14.89615448	149.15351808
 13	0.00000000	20.00000000	-100.00000000	-295.06456375	7.61791435	149.19371992
 14	0.00000000	30.00000000	-100.00000000	-269.49330389	-0.36752162	149.23393697
 15	0.00000000	40.00000000	-100.00000000	-243.15620273	-8.59211035	149.27532434
 16	0.00000000	50.00000000	-100.00000000	-212.10121393	-18.29000887	149.32411373
 17	0.00000000	60.00000000	-100.00000000	-175.36086380	-29.76333741	149.38180983
 18	0.00000000	70.00000000	-100.00000000	-132.45727479	-43.16133298	149.44915742
 19	0.00000000	80.00000000	-100.00000000	-82.91256174	-58.63323636	149.52687085
 20	0.00000000	90.00000000	-100.00000000	-26.24879580	-76.32828265	149.61567968
 21	0.00000000	100.00000000	-100.00000000	27.88729448	-96.39571264	149.71632868
 22	10.00000000	-100.00000000	-100.00000000	-711.86924458	60.44369861	176.46970510
 23	10.00000000	-90.00000000	-100.00000000	-686.29795432	58.77698645	176.50209457
 24	10.00000000	-80.00000000	-100.00000000	-660.72672486	57.05506325	176.53446883
 25	10.00000000	-70.00000000	-100.00000000	-635.15543461	55.27266249	176.56684309
 26	10.00000000	-60.00000000	-100.00000000	-609.58414435	53.42364751	176.59920216
 27	10.00000000	-50.00000000	-100.00000000	-584.01285410	51.50080249	176.63154602
 28	10.00000000	-40.00000000	-100.00000000	-558.44162464	49.49552089	176.66390508
 29	10.00000000	-30.00000000	-100.00000000	-532.87027359	47.39744447	176.69623375
 30	10.00000000	-20.00000000	-100.00000000	-507.29901373	45.19390471	176.72856241
 31	10.00000000	-10.00000000	-100.00000000	-481.72775388	42.86913626	176.76089108
 32	10.00000000	0.00000000	-100.00000000	-454.26842093	40.21478489	176.79559082
 33	10.00000000	10.00000000	-100.00000000	-421.50013447	36.78775638	176.83699340
 34	10.00000000	20.00000000	-100.00000000	-382.89821863	32.28199996	176.88575238
 35	10.00000000	30.00000000	-100.00000000	-337.98475027	26.11305758	176.94244534
 36	10.00000000	40.00000000	-100.00000000	-286.28180623	16.75392419	177.00769544
 37	10.00000000	50.00000000	-100.00000000	-227.31149375	-0.29740532	177.08206505
 38	10.00000000	60.00000000	-100.00000000	-160.59595048	-21.13143750	177.16616213
 39	10.00000000	70.00000000	-100.00000000	-85.65723047	-44.53341275	177.26056427
 40	10.00000000	80.00000000	-100.00000000	-2.01748844	-70.65255761	177.36584902
 41	10.00000000	90.00000000	-100.00000000	46.21889211	-99.63812426	177.48259395
 42	10.00000000	100.00000000	-100.00000000	68.50586280	-131.63936108	177.61137664
 43	20.00000000	-100.00000000	-100.00000000	-904.14670944	77.54919514	204.91978168
 44	20.00000000	-90.00000000	-100.00000000	-878.57547998	76.30916208	204.94644105
 45	20.00000000	-80.00000000	-100.00000000	-853.00418973	75.04482552	204.97308522
 46	20.00000000	-70.00000000	-100.00000000	-827.43296027	73.75485554	204.99972939
 47	20.00000000	-60.00000000	-100.00000000	-801.86167002	72.43777782	205.02637357
 48	20.00000000	-50.00000000	-100.00000000	-776.21645093	71.08806744	205.05307853
 49	20.00000000	-40.00000000	-100.00000000	-747.19300032	69.52347860	205.08330971
 50	20.00000000	-30.00000000	-100.00000000	-712.66543865	67.60704383	205.11925578
 51	20.00000000	-20.00000000	-100.00000000	-672.15590358	65.27505577	205.16141832
 52	20.00000000	-10.00000000	-100.00000000	-625.18647194	62.44496003	205.21029890
 53	20.00000000	0.00000000	-100.00000000	-571.27928138	59.00457904	205.26636869
 54	20.00000000	10.00000000	-100.00000000	-509.95640874	54.79231507	205.33012927
 55	20.00000000	20.00000000	-100.00000000	-440.73996127	49.55649622	205.40206701
 56	20.00000000	30.00000000	-100.00000000	-363.15207660	42.85858043	205.48268348
 57	20.00000000	40.00000000	-100.00000000	-276.71483159	33.78009997	205.57243466
 58	20.00000000	50.00000000	-100.00000000	-180.95027268	19.48491745	205.67180693
 59	20.00000000	60.00000000	-100.00000000	-75.38059071	-10.74887367	205.78127146
 60	20.00000000	70.00000000	-100.00000000	28.99693184	-46.92754269	205.90132982
 61	20.00000000	80.00000000	-100.00000000	63.64733711	-86.46666303	206.03242278
 62	20.00000000	90.00000000	-100.00000000	85.77484936	-129.51547265	206.17503673
 63	20.00000000	100.00000000	-100.00000000	103.83063689	-176.22320473	206.32961243
 64	30.00000000	-100.00000000	-100.00000000	-1218.34096670	101.77795663	233.89071912
 65	30.00000000	-90.00000000	-100.00000000	-1192.18462944	100.86846784	233.91363949
 66	30.00000000	-80.00000000	-100.00000000	-1161.50416374	99.78866458	233.94049644
 67	30.00000000	-70.00000000	-100.00000000	-1125.17118216	98.49107221	233.97230834
 68	30.00000000	-60.00000000	-100.00000000	-1082.70806551	96.94748864	234.00948554
 69	30.00000000	-50.00000000	-100.00000000	-1033.63670826	95.12539521	234.05243844
 70	30.00000000	-40.00000000	-100.00000000	-977.47924805	92.98650518	234.10156220
 71	30.00000000	-30.00000000	-100.00000000	-913.75770092	90.48465103	234.15731281
 72	30.00000000	-20.00000000	-100.00000000	-841.99444771	87.56272182	234.22005504
 73	30.00000000	-10.00000000	-100.00000000	-761.71138287	84.14784506	234.29022968
 74	30.00000000	0.00000000	-100.00000000	-672.43052244	80.14365032	234.36824709
 75	30.00000000	10.00000000	-100.00000000	-573.67406487	75.41694716	234.45448726
 76	30.00000000	20.00000000	-100.00000000	-464.96423900	69.77282882	234.54937577
 77	30.00000000	30.00000000	-100.00000000	-345.82303047	62.90302165	234.65330780
 78	30.00000000	40.00000000	-100.00000000	-215.77253133	54.26061720	234.76670891
 79	30.00000000	50.00000000	-100.00000000	-74.33491722	42.66979136	234.88992870
 80	30.00000000	60.00000000	-100.00000000	42.81390622	24.27316401	235.02340794
 81	30.00000000	70.00000000	-100.00000000	77.01697290	-21.11355945	235.16751140
 82	30.00000000	80.00000000	-100.00000000	100.36399931	-76.84539691	235.32263428
 83	30.00000000	90.00000000	-100.00000000	119.64296401	-136.73017591	235.48918694
 84	30.00000000	100.00000000	-100.00000000	136.71069056	-200.91716766	235.66751897
 85	40.00000000	-100.00000000	-100.00000000	-1640.14727354	129.24390882	263.38684916
 86	40.00000000	-90.00000000	-100.00000000	-1588.92784595	127.92057663	263.42518151
 87	40.00000000	-80.00000000	-100.00000000	-1530.47421455	126.38890922	263.46889436
 88	40.00000000	-70.00000000	-100.00000000	-1464.30815220	124.62644219	263.51841331
 89	40.00000000	-60.00000000	-100.00000000	-1389.95179653	122.60761812	263.57401192
 90	40.00000000	-50.00000000	-100.00000000	-1306.92740679	120.30293539	263.63605499
 91	40.00000000	-40.00000000	-100.00000000	-1214.75724220	117.67775506	263.70493770
 92	40.00000000	-30.00000000	-100.00000000	-1112.96295404	114.69062135	263.78096402
 93	40.00000000	-20.00000000	-100.00000000	-1001.06686234	111.29092097	263.86452913
 94	40.00000000	-10.00000000	-100.00000000	-878.59116554	107.41529614	263.95593703
 95	40.00000000	0.00000000	-100.00000000	-745.05775809	102.98224881	264.05555248
 96	40.00000000	10.00000000	-100.00000000	-599.98902082	97.88324162	264.16374028
 97	40.00000000	20.00000000	-100.00000000	-442.90678740	91.96746826	264.28077400
 98	40.00000000	30.00000000	-100.00000000	-273.33343863	85.01337022	264.40707922
 99	40.00000000	40.00000000	-100.00000000	-90.79073980	76.66958794	264.54292953
 100	40.00000000	50.00000000	-100.00000000	50.02901986	66.31211132	264.68868971
 101	40.00000000	60.00000000	-100.00000000	87.14913681	52.60091946	264.84469414
 102	40.00000000	70.00000000	-100.00000000	112.55008221	31.17813069	265.01127720
 103	40.00000000	80.00000000	-100.00000000	133.46504152	-29.12449099	265.18874288
 104	40.00000000	90.00000000	-100.00000000	151.91432834	-108.61796960	265.37742555
 105	40.00000000	100.00000000	-100.00000000	168.79157871	-193.05687904	265.57765961
 106	50.00000000	-100.00000000	-100.00000000	-2110.20491123	157.43201226	293.42995226
 107	50.00000000	-90.00000000	-100.00000000	-2024.39323425	155.70685923	293.48555088
 108	50.00000000	-80.00000000	-100.00000000	-1929.28743839	153.76571059	293.54716837
 109	50.00000000	-70.00000000	-100.00000000	-1824.40917492	151.58798665	293.61507833
 110	50.00000000	-60.00000000	-100.00000000	-1709.28094625	149.15032625	293.68961513
 111	50.00000000	-50.00000000	-100.00000000	-1583.42476845	146.42582685	293.77105236
 112	50.00000000	-40.00000000	-100.00000000	-1446.36265755	143.38310212	293.85972440
 113	50.00000000	-30.00000000	-100.00000000	-1297.61675119	139.98500526	293.95590484
 114	50.00000000	-20.00000000	-100.00000000	-1136.70906544	136.18678987	294.05989766
 115	50.00000000	-10.00000000	-100.00000000	-963.16198111	131.93346530	294.17200685
 116	50.00000000	0.00000000	-100.00000000	-776.49702787	127.15599686	294.29253638
 117	50.00000000	10.00000000	-100.00000000	-576.23689055	121.76527172	294.42175984
 118	50.00000000	20.00000000	-100.00000000	-361.90346360	115.64244747	294.55998123
 119	50.00000000	30.00000000	-100.00000000	-133.01880866	108.62236977	294.70747411
 120	50.00000000	40.00000000	-100.00000000	51.45186111	100.46274081	294.86457288
 121	50.00000000	50.00000000	-100.00000000	94.18809950	90.78070834	295.03152072
 122	50.00000000	60.00000000	-100.00000000	122.39988327	78.90128419	295.20862162
 123	50.00000000	70.00000000	-100.00000000	145.33530056	63.39687355	295.39614916
 124	50.00000000	80.00000000	-100.00000000	165.40644675	39.82317790	295.59440732
 125	50.00000000	90.00000000	-100.00000000	183.65776420	-32.51457408	295.80363929
 126	50.00000000	100.00000000	-100.00000000	200.64785331	-139.97815043	296.02414906
 127	60.00000000	-100.00000000	-100.00000000	-2615.19915104	186.23350918	323.99569452
 128	60.00000000	-90.00000000	-100.00000000	-2485.91634750	184.14166063	324.06904578
 129	60.00000000	-80.00000000	-100.00000000	-2345.27938843	181.83041185	324.14881110
 130	60.00000000	-70.00000000	-100.00000000	-2192.81041145	179.28077906	324.23526406
 131	60.00000000	-60.00000000	-100.00000000	-2028.03106785	176.47130102	324.32867825
 132	60.00000000	-50.00000000	-100.00000000	-1850.46410322	173.37737024	324.42926645
 133	60.00000000	-40.00000000	-100.00000000	-1659.63129044	169.97053385	324.53733265
 134	60.00000000	-30.00000000	-100.00000000	-1455.05464554	166.21744484	324.65315044
 135	60.00000000	-20.00000000	-100.00000000	-1236.25642776	162.07844853	324.77696300
 136	60.00000000	-10.00000000	-100.00000000	-1002.75871396	157.50566751	324.90898311
 137	60.00000000	0.00000000	-100.00000000	-754.08364177	152.44014412	325.04954517
 138	60.00000000	10.00000000	-100.00000000	-489.75331843	146.80778235	325.19883156
 139	60.00000000	20.00000000	-100.00000000	-209.28957760	140.51290333	325.35717666
 140	60.00000000	30.00000000	-100.00000000	45.37688769	133.42809230	325.52476287
 141	60.00000000	40.00000000	-100.00000000	97.94782296	125.37664354	325.70183337
 142	60.00000000	50.00000000	-100.00000000	129.85569119	116.10042170	325.88869214
 143	60.00000000	60.00000000	-100.00000000	155.23174793	105.19436851	326.08558238
 144	60.00000000	70.00000000	-100.00000000	177.17891425	91.95251226	326.29268646
 145	60.00000000	80.00000000	-100.00000000	196.97816223	74.91431013	326.51030838
 146	60.00000000	90.00000000	-100.00000000	215.29842317	49.78614829	326.73866093
 147	60.00000000	100.00000000	-100.00000000	232.53812850	-29.01689786	326.97798729
 148	70.00000000	-100.00000000	-100.00000000	-3142.46566772	215.60081095	355.06118596
 149	70.00000000	-90.00000000	-100.00000000	-2960.83298206	213.17409396	355.15232027
 150	70.00000000	-80.00000000	-100.00000000	-2765.78586102	210.52708000	355.25014222
 151	70.00000000	-70.00000000	-100.00000000	-2556.84717178	207.64221400	355.35489500
 152	70.00000000	-60.00000000	-100.00000000	-2333.53807926	204.49966103	355.46676099
 153	70.00000000	-50.00000000	-100.00000000	-2095.38096428	201.07691109	355.58607459
 154	70.00000000	-40.00000000	-100.00000000	-1841.89881563	197.34811038	355.71298778
 155	70.00000000	-30.00000000	-100.00000000	-1572.61255503	193.28319490	355.84771335
 156	70.00000000	-20.00000000	-100.00000000	-1287.04517126	188.84694815	355.99055529
 157	70.00000000	-10.00000000	-100.00000000	-984.71807241	183.99734437	356.14166558
 158	70.00000000	0.00000000	-100.00000000	-665.15351772	178.68363351	356.30131781
 159	70.00000000	10.00000000	-100.00000000	-327.87404001	172.84330130	356.46969438
 160	70.00000000	20.00000000	-100.00000000	22.65337173	166.39781356	356.64703846
 161	70.00000000	30.00000000	-100.00000000	97.92384624	159.24594373	356.83359325
 162	70.00000000	40.00000000	-100.00000000	134.75195646	151.25313342	357.02954113
 163	70.00000000	50.00000000	-100.00000000	163.07931483	142.23352700	357.23512530
 164	70.00000000	60.00000000	-100.00000000	187.19338328	131.91714138	357.45052814
 165	70.00000000	70.00000000	-100.00000000	208.73249710	119.88386348	357.67599285
 166	70.00000000	80.00000000	-100.00000000	228.52112085	105.41163325	357.91170180
 167	70.00000000	90.00000000	-100.00000000	247.03954875	87.04322129	358.15789819
 168	70.00000000	100.00000000	-100.00000000	264.59481955	60.74495025	358.41479480
 169	80.00000000	-100.00000000	-100.00000000	-3679.34074402	245.50168008	386.60566449
 170	80.00000000	-90.00000000	-100.00000000	-3436.47893429	242.76798517	386.71427786
 171	80.00000000	-80.00000000	-100.00000000	-3178.14338207	239.81469244	386.82976127
 172	80.00000000	-70.00000000	-100.00000000	-2903.85549545	236.62544757	386.95235789
 173	80.00000000	-60.00000000	-100.00000000	-2613.13765526	233.18195075	387.08221972
 174	80.00000000	-50.00000000	-100.00000000	-2305.51224232	229.46351588	387.21955955
 175	80.00000000	-40.00000000	-100.00000000	-1980.50102949	225.44656903	387.36462057
 176	80.00000000	-30.00000000	-100.00000000	-1637.62688398	221.10397965	387.51752436
 177	80.00000000	-20.00000000	-100.00000000	-1276.41084909	216.40422463	387.67857492
 178	80.00000000	-10.00000000	-100.00000000	-896.37554884	211.31021798	387.84789383
 179	80.00000000	0.00000000	-100.00000000	-497.04248250	205.77782124	388.02569389
 180	80.00000000	10.00000000	-100.00000000	-77.93529242	199.75368530	388.21218789
 181	80.00000000	20.00000000	-100.00000000	93.09799120	193.17213446	388.40755820
 182	80.00000000	30.00000000	-100.00000000	136.79712832	185.95080435	388.61201763
 183	80.00000000	40.00000000	-100.00000000	168.74698430	177.98371106	388.82574856
 184	80.00000000	50.00000000	-100.00000000	195.38028717	169.13050532	389.04893339
 185	80.00000000	60.00000000	-100.00000000	218.88103813	159.19811189	389.28178489
 186	80.00000000	70.00000000	-100.00000000	240.29266119	147.90789932	389.52445507
 187	80.00000000	80.00000000	-100.00000000	260.20517349	134.83036906	389.77712631
 188	80.00000000	90.00000000	-100.00000000	278.98838639	119.23806533	390.04007220
 189	80.00000000	100.00000000	-100.00000000	296.89101934	99.70012173	390.31335354
 190	90.00000000	-100.00000000	-100.00000000	-4213.15944672	275.91079473	418.60985756
 191	90.00000000	-90.00000000	-100.00000000	-3900.18975735	272.89442539	418.73552442
 192	90.00000000	-80.00000000	-100.00000000	-3569.68628883	269.66009974	418.86821330
 193	90.00000000	-70.00000000	-100.00000000	-3221.17044926	266.19264901	419.00807619
 194	90.00000000	-60.00000000	-100.00000000	-2854.16510582	262.47508049	419.15526509
 195	90.00000000	-50.00000000	-100.00000000	-2468.19239616	258.48836482	419.30999279
 196	90.00000000	-40.00000000	-100.00000000	-2062.77421474	254.21094954	419.47244167
 197	90.00000000	-30.00000000	-100.00000000	-1637.43233442	249.61818159	419.64279413
 198	90.00000000	-20.00000000	-100.00000000	-1191.68913603	244.68177527	419.82120216
 199	90.00000000	-10.00000000	-100.00000000	-725.06645322	239.36876357	420.00787854
 200	90.00000000	0.00000000	-100.00000000	-237.08662122	233.64041895	420.20294487
 201	90.00000000	10.00000000	-100.00000000	81.23900995	227.45065749	420.40661395
 202	90.00000000	20.00000000	-100.00000000	135.51498592	220.74374378	420.61906815
 203	90.00000000	30.00000000	-100.00000000	172.03485668	213.45126629	420.84045947
 204	90.00000000	40.00000000	-100.00000000	201.63450837	205.48753202	421.07097030
 205	90.00000000	50.00000000	-100.00000000	227.36247182	196.74259007	421.31078303
 206	90.00000000	60.00000000	-100.00000000	250.57556301	187.07133383	421.56001925
 207	90.00000000	70.00000000	-100.00000000	272.01162636	176.27514035	421.81889176
 208	90.00000000	80.00000000	-100.00000000	292.12188005	164.06934410	422.08755255
 209	90.00000000	90.00000000	-100.00000000	311.20460808	150.01935482	422.36615360
 210	90.00000000	100.00000000	-100.00000000	329.46831286	133.40001941	422.65487731
 211	100.00000000	-100.00000000	-100.00000000	-4731.25854492	306.80675447	451.05619490
 212	100.00000000	-90.00000000	-100.00000000	-4339.30197716	303.52883756	451.19845927
 213	100.00000000	-80.00000000	-100.00000000	-3927.75135040	300.03530502	451.34774566
 214	100.00000000	-70.00000000	-100.00000000	-3496.12953186	296.31196082	451.50426686
 215	100.00000000	-60.00000000	-100.00000000	-3043.95720005	292.34305859	451.66814446
 216	100.00000000	-50.00000000	-100.00000000	-2570.75770855	288.11099768	451.83959126
 217	100.00000000	-40.00000000	-100.00000000	-2076.05319500	283.59604955	452.01869845
 218	100.00000000	-30.00000000	-100.00000000	-1559.36518908	278.77571940	452.20567882
 219	100.00000000	-20.00000000	-100.00000000	-1020.21582842	273.62447262	452.40068436
 220	100.00000000	-10.00000000	-100.00000000	-458.12700748	268.11285317	452.60383666
 221	100.00000000	0.00000000	-100.00000000	55.34400366	262.20660210	452.81534851
 222	100.00000000	10.00000000	-100.00000000	130.10872722	255.86544156	453.03534150
 223	100.00000000	20.00000000	-100.00000000	172.64797658	249.04149413	453.26396763
 224	100.00000000	30.00000000	-100.00000000	205.80729246	241.67700291	453.50140929
 225	100.00000000	40.00000000	-100.00000000	234.09069479	233.70109409	453.74778807
 226	100.00000000	50.00000000	-100.00000000	259.31623399	225.02521724	454.00328636
 227	100.00000000	60.00000000	-100.00000000	282.42443562	215.53609282	454.26802576
 228	100.00000000	70.00000000	-100.00000000	303.97289693	205.08481443	454.54218864
 229	100.00000000	80.00000000	-100.00000000	324.32259858	193.46857935	454.82589662
 230	100.00000000	90.00000000	-100.00000000	343.72213840	180.39872468	455.11927128
 231	100.00000000	100.00000000	-100.00000000	362.35065401	165.43897301	455.42252541
 232	0.00000000	-100.00000000	-90.00000000	-526.72810078	48.24930936	132.82469988
 233	0.00000000	-90.00000000	-90.00000000	-501.15687132	46.08969145	132.87131578
 234	0.00000000	-80.00000000	-90.00000000	-475.58561146	43.81558947	132.91790128
 235	0.00000000	-70.00000000	-90.00000000	-450.01429081	41.40886702	132.96447158
 236	0.00000000	-60.00000000	-90.00000000	-424.44303095	38.84616673	133.01102668
 237	0.00000000	-50.00000000	-90.00000000	-398.87174070	36.09655447	133.05755138
 238	0.00000000	-40.00000000	-90.00000000	-373.30048084	33.11765112	133.10406089
 239	0.00000000	-30.00000000	-90.00000000	-347.72922099	29.84868843	133.15055519
 240	0.00000000	-20.00000000	-90.00000000	-322.15793073	26.19721737	133.19701910
 241	0.00000000	-10.00000000	-90.00000000	-296.58667088	22.01012705	133.24346781
 242	0.00000000	0.00000000	-90.00000000	-271.01535022	16.99865576	133.28990132
 243	0.00000000	10.00000000	-90.00000000	-245.44410557	10.47662873	133.33630443
 244	0.00000000	20.00000000	-90.00000000	-219.87281531	2.49473120	133.38269234
 245	0.00000000	30.00000000	-90.00000000	-194.30154026	-5.49070490	133.42906505
 246	0.00000000	40.00000000	-90.00000000	-167.96443909	-13.71529374	133.47679049
 247	0.00000000	50.00000000	-90.00000000	-136.90945029	-23.41319416	133.53305787
 248	0.00000000	60.00000000	-90.00000000	-100.16912296	-34.88652080	133.59956950
 249	0.00000000	70.00000000	-90.00000000	-57.26553775	-48.28451827	133.67719173
 250	0.00000000	80.00000000	-90.00000000	-7.72081853	-63.75642166	133.76676053
 251	0.00000000	90.00000000	-90.00000000	32.54208460	-81.45146415	133.86911184
 252	0.00000000	100.00000000	-90.00000000	52.01646522	-101.51890174	133.98505121
 253	10.00000000	-100.00000000	-90.00000000	-614.05161023	59.05630946	160.02959847
 254	10.00000000	-90.00000000	-90.00000000	-588.48038077	57.34385915	160.06635010
 255	10.00000000	-80.00000000	-90.00000000	-562.90909052	55.57185844	160.10308653
 256	10.00000000	-70.00000000	-90.00000000	-537.33786106	53.73433024	160.13980776
 257	10.00000000	-60.00000000	-90.00000000	-511.76651001	51.82424493	160.17651379
 258	10.00000000	-50.00000000	-90.00000000	-486.19525015	49.83325817	160.21321982
 259	10.00000000	-40.00000000	-90.00000000	-460.62399030	47.75133468	160.24991065
 260	10.00000000	-30.00000000	-90.00000000	-435.05270004	45.56622773	160.28658628
 261	10.00000000	-20.00000000	-90.00000000	-409.48144019	43.26275714	160.32326192
 262	10.00000000	-10.00000000	-90.00000000	-383.91018033	40.82171872	160.35992235
 263	10.00000000	0.00000000	-90.00000000	-356.45081699	38.01870793	160.39927304
 264	10.00000000	10.00000000	-90.00000000	-323.68256092	34.36933056	160.44622332
 265	10.00000000	20.00000000	-90.00000000	-285.08064508	29.50322997	160.50150275
 266	10.00000000	30.00000000	-90.00000000	-240.16714633	22.65369091	160.56579530
 267	10.00000000	40.00000000	-90.00000000	-188.46420228	11.39994593	160.63975453
 268	10.00000000	50.00000000	-90.00000000	-129.49388981	-6.96219874	160.72406441
 269	10.00000000	60.00000000	-90.00000000	-62.77835794	-27.79623047	160.81937850
 270	10.00000000	70.00000000	-90.00000000	12.04269759	-51.19820952	160.92636555
 271	10.00000000	80.00000000	-90.00000000	47.57924952	-77.31735438	161.04564875
 272	10.00000000	90.00000000	-90.00000000	67.67121479	-106.30292103	161.17789686
 273	10.00000000	100.00000000	-90.00000000	83.86138603	-138.30414265	161.32373303
 274	20.00000000	-100.00000000	-90.00000000	-780.73018312	76.24272645	187.95907259
 275	20.00000000	-90.00000000	-90.00000000	-755.15889287	74.97706756	187.98890859
 276	20.00000000	-80.00000000	-90.00000000	-729.58760262	73.68569165	188.01874459
 277	20.00000000	-70.00000000	-90.00000000	-704.01631236	72.36713961	188.04855019
 278	20.00000000	-60.00000000	-90.00000000	-678.44508290	71.01978511	188.07837099
 279	20.00000000	-50.00000000	-90.00000000	-652.79986382	69.63783726	188.10826778
 280	20.00000000	-40.00000000	-90.00000000	-623.77641320	68.03426251	188.14210117
 281	20.00000000	-30.00000000	-90.00000000	-589.24879074	66.06752604	188.18233341
 282	20.00000000	-20.00000000	-90.00000000	-548.73925567	63.67022708	188.22952688
 283	20.00000000	-10.00000000	-90.00000000	-501.76988482	60.75413436	188.28421354
 284	20.00000000	0.00000000	-90.00000000	-447.86266387	57.19784439	188.34697098
 285	20.00000000	10.00000000	-90.00000000	-386.53979123	52.82349251	188.41831595
 286	20.00000000	20.00000000	-90.00000000	-317.32337415	47.34741636	188.49881083
 287	20.00000000	30.00000000	-90.00000000	-239.73547429	40.25665104	188.58897239
 288	20.00000000	40.00000000	-90.00000000	-153.29822928	30.40108189	188.68936300
