bench/lcms_compat/reference/lab_to_RISO_MZ770_RedGreen.icc_Absolute.it8
CGATS.17
ORIGINATOR	"icctrans"
#
# Data follows
#
NUMBER_OF_SETS	4851.00000000
NUMBER_OF_FIELDS	6.00000000
BEGIN_DATA_FORMAT
 SAMPLE_ID	IN_LAB_L	IN_LAB_A	IN_LAB_B	OUT_CH1	OUT_CH2
END_DATA_FORMAT
BEGIN_DATA
 1	0.00000000	-100.00000000	-100.00000000	0.44295415	1.00000000
 2	0.00000000	-90.00000000	-100.00000000	0.44267949	1.00000000
 3	0.00000000	-80.00000000	-100.00000000	0.44223696	1.00000000
 4	0.00000000	-70.00000000	-100.00000000	0.44248113	1.00000000
 5	0.00000000	-60.00000000	-100.00000000	0.44589913	1.00000000
 6	0.00000000	-50.00000000	-100.00000000	0.44898146	1.00000000
 7	0.00000000	-40.00000000	-100.00000000	0.45387959	1.00000000
 8	0.00000000	-30.00000000	-100.00000000	0.46741435	1.00000000
 9	0.00000000	-20.00000000	-100.00000000	0.48343635	1.00000000
 10	0.00000000	-10.00000000	-100.00000000	0.50856793	1.00000000
 11	0.00000000	0.00000000	-100.00000000	0.52678722	1.00000000
 12	0.00000000	10.00000000	-100.00000000	0.53017473	1.00000000
 13	0.00000000	20.00000000	-100.00000000	0.51691461	1.00000000
 14	0.00000000	30.00000000	-100.00000000	0.51705194	1.00000000
 15	0.00000000	40.00000000	-100.00000000	0.56198978	1.00000000
 16	0.00000000	50.00000000	-100.00000000	0.59230947	1.00000000
 17	0.00000000	60.00000000	-100.00000000	0.68174261	1.00000000
 18	0.00000000	70.00000000	-100.00000000	0.75263602	1.00000000
 19	0.00000000	80.00000000	-100.00000000	0.74985886	1.00000000
 20	0.00000000	90.00000000	-100.00000000	0.84661633	1.00000000
 21	0.00000000	100.00000000	-100.00000000	0.91659421	1.00000000
 22	10.00000000	-100.00000000	-100.00000000	0.40972000	1.00000000
 23	10.00000000	-90.00000000	-100.00000000	0.40857556	1.00000000
 24	10.00000000	-80.00000000	-100.00000000	0.40845349	1.00000000
 25	10.00000000	-70.00000000	-100.00000000	0.40848401	1.00000000
 26	10.00000000	-60.00000000	-100.00000000	0.40785840	1.00000000
 27	10.00000000	-50.00000000	-100.00000000	0.40883496	1.00000000
 28	10.00000000	-40.00000000	-100.00000000	0.41042191	1.00000000
 29	10.00000000	-30.00000000	-100.00000000	0.41196308	1.00000000
 30	10.00000000	-20.00000000	-100.00000000	0.41734952	1.00000000
 31	10.00000000	-10.00000000	-100.00000000	0.42609292	1.00000000
 32	10.00000000	0.00000000	-100.00000000	0.43407339	1.00000000
 33	10.00000000	10.00000000	-100.00000000	0.42587930	1.00000000
 34	10.00000000	20.00000000	-100.00000000	0.42798504	1.00000000
 35	10.00000000	30.00000000	-100.00000000	0.44516671	1.00000000
 36	10.00000000	40.00000000	-100.00000000	0.45854887	1.00000000
 37	10.00000000	50.00000000	-100.00000000	0.47215992	1.00000000
 38	10.00000000	60.00000000	-100.00000000	0.50414282	1.00000000
 39	10.00000000	70.00000000	-100.00000000	0.52426946	1.00000000
 40	10.00000000	80.00000000	-100.00000000	0.55721372	1.00000000
 41	10.00000000	90.00000000	-100.00000000	0.78521401	1.00000000
 42	10.00000000	100.00000000	-100.00000000	0.91862363	0.97936982
 43	20.00000000	-100.00000000	-100.00000000	0.34041351	0.97734034
 44	20.00000000	-90.00000000	-100.00000000	0.34048980	0.97398335
 45	20.00000000	-80.00000000	-100.00000000	0.34050506	0.96980238
 46	20.00000000	-70.00000000	-100.00000000	0.34015411	0.96499580
 47	20.00000000	-60.00000000	-100.00000000	0.34094760	0.96145570
 48	20.00000000	-50.00000000	-100.00000000	0.34250399	0.95768672
 49	20.00000000	-40.00000000	-100.00000000	0.34457922	0.95384145
 50	20.00000000	-30.00000000	-100.00000000	0.34956893	0.95329213
 51	20.00000000	-20.00000000	-100.00000000	0.35445181	0.95298696
 52	20.00000000	-10.00000000	-100.00000000	0.35945678	0.95178151
 53	20.00000000	0.00000000	-100.00000000	0.35814449	0.95027083
 54	20.00000000	10.00000000	-100.00000000	0.37642482	0.93492025
 55	20.00000000	20.00000000	-100.00000000	0.38103303	0.93815517
 56	20.00000000	30.00000000	-100.00000000	0.39382011	0.93157852
 57	20.00000000	40.00000000	-100.00000000	0.38730448	0.90595865
 58	20.00000000	50.00000000	-100.00000000	0.39517814	0.87043566
 59	20.00000000	60.00000000	-100.00000000	0.43912414	0.83025867
 60	20.00000000	70.00000000	-100.00000000	0.50888836	0.78731978
 61	20.00000000	80.00000000	-100.00000000	0.58178073	0.74300754
 62	20.00000000	90.00000000	-100.00000000	0.61809719	0.70057219
 63	20.00000000	100.00000000	-100.00000000	0.66408789	0.62194246
 64	30.00000000	-100.00000000	-100.00000000	0.22037080	0.79656672
 65	30.00000000	-90.00000000	-100.00000000	0.22095063	0.79308766
 66	30.00000000	-80.00000000	-100.00000000	0.22130160	0.79064620
 67	30.00000000	-70.00000000	-100.00000000	0.22096589	0.78982222
 68	30.00000000	-60.00000000	-100.00000000	0.22073701	0.79075301
 69	30.00000000	-50.00000000	-100.00000000	0.22122531	0.79081404
 70	30.00000000	-40.00000000	-100.00000000	0.22211032	0.78864729
 71	30.00000000	-30.00000000	-100.00000000	0.22157626	0.78693825
 72	30.00000000	-20.00000000	-100.00000000	0.22075227	0.78435951
 73	30.00000000	-10.00000000	-100.00000000	0.22302586	0.77822536
 74	30.00000000	0.00000000	-100.00000000	0.22621500	0.77038223
 75	30.00000000	10.00000000	-100.00000000	0.23495843	0.76087588
 76	30.00000000	20.00000000	-100.00000000	0.24512093	0.74898911
 77	30.00000000	30.00000000	-100.00000000	0.28090334	0.71749449
 78	30.00000000	40.00000000	-100.00000000	0.29848173	0.70254064
 79	30.00000000	50.00000000	-100.00000000	0.31488517	0.68657970
 80	30.00000000	60.00000000	-100.00000000	0.34900436	0.63939881
 81	30.00000000	70.00000000	-100.00000000	0.39868772	0.55503166
 82	30.00000000	80.00000000	-100.00000000	0.45418480	0.48308536
 83	30.00000000	90.00000000	-100.00000000	0.49712369	0.41416037
 84	30.00000000	100.00000000	-100.00000000	0.54131383	0.36662853
 85	40.00000000	-100.00000000	-100.00000000	0.17184711	0.66808575
 86	40.00000000	-90.00000000	-100.00000000	0.17228961	0.66518652
 87	40.00000000	-80.00000000	-100.00000000	0.17247273	0.66158539
 88	40.00000000	-70.00000000	-100.00000000	0.17187762	0.65857941
 89	40.00000000	-60.00000000	-100.00000000	0.17253377	0.65520716
 90	40.00000000	-50.00000000	-100.00000000	0.17402914	0.65151447
 91	40.00000000	-40.00000000	-100.00000000	0.17637904	0.64686048
 92	40.00000000	-30.00000000	-100.00000000	0.17857634	0.64177918
 93	40.00000000	-20.00000000	-100.00000000	0.18280308	0.63134205
 94	40.00000000	-10.00000000	-100.00000000	0.18927291	0.61068130
 95	40.00000000	0.00000000	-100.00000000	0.19513237	0.58208591
 96	40.00000000	10.00000000	-100.00000000	0.21051347	0.52698559
 97	40.00000000	20.00000000	-100.00000000	0.22235447	0.49117264
 98	40.00000000	30.00000000	-100.00000000	0.23356985	0.45667201
 99	40.00000000	40.00000000	-100.00000000	0.24702831	0.41881436
 100	40.00000000	50.00000000	-100.00000000	0.25761807	0.40424201
 101	40.00000000	60.00000000	-100.00000000	0.27629510	0.38464943
 102	40.00000000	70.00000000	-100.00000000	0.30809492	0.35764095
 103	40.00000000	80.00000000	-100.00000000	0.30577555	0.34995040
 104	40.00000000	90.00000000	-100.00000000	0.35234606	0.32567331
 105	40.00000000	100.00000000	-100.00000000	0.39206532	0.29590297
 106	50.00000000	-100.00000000	-100.00000000	0.05368124	0.49912262
 107	50.00000000	-90.00000000	-100.00000000	0.05387961	0.49330893
 108	50.00000000	-80.00000000	-100.00000000	0.05421530	0.48766309
 109	50.00000000	-70.00000000	-100.00000000	0.05752651	0.48117799
 110	50.00000000	-60.00000000	-100.00000000	0.06715496	0.47115281
 111	50.00000000	-50.00000000	-100.00000000	0.09120318	0.45362020
 112	50.00000000	-40.00000000	-100.00000000	0.12655833	0.43100634
 113	50.00000000	-30.00000000	-100.00000000	0.15893798	0.40752271
 114	50.00000000	-20.00000000	-100.00000000	0.17949188	0.38568702
 115	50.00000000	-10.00000000	-100.00000000	0.19316396	0.36548409
 116	50.00000000	0.00000000	-100.00000000	0.20410468	0.34766155
 117	50.00000000	10.00000000	-100.00000000	0.20947586	0.34361792
 118	50.00000000	20.00000000	-100.00000000	0.21272603	0.34331274
 119	50.00000000	30.00000000	-100.00000000	0.21574731	0.34381628
 120	50.00000000	40.00000000	-100.00000000	0.22198825	0.33963531
 121	50.00000000	50.00000000	-100.00000000	0.23237965	0.32870984
 122	50.00000000	60.00000000	-100.00000000	0.24141298	0.31641108
 123	50.00000000	70.00000000	-100.00000000	0.25166705	0.30135041
 124	50.00000000	80.00000000	-100.00000000	0.27869079	0.27176318
 125	50.00000000	90.00000000	-100.00000000	0.30833906	0.24293889
 126	50.00000000	100.00000000	-100.00000000	0.33467612	0.21774624
 127	60.00000000	-100.00000000	-100.00000000	0.01872282	0.38304722
 128	60.00000000	-90.00000000	-100.00000000	0.02490272	0.37846953
 129	60.00000000	-80.00000000	-100.00000000	0.03555352	0.37222859
 130	60.00000000	-70.00000000	-100.00000000	0.05128557	0.36459908
 131	60.00000000	-60.00000000	-100.00000000	0.07948425	0.35687801
 132	60.00000000	-50.00000000	-100.00000000	0.11187915	0.34790570
 133	60.00000000	-40.00000000	-100.00000000	0.14145114	0.33539331
 134	60.00000000	-30.00000000	-100.00000000	0.16523995	0.32036316
 135	60.00000000	-20.00000000	-100.00000000	0.18113984	0.30409706
 136	60.00000000	-10.00000000	-100.00000000	0.18896773	0.29013506
 137	60.00000000	0.00000000	-100.00000000	0.19179064	0.28349736
 138	60.00000000	10.00000000	-100.00000000	0.19562066	0.29224080
 139	60.00000000	20.00000000	-100.00000000	0.19888610	0.29594874
 140	60.00000000	30.00000000	-100.00000000	0.20233463	0.29234761
 141	60.00000000	40.00000000	-100.00000000	0.20663768	0.28192568
 142	60.00000000	50.00000000	-100.00000000	0.20978104	0.26907760
 143	60.00000000	60.00000000	-100.00000000	0.21036087	0.25976959
 144	60.00000000	70.00000000	-100.00000000	0.21472496	0.25004959
 145	60.00000000	80.00000000	-100.00000000	0.23260853	0.22586404
 146	60.00000000	90.00000000	-100.00000000	0.24814221	0.20654613
 147	60.00000000	100.00000000	-100.00000000	0.26353857	0.19186693
 148	70.00000000	-100.00000000	-100.00000000	0.03453116	0.34711224
 149	70.00000000	-90.00000000	-100.00000000	0.04924086	0.34090182
 150	70.00000000	-80.00000000	-100.00000000	0.07066453	0.33374533
 151	70.00000000	-70.00000000	-100.00000000	0.09483482	0.32477301
 152	70.00000000	-60.00000000	-100.00000000	0.11815061	0.31274891
 153	70.00000000	-50.00000000	-100.00000000	0.13937591	0.29620814
 154	70.00000000	-40.00000000	-100.00000000	0.15782407	0.27682918
 155	70.00000000	-30.00000000	-100.00000000	0.17349508	0.25612268
 156	70.00000000	-20.00000000	-100.00000000	0.17837797	0.24672313
 157	70.00000000	-10.00000000	-100.00000000	0.18202487	0.24582285
 158	70.00000000	0.00000000	-100.00000000	0.18699931	0.25401694
 159	70.00000000	10.00000000	-100.00000000	0.18822004	0.25268939
 160	70.00000000	20.00000000	-100.00000000	0.18881513	0.24959183
 161	70.00000000	30.00000000	-100.00000000	0.18944076	0.24660106
 162	70.00000000	40.00000000	-100.00000000	0.19026475	0.24588388
 163	70.00000000	50.00000000	-100.00000000	0.19214161	0.24356450
 164	70.00000000	60.00000000	-100.00000000	0.19601740	0.23643854
 165	70.00000000	70.00000000	-100.00000000	0.20247196	0.22421607
 166	70.00000000	80.00000000	-100.00000000	0.21016251	0.21068132
 167	70.00000000	90.00000000	-100.00000000	0.21806668	0.19836728
 168	70.00000000	100.00000000	-100.00000000	0.22563516	0.18638895
 169	80.00000000	-100.00000000	-100.00000000	0.05255207	0.32997635
 170	80.00000000	-90.00000000	-100.00000000	0.06569009	0.32251468
 171	80.00000000	-80.00000000	-100.00000000	0.07992676	0.31274891
 172	80.00000000	-70.00000000	-100.00000000	0.09532311	0.30083162
 173	80.00000000	-60.00000000	-100.00000000	0.11523613	0.28413823
 174	80.00000000	-50.00000000	-100.00000000	0.13633937	0.26620889
 175	80.00000000	-40.00000000	-100.00000000	0.15684749	0.24866103
 176	80.00000000	-30.00000000	-100.00000000	0.17291524	0.23476005
 177	80.00000000	-20.00000000	-100.00000000	0.18023957	0.22824445
 178	80.00000000	-10.00000000	-100.00000000	0.18171969	0.22771038
 179	80.00000000	0.00000000	-100.00000000	0.17798123	0.23254749
 180	80.00000000	10.00000000	-100.00000000	0.17792019	0.23183031
 181	80.00000000	20.00000000	-100.00000000	0.17871366	0.23027390
 182	80.00000000	30.00000000	-100.00000000	0.18013275	0.22925155
 183	80.00000000	40.00000000	-100.00000000	0.18219273	0.22806135
 184	80.00000000	50.00000000	-100.00000000	0.18501563	0.22616923
 185	80.00000000	60.00000000	-100.00000000	0.18863203	0.22143893
 186	80.00000000	70.00000000	-100.00000000	0.19314870	0.21388571
 187	80.00000000	80.00000000	-100.00000000	0.19890136	0.20305181
 188	80.00000000	90.00000000	-100.00000000	0.20526436	0.19194324
 189	80.00000000	100.00000000	-100.00000000	0.21211566	0.18275730
 190	90.00000000	-100.00000000	-100.00000000	0.06097505	0.30807966
 191	90.00000000	-90.00000000	-100.00000000	0.07350271	0.29774928
 192	90.00000000	-80.00000000	-100.00000000	0.08719005	0.28648815
 193	90.00000000	-70.00000000	-100.00000000	0.10212863	0.27374685
 194	90.00000000	-60.00000000	-100.00000000	0.11786068	0.26015106
 195	90.00000000	-50.00000000	-100.00000000	0.13600366	0.24547188
 196	90.00000000	-40.00000000	-100.00000000	0.15416190	0.23117419
 197	90.00000000	-30.00000000	-100.00000000	0.16482796	0.22368200
 198	90.00000000	-20.00000000	-100.00000000	0.17169452	0.21954681
 199	90.00000000	-10.00000000	-100.00000000	0.17097734	0.22195773
 200	90.00000000	0.00000000	-100.00000000	0.16697948	0.22716106
 201	90.00000000	10.00000000	-100.00000000	0.16829175	0.22668803
 202	90.00000000	20.00000000	-100.00000000	0.17058061	0.22505531
 203	90.00000000	30.00000000	-100.00000000	0.17239644	0.22342260
 204	90.00000000	40.00000000	-100.00000000	0.17396811	0.22174411
 205	90.00000000	50.00000000	-100.00000000	0.17578393	0.21844816
 206	90.00000000	60.00000000	-100.00000000	0.17824064	0.21420614
 207	90.00000000	70.00000000	-100.00000000	0.18355078	0.20706493
 208	90.00000000	80.00000000	-100.00000000	0.19029526	0.19847409
 209	90.00000000	90.00000000	-100.00000000	0.19661249	0.18948653
 210	90.00000000	100.00000000	-100.00000000	0.20260929	0.18030061
 211	100.00000000	-100.00000000	-100.00000000	0.05735866	0.29164568
 212	100.00000000	-90.00000000	-100.00000000	0.06759746	0.28065920
 213	100.00000000	-80.00000000	-100.00000000	0.08122377	0.26910812
 214	100.00000000	-70.00000000	-100.00000000	0.09791715	0.25711453
 215	100.00000000	-60.00000000	-100.00000000	0.11479362	0.24464791
 216	100.00000000	-50.00000000	-100.00000000	0.13144122	0.23161669
 217	100.00000000	-40.00000000	-100.00000000	0.14525063	0.22174411
 218	100.00000000	-30.00000000	-100.00000000	0.15371938	0.21785305
 219	100.00000000	-20.00000000	-100.00000000	0.15988404	0.21588464
 220	100.00000000	-10.00000000	-100.00000000	0.15815976	0.21809720
 221	100.00000000	0.00000000	-100.00000000	0.15509270	0.22099641
 222	100.00000000	10.00000000	-100.00000000	0.15738155	0.22014190
 223	100.00000000	20.00000000	-100.00000000	0.16090639	0.21834135
 224	100.00000000	30.00000000	-100.00000000	0.16473641	0.21583886
 225	100.00000000	40.00000000	-100.00000000	0.16882582	0.21269551
 226	100.00000000	50.00000000	-100.00000000	0.17276265	0.20901808
 227	100.00000000	60.00000000	-100.00000000	0.17653163	0.20457770
 228	100.00000000	70.00000000	-100.00000000	0.18113984	0.19891661
 229	100.00000000	80.00000000	-100.00000000	0.18736553	0.19102770
 230	100.00000000	90.00000000	-100.00000000	0.19348440	0.18287937
 231	100.00000000	100.00000000	-100.00000000	0.19829099	0.17502098
 232	0.00000000	-100.00000000	-90.00000000	0.44722667	1.00000000
 233	0.00000000	-90.00000000	-90.00000000	0.44724193	1.00000000
 234	0.00000000	-80.00000000	-90.00000000	0.44698253	1.00000000
 235	0.00000000	-70.00000000	-90.00000000	0.44647899	1.00000000
 236	0.00000000	-60.00000000	-90.00000000	0.44890517	1.00000000
 237	0.00000000	-50.00000000	-90.00000000	0.45336080	1.00000000
 238	0.00000000	-40.00000000	-90.00000000	0.45766383	1.00000000
 239	0.00000000	-30.00000000	-90.00000000	0.47455558	1.00000000
 240	0.00000000	-20.00000000	-90.00000000	0.49498740	1.00000000
 241	0.00000000	-10.00000000	-90.00000000	0.52951860	1.00000000
 242	0.00000000	0.00000000	-90.00000000	0.56163883	1.00000000
 243	0.00000000	10.00000000	-90.00000000	0.56061649	1.00000000
 244	0.00000000	20.00000000	-90.00000000	0.53340966	1.00000000
 245	0.00000000	30.00000000	-90.00000000	0.56617075	1.00000000
 246	0.00000000	40.00000000	-90.00000000	0.61164266	1.00000000
 247	0.00000000	50.00000000	-90.00000000	0.66767377	1.00000000
 248	0.00000000	60.00000000	-90.00000000	0.77657741	1.00000000
 249	0.00000000	70.00000000	-90.00000000	0.80650032	1.00000000
 250	0.00000000	80.00000000	-90.00000000	0.86364537	1.00000000
 251	0.00000000	90.00000000	-90.00000000	0.95085067	1.00000000
 252	0.00000000	100.00000000	-90.00000000	0.98654157	1.00000000
 253	10.00000000	-100.00000000	-90.00000000	0.41316855	1.00000000
 254	10.00000000	-90.00000000	-90.00000000	0.41120014	1.00000000
 255	10.00000000	-80.00000000	-90.00000000	0.40984207	1.00000000
 256	10.00000000	-70.00000000	-90.00000000	0.40988785	1.00000000
 257	10.00000000	-60.00000000	-90.00000000	0.40979630	1.00000000
 258	10.00000000	-50.00000000	-90.00000000	0.40953690	1.00000000
 259	10.00000000	-40.00000000	-90.00000000	0.41168842	1.00000000
 260	10.00000000	-30.00000000	-90.00000000	0.41281757	1.00000000
 261	10.00000000	-20.00000000	-90.00000000	0.41855496	1.00000000
 262	10.00000000	-10.00000000	-90.00000000	0.42719159	1.00000000
 263	10.00000000	0.00000000	-90.00000000	0.43582818	1.00000000
 264	10.00000000	10.00000000	-90.00000000	0.42767987	1.00000000
 265	10.00000000	20.00000000	-90.00000000	0.43175402	1.00000000
 266	10.00000000	30.00000000	-90.00000000	0.45236897	1.00000000
 267	10.00000000	40.00000000	-90.00000000	0.46173799	1.00000000
 268	10.00000000	50.00000000	-90.00000000	0.49466696	1.00000000
 269	10.00000000	60.00000000	-90.00000000	0.51699090	1.00000000
 270	10.00000000	70.00000000	-90.00000000	0.63047224	1.00000000
 271	10.00000000	80.00000000	-90.00000000	0.76536202	1.00000000
 272	10.00000000	90.00000000	-90.00000000	0.93275350	0.98237580
 273	10.00000000	100.00000000	-90.00000000	1.00000000	0.94433510
 274	20.00000000	-100.00000000	-90.00000000	0.33994049	0.98042268
 275	20.00000000	-90.00000000	-90.00000000	0.34041351	0.97734034
 276	20.00000000	-80.00000000	-90.00000000	0.34053558	0.97357136
 277	20.00000000	-70.00000000	-90.00000000	0.34053558	0.96882582
 278	20.00000000	-60.00000000	-90.00000000	0.34024566	0.96377510
 279	20.00000000	-50.00000000	-90.00000000	0.34154269	0.95983827
 280	20.00000000	-40.00000000	-90.00000000	0.34332800	0.95548946
 281	20.00000000	-30.00000000	-90.00000000	0.34787518	0.95332265
 282	20.00000000	-20.00000000	-90.00000000	0.35307851	0.95313954
 283	20.00000000	-10.00000000	-90.00000000	0.35918212	0.95193410
 284	20.00000000	0.00000000	-90.00000000	0.35820553	0.95025557
 285	20.00000000	10.00000000	-90.00000000	0.37724879	0.93463033
 286	20.00000000	20.00000000	-90.00000000	0.38352025	0.93858242
 287	20.00000000	30.00000000	-90.00000000	0.40422675	0.92378116
 288	20.00000000	40.00000000	-90.00000000	0.41651025	0.88336003
 289	20.00000000	50.00000000	-90.00000000	0.44994277	0.83453119
 290	20.00000000	60.00000000	-90.00000000	0.51555657	0.79374379
 291	20.00000000	70.00000000	-90.00000000	0.58245212	0.75635922
 292	20.00000000	80.00000000	-90.00000000	0.65331501	0.71274889
 293	20.00000000	90.00000000	-90.00000000	0.74898911	0.67508966
 294	20.00000000	100.00000000	-90.00000000	0.81443501	0.63422596
 295	30.00000000	-100.00000000	-90.00000000	0.21930267	0.79967958
 296	30.00000000	-90.00000000	-90.00000000	0.22032502	0.79656672
 297	30.00000000	-80.00000000	-90.00000000	0.22092012	0.79275197
 298	30.00000000	-70.00000000	-90.00000000	0.22133212	0.79035628
 299	30.00000000	-60.00000000	-90.00000000	0.22084382	0.79009688
 300	30.00000000	-50.00000000	-90.00000000	0.22085908	0.79093611
 301	30.00000000	-40.00000000	-90.00000000	0.22171359	0.78989851
 302	30.00000000	-30.00000000	-90.00000000	0.22185092	0.78731978
 303	30.00000000	-20.00000000	-90.00000000	0.22087434	0.78512245
 304	30.00000000	-10.00000000	-90.00000000	0.22264439	0.77906460
 305	30.00000000	0.00000000	-90.00000000	0.22760357	0.76884109
 306	30.00000000	10.00000000	-90.00000000	0.25645837	0.74326694
 307	30.00000000	20.00000000	-90.00000000	0.28047609	0.72524607
 308	30.00000000	30.00000000	-90.00000000	0.31039903	0.70476842
 309	30.00000000	40.00000000	-90.00000000	0.32434577	0.69259173
 310	30.00000000	50.00000000	-90.00000000	0.36353093	0.64760816
 311	30.00000000	60.00000000	-90.00000000	0.44264898	0.55672544
 312	30.00000000	70.00000000	-90.00000000	0.46733806	0.48828870
 313	30.00000000	80.00000000	-90.00000000	0.50807965	0.41585413
 314	30.00000000	90.00000000	-90.00000000	0.54946214	0.37093157
 315	30.00000000	100.00000000	-90.00000000	0.58327609	0.34947738
 316	40.00000000	-100.00000000	-90.00000000	0.17198443	0.67080188
 317	40.00000000	-90.00000000	-90.00000000	0.17190814	0.66820782
 318	40.00000000	-80.00000000	-90.00000000	0.17238118	0.66485083
 319	40.00000000	-70.00000000	-90.00000000	0.17236592	0.66108185
 320	40.00000000	-60.00000000	-90.00000000	0.17199969	0.65767908
 321	40.00000000	-50.00000000	-90.00000000	0.17306782	0.65371174
 322	40.00000000	-40.00000000	-90.00000000	0.17552453	0.64872205
 323	40.00000000	-30.00000000	-90.00000000	0.18007171	0.64002442
 324	40.00000000	-20.00000000	-90.00000000	0.18802167	0.61994356
 325	40.00000000	-10.00000000	-90.00000000	0.19707027	0.59075302
 326	40.00000000	0.00000000	-90.00000000	0.20630197	0.55426872
 327	40.00000000	10.00000000	-90.00000000	0.22369726	0.49196613
 328	40.00000000	20.00000000	-90.00000000	0.23561455	0.46845198
 329	40.00000000	30.00000000	-90.00000000	0.24670787	0.44246587
 330	40.00000000	40.00000000	-90.00000000	0.26112765	0.41382468
 331	40.00000000	50.00000000	-90.00000000	0.28412297	0.38718241
 332	40.00000000	60.00000000	-90.00000000	0.30933088	0.36400396
 333	40.00000000	70.00000000	-90.00000000	0.32487983	0.35751888
 334	40.00000000	80.00000000	-90.00000000	0.34676129	0.33551538
 335	40.00000000	90.00000000	-90.00000000	0.38522926	0.30365452
 336	40.00000000	100.00000000	-90.00000000	0.42348364	0.27348745
 337	50.00000000	-100.00000000	-90.00000000	0.05249104	0.50740826
 338	50.00000000	-90.00000000	-90.00000000	0.05354391	0.49968719
 339	50.00000000	-80.00000000	-90.00000000	0.05387961	0.49304950
 340	50.00000000	-70.00000000	-90.00000000	0.05433738	0.48668650
 341	50.00000000	-60.00000000	-90.00000000	0.05998322	0.47815672
 342	50.00000000	-50.00000000	-90.00000000	0.07707332	0.46353856
 343	50.00000000	-40.00000000	-90.00000000	0.11183337	0.44068056
 344	50.00000000	-30.00000000	-90.00000000	0.15107958	0.41440451
 345	50.00000000	-20.00000000	-90.00000000	0.17656215	0.38985276
 346	50.00000000	-10.00000000	-90.00000000	0.19244678	0.36707103
 347	50.00000000	0.00000000	-90.00000000	0.20469978	0.34702069
 348	50.00000000	10.00000000	-90.00000000	0.21042190	0.34369421
 349	50.00000000	20.00000000	-90.00000000	0.21376364	0.34398413
 350	50.00000000	30.00000000	-90.00000000	0.21739529	0.34348059
 351	50.00000000	40.00000000	-90.00000000	0.22684062	0.33540857
 352	50.00000000	50.00000000	-90.00000000	0.23920043	0.32143131
 353	50.00000000	60.00000000	-90.00000000	0.24811170	0.30711833
 354	50.00000000	70.00000000	-90.00000000	0.27240404	0.27934691
 355	50.00000000	80.00000000	-90.00000000	0.30670634	0.24496834
 356	50.00000000	90.00000000	-90.00000000	0.33594263	0.21795987
 357	50.00000000	100.00000000	-90.00000000	0.35991454	0.19615473
 358	60.00000000	-100.00000000	-90.00000000	0.01297017	0.38837263
 359	60.00000000	-90.00000000	-90.00000000	0.01835660	0.38335240
 360	60.00000000	-80.00000000	-90.00000000	0.02552834	0.37813383
 361	60.00000000	-70.00000000	-90.00000000	0.03776608	0.37108415
 362	60.00000000	-60.00000000	-90.00000000	0.05917449	0.36250859
 363	60.00000000	-50.00000000	-90.00000000	0.09236286	0.35349050
 364	60.00000000	-40.00000000	-90.00000000	0.12776379	0.34189364
 365	60.00000000	-30.00000000	-90.00000000	0.15761043	0.32608530
 366	60.00000000	-20.00000000	-90.00000000	0.17721827	0.30817121
 367	60.00000000	-10.00000000	-90.00000000	0.18820478	0.29167619
