bench/lcms_compat/reference/lab_to_sRGB_v4_ICC_preference.icc_Relative.it8
CGATS.17
ORIGINATOR	"icctrans"
#
# Data follows
#
NUMBER_OF_SETS	4851.00000000
NUMBER_OF_FIELDS	7.00000000
BEGIN_DATA_FORMAT
 SAMPLE_ID	IN_LAB_L	IN_LAB_A	IN_LAB_B	OUT_RGB_R	OUT_RGB_G	OUT_RGB_B
END_DATA_FORMAT
BEGIN_DATA
 1	0.00000000	-100.00000000	-100.00000000	-392.69631207	-17.90204778	147.10013866
 2	0.00000000	-90.00000000	-100.00000000	-392.69631207	-17.90204778	147.10013866
 3	0.00000000	-80.00000000	-100.00000000	-392.69631207	-17.90204778	147.10013866
 4	0.00000000	-70.00000000	-100.00000000	-392.69631207	-17.90204778	147.10013866
 5	0.00000000	-60.00000000	-100.00000000	-392.69631207	-17.90204778	147.10013866
 6	0.00000000	-50.00000000	-100.00000000	-392.69631207	-17.90204778	147.10013866
 7	0.00000000	-40.00000000	-100.00000000	-392.69631207	-17.90204778	147.10013866
 8	0.00000000	-30.00000000	-100.00000000	-392.69631207	-17.90204778	147.10013866
 9	0.00000000	-20.00000000	-100.00000000	-392.69631207	-17.90204778	147.10013866
 10	0.00000000	-10.00000000	-100.00000000	-392.69631207	-17.90204778	147.10013866
 11	0.00000000	0.00000000	-100.00000000	-392.69631207	-17.90204778	147.10013866
 12	0.00000000	10.00000000	-100.00000000	-367.07106471	-25.95405892	147.13649511
 13	0.00000000	20.00000000	-100.00000000	-340.91089725	-34.00665522	147.18493491
 14	0.00000000	30.00000000	-100.00000000	-315.28561950	-42.05866635	147.22126096
 15	0.00000000	40.00000000	-100.00000000	-288.05880368	-50.40890068	147.26967037
 16	0.00000000	50.00000000	-100.00000000	-256.56004429	-60.25024720	147.31806457
 17	0.00000000	60.00000000	-100.00000000	-219.72374171	-71.88151047	147.37852693
 18	0.00000000	70.00000000	-100.00000000	-176.48007095	-85.59975475	147.45104223
 19	0.00000000	80.00000000	-100.00000000	-126.29623219	-101.10733822	147.52349675
 20	0.00000000	90.00000000	-100.00000000	-68.63940284	-119.00127724	147.62005717
 21	0.00000000	100.00000000	-100.00000000	-3.50749323	-139.28041667	147.71654159
 22	10.00000000	-100.00000000	-100.00000000	-615.85374713	38.37709710	175.35236746
 23	10.00000000	-90.00000000	-100.00000000	-615.85374713	38.37709710	175.35236746
 24	10.00000000	-80.00000000	-100.00000000	-615.85374713	38.37709710	175.35236746
 25	10.00000000	-70.00000000	-100.00000000	-615.85374713	38.37709710	175.35236746
 26	10.00000000	-60.00000000	-100.00000000	-615.85374713	38.37709710	175.35236746
 27	10.00000000	-50.00000000	-100.00000000	-615.85374713	38.37709710	175.35236746
 28	10.00000000	-40.00000000	-100.00000000	-607.84481049	37.56679438	175.36203414
 29	10.00000000	-30.00000000	-100.00000000	-582.21959352	34.69048552	175.39103419
 30	10.00000000	-20.00000000	-100.00000000	-556.06045961	31.43199127	175.42967051
 31	10.00000000	-10.00000000	-100.00000000	-529.90029216	27.94570874	175.45865536
 32	10.00000000	0.00000000	-100.00000000	-502.13958979	23.68204113	175.49727648
 33	10.00000000	10.00000000	-100.00000000	-469.03926194	17.40897104	175.53591281
 34	10.00000000	20.00000000	-100.00000000	-430.06751955	6.85043391	175.59380651
 35	10.00000000	30.00000000	-100.00000000	-384.68840897	-7.16603120	175.65168500
 36	10.00000000	40.00000000	-100.00000000	-331.83528185	-23.56827714	175.70953310
 37	10.00000000	50.00000000	-100.00000000	-272.57582009	-42.35688955	175.78663856
 38	10.00000000	60.00000000	-100.00000000	-204.77566302	-63.23247537	175.87331951
 39	10.00000000	70.00000000	-100.00000000	-128.96552056	-87.09087074	175.96956074
 40	10.00000000	80.00000000	-100.00000000	-44.08081904	-113.63326728	176.08496815
 41	10.00000000	90.00000000	-100.00000000	32.94231333	-142.85967261	176.20026916
 42	10.00000000	100.00000000	-100.00000000	61.06024593	-175.36594033	176.33467555
 43	20.00000000	-100.00000000	-100.00000000	-921.75946355	69.38404128	204.22216952
 44	20.00000000	-90.00000000	-100.00000000	-921.75946355	69.38404128	204.22216952
 45	20.00000000	-80.00000000	-100.00000000	-905.74365735	68.48878652	204.23802227
 46	20.00000000	-70.00000000	-100.00000000	-880.11734605	67.03829035	204.26971257
 47	20.00000000	-60.00000000	-100.00000000	-853.95827293	65.55051059	204.29346889
 48	20.00000000	-50.00000000	-100.00000000	-827.79913902	64.02273417	204.31722522
 49	20.00000000	-40.00000000	-100.00000000	-798.43583465	62.21520156	204.34890032
 50	20.00000000	-30.00000000	-100.00000000	-763.20108533	59.97619450	204.38847899
 51	20.00000000	-20.00000000	-100.00000000	-722.62674093	57.24875785	204.42805767
 52	20.00000000	-10.00000000	-100.00000000	-675.11220574	53.95078182	204.48344350
 53	20.00000000	0.00000000	-100.00000000	-620.65851331	49.73203540	204.53882933
 54	20.00000000	10.00000000	-100.00000000	-558.19588423	44.48405720	204.60207313
 55	20.00000000	20.00000000	-100.00000000	-487.72538245	37.66905449	204.67320532
 56	20.00000000	30.00000000	-100.00000000	-409.24594402	28.08211002	204.76008385
 57	20.00000000	40.00000000	-100.00000000	-322.22581029	10.98234834	204.84693199
 58	20.00000000	50.00000000	-100.00000000	-225.06233364	-19.39315997	204.94949609
 59	20.00000000	60.00000000	-100.00000000	-118.28833669	-52.79468246	205.05987257
 60	20.00000000	70.00000000	-100.00000000	-0.83819560	-89.47664872	205.18593460
 61	20.00000000	80.00000000	-100.00000000	55.33777580	-129.43906635	205.31974822
 62	20.00000000	90.00000000	-100.00000000	80.42849824	-172.98015475	205.46132863
 63	20.00000000	100.00000000	-100.00000000	99.81717065	-220.10051429	205.61848819
 64	30.00000000	-100.00000000	-100.00000000	-1276.24742746	97.62896687	233.60754311
 65	30.00000000	-90.00000000	-100.00000000	-1249.55437660	96.68518871	233.63409609
 66	30.00000000	-80.00000000	-100.00000000	-1218.58950377	95.51624224	233.66064906
 67	30.00000000	-70.00000000	-100.00000000	-1181.75324678	94.14817125	233.68720204
 68	30.00000000	-60.00000000	-100.00000000	-1139.04341698	92.49609590	233.72702390
 69	30.00000000	-50.00000000	-100.00000000	-1088.85960102	90.54113880	233.77345741
 70	30.00000000	-40.00000000	-100.00000000	-1032.27048397	88.21994975	233.81989092
 71	30.00000000	-30.00000000	-100.00000000	-967.67243028	85.53747609	233.87956291
 72	30.00000000	-20.00000000	-100.00000000	-895.06647348	82.32407972	233.93921971
 73	30.00000000	-10.00000000	-100.00000000	-813.38386774	78.59295353	234.01209980
 74	30.00000000	0.00000000	-100.00000000	-723.16059709	74.20521498	234.09159154
 75	30.00000000	10.00000000	-100.00000000	-622.79393792	68.91176462	234.17764932
 76	30.00000000	20.00000000	-100.00000000	-513.35062981	62.51077250	234.27689999
 77	30.00000000	30.00000000	-100.00000000	-392.16245592	54.43558261	234.38270152
 78	30.00000000	40.00000000	-100.00000000	-260.83092391	43.79140757	234.49503869
 79	30.00000000	50.00000000	-100.00000000	-117.22061679	27.67102718	234.62052315
 80	30.00000000	60.00000000	-100.00000000	27.98104685	-11.04292564	234.75910932
 81	30.00000000	70.00000000	-100.00000000	70.69543451	-63.23247537	234.90418553
 82	30.00000000	80.00000000	-100.00000000	96.16391748	-119.89594683	235.06230265
 83	30.00000000	90.00000000	-100.00000000	116.47959575	-180.43631226	235.22686422
 84	30.00000000	100.00000000	-100.00000000	134.25378799	-245.44944048	235.41098714
 85	40.00000000	-100.00000000	-100.00000000	-1702.80743122	126.54265657	263.49154115
 86	40.00000000	-90.00000000	-100.00000000	-1651.02308035	125.17415240	263.53115022
 87	40.00000000	-80.00000000	-100.00000000	-1591.76364899	123.57924879	263.57641339
 88	40.00000000	-70.00000000	-100.00000000	-1525.03010988	121.74693391	263.62733066
 89	40.00000000	-60.00000000	-100.00000000	-1449.22107697	119.63650435	263.68390203
 90	40.00000000	-50.00000000	-100.00000000	-1365.40292501	117.22938672	263.74609709
 91	40.00000000	-40.00000000	-100.00000000	-1271.97657824	114.47380498	263.81394625
 92	40.00000000	-30.00000000	-100.00000000	-1168.94057751	111.33793965	263.89304280
 93	40.00000000	-20.00000000	-100.00000000	-1055.76027632	107.78115571	263.97776306
 94	40.00000000	-10.00000000	-100.00000000	-931.36893511	103.68634343	264.06810701
 95	40.00000000	0.00000000	-100.00000000	-796.30034924	98.97271916	264.16966796
 96	40.00000000	10.00000000	-100.00000000	-649.48692799	93.52822691	264.27682221
 97	40.00000000	20.00000000	-100.00000000	-490.39469361	87.19075218	264.39519346
 98	40.00000000	30.00000000	-100.00000000	-318.48878682	79.57865864	264.52475131
 99	40.00000000	40.00000000	-100.00000000	-133.23640019	70.36906242	264.65987206
 100	40.00000000	50.00000000	-100.00000000	38.35343957	58.53519402	264.81174231
 101	40.00000000	60.00000000	-100.00000000	81.98301762	41.73222207	264.96914506
 102	40.00000000	70.00000000	-100.00000000	109.08928871	4.76287533	265.13764322
 103	40.00000000	80.00000000	-100.00000000	130.94066978	-70.98684847	265.31720638
 104	40.00000000	90.00000000	-100.00000000	150.00107020	-151.50813013	265.50783455
 105	40.00000000	100.00000000	-100.00000000	167.32592136	-237.09920615	265.70946693
 106	50.00000000	-100.00000000	-100.00000000	-2179.01733398	155.67880154	293.88185441
 107	50.00000000	-90.00000000	-100.00000000	-2092.53105640	153.90627265	293.93568993
 108	50.00000000	-80.00000000	-100.00000000	-1995.90157270	151.90779269	293.99928331
 109	50.00000000	-70.00000000	-100.00000000	-1889.66134071	149.65150416	294.06774044
 110	50.00000000	-60.00000000	-100.00000000	-1773.27790260	147.14315236	294.14598584
 111	50.00000000	-50.00000000	-100.00000000	-1645.68439722	144.34486091	294.22417045
 112	50.00000000	-40.00000000	-100.00000000	-1506.87887907	141.21303856	294.31700706
 113	50.00000000	-30.00000000	-100.00000000	-1355.79351425	137.69652486	294.41467702
 114	50.00000000	-20.00000000	-100.00000000	-1192.96428680	133.75739783	294.51718032
 115	50.00000000	-10.00000000	-100.00000000	-1017.32135653	129.34765846	294.62941110
 116	50.00000000	0.00000000	-100.00000000	-828.33299518	124.37994182	294.75130856
 117	50.00000000	10.00000000	-100.00000000	-625.46321869	118.76825094	294.88290310
 118	50.00000000	20.00000000	-100.00000000	-408.17823172	112.33689845	295.02416432
 119	50.00000000	30.00000000	-100.00000000	-176.48007095	104.96731550	295.17016768
 120	50.00000000	40.00000000	-100.00000000	40.27825288	96.29746512	295.33070147
 121	50.00000000	50.00000000	-100.00000000	89.55224186	85.90367004	295.50081074
 122	50.00000000	60.00000000	-100.00000000	119.38400030	72.88701251	295.68049550
 123	50.00000000	70.00000000	-100.00000000	143.19748968	55.12006268	295.86972535
 124	50.00000000	80.00000000	-100.00000000	163.84103715	23.36248208	296.06853068
 125	50.00000000	90.00000000	-100.00000000	182.51255125	-74.56551924	296.28165364
 126	50.00000000	100.00000000	-100.00000000	199.83541131	-183.41854423	296.50426090
 127	60.00000000	-100.00000000	-100.00000000	-2690.99711895	185.14027745	324.75723445
 128	60.00000000	-90.00000000	-100.00000000	-2559.66546535	183.00713271	324.83000815
 129	60.00000000	-80.00000000	-100.00000000	-2417.65693188	180.64983040	324.91132379
 130	60.00000000	-70.00000000	-100.00000000	-2262.83536434	178.04066241	324.99689519
 131	60.00000000	-60.00000000	-100.00000000	-2096.26811028	175.16515911	325.09097815
 132	60.00000000	-50.00000000	-100.00000000	-1916.35536432	172.00632781	325.19354224
 133	60.00000000	-40.00000000	-100.00000000	-1723.09518099	168.52633774	325.30039251
 134	60.00000000	-30.00000000	-100.00000000	-1515.95449448	164.68143046	325.41997969
 135	60.00000000	-20.00000000	-100.00000000	-1294.39865828	160.43835014	325.54376185
 136	60.00000000	-10.00000000	-100.00000000	-1057.89570093	155.73678643	325.67602515
 137	60.00000000	0.00000000	-100.00000000	-805.90982080	150.52290380	325.82099497
 138	60.00000000	10.00000000	-100.00000000	-537.90819526	144.72766757	325.97012937
 139	60.00000000	20.00000000	-100.00000000	-253.89074832	138.21550101	326.12771451
 140	60.00000000	30.00000000	-100.00000000	31.88017152	130.87870270	326.29794538
 141	60.00000000	40.00000000	-100.00000000	93.58744293	122.51021415	326.47656620
 142	60.00000000	50.00000000	-100.00000000	127.16047302	112.80320182	326.66780233
 143	60.00000000	60.00000000	-100.00000000	153.36516649	101.29687205	326.86314225
 144	60.00000000	70.00000000	-100.00000000	175.87400347	87.15087712	327.07526207
 145	60.00000000	80.00000000	-100.00000000	196.08346224	68.38256702	327.29568064
 146	60.00000000	90.00000000	-100.00000000	214.72802818	38.07529829	327.52436757
 147	60.00000000	100.00000000	-100.00000000	232.21820086	-70.98684847	327.76554823
 148	70.00000000	-100.00000000	-100.00000000	-3224.86494541	215.03903389	356.10612988
 149	70.00000000	-90.00000000	-100.00000000	-3040.68025589	212.56819367	356.20066881
 150	70.00000000	-80.00000000	-100.00000000	-2843.14922333	209.87555176	356.29897714
 151	70.00000000	-70.00000000	-100.00000000	-2631.73756599	206.94979995	356.40479386
 152	70.00000000	-60.00000000	-100.00000000	-2405.37793636	203.75075161	356.51811898
 153	70.00000000	-50.00000000	-100.00000000	-2164.06936169	200.26152045	356.63515270
 154	70.00000000	-40.00000000	-100.00000000	-1907.27877617	196.46219552	356.76346421
 155	70.00000000	-30.00000000	-100.00000000	-1634.47238445	192.31455088	356.89925373
 156	70.00000000	-20.00000000	-100.00000000	-1345.65018654	187.80426890	357.04632103
 157	70.00000000	-10.00000000	-100.00000000	-1039.21067476	182.85015553	357.19703615
 158	70.00000000	0.00000000	-100.00000000	-715.68655014	177.42138684	357.35896826
 159	70.00000000	10.00000000	-100.00000000	-374.01122510	171.44406438	357.52831757
 160	70.00000000	20.00000000	-100.00000000	-13.65082450	164.84321058	357.70508409
 161	70.00000000	30.00000000	-100.00000000	93.52191925	157.50198931	357.89677620
 162	70.00000000	40.00000000	-100.00000000	132.27006644	149.28480864	358.09208572
 163	70.00000000	50.00000000	-100.00000000	161.45265251	139.97953355	358.29849064
 164	70.00000000	60.00000000	-100.00000000	186.12972915	129.29867148	358.51596057
 165	70.00000000	70.00000000	-100.00000000	208.05195361	116.75720125	358.74452591
 166	70.00000000	80.00000000	-100.00000000	228.16339284	101.52900159	358.98038685
 167	70.00000000	90.00000000	-100.00000000	246.93189293	81.76649764	359.23096061
 168	70.00000000	100.00000000	-100.00000000	264.70559120	51.88867047	359.48876917
 169	80.00000000	-100.00000000	-100.00000000	-3768.87609959	245.38814217	387.91182160
 170	80.00000000	-90.00000000	-100.00000000	-3522.76263714	242.61337906	388.02301884
 171	80.00000000	-80.00000000	-100.00000000	-3261.16740704	239.61977810	388.13755989
 172	80.00000000	-70.00000000	-100.00000000	-2983.55637074	236.38533086	388.26213241
 173	80.00000000	-60.00000000	-100.00000000	-2688.86169434	232.89695084	388.39336216
 174	80.00000000	-50.00000000	-100.00000000	-2377.61620045	229.12794828	388.53127956
 175	80.00000000	-40.00000000	-100.00000000	-2048.21971893	225.04809201	388.67922843
 176	80.00000000	-30.00000000	-100.00000000	-1700.67200661	220.63514560	388.83377373
 177	80.00000000	-20.00000000	-100.00000000	-1334.97294188	215.86281449	388.99500668
 178	80.00000000	-10.00000000	-100.00000000	-950.05402207	210.68677783	389.16617990
 179	80.00000000	0.00000000	-100.00000000	-545.38224220	205.06798893	389.34397995
 180	80.00000000	10.00000000	-100.00000000	-120.95763266	198.93057346	389.53172028
 181	80.00000000	20.00000000	-100.00000000	88.29792157	192.22628921	389.72940087
 182	80.00000000	30.00000000	-100.00000000	134.33738351	184.86184359	389.93696094
 183	80.00000000	40.00000000	-100.00000000	167.26282954	176.73366934	390.15105665
 184	80.00000000	50.00000000	-100.00000000	194.45755988	167.66808540	390.37503183
 185	80.00000000	60.00000000	-100.00000000	218.35655987	157.48294473	390.61216950
 186	80.00000000	70.00000000	-100.00000000	240.09849161	145.86825997	390.85581243
 187	80.00000000	80.00000000	-100.00000000	260.24925113	132.36361742	391.10924363
 188	80.00000000	90.00000000	-100.00000000	279.27261114	116.11448854	391.37574613
 189	80.00000000	100.00000000	-100.00000000	297.37544775	95.48054695	391.65200651
 190	90.00000000	-100.00000000	-100.00000000	-3767.27447033	275.03632486	391.84822798
 191	90.00000000	-90.00000000	-100.00000000	-3450.69077969	271.96782231	391.98781729
 192	90.00000000	-80.00000000	-100.00000000	-3115.42157650	268.67282152	392.13731647
 193	90.00000000	-70.00000000	-100.00000000	-2762.53518105	265.14980257	392.29006827
 194	90.00000000	-60.00000000	-100.00000000	-2390.96278667	261.35739326	392.45266914
 195	90.00000000	-50.00000000	-100.00000000	-1999.63850498	257.30000138	392.62514949
 196	90.00000000	-40.00000000	-100.00000000	-1589.09430742	252.94063210	392.80413508
 197	90.00000000	-30.00000000	-100.00000000	-1158.26236010	248.25867534	392.99293935
 198	90.00000000	-20.00000000	-100.00000000	-707.14479089	243.21923375	393.19159269
 199	90.00000000	-10.00000000	-100.00000000	-234.13794905	237.79295772	393.39669049
 200	90.00000000	0.00000000	-100.00000000	79.39864710	231.93353534	393.61154616
 201	90.00000000	10.00000000	-100.00000000	133.28769743	225.60964108	393.83947313
 202	90.00000000	20.00000000	-100.00000000	169.45335120	218.73270929	394.07381415
 203	90.00000000	30.00000000	-100.00000000	198.78008634	211.26003027	394.31785226
 204	90.00000000	40.00000000	-100.00000000	224.26966578	203.08110595	394.57155704
 205	90.00000000	50.00000000	-100.00000000	247.29161203	194.06891674	394.83824193
 206	90.00000000	60.00000000	-100.00000000	268.53955507	184.08551484	395.11450231
 207	90.00000000	70.00000000	-100.00000000	288.48280013	172.90441722	395.40036857
 208	90.00000000	80.00000000	-100.00000000	307.41709292	160.17765373	395.69584072
 209	90.00000000	90.00000000	-100.00000000	325.53604066	145.44713616	396.00408018
 210	90.00000000	100.00000000	-100.00000000	343.00513208	127.81827092	396.32180393
 211	100.00000000	-100.00000000	-100.00000000	-3551.05719566	305.07654011	389.02859688
 212	100.00000000	-90.00000000	-100.00000000	-3153.86067867	301.72901094	389.20311391
 213	100.00000000	-80.00000000	-100.00000000	-2736.91008568	298.15808415	389.38757122
 214	100.00000000	-70.00000000	-100.00000000	-2299.67186451	294.35315073	389.58196878
 215	100.00000000	-60.00000000	-100.00000000	-1841.61294937	290.30214250	389.78630662
 216	100.00000000	-50.00000000	-100.00000000	-1362.73370504	285.97399235	389.99718010
 217	100.00000000	-40.00000000	-100.00000000	-861.43225908	281.35198116	390.21793306
 218	100.00000000	-30.00000000	-100.00000000	-337.70772994	276.41695797	390.44853508
 219	100.00000000	-20.00000000	-100.00000000	71.15143284	271.13739967	390.68895578
 220	100.00000000	-10.00000000	-100.00000000	133.37205291	265.48661649	390.94253898
 221	100.00000000	0.00000000	-100.00000000	172.64177531	259.42354023	391.20253623
 222	100.00000000	10.00000000	-100.00000000	203.91256213	252.90986896	391.47563517
 223	100.00000000	20.00000000	-100.00000000	230.87705523	245.88918328	391.75511777
 224	100.00000000	30.00000000	-100.00000000	255.05468667	238.29301089	392.04764128
 225	100.00000000	40.00000000	-100.00000000	277.31638491	230.04880607	392.35314488
 226	100.00000000	50.00000000	-100.00000000	298.14361453	221.07678831	392.66825438
 227	100.00000000	60.00000000	-100.00000000	317.86476910	211.22101396	392.99293935
 228	100.00000000	70.00000000	-100.00000000	336.69546425	200.33123910	393.33385706
 229	100.00000000	80.00000000	-100.00000000	354.81523275	188.16786379	393.68094563
 230	100.00000000	90.00000000	-100.00000000	372.33679175	174.39910501	394.04411495
 231	100.00000000	100.00000000	-100.00000000	389.36775148	158.46964538	394.41673815
 232	0.00000000	-100.00000000	-90.00000000	-316.35336220	-22.97183264	130.74534506
 233	0.00000000	-90.00000000	-90.00000000	-316.35336220	-22.97183264	130.74534506
 234	0.00000000	-80.00000000	-90.00000000	-316.35336220	-22.97183264	130.74534506
 235	0.00000000	-70.00000000	-90.00000000	-316.35336220	-22.97183264	130.74534506
 236	0.00000000	-60.00000000	-90.00000000	-316.35336220	-22.97183264	130.74534506
 237	0.00000000	-50.00000000	-90.00000000	-316.35336220	-22.97183264	130.74534506
 238	0.00000000	-40.00000000	-90.00000000	-316.35336220	-22.97183264	130.74534506
 239	0.00000000	-30.00000000	-90.00000000	-316.35336220	-22.97183264	130.74534506
 240	0.00000000	-20.00000000	-90.00000000	-316.35336220	-22.97183264	130.74534506
 241	0.00000000	-10.00000000	-90.00000000	-316.35336220	-22.97183264	130.74534506
 242	0.00000000	0.00000000	-90.00000000	-316.35336220	-22.97183264	130.74534506
 243	0.00000000	10.00000000	-90.00000000	-290.72808444	-31.02442704	130.78756839
 244	0.00000000	20.00000000	-90.00000000	-264.56794739	-39.07643817	130.84385097
 245	0.00000000	30.00000000	-90.00000000	-238.94268483	-47.12844931	130.88602871
 246	0.00000000	40.00000000	-90.00000000	-211.71583861	-55.47868364	130.94225049
 247	0.00000000	50.00000000	-90.00000000	-180.21707922	-65.32003015	130.99842668
 248	0.00000000	60.00000000	-90.00000000	-143.38077664	-76.95129722	131.06861651
 249	0.00000000	70.00000000	-90.00000000	-100.13711348	-90.66954151	131.15280479
 250	0.00000000	80.00000000	-90.00000000	-49.95327473	-106.17770255	131.23690188
 251	0.00000000	90.00000000	-90.00000000	7.70459957	-124.07106400	131.34891987
 252	0.00000000	100.00000000	-90.00000000	40.95486738	-144.35078859	131.46083146
 253	10.00000000	-100.00000000	-90.00000000	-516.55382752	36.10423006	158.53608102
 254	10.00000000	-90.00000000	-90.00000000	-516.55382752	36.10423006	158.53608102
 255	10.00000000	-80.00000000	-90.00000000	-516.55382752	36.10423006	158.53608102
 256	10.00000000	-70.00000000	-90.00000000	-516.55382752	36.10423006	158.53608102
 257	10.00000000	-60.00000000	-90.00000000	-516.55382752	36.10423006	158.53608102
 258	10.00000000	-50.00000000	-90.00000000	-516.55382752	36.10423006	158.53608102
 259	10.00000000	-40.00000000	-90.00000000	-508.54592443	35.24096198	158.54708523
 260	10.00000000	-30.00000000	-90.00000000	-482.92064667	32.15743504	158.58011305
 261	10.00000000	-20.00000000	-90.00000000	-456.76050961	28.62162977	158.62412989
 262	10.00000000	-10.00000000	-90.00000000	-430.60137570	24.77174286	158.65712732
 263	10.00000000	0.00000000	-90.00000000	-402.83963978	19.92986787	158.70111376
 264	10.00000000	10.00000000	-90.00000000	-369.74034548	12.34155536	158.74508500
 265	10.00000000	20.00000000	-90.00000000	-330.76756954	0.28953532	158.81101906
 266	10.00000000	30.00000000	-90.00000000	-285.38949251	-13.72692967	158.87690753
 267	10.00000000	40.00000000	-90.00000000	-232.53636539	-30.12975935	158.94276559
 268	10.00000000	50.00000000	-90.00000000	-173.27691883	-48.91778469	159.03051049
 269	10.00000000	60.00000000	-90.00000000	-105.47570542	-69.79395568	159.12915319
 270	10.00000000	70.00000000	-90.00000000	-29.66660980	-93.65176588	159.23867851
 271	10.00000000	80.00000000	-90.00000000	34.97135885	-120.19417003	159.36996907
 272	10.00000000	90.00000000	-90.00000000	60.07560477	-149.42056775	159.50112283
 273	10.00000000	100.00000000	-90.00000000	78.35264683	-181.92742825	159.65396583
 274	20.00000000	-100.00000000	-90.00000000	-796.83426619	67.90218160	186.94317430
 275	20.00000000	-90.00000000	-90.00000000	-796.83426619	67.90218160	186.94317430
 276	20.00000000	-80.00000000	-90.00000000	-780.81845999	66.98386207	186.96097255
 277	20.00000000	-70.00000000	-90.00000000	-755.19318223	65.49466118	186.99653864
 278	20.00000000	-60.00000000	-90.00000000	-729.03301477	63.96534204	187.02319801
 279	20.00000000	-50.00000000	-90.00000000	-702.87394166	62.39273563	187.04987258
 280	20.00000000	-40.00000000	-90.00000000	-673.51057649	60.52950181	187.08540827
 281	20.00000000	-30.00000000	-90.00000000	-638.27588797	58.21658872	187.12983549
 282	20.00000000	-20.00000000	-90.00000000	-597.70148277	55.39116293	187.17423230
 283	20.00000000	-10.00000000	-90.00000000	-550.18798113	51.96128458	187.23638177
 284	20.00000000	0.00000000	-90.00000000	-495.73328555	47.54811779	187.29850084
 285	20.00000000	10.00000000	-90.00000000	-433.27068686	42.00684473	187.36946583
 286	20.00000000	20.00000000	-90.00000000	-362.80018508	34.69048552	187.44926155
 287	20.00000000	30.00000000	-90.00000000	-284.32178020	23.99785358	187.54671872
 288	20.00000000	40.00000000	-90.00000000	-197.30059773	2.67531651	187.64409989
