bench/lcms_compat/reference/lab_to_D65_XYZ.icc_Perceptual.it8
CGATS.17
ORIGINATOR	"icctrans"
#
# Data follows
#
NUMBER_OF_SETS	4851.00000000
NUMBER_OF_FIELDS	7.00000000
BEGIN_DATA_FORMAT
 SAMPLE_ID	IN_LAB_L	IN_LAB_A	IN_LAB_B	OUT_RGB_R	OUT_RGB_G	OUT_RGB_B
END_DATA_FORMAT
BEGIN_DATA
 1	0.00000000	-100.00000000	-100.00000000	-2.57817021	1.32826860	72.58051336
 2	0.00000000	-90.00000000	-100.00000000	-1.97479073	1.31036954	72.58829534
 3	0.00000000	-80.00000000	-100.00000000	-1.37141125	1.29247037	72.59607732
 4	0.00000000	-70.00000000	-100.00000000	-0.76803165	1.27457131	72.60385171
 5	0.00000000	-60.00000000	-100.00000000	-0.16465207	1.25667213	72.61163369
 6	0.00000000	-50.00000000	-100.00000000	0.43872749	1.23877295	72.61941567
 7	0.00000000	-40.00000000	-100.00000000	1.04210679	1.22087389	72.62719765
 8	0.00000000	-30.00000000	-100.00000000	1.64548639	1.20297472	72.63497204
 9	0.00000000	-20.00000000	-100.00000000	2.24886586	1.18507566	72.64275402
 10	0.00000000	-10.00000000	-100.00000000	2.85224546	1.16717648	72.65053600
 11	0.00000000	0.00000000	-100.00000000	3.45562530	1.14927731	72.65831798
 12	0.00000000	10.00000000	-100.00000000	4.05900490	1.13137825	72.66609237
 13	0.00000000	20.00000000	-100.00000000	4.66238449	1.11347907	72.67387435
 14	0.00000000	30.00000000	-100.00000000	5.26576362	1.09558001	72.68165633
 15	0.00000000	40.00000000	-100.00000000	5.88721362	1.07714483	72.68966630
 16	0.00000000	50.00000000	-100.00000000	6.61998672	1.05540726	72.69912019
 17	0.00000000	60.00000000	-100.00000000	7.48691116	1.02969012	72.71029159
 18	0.00000000	70.00000000	-100.00000000	8.49926423	0.99965879	72.72334769
 19	0.00000000	80.00000000	-100.00000000	9.66832090	0.96497900	72.73842528
 20	0.00000000	90.00000000	-100.00000000	11.00535801	0.92531608	72.75566116
 21	0.00000000	100.00000000	-100.00000000	12.52165334	0.88033546	72.77521491
 22	10.00000000	-100.00000000	-100.00000000	1.55508603	4.68280270	106.17106810
 23	10.00000000	-90.00000000	-100.00000000	2.15846563	4.66490376	106.17885008
 24	10.00000000	-80.00000000	-100.00000000	2.76184523	4.64700434	106.18662447
 25	10.00000000	-70.00000000	-100.00000000	3.36522459	4.62910540	106.19440645
 26	10.00000000	-60.00000000	-100.00000000	3.96860418	4.61120646	106.20218843
 27	10.00000000	-50.00000000	-100.00000000	4.57198354	4.59330705	106.20997041
 28	10.00000000	-40.00000000	-100.00000000	5.17536314	4.57540811	106.21774480
 29	10.00000000	-30.00000000	-100.00000000	5.77874274	4.55750870	106.22552678
 30	10.00000000	-20.00000000	-100.00000000	6.38212234	4.53960976	106.23330876
 31	10.00000000	-10.00000000	-100.00000000	6.98550194	4.52171082	106.24109074
 32	10.00000000	0.00000000	-100.00000000	7.63343224	4.50249002	106.24944270
 33	10.00000000	10.00000000	-100.00000000	8.40663185	4.47955303	106.25941336
 34	10.00000000	20.00000000	-100.00000000	9.31748193	4.45253315	106.27115473
 35	10.00000000	30.00000000	-100.00000000	10.37726026	4.42109507	106.28481880
 36	10.00000000	40.00000000	-100.00000000	11.59724275	4.38490438	106.30054995
 37	10.00000000	50.00000000	-100.00000000	12.98870528	4.34362672	106.31849259
 38	10.00000000	60.00000000	-100.00000000	14.56292376	4.29692818	106.33879110
 39	10.00000000	70.00000000	-100.00000000	16.33117788	4.24447294	106.36158988
 40	10.00000000	80.00000000	-100.00000000	18.30474067	4.18592758	106.38704091
 41	10.00000000	90.00000000	-100.00000000	20.49488805	4.12095725	106.41528100
 42	10.00000000	100.00000000	-100.00000000	22.91290160	4.04922755	106.44645452
 43	20.00000000	-100.00000000	-100.00000000	6.07474971	10.07838920	148.75998080
 44	20.00000000	-90.00000000	-100.00000000	6.67812930	10.06048931	148.76776278
 45	20.00000000	-80.00000000	-100.00000000	7.28150890	10.04259037	148.77554476
 46	20.00000000	-70.00000000	-100.00000000	7.88488850	10.02469143	148.78332675
 47	20.00000000	-60.00000000	-100.00000000	8.48826857	10.00679249	148.79110873
 48	20.00000000	-50.00000000	-100.00000000	9.09339085	9.98884130	148.79890591
 49	20.00000000	-40.00000000	-100.00000000	9.77822905	9.96852569	148.80773664
 50	20.00000000	-30.00000000	-100.00000000	10.59294144	9.94435709	148.81823927
 51	20.00000000	-20.00000000	-100.00000000	11.54880390	9.91600206	148.83056581
 52	20.00000000	-10.00000000	-100.00000000	12.65709423	9.88312528	148.84485304
 53	20.00000000	0.00000000	-100.00000000	13.92908832	9.84539140	148.86126816
 54	20.00000000	10.00000000	-100.00000000	15.37606113	9.80246700	148.87991756
 55	20.00000000	20.00000000	-100.00000000	17.00929139	9.75401770	148.90098363
 56	20.00000000	30.00000000	-100.00000000	18.84005405	9.69970817	148.92458797
 57	20.00000000	40.00000000	-100.00000000	20.87962691	9.63920496	148.95088255
 58	20.00000000	50.00000000	-100.00000000	23.13928585	9.57217276	148.98001939
 59	20.00000000	60.00000000	-100.00000000	25.63030679	9.49827718	149.01213527
 60	20.00000000	70.00000000	-100.00000000	28.36396750	9.41718383	149.04738218
 61	20.00000000	80.00000000	-100.00000000	31.35154199	9.32855833	149.08591211
 62	20.00000000	90.00000000	-100.00000000	34.60430995	9.23206536	149.12784666
 63	20.00000000	100.00000000	-100.00000000	38.13354537	9.12737148	149.17335302
 64	30.00000000	-100.00000000	-100.00000000	10.99391017	19.19784095	201.38926953
 65	30.00000000	-90.00000000	-100.00000000	11.61109490	19.17953163	201.39723390
 66	30.00000000	-80.00000000	-100.00000000	12.33503206	19.15805709	201.40656620
 67	30.00000000	-70.00000000	-100.00000000	13.19234205	19.13262505	201.41761601
 68	30.00000000	-60.00000000	-100.00000000	14.19430364	19.10290115	201.43053532
 69	30.00000000	-50.00000000	-100.00000000	15.35219176	19.06855289	201.44546092
 70	30.00000000	-40.00000000	-100.00000000	16.67728230	19.02924400	201.46254480
 71	30.00000000	-30.00000000	-100.00000000	18.18085212	18.98464199	201.48193896
 72	30.00000000	-20.00000000	-100.00000000	19.87417996	18.93440869	201.50376499
 73	30.00000000	-10.00000000	-100.00000000	21.76853791	18.87821350	201.52820528
 74	30.00000000	0.00000000	-100.00000000	23.87520947	18.81572016	201.55536622
 75	30.00000000	10.00000000	-100.00000000	26.20546293	18.74659427	201.58541501
 76	30.00000000	20.00000000	-100.00000000	28.77057988	18.67049955	201.61848843
 77	30.00000000	30.00000000	-100.00000000	31.58183433	18.58710352	201.65473849
 78	30.00000000	40.00000000	-100.00000000	34.65050407	18.49607371	201.69430196
 79	30.00000000	50.00000000	-100.00000000	37.98786499	18.39707002	201.73733085
 80	30.00000000	60.00000000	-100.00000000	41.60519488	18.28976378	201.78397715
 81	30.00000000	70.00000000	-100.00000000	45.51376775	18.17381680	201.83437765
 82	30.00000000	80.00000000	-100.00000000	49.72486518	18.04889470	201.88866913
 83	30.00000000	90.00000000	-100.00000000	54.24975738	17.91466501	201.94701880
 84	30.00000000	100.00000000	-100.00000000	59.09972593	17.77079143	202.00954825
 85	40.00000000	-100.00000000	-100.00000000	17.28285391	33.02020915	265.12676060
 86	40.00000000	-90.00000000	-100.00000000	18.49142466	32.98435807	265.14232457
 87	40.00000000	-80.00000000	-100.00000000	19.87069935	32.94344187	265.16010761
 88	40.00000000	-70.00000000	-100.00000000	21.43195197	32.89712615	265.18023133
 89	40.00000000	-60.00000000	-100.00000000	23.18646222	32.84508035	265.20287812
 90	40.00000000	-50.00000000	-100.00000000	25.14550410	32.78696626	265.22813916
 91	40.00000000	-40.00000000	-100.00000000	27.32035350	32.72244953	265.25616646
 92	40.00000000	-30.00000000	-100.00000000	29.72229011	32.65119575	265.28714240
 93	40.00000000	-20.00000000	-100.00000000	32.36258604	32.57287435	265.32118857
 94	40.00000000	-10.00000000	-100.00000000	35.25252096	32.48714335	265.35845697
 95	40.00000000	0.00000000	-100.00000000	38.40337269	32.39367597	265.39906919
 96	40.00000000	10.00000000	-100.00000000	41.82641521	32.29213022	265.44320762
 97	40.00000000	20.00000000	-100.00000000	45.53292632	32.18217932	265.49099386
 98	40.00000000	30.00000000	-100.00000000	49.53417622	32.06348129	265.54261029
 99	40.00000000	40.00000000	-100.00000000	53.84145029	31.93570554	265.59814811
 100	40.00000000	50.00000000	-100.00000000	58.46602254	31.79851960	265.65775931
 101	40.00000000	60.00000000	-100.00000000	63.41916695	31.65158529	265.72162628
 102	40.00000000	70.00000000	-100.00000000	68.71216133	31.49457011	265.78987062
 103	40.00000000	80.00000000	-100.00000000	74.35627967	31.32713780	265.86264431
 104	40.00000000	90.00000000	-100.00000000	80.36280736	31.14895586	265.94009936
 105	40.00000000	100.00000000	-100.00000000	86.74300700	30.95968802	266.02235734
 106	50.00000000	-100.00000000	-100.00000000	26.97501283	52.49301665	341.05401278
 107	50.00000000	-90.00000000	-100.00000000	28.99982348	52.43294947	341.08009458
 108	50.00000000	-80.00000000	-100.00000000	31.24394126	52.36638084	341.10903382
 109	50.00000000	-70.00000000	-100.00000000	33.71864207	52.29296878	341.14095211
 110	50.00000000	-60.00000000	-100.00000000	36.43520750	52.21238270	341.17597103
 111	50.00000000	-50.00000000	-100.00000000	39.40491155	52.12428443	341.21427298
 112	50.00000000	-40.00000000	-100.00000000	42.63902821	52.02834718	341.25597954
 113	50.00000000	-30.00000000	-100.00000000	46.14883527	51.92422897	341.30124271
 114	50.00000000	-20.00000000	-100.00000000	49.94561054	51.81159921	341.35018408
 115	50.00000000	-10.00000000	-100.00000000	54.04062420	51.69011973	341.40298605
 116	50.00000000	0.00000000	-100.00000000	58.44516926	51.55945994	341.45977020
 117	50.00000000	10.00000000	-100.00000000	63.17050450	51.41928546	341.52071893
 118	50.00000000	20.00000000	-100.00000000	68.22791532	51.26925811	341.58592343
 119	50.00000000	30.00000000	-100.00000000	73.62867191	51.10904351	341.65556610
 120	50.00000000	40.00000000	-100.00000000	79.38405588	50.93831107	341.72976851
 121	50.00000000	50.00000000	-100.00000000	85.50534502	50.75672641	341.80868268
 122	50.00000000	60.00000000	-100.00000000	92.00380951	50.56395136	341.89249098
 123	50.00000000	70.00000000	-100.00000000	98.89072716	50.35965152	341.98128462
 124	50.00000000	80.00000000	-100.00000000	106.17738336	50.14349252	342.07524598
 125	50.00000000	90.00000000	-100.00000000	113.87504831	49.91514377	342.17449665
 126	50.00000000	100.00000000	-100.00000000	121.99499220	49.67426710	342.27918863
 127	60.00000000	-100.00000000	-100.00000000	41.01732083	78.59600857	430.23857117
 128	60.00000000	-90.00000000	-100.00000000	44.06787694	78.50551262	430.27790666
 129	60.00000000	-80.00000000	-100.00000000	47.38634527	78.40707511	430.32070756
 130	60.00000000	-70.00000000	-100.00000000	50.98400362	78.30034643	430.36709547
 131	60.00000000	-60.00000000	-100.00000000	54.87213358	78.18500742	430.41722238
 132	60.00000000	-50.00000000	-100.00000000	59.06200156	78.06071609	430.47124028
 133	60.00000000	-40.00000000	-100.00000000	63.56488913	77.92713806	430.52930117
 134	60.00000000	-30.00000000	-100.00000000	68.39208171	77.78393894	430.59155703
 135	60.00000000	-20.00000000	-100.00000000	73.55484188	77.63079196	430.65812945
 136	60.00000000	-10.00000000	-100.00000000	79.06444743	77.46734753	430.72917044
 137	60.00000000	0.00000000	-100.00000000	84.93218377	77.29327887	430.80483198
 138	60.00000000	10.00000000	-100.00000000	91.16932109	77.10825920	430.88523567
 139	60.00000000	20.00000000	-100.00000000	97.78713718	76.91194654	430.97059429
 140	60.00000000	30.00000000	-100.00000000	104.79690984	76.70399889	431.06096864
 141	60.00000000	40.00000000	-100.00000000	112.20990926	76.48409709	431.15654111
 142	60.00000000	50.00000000	-100.00000000	120.03742084	76.25189155	431.25746369
 143	60.00000000	60.00000000	-100.00000000	128.29070717	76.00706309	431.36388838
 144	60.00000000	70.00000000	-100.00000000	136.98106885	75.74926212	431.47593677
 145	60.00000000	80.00000000	-100.00000000	146.11976087	75.47816187	431.59379125
 146	60.00000000	90.00000000	-100.00000000	155.71807623	75.19343555	431.71754301
 147	60.00000000	100.00000000	-100.00000000	165.78727752	74.89473358	431.84737444
 148	70.00000000	-100.00000000	-100.00000000	60.34134731	112.30936512	533.74781370
 149	70.00000000	-90.00000000	-100.00000000	64.62715253	112.18223155	533.80307794
 150	70.00000000	-80.00000000	-100.00000000	69.22948077	112.04570487	533.86241555
 151	70.00000000	-70.00000000	-100.00000000	74.15960222	111.89945072	533.92600894
 152	70.00000000	-60.00000000	-100.00000000	79.42880228	111.74314231	533.99391890
 153	70.00000000	-50.00000000	-100.00000000	85.04834354	111.57643765	534.06638861
 154	70.00000000	-40.00000000	-100.00000000	91.02951139	111.39900997	534.14353967
 155	70.00000000	-30.00000000	-100.00000000	97.38358364	111.21051729	534.22543287
 156	70.00000000	-20.00000000	-100.00000000	104.12183046	111.01062521	534.31231141
 157	70.00000000	-10.00000000	-100.00000000	111.25553727	110.79900697	534.40429688
 158	70.00000000	0.00000000	-100.00000000	118.79598185	110.57532057	534.50157166
 159	70.00000000	10.00000000	-100.00000000	126.75442681	110.33923924	534.60419655
 160	70.00000000	20.00000000	-100.00000000	135.14214993	110.09041339	534.71229315
 161	70.00000000	30.00000000	-100.00000000	143.97044420	109.82852384	534.82616544
 162	70.00000000	40.00000000	-100.00000000	153.25056463	109.55323622	534.94581342
 163	70.00000000	50.00000000	-100.00000000	162.99380422	109.26420093	535.07141948
 164	70.00000000	60.00000000	-100.00000000	173.21142554	108.96109879	535.20316601
 165	70.00000000	70.00000000	-100.00000000	183.91473681	108.64358783	535.34117460
 166	70.00000000	80.00000000	-100.00000000	195.11498541	108.31133366	535.48562765
 167	70.00000000	90.00000000	-100.00000000	206.82343394	107.96400189	535.63658595
 168	70.00000000	100.00000000	-100.00000000	219.05139059	107.60126576	535.79423189
 169	80.00000000	-100.00000000	-100.00000000	85.87870538	154.61333871	652.64920950
 170	80.00000000	-90.00000000	-100.00000000	91.60926908	154.44333583	652.72307754
 171	80.00000000	-80.00000000	-100.00000000	97.70495519	154.26251113	652.80168772
 172	80.00000000	-70.00000000	-100.00000000	104.17704910	154.07051504	652.88516164
 173	80.00000000	-60.00000000	-100.00000000	111.03682861	153.86702836	652.97356009
 174	80.00000000	-50.00000000	-100.00000000	118.29554871	153.65168631	653.06718707
 175	80.00000000	-40.00000000	-100.00000000	125.96450999	153.42420012	653.16604257
 176	80.00000000	-30.00000000	-100.00000000	134.05496746	153.18418980	653.27036977
 177	80.00000000	-20.00000000	-100.00000000	142.57821411	152.93135136	653.38029027
 178	80.00000000	-10.00000000	-100.00000000	151.54552013	152.66533524	653.49592566
 179	80.00000000	0.00000000	-100.00000000	160.96817851	152.38582224	653.61739755
 180	80.00000000	10.00000000	-100.00000000	170.85742146	152.09246278	653.74488831
 181	80.00000000	20.00000000	-100.00000000	181.22458756	151.78492248	653.87858033
 182	80.00000000	30.00000000	-100.00000000	192.08089381	151.46286696	654.01859522
 183	80.00000000	40.00000000	-100.00000000	203.43764842	151.12597704	654.16499376
 184	80.00000000	50.00000000	-100.00000000	215.30612916	150.77388793	654.31801915
 185	80.00000000	60.00000000	-100.00000000	227.69761384	150.40631086	654.47779298
 186	80.00000000	70.00000000	-100.00000000	240.62334985	150.02286583	654.64449763
 187	80.00000000	80.00000000	-100.00000000	254.09464538	149.62323368	654.81819391
 188	80.00000000	90.00000000	-100.00000000	268.12276304	149.20709521	654.99906421
 189	80.00000000	100.00000000	-100.00000000	282.71899581	148.77410084	655.18729091
 190	90.00000000	-100.00000000	-100.00000000	118.56092647	206.48806393	788.00986290
 191	90.00000000	-90.00000000	-100.00000000	125.94575420	206.26898289	788.10507059
 192	90.00000000	-80.00000000	-100.00000000	133.74432653	206.03765130	788.20562840
 193	90.00000000	-70.00000000	-100.00000000	141.96789086	205.79368919	788.31165791
 194	90.00000000	-60.00000000	-100.00000000	150.62774777	205.53680778	788.42334151
 195	90.00000000	-50.00000000	-100.00000000	159.73515987	205.26662707	788.54074001
 196	90.00000000	-40.00000000	-100.00000000	169.30140495	204.98285830	788.66409659
 197	90.00000000	-30.00000000	-100.00000000	179.33776081	204.68512148	788.79353285
 198	90.00000000	-20.00000000	-100.00000000	189.85550523	204.37311262	788.92910957
 199	90.00000000	-10.00000000	-100.00000000	200.86593121	204.04649734	789.07106996
 200	90.00000000	0.00000000	-100.00000000	212.38030136	203.70492607	789.21953559
 201	90.00000000	10.00000000	-100.00000000	224.40987825	203.34806442	789.37468886
 202	90.00000000	20.00000000	-100.00000000	236.96595490	202.97559321	789.53659058
 203	90.00000000	30.00000000	-100.00000000	250.05980909	202.58716285	789.70542312
 204	90.00000000	40.00000000	-100.00000000	263.70268822	202.18245417	789.88130808
 205	90.00000000	50.00000000	-100.00000000	277.90593088	201.76111758	790.06442785
 206	90.00000000	60.00000000	-100.00000000	292.68075407	201.32283390	790.25496483
 207	90.00000000	70.00000000	-100.00000000	308.03843558	200.86725354	790.45297980
 208	90.00000000	80.00000000	-100.00000000	323.99028361	200.39404213	790.65865517
 209	90.00000000	90.00000000	-100.00000000	340.54757595	199.90286529	790.87217331
 210	90.00000000	100.00000000	-100.00000000	357.72159040	199.39340383	791.09359503
 211	100.00000000	-100.00000000	-100.00000000	159.31965977	268.91381979	940.89742541
 212	100.00000000	-90.00000000	-100.00000000	168.56825709	268.63944411	941.01664782
 213	100.00000000	-80.00000000	-100.00000000	178.27919841	268.35138917	941.14188910
 214	100.00000000	-70.00000000	-100.00000000	188.46374631	268.04925978	941.27321005
 215	100.00000000	-60.00000000	-100.00000000	199.13320899	267.73275197	941.41079307
 216	100.00000000	-50.00000000	-100.00000000	210.29881865	267.40153134	941.55475974
 217	100.00000000	-40.00000000	-100.00000000	221.97185308	267.05523312	941.70523167
 218	100.00000000	-30.00000000	-100.00000000	234.16362047	266.69358373	941.86245203
 219	100.00000000	-20.00000000	-100.00000000	246.88538343	266.31618798	942.02648163
 220	100.00000000	-10.00000000	-100.00000000	260.14841974	265.92274189	942.19750285
 221	100.00000000	0.00000000	-100.00000000	273.96402240	265.51291108	942.37563729
 222	100.00000000	10.00000000	-100.00000000	288.34342360	265.08633077	942.56106734
 223	100.00000000	20.00000000	-100.00000000	303.29793155	264.64272738	942.75385380
 224	100.00000000	30.00000000	-100.00000000	318.83882403	264.18170571	942.95423985
 225	100.00000000	40.00000000	-100.00000000	334.97734845	263.70296180	943.16234708
 226	100.00000000	50.00000000	-100.00000000	351.72481298	263.20616126	943.37829709
 227	100.00000000	60.00000000	-100.00000000	369.09249544	262.69093931	943.60221148
 228	100.00000000	70.00000000	-100.00000000	387.09167361	262.15699196	943.83433342
 229	100.00000000	80.00000000	-100.00000000	405.73356450	261.60398483	944.07466292
 230	100.00000000	90.00000000	-100.00000000	425.02953708	261.03158355	944.32350397
 231	100.00000000	100.00000000	-100.00000000	444.99083877	260.43942332	944.58085656
 232	0.00000000	-100.00000000	-90.00000000	-3.32868765	1.07866035	56.80006273
 233	0.00000000	-90.00000000	-90.00000000	-2.72530805	1.06076129	56.80784091
 234	0.00000000	-80.00000000	-90.00000000	-2.12192845	1.04286212	56.81562290
 235	0.00000000	-70.00000000	-90.00000000	-1.51854897	1.02496294	56.82340108
 236	0.00000000	-60.00000000	-90.00000000	-0.91516943	1.00706388	56.83118306
 237	0.00000000	-50.00000000	-90.00000000	-0.31178986	0.98916470	56.83896124
 238	0.00000000	-40.00000000	-90.00000000	0.29158950	0.97126559	56.84674323
 239	0.00000000	-30.00000000	-90.00000000	0.89496906	0.95336647	56.85452141
 240	0.00000000	-20.00000000	-90.00000000	1.49834854	0.93546735	56.86230339
 241	0.00000000	-10.00000000	-90.00000000	2.10172802	0.91756817	56.87008157
 242	0.00000000	0.00000000	-90.00000000	2.70510786	0.89966906	56.87786356
 243	0.00000000	10.00000000	-90.00000000	3.30848746	0.88176994	56.88564174
 244	0.00000000	20.00000000	-90.00000000	3.91186705	0.86387082	56.89342372
 245	0.00000000	30.00000000	-90.00000000	4.51524641	0.84597164	56.90120190
 246	0.00000000	40.00000000	-90.00000000	5.13669642	0.82753652	56.90921567
 247	0.00000000	50.00000000	-90.00000000	5.86946952	0.80579889	56.91866197
 248	0.00000000	60.00000000	-90.00000000	6.73639395	0.78008175	56.92984097
 249	0.00000000	70.00000000	-90.00000000	7.74874656	0.75005054	56.94289327
 250	0.00000000	80.00000000	-90.00000000	8.91780322	0.71537075	56.95797086
 251	0.00000000	90.00000000	-90.00000000	10.25484033	0.67570777	56.97521053
 252	0.00000000	100.00000000	-90.00000000	11.77113567	0.63072721	56.99476048
 253	10.00000000	-100.00000000	-90.00000000	0.57873139	4.35808542	85.64213768
 254	10.00000000	-90.00000000	-90.00000000	1.18211099	4.34018601	85.64991966
 255	10.00000000	-80.00000000	-90.00000000	1.78549059	4.32228707	85.65770164
 256	10.00000000	-70.00000000	-90.00000000	2.38887006	4.30438765	85.66547602
 257	10.00000000	-60.00000000	-90.00000000	2.99224966	4.28648871	85.67325801
 258	10.00000000	-50.00000000	-90.00000000	3.59562926	4.26858977	85.68103999
 259	10.00000000	-40.00000000	-90.00000000	4.19900886	4.25069036	85.68882197
 260	10.00000000	-30.00000000	-90.00000000	4.80238798	4.23279142	85.69659635
 261	10.00000000	-20.00000000	-90.00000000	5.40576758	4.21489201	85.70437834
 262	10.00000000	-10.00000000	-90.00000000	6.00914718	4.19699307	85.71216032
 263	10.00000000	0.00000000	-90.00000000	6.65707748	4.17777227	85.72051227
 264	10.00000000	10.00000000	-90.00000000	7.43027709	4.15483575	85.73048294
 265	10.00000000	20.00000000	-90.00000000	8.34112717	4.12781540	85.74222431
 266	10.00000000	30.00000000	-90.00000000	9.40090550	4.09637731	85.75589597
 267	10.00000000	40.00000000	-90.00000000	10.62088799	4.06018663	85.77161953
 268	10.00000000	50.00000000	-90.00000000	12.01235052	4.01890945	85.78956217
 269	10.00000000	60.00000000	-90.00000000	13.58656995	3.97221043	85.80986068
 270	10.00000000	70.00000000	-90.00000000	15.35482312	3.91975543	85.83265945
 271	10.00000000	80.00000000	-90.00000000	17.32838497	3.86121007	85.85811049
 272	10.00000000	90.00000000	-90.00000000	19.51853424	3.79623997	85.88635057
 273	10.00000000	100.00000000	-90.00000000	21.93654779	3.72451003	85.91753170
 274	20.00000000	-100.00000000	-90.00000000	4.84288193	9.66869233	122.85860986
 275	20.00000000	-90.00000000	-90.00000000	5.44626153	9.65079339	122.86639184
 276	20.00000000	-80.00000000	-90.00000000	6.04964113	9.63289350	122.87416622
 277	20.00000000	-70.00000000	-90.00000000	6.65302073	9.61499456	122.88194820
 278	20.00000000	-60.00000000	-90.00000000	7.25640032	9.59709562	122.88973019
 279	20.00000000	-50.00000000	-90.00000000	7.86152355	9.57914444	122.89753497
 280	20.00000000	-40.00000000	-90.00000000	8.54636081	9.55882883	122.90636569
 281	20.00000000	-30.00000000	-90.00000000	9.36107319	9.53466117	122.91686833
 282	20.00000000	-20.00000000	-90.00000000	10.31693565	9.50630520	122.92919487
 283	20.00000000	-10.00000000	-90.00000000	11.42522598	9.47342841	122.94348210
 284	20.00000000	0.00000000	-90.00000000	12.69722007	9.43569453	122.95988202
 285	20.00000000	10.00000000	-90.00000000	14.14419383	9.39277014	122.97853902
 286	20.00000000	20.00000000	-90.00000000	15.77742314	9.34432084	122.99959749
 287	20.00000000	30.00000000	-90.00000000	17.60818675	9.29001225	123.02320942
 288	20.00000000	40.00000000	-90.00000000	19.64775961	9.22950810	123.04950401
 289	20.00000000	50.00000000	-90.00000000	21.90741856	9.16247590	123.07864085
 290	20.00000000	60.00000000	-90.00000000	24.39843949	9.08858031	123.11075673
 291	20.00000000	70.00000000	-90.00000000	27.13209830	9.00748696	123.14601123
 292	20.00000000	80.00000000	-90.00000000	30.11967469	8.91886147	123.18453357
 293	20.00000000	90.00000000	-90.00000000	33.37244265	8.82236850	123.22647572
 294	20.00000000	100.00000000	-90.00000000	36.90167807	8.71767461	123.27198207
 295	30.00000000	-100.00000000	-90.00000000	9.47685203	18.69329453	169.49144036
 296	30.00000000	-90.00000000	-90.00000000	10.09403676	18.67498711	169.49940473
 297	30.00000000	-80.00000000	-90.00000000	10.81797296	18.65351066	169.50873703
 298	30.00000000	-70.00000000	-90.00000000	11.67528391	18.62807862	169.51978683
