bench/lcms_compat/reference/lab_to_ISOcoated_v2_grey1c_bas.ICC_Absolute.it8
CGATS.17
ORIGINATOR	"icctrans"
#
# Data follows
#
NUMBER_OF_SETS	4851.00000000
NUMBER_OF_FIELDS	5.00000000
BEGIN_DATA_FORMAT
 SAMPLE_ID	IN_LAB_L	IN_LAB_A	IN_LAB_B	OUT_GRAY
END_DATA_FORMAT
BEGIN_DATA
 1	0.00000000	-100.00000000	-100.00000000	0.00000000
 2	0.00000000	-90.00000000	-100.00000000	0.00000000
 3	0.00000000	-80.00000000	-100.00000000	0.00000000
 4	0.00000000	-70.00000000	-100.00000000	0.00000000
 5	0.00000000	-60.00000000	-100.00000000	0.00000000
 6	0.00000000	-50.00000000	-100.00000000	0.00000000
 7	0.00000000	-40.00000000	-100.00000000	0.00000000
 8	0.00000000	-30.00000000	-100.00000000	0.00000000
 9	0.00000000	-20.00000000	-100.00000000	0.00000000
 10	0.00000000	-10.00000000	-100.00000000	0.00000000
 11	0.00000000	0.00000000	-100.00000000	0.00000000
 12	0.00000000	10.00000000	-100.00000000	0.00000000
 13	0.00000000	20.00000000	-100.00000000	0.00000000
 14	0.00000000	30.00000000	-100.00000000	0.00000000
 15	0.00000000	40.00000000	-100.00000000	0.00000000
 16	0.00000000	50.00000000	-100.00000000	0.00000000
 17	0.00000000	60.00000000	-100.00000000	0.00000000
 18	0.00000000	70.00000000	-100.00000000	0.00000000
 19	0.00000000	80.00000000	-100.00000000	0.00000000
 20	0.00000000	90.00000000	-100.00000000	0.00000000
 21	0.00000000	100.00000000	-100.00000000	0.00000000
 22	10.00000000	-100.00000000	-100.00000000	0.00000000
 23	10.00000000	-90.00000000	-100.00000000	0.00000000
 24	10.00000000	-80.00000000	-100.00000000	0.00000000
 25	10.00000000	-70.00000000	-100.00000000	0.00000000
 26	10.00000000	-60.00000000	-100.00000000	0.00000000
 27	10.00000000	-50.00000000	-100.00000000	0.00000000
 28	10.00000000	-40.00000000	-100.00000000	0.00000000
 29	10.00000000	-30.00000000	-100.00000000	0.00000000
 30	10.00000000	-20.00000000	-100.00000000	0.00000000
 31	10.00000000	-10.00000000	-100.00000000	0.00000000
 32	10.00000000	0.00000000	-100.00000000	0.00000000
 33	10.00000000	10.00000000	-100.00000000	0.00000000
 34	10.00000000	20.00000000	-100.00000000	0.00000000
 35	10.00000000	30.00000000	-100.00000000	0.00000000
 36	10.00000000	40.00000000	-100.00000000	0.00000000
 37	10.00000000	50.00000000	-100.00000000	0.00000000
 38	10.00000000	60.00000000	-100.00000000	0.00000000
 39	10.00000000	70.00000000	-100.00000000	0.00000000
 40	10.00000000	80.00000000	-100.00000000	0.00000000
 41	10.00000000	90.00000000	-100.00000000	0.00000000
 42	10.00000000	100.00000000	-100.00000000	0.00000000
 43	20.00000000	-100.00000000	-100.00000000	9.31128446
 44	20.00000000	-90.00000000	-100.00000000	9.31128446
 45	20.00000000	-80.00000000	-100.00000000	9.31128446
 46	20.00000000	-70.00000000	-100.00000000	9.31128446
 47	20.00000000	-60.00000000	-100.00000000	9.31128446
 48	20.00000000	-50.00000000	-100.00000000	9.31128446
 49	20.00000000	-40.00000000	-100.00000000	9.31128446
 50	20.00000000	-30.00000000	-100.00000000	9.31128446
 51	20.00000000	-20.00000000	-100.00000000	9.31128446
 52	20.00000000	-10.00000000	-100.00000000	9.31128446
 53	20.00000000	0.00000000	-100.00000000	9.31128446
 54	20.00000000	10.00000000	-100.00000000	9.31128446
 55	20.00000000	20.00000000	-100.00000000	9.31128446
 56	20.00000000	30.00000000	-100.00000000	9.31128446
 57	20.00000000	40.00000000	-100.00000000	9.31128446
 58	20.00000000	50.00000000	-100.00000000	9.31128446
 59	20.00000000	60.00000000	-100.00000000	9.31128446
 60	20.00000000	70.00000000	-100.00000000	9.31128446
 61	20.00000000	80.00000000	-100.00000000	9.31128446
 62	20.00000000	90.00000000	-100.00000000	9.31128446
 63	20.00000000	100.00000000	-100.00000000	9.31128446
 64	30.00000000	-100.00000000	-100.00000000	33.87159526
 65	30.00000000	-90.00000000	-100.00000000	33.87159526
 66	30.00000000	-80.00000000	-100.00000000	33.87159526
 67	30.00000000	-70.00000000	-100.00000000	33.87159526
 68	30.00000000	-60.00000000	-100.00000000	33.87159526
 69	30.00000000	-50.00000000	-100.00000000	33.87159526
 70	30.00000000	-40.00000000	-100.00000000	33.87159526
 71	30.00000000	-30.00000000	-100.00000000	33.87159526
 72	30.00000000	-20.00000000	-100.00000000	33.87159526
 73	30.00000000	-10.00000000	-100.00000000	33.87159526
 74	30.00000000	0.00000000	-100.00000000	33.87159526
 75	30.00000000	10.00000000	-100.00000000	33.87159526
 76	30.00000000	20.00000000	-100.00000000	33.87159526
 77	30.00000000	30.00000000	-100.00000000	33.87159526
 78	30.00000000	40.00000000	-100.00000000	33.87159526
 79	30.00000000	50.00000000	-100.00000000	33.87159526
 80	30.00000000	60.00000000	-100.00000000	33.87159526
 81	30.00000000	70.00000000	-100.00000000	33.87159526
 82	30.00000000	80.00000000	-100.00000000	33.87159526
 83	30.00000000	90.00000000	-100.00000000	33.87159526
 84	30.00000000	100.00000000	-100.00000000	33.87159526
 85	40.00000000	-100.00000000	-100.00000000	60.52918263
 86	40.00000000	-90.00000000	-100.00000000	60.52918263
 87	40.00000000	-80.00000000	-100.00000000	60.52918263
 88	40.00000000	-70.00000000	-100.00000000	60.52918263
 89	40.00000000	-60.00000000	-100.00000000	60.52918263
 90	40.00000000	-50.00000000	-100.00000000	60.52918263
 91	40.00000000	-40.00000000	-100.00000000	60.52918263
 92	40.00000000	-30.00000000	-100.00000000	60.52918263
 93	40.00000000	-20.00000000	-100.00000000	60.52918263
 94	40.00000000	-10.00000000	-100.00000000	60.52918263
 95	40.00000000	0.00000000	-100.00000000	60.52918263
 96	40.00000000	10.00000000	-100.00000000	60.52918263
 97	40.00000000	20.00000000	-100.00000000	60.52918263
 98	40.00000000	30.00000000	-100.00000000	60.52918263
 99	40.00000000	40.00000000	-100.00000000	60.52918263
 100	40.00000000	50.00000000	-100.00000000	60.52918263
 101	40.00000000	60.00000000	-100.00000000	60.52918263
 102	40.00000000	70.00000000	-100.00000000	60.52918263
 103	40.00000000	80.00000000	-100.00000000	60.52918263
 104	40.00000000	90.00000000	-100.00000000	60.52918263
 105	40.00000000	100.00000000	-100.00000000	60.52918263
 106	50.00000000	-100.00000000	-100.00000000	89.49027479
 107	50.00000000	-90.00000000	-100.00000000	89.49027479
 108	50.00000000	-80.00000000	-100.00000000	89.49027479
 109	50.00000000	-70.00000000	-100.00000000	89.49027479
 110	50.00000000	-60.00000000	-100.00000000	89.49027479
 111	50.00000000	-50.00000000	-100.00000000	89.49027479
 112	50.00000000	-40.00000000	-100.00000000	89.49027479
 113	50.00000000	-30.00000000	-100.00000000	89.49027479
 114	50.00000000	-20.00000000	-100.00000000	89.49027479
 115	50.00000000	-10.00000000	-100.00000000	89.49027479
 116	50.00000000	0.00000000	-100.00000000	89.49027479
 117	50.00000000	10.00000000	-100.00000000	89.49027479
 118	50.00000000	20.00000000	-100.00000000	89.49027479
 119	50.00000000	30.00000000	-100.00000000	89.49027479
 120	50.00000000	40.00000000	-100.00000000	89.49027479
 121	50.00000000	50.00000000	-100.00000000	89.49027479
 122	50.00000000	60.00000000	-100.00000000	89.49027479
 123	50.00000000	70.00000000	-100.00000000	89.49027479
 124	50.00000000	80.00000000	-100.00000000	89.49027479
 125	50.00000000	90.00000000	-100.00000000	89.49027479
 126	50.00000000	100.00000000	-100.00000000	89.49027479
 127	60.00000000	-100.00000000	-100.00000000	121.30739629
 128	60.00000000	-90.00000000	-100.00000000	121.30739629
 129	60.00000000	-80.00000000	-100.00000000	121.30739629
 130	60.00000000	-70.00000000	-100.00000000	121.30739629
 131	60.00000000	-60.00000000	-100.00000000	121.30739629
 132	60.00000000	-50.00000000	-100.00000000	121.30739629
 133	60.00000000	-40.00000000	-100.00000000	121.30739629
 134	60.00000000	-30.00000000	-100.00000000	121.30739629
 135	60.00000000	-20.00000000	-100.00000000	121.30739629
 136	60.00000000	-10.00000000	-100.00000000	121.30739629
 137	60.00000000	0.00000000	-100.00000000	121.30739629
 138	60.00000000	10.00000000	-100.00000000	121.30739629
 139	60.00000000	20.00000000	-100.00000000	121.30739629
 140	60.00000000	30.00000000	-100.00000000	121.30739629
 141	60.00000000	40.00000000	-100.00000000	121.30739629
 142	60.00000000	50.00000000	-100.00000000	121.30739629
 143	60.00000000	60.00000000	-100.00000000	121.30739629
 144	60.00000000	70.00000000	-100.00000000	121.30739629
 145	60.00000000	80.00000000	-100.00000000	121.30739629
 146	60.00000000	90.00000000	-100.00000000	121.30739629
 147	60.00000000	100.00000000	-100.00000000	121.30739629
 148	70.00000000	-100.00000000	-100.00000000	155.59143662
 149	70.00000000	-90.00000000	-100.00000000	155.59143662
 150	70.00000000	-80.00000000	-100.00000000	155.59143662
 151	70.00000000	-70.00000000	-100.00000000	155.59143662
 152	70.00000000	-60.00000000	-100.00000000	155.59143662
 153	70.00000000	-50.00000000	-100.00000000	155.59143662
 154	70.00000000	-40.00000000	-100.00000000	155.59143662
 155	70.00000000	-30.00000000	-100.00000000	155.59143662
 156	70.00000000	-20.00000000	-100.00000000	155.59143662
 157	70.00000000	-10.00000000	-100.00000000	155.59143662
 158	70.00000000	0.00000000	-100.00000000	155.59143662
 159	70.00000000	10.00000000	-100.00000000	155.59143662
 160	70.00000000	20.00000000	-100.00000000	155.59143662
 161	70.00000000	30.00000000	-100.00000000	155.59143662
 162	70.00000000	40.00000000	-100.00000000	155.59143662
 163	70.00000000	50.00000000	-100.00000000	155.59143662
 164	70.00000000	60.00000000	-100.00000000	155.59143662
 165	70.00000000	70.00000000	-100.00000000	155.59143662
 166	70.00000000	80.00000000	-100.00000000	155.59143662
 167	70.00000000	90.00000000	-100.00000000	155.59143662
 168	70.00000000	100.00000000	-100.00000000	155.59143662
 169	80.00000000	-100.00000000	-100.00000000	193.28015506
 170	80.00000000	-90.00000000	-100.00000000	193.28015506
 171	80.00000000	-80.00000000	-100.00000000	193.28015506
 172	80.00000000	-70.00000000	-100.00000000	193.28015506
 173	80.00000000	-60.00000000	-100.00000000	193.28015506
 174	80.00000000	-50.00000000	-100.00000000	193.28015506
 175	80.00000000	-40.00000000	-100.00000000	193.28015506
 176	80.00000000	-30.00000000	-100.00000000	193.28015506
 177	80.00000000	-20.00000000	-100.00000000	193.28015506
 178	80.00000000	-10.00000000	-100.00000000	193.28015506
 179	80.00000000	0.00000000	-100.00000000	193.28015506
 180	80.00000000	10.00000000	-100.00000000	193.28015506
 181	80.00000000	20.00000000	-100.00000000	193.28015506
 182	80.00000000	30.00000000	-100.00000000	193.28015506
 183	80.00000000	40.00000000	-100.00000000	193.28015506
 184	80.00000000	50.00000000	-100.00000000	193.28015506
 185	80.00000000	60.00000000	-100.00000000	193.28015506
 186	80.00000000	70.00000000	-100.00000000	193.28015506
 187	80.00000000	80.00000000	-100.00000000	193.28015506
 188	80.00000000	90.00000000	-100.00000000	193.28015506
 189	80.00000000	100.00000000	-100.00000000	193.28015506
 190	90.00000000	-100.00000000	-100.00000000	233.78210574
 191	90.00000000	-90.00000000	-100.00000000	233.78210574
 192	90.00000000	-80.00000000	-100.00000000	233.78210574
 193	90.00000000	-70.00000000	-100.00000000	233.78210574
 194	90.00000000	-60.00000000	-100.00000000	233.78210574
 195	90.00000000	-50.00000000	-100.00000000	233.78210574
 196	90.00000000	-40.00000000	-100.00000000	233.78210574
 197	90.00000000	-30.00000000	-100.00000000	233.78210574
 198	90.00000000	-20.00000000	-100.00000000	233.78210574
 199	90.00000000	-10.00000000	-100.00000000	233.78210574
 200	90.00000000	0.00000000	-100.00000000	233.78210574
 201	90.00000000	10.00000000	-100.00000000	233.78210574
 202	90.00000000	20.00000000	-100.00000000	233.78210574
 203	90.00000000	30.00000000	-100.00000000	233.78210574
 204	90.00000000	40.00000000	-100.00000000	233.78210574
 205	90.00000000	50.00000000	-100.00000000	233.78210574
 206	90.00000000	60.00000000	-100.00000000	233.78210574
 207	90.00000000	70.00000000	-100.00000000	233.78210574
 208	90.00000000	80.00000000	-100.00000000	233.78210574
 209	90.00000000	90.00000000	-100.00000000	233.78210574
 210	90.00000000	100.00000000	-100.00000000	233.78210574
 211	100.00000000	-100.00000000	-100.00000000	255.00000000
 212	100.00000000	-90.00000000	-100.00000000	255.00000000
 213	100.00000000	-80.00000000	-100.00000000	255.00000000
 214	100.00000000	-70.00000000	-100.00000000	255.00000000
 215	100.00000000	-60.00000000	-100.00000000	255.00000000
 216	100.00000000	-50.00000000	-100.00000000	255.00000000
 217	100.00000000	-40.00000000	-100.00000000	255.00000000
 218	100.00000000	-30.00000000	-100.00000000	255.00000000
 219	100.00000000	-20.00000000	-100.00000000	255.00000000
 220	100.00000000	-10.00000000	-100.00000000	255.00000000
 221	100.00000000	0.00000000	-100.00000000	255.00000000
 222	100.00000000	10.00000000	-100.00000000	255.00000000
 223	100.00000000	20.00000000	-100.00000000	255.00000000
 224	100.00000000	30.00000000	-100.00000000	255.00000000
 225	100.00000000	40.00000000	-100.00000000	255.00000000
 226	100.00000000	50.00000000	-100.00000000	255.00000000
 227	100.00000000	60.00000000	-100.00000000	255.00000000
 228	100.00000000	70.00000000	-100.00000000	255.00000000
 229	100.00000000	80.00000000	-100.00000000	255.00000000
 230	100.00000000	90.00000000	-100.00000000	255.00000000
 231	100.00000000	100.00000000	-100.00000000	255.00000000
 232	0.00000000	-100.00000000	-90.00000000	0.00000000
 233	0.00000000	-90.00000000	-90.00000000	0.00000000
 234	0.00000000	-80.00000000	-90.00000000	0.00000000
 235	0.00000000	-70.00000000	-90.00000000	0.00000000
 236	0.00000000	-60.00000000	-90.00000000	0.00000000
 237	0.00000000	-50.00000000	-90.00000000	0.00000000
 238	0.00000000	-40.00000000	-90.00000000	0.00000000
 239	0.00000000	-30.00000000	-90.00000000	0.00000000
 240	0.00000000	-20.00000000	-90.00000000	0.00000000
 241	0.00000000	-10.00000000	-90.00000000	0.00000000
 242	0.00000000	0.00000000	-90.00000000	0.00000000
 243	0.00000000	10.00000000	-90.00000000	0.00000000
 244	0.00000000	20.00000000	-90.00000000	0.00000000
 245	0.00000000	30.00000000	-90.00000000	0.00000000
 246	0.00000000	40.00000000	-90.00000000	0.00000000
 247	0.00000000	50.00000000	-90.00000000	0.00000000
 248	0.00000000	60.00000000	-90.00000000	0.00000000
 249	0.00000000	70.00000000	-90.00000000	0.00000000
 250	0.00000000	80.00000000	-90.00000000	0.00000000
 251	0.00000000	90.00000000	-90.00000000	0.00000000
 252	0.00000000	100.00000000	-90.00000000	0.00000000
 253	10.00000000	-100.00000000	-90.00000000	0.00000000
 254	10.00000000	-90.00000000	-90.00000000	0.00000000
 255	10.00000000	-80.00000000	-90.00000000	0.00000000
 256	10.00000000	-70.00000000	-90.00000000	0.00000000
 257	10.00000000	-60.00000000	-90.00000000	0.00000000
 258	10.00000000	-50.00000000	-90.00000000	0.00000000
 259	10.00000000	-40.00000000	-90.00000000	0.00000000
 260	10.00000000	-30.00000000	-90.00000000	0.00000000
 261	10.00000000	-20.00000000	-90.00000000	0.00000000
 262	10.00000000	-10.00000000	-90.00000000	0.00000000
 263	10.00000000	0.00000000	-90.00000000	0.00000000
 264	10.00000000	10.00000000	-90.00000000	0.00000000
 265	10.00000000	20.00000000	-90.00000000	0.00000000
 266	10.00000000	30.00000000	-90.00000000	0.00000000
 267	10.00000000	40.00000000	-90.00000000	0.00000000
 268	10.00000000	50.00000000	-90.00000000	0.00000000
 269	10.00000000	60.00000000	-90.00000000	0.00000000
 270	10.00000000	70.00000000	-90.00000000	0.00000000
 271	10.00000000	80.00000000	-90.00000000	0.00000000
 272	10.00000000	90.00000000	-90.00000000	0.00000000
 273	10.00000000	100.00000000	-90.00000000	0.00000000
 274	20.00000000	-100.00000000	-90.00000000	9.31128446
 275	20.00000000	-90.00000000	-90.00000000	9.31128446
 276	20.00000000	-80.00000000	-90.00000000	9.31128446
 277	20.00000000	-70.00000000	-90.00000000	9.31128446
 278	20.00000000	-60.00000000	-90.00000000	9.31128446
 279	20.00000000	-50.00000000	-90.00000000	9.31128446
 280	20.00000000	-40.00000000	-90.00000000	9.31128446
 281	20.00000000	-30.00000000	-90.00000000	9.31128446
 282	20.00000000	-20.00000000	-90.00000000	9.31128446
 283	20.00000000	-10.00000000	-90.00000000	9.31128446
 284	20.00000000	0.00000000	-90.00000000	9.31128446
 285	20.00000000	10.00000000	-90.00000000	9.31128446
 286	20.00000000	20.00000000	-90.00000000	9.31128446
 287	20.00000000	30.00000000	-90.00000000	9.31128446
 288	20.00000000	40.00000000	-90.00000000	9.31128446
 289	20.00000000	50.00000000	-90.00000000	9.31128446
 290	20.00000000	60.00000000	-90.00000000	9.31128446
 291	20.00000000	70.00000000	-90.00000000	9.31128446
 292	20.00000000	80.00000000	-90.00000000	9.31128446
 293	20.00000000	90.00000000	-90.00000000	9.31128446
 294	20.00000000	100.00000000	-90.00000000	9.31128446
 295	30.00000000	-100.00000000	-90.00000000	33.87159526
 296	30.00000000	-90.00000000	-90.00000000	33.87159526
 297	30.00000000	-80.00000000	-90.00000000	33.87159526
 298	30.00000000	-70.00000000	-90.00000000	33.87159526
 299	30.00000000	-60.00000000	-90.00000000	33.87159526
 300	30.00000000	-50.00000000	-90.00000000	33.87159526
 301	30.00000000	-40.00000000	-90.00000000	33.87159526
 302	30.00000000	-30.00000000	-90.00000000	33.87159526
 303	30.00000000	-20.00000000	-90.00000000	33.87159526
 304	30.00000000	-10.00000000	-90.00000000	33.87159526
 305	30.00000000	0.00000000	-90.00000000	33.87159526
 306	30.00000000	10.00000000	-90.00000000	33.87159526
 307	30.00000000	20.00000000	-90.00000000	33.87159526
 308	30.00000000	30.00000000	-90.00000000	33.87159526
 309	30.00000000	40.00000000	-90.00000000	33.87159526
 310	30.00000000	50.00000000	-90.00000000	33.87159526
 311	30.00000000	60.00000000	-90.00000000	33.87159526
 312	30.00000000	70.00000000	-90.00000000	33.87159526
 313	30.00000000	80.00000000	-90.00000000	33.87159526
 314	30.00000000	90.00000000	-90.00000000	33.87159526
 315	30.00000000	100.00000000	-90.00000000	33.87159526
 316	40.00000000	-100.00000000	-90.00000000	60.52918263
 317	40.00000000	-90.00000000	-90.00000000	60.52918263
 318	40.00000000	-80.00000000	-90.00000000	60.52918263
 319	40.00000000	-70.00000000	-90.00000000	60.52918263
 320	40.00000000	-60.00000000	-90.00000000	60.52918263
 321	40.00000000	-50.00000000	-90.00000000	60.52918263
 322	40.00000000	-40.00000000	-90.00000000	60.52918263
 323	40.00000000	-30.00000000	-90.00000000	60.52918263
 324	40.00000000	-20.00000000	-90.00000000	60.52918263
 325	40.00000000	-10.00000000	-90.00000000	60.52918263
 326	40.00000000	0.00000000	-90.00000000	60.52918263
 327	40.00000000	10.00000000	-90.00000000	60.52918263
 328	40.00000000	20.00000000	-90.00000000	60.52918263
 329	40.00000000	30.00000000	-90.00000000	60.52918263
 330	40.00000000	40.00000000	-90.00000000	60.52918263
 331	40.00000000	50.00000000	-90.00000000	60.52918263
 332	40.00000000	60.00000000	-90.00000000	60.52918263
 333	40.00000000	70.00000000	-90.00000000	60.52918263
 334	40.00000000	80.00000000	-90.00000000	60.52918263
 335	40.00000000	90.00000000	-90.00000000	60.52918263
 336	40.00000000	100.00000000	-90.00000000	60.52918263
 337	50.00000000	-100.00000000	-90.00000000	89.49027479
 338	50.00000000	-90.00000000	-90.00000000	89.49027479
 339	50.00000000	-80.00000000	-90.00000000	89.49027479
 340	50.00000000	-70.00000000	-90.00000000	89.49027479
 341	50.00000000	-60.00000000	-90.00000000	89.49027479
 342	50.00000000	-50.00000000	-90.00000000	89.49027479
 343	50.00000000	-40.00000000	-90.00000000	89.49027479
 344	50.00000000	-30.00000000	-90.00000000	89.49027479
 345	50.00000000	-20.00000000	-90.00000000	89.49027479
 346	50.00000000	-10.00000000	-90.00000000	89.49027479
 347	50.00000000	0.00000000	-90.00000000	89.49027479
 348	50.00000000	10.00000000	-90.00000000	89.49027479
 349	50.00000000	20.00000000	-90.00000000	89.49027479
 350	50.00000000	30.00000000	-90.00000000	89.49027479
 351	50.00000000	40.00000000	-90.00000000	89.49027479
 352	50.00000000	50.00000000	-90.00000000	89.49027479
 353	50.00000000	60.00000000	-90.00000000	89.49027479
 354	50.00000000	70.00000000	-90.00000000	89.49027479
 355	50.00000000	80.00000000	-90.00000000	89.49027479
 356	50.00000000	90.00000000	-90.00000000	89.49027479
 357	50.00000000	100.00000000	-90.00000000	89.49027479
 358	60.00000000	-100.00000000	-90.00000000	121.30739629
 359	60.00000000	-90.00000000	-90.00000000	121.30739629
 360	60.00000000	-80.00000000	-90.00000000	121.30739629
 361	60.00000000	-70.00000000	-90.00000000	121.30739629
 362	60.00000000	-60.00000000	-90.00000000	121.30739629
 363	60.00000000	-50.00000000	-90.00000000	121.30739629
 364	60.00000000	-40.00000000	-90.00000000	121.30739629
 365	60.00000000	-30.00000000	-90.00000000	121.30739629
 366	60.00000000	-20.00000000	-90.00000000	121.30739629
 367	60.00000000	-10.00000000	-90.00000000	121.30739629
 368	60.00000000	0.00000000	-90.00000000	121.30739629
 369	60.00000000	10.00000000	-90.00000000	121.30739629
 370	60.00000000	20.00000000	-90.00000000	121.30739629
 371	60.00000000	30.00000000	-90.00000000	121.30739629
 372	60.00000000	40.00000000	-90.00000000	121.30739629
 373	60.00000000	50.00000000	-90.00000000	121.30739629
 374	60.00000000	60.00000000	-90.00000000	121.30739629
 375	60.00000000	70.00000000	-90.00000000	121.30739629
 376	60.00000000	80.00000000	-90.00000000	121.30739629
 377	60.00000000	90.00000000	-90.00000000	121.30739629
 378	60.00000000	100.00000000	-90.00000000	121.30739629
 379	70.00000000	-100.00000000	-90.00000000	155.59143662
 380	70.00000000	-90.00000000	-90.00000000	155.59143662
 381	70.00000000	-80.00000000	-90.00000000	155.59143662
 382	70.00000000	-70.00000000	-90.00000000	155.59143662
 383	70.00000000	-60.00000000	-90.00000000	155.59143662
 384	70.00000000	-50.00000000	-90.00000000	155.59143662
 385	70.00000000	-40.00000000	-90.00000000	155.59143662
 386	70.00000000	-30.00000000	-90.00000000	155.59143662
 387	70.00000000	-20.00000000	-90.00000000	155.59143662
 388	70.00000000	-10.00000000	-90.00000000	155.59143662
 389	70.00000000	0.00000000	-90.00000000	155.59143662
 390	70.00000000	10.00000000	-90.00000000	155.59143662
 391	70.00000000	20.00000000	-90.00000000	155.59143662
 392	70.00000000	30.00000000	-90.00000000	155.59143662
 393	70.00000000	40.00000000	-90.00000000	155.59143662
 394	70.00000000	50.00000000	-90.00000000	155.59143662
 395	70.00000000	60.00000000	-90.00000000	155.59143662
 396	70.00000000	70.00000000	-90.00000000	155.59143662
 397	70.00000000	80.00000000	-90.00000000	155.59143662
 398	70.00000000	90.00000000	-90.00000000	155.59143662
 399	70.00000000	100.00000000	-90.00000000	155.59143662
 400	80.00000000	-100.00000000	-90.00000000	193.28015506
 401	80.00000000	-90.00000000	-90.00000000	193.28015506
 402	80.00000000	-80.00000000	-90.00000000	193.28015506
 403	80.00000000	-70.00000000	-90.00000000	193.28015506
 404	80.00000000	-60.00000000	-90.00000000	193.28015506
 405	80.00000000	-50.00000000	-90.00000000	193.28015506
 406	80.00000000	-40.00000000	-90.00000000	193.28015506
 407	80.00000000	-30.00000000	-90.00000000	193.28015506
 408	80.00000000	-20.00000000	-90.00000000	193.28015506
 409	80.00000000	-10.00000000	-90.00000000	193.28015506
 410	80.00000000	0.00000000	-90.00000000	193.28015506
 411	80.00000000	10.00000000	-90.00000000	193.28015506
 412	80.00000000	20.00000000	-90.00000000	193.28015506
 413	80.00000000	30.00000000	-90.00000000	193.28015506
 414	80.00000000	40.00000000	-90.00000000	193.28015506
 415	80.00000000	50.00000000	-90.00000000	193.28015506
 416	80.00000000	60.00000000	-90.00000000	193.28015506
 417	80.00000000	70.00000000	-90.00000000	193.28015506
 418	80.00000000	80.00000000	-90.00000000	193.28015506
 419	80.00000000	90.00000000	-90.00000000	193.28015506
 420	80.00000000	100.00000000	-90.00000000	193.28015506
 421	90.00000000	-100.00000000	-90.00000000	233.78210574
 422	90.00000000	-90.00000000	-90.00000000	233.78210574
 423	90.00000000	-80.00000000	-90.00000000	233.78210574
 424	90.00000000	-70.00000000	-90.00000000	233.78210574
 425	90.00000000	-60.00000000	-90.00000000	233.78210574
 426	90.00000000	-50.00000000	-90.00000000	233.78210574
 427	90.00000000	-40.00000000	-90.00000000	233.78210574
 428	90.00000000	-30.00000000	-90.00000000	233.78210574
 429	90.00000000	-20.00000000	-90.00000000	233.78210574
 430	90.00000000	-10.00000000	-90.00000000	233.78210574
 431	90.00000000	0.00000000	-90.00000000	233.78210574
 432	90.00000000	10.00000000	-90.00000000	233.78210574
 433	90.00000000	20.00000000	-90.00000000	233.78210574
