bench/lcms_compat/reference/lab_to_ISOcoated_v2_grey1c_bas.ICC_Relative_BPC.it8
CGATS.17
ORIGINATOR	"icctrans"
#
# Data follows
#
NUMBER_OF_SETS	4851.00000000
NUMBER_OF_FIELDS	5.00000000
BEGIN_DATA_FORMAT
 SAMPLE_ID	IN_LAB_L	IN_LAB_A	IN_LAB_B	OUT_GRAY
END_DATA_FORMAT
BEGIN_DATA
 1	0.00000000	-100.00000000	-100.00000000	0.02334630
 2	0.00000000	-90.00000000	-100.00000000	0.02334630
 3	0.00000000	-80.00000000	-100.00000000	0.02334630
 4	0.00000000	-70.00000000	-100.00000000	0.02334630
 5	0.00000000	-60.00000000	-100.00000000	0.02334630
 6	0.00000000	-50.00000000	-100.00000000	0.02334630
 7	0.00000000	-40.00000000	-100.00000000	0.02334630
 8	0.00000000	-30.00000000	-100.00000000	0.02334630
 9	0.00000000	-20.00000000	-100.00000000	0.02334630
 10	0.00000000	-10.00000000	-100.00000000	0.02334630
 11	0.00000000	0.00000000	-100.00000000	0.02334630
 12	0.00000000	10.00000000	-100.00000000	0.02334630
 13	0.00000000	20.00000000	-100.00000000	0.02334630
 14	0.00000000	30.00000000	-100.00000000	0.02334630
 15	0.00000000	40.00000000	-100.00000000	0.02334630
 16	0.00000000	50.00000000	-100.00000000	0.02334630
 17	0.00000000	60.00000000	-100.00000000	0.02334630
 18	0.00000000	70.00000000	-100.00000000	0.02334630
 19	0.00000000	80.00000000	-100.00000000	0.02334630
 20	0.00000000	90.00000000	-100.00000000	0.02334630
 21	0.00000000	100.00000000	-100.00000000	0.02334630
 22	10.00000000	-100.00000000	-100.00000000	10.01167333
 23	10.00000000	-90.00000000	-100.00000000	10.01167333
 24	10.00000000	-80.00000000	-100.00000000	10.01167333
 25	10.00000000	-70.00000000	-100.00000000	10.01167333
 26	10.00000000	-60.00000000	-100.00000000	10.01167333
 27	10.00000000	-50.00000000	-100.00000000	10.01167333
 28	10.00000000	-40.00000000	-100.00000000	10.01167333
 29	10.00000000	-30.00000000	-100.00000000	10.01167333
 30	10.00000000	-20.00000000	-100.00000000	10.01167333
 31	10.00000000	-10.00000000	-100.00000000	10.01167333
 32	10.00000000	0.00000000	-100.00000000	10.01167333
 33	10.00000000	10.00000000	-100.00000000	10.01167333
 34	10.00000000	20.00000000	-100.00000000	10.01167333
 35	10.00000000	30.00000000	-100.00000000	10.01167333
 36	10.00000000	40.00000000	-100.00000000	10.01167333
 37	10.00000000	50.00000000	-100.00000000	10.01167333
 38	10.00000000	60.00000000	-100.00000000	10.01167333
 39	10.00000000	70.00000000	-100.00000000	10.01167333
 40	10.00000000	80.00000000	-100.00000000	10.01167333
 41	10.00000000	90.00000000	-100.00000000	10.01167333
 42	10.00000000	100.00000000	-100.00000000	10.01167333
 43	20.00000000	-100.00000000	-100.00000000	23.12062316
 44	20.00000000	-90.00000000	-100.00000000	23.12062316
 45	20.00000000	-80.00000000	-100.00000000	23.12062316
 46	20.00000000	-70.00000000	-100.00000000	23.12062316
 47	20.00000000	-60.00000000	-100.00000000	23.12062316
 48	20.00000000	-50.00000000	-100.00000000	23.12062316
 49	20.00000000	-40.00000000	-100.00000000	23.12062316
 50	20.00000000	-30.00000000	-100.00000000	23.12062316
 51	20.00000000	-20.00000000	-100.00000000	23.12062316
 52	20.00000000	-10.00000000	-100.00000000	23.12062316
 53	20.00000000	0.00000000	-100.00000000	23.12062316
 54	20.00000000	10.00000000	-100.00000000	23.12062316
 55	20.00000000	20.00000000	-100.00000000	23.12062316
 56	20.00000000	30.00000000	-100.00000000	23.12062316
 57	20.00000000	40.00000000	-100.00000000	23.12062316
 58	20.00000000	50.00000000	-100.00000000	23.12062316
 59	20.00000000	60.00000000	-100.00000000	23.12062316
 60	20.00000000	70.00000000	-100.00000000	23.12062316
 61	20.00000000	80.00000000	-100.00000000	23.12062316
 62	20.00000000	90.00000000	-100.00000000	23.12062316
 63	20.00000000	100.00000000	-100.00000000	23.12062316
 64	30.00000000	-100.00000000	-100.00000000	40.93774170
 65	30.00000000	-90.00000000	-100.00000000	40.93774170
 66	30.00000000	-80.00000000	-100.00000000	40.93774170
 67	30.00000000	-70.00000000	-100.00000000	40.93774170
 68	30.00000000	-60.00000000	-100.00000000	40.93774170
 69	30.00000000	-50.00000000	-100.00000000	40.93774170
 70	30.00000000	-40.00000000	-100.00000000	40.93774170
 71	30.00000000	-30.00000000	-100.00000000	40.93774170
 72	30.00000000	-20.00000000	-100.00000000	40.93774170
 73	30.00000000	-10.00000000	-100.00000000	40.93774170
 74	30.00000000	0.00000000	-100.00000000	40.93774170
 75	30.00000000	10.00000000	-100.00000000	40.93774170
 76	30.00000000	20.00000000	-100.00000000	40.93774170
 77	30.00000000	30.00000000	-100.00000000	40.93774170
 78	30.00000000	40.00000000	-100.00000000	40.93774170
 79	30.00000000	50.00000000	-100.00000000	40.93774170
 80	30.00000000	60.00000000	-100.00000000	40.93774170
 81	30.00000000	70.00000000	-100.00000000	40.93774170
 82	30.00000000	80.00000000	-100.00000000	40.93774170
 83	30.00000000	90.00000000	-100.00000000	40.93774170
 84	30.00000000	100.00000000	-100.00000000	40.93774170
 85	40.00000000	-100.00000000	-100.00000000	62.75486380
 86	40.00000000	-90.00000000	-100.00000000	62.75486380
 87	40.00000000	-80.00000000	-100.00000000	62.75486380
 88	40.00000000	-70.00000000	-100.00000000	62.75486380
 89	40.00000000	-60.00000000	-100.00000000	62.75486380
 90	40.00000000	-50.00000000	-100.00000000	62.75486380
 91	40.00000000	-40.00000000	-100.00000000	62.75486380
 92	40.00000000	-30.00000000	-100.00000000	62.75486380
 93	40.00000000	-20.00000000	-100.00000000	62.75486380
 94	40.00000000	-10.00000000	-100.00000000	62.75486380
 95	40.00000000	0.00000000	-100.00000000	62.75486380
 96	40.00000000	10.00000000	-100.00000000	62.75486380
 97	40.00000000	20.00000000	-100.00000000	62.75486380
 98	40.00000000	30.00000000	-100.00000000	62.75486380
 99	40.00000000	40.00000000	-100.00000000	62.75486380
 100	40.00000000	50.00000000	-100.00000000	62.75486380
 101	40.00000000	60.00000000	-100.00000000	62.75486380
 102	40.00000000	70.00000000	-100.00000000	62.75486380
 103	40.00000000	80.00000000	-100.00000000	62.75486380
 104	40.00000000	90.00000000	-100.00000000	62.75486380
 105	40.00000000	100.00000000	-100.00000000	62.75486380
 106	50.00000000	-100.00000000	-100.00000000	87.47471094
 107	50.00000000	-90.00000000	-100.00000000	87.47471094
 108	50.00000000	-80.00000000	-100.00000000	87.47471094
 109	50.00000000	-70.00000000	-100.00000000	87.47471094
 110	50.00000000	-60.00000000	-100.00000000	87.47471094
 111	50.00000000	-50.00000000	-100.00000000	87.47471094
 112	50.00000000	-40.00000000	-100.00000000	87.47471094
 113	50.00000000	-30.00000000	-100.00000000	87.47471094
 114	50.00000000	-20.00000000	-100.00000000	87.47471094
 115	50.00000000	-10.00000000	-100.00000000	87.47471094
 116	50.00000000	0.00000000	-100.00000000	87.47471094
 117	50.00000000	10.00000000	-100.00000000	87.47471094
 118	50.00000000	20.00000000	-100.00000000	87.47471094
 119	50.00000000	30.00000000	-100.00000000	87.47471094
 120	50.00000000	40.00000000	-100.00000000	87.47471094
 121	50.00000000	50.00000000	-100.00000000	87.47471094
 122	50.00000000	60.00000000	-100.00000000	87.47471094
 123	50.00000000	70.00000000	-100.00000000	87.47471094
 124	50.00000000	80.00000000	-100.00000000	87.47471094
 125	50.00000000	90.00000000	-100.00000000	87.47471094
 126	50.00000000	100.00000000	-100.00000000	87.47471094
 127	60.00000000	-100.00000000	-100.00000000	115.13618544
 128	60.00000000	-90.00000000	-100.00000000	115.13618544
 129	60.00000000	-80.00000000	-100.00000000	115.13618544
 130	60.00000000	-70.00000000	-100.00000000	115.13618544
 131	60.00000000	-60.00000000	-100.00000000	115.13618544
 132	60.00000000	-50.00000000	-100.00000000	115.13618544
 133	60.00000000	-40.00000000	-100.00000000	115.13618544
 134	60.00000000	-30.00000000	-100.00000000	115.13618544
 135	60.00000000	-20.00000000	-100.00000000	115.13618544
 136	60.00000000	-10.00000000	-100.00000000	115.13618544
 137	60.00000000	0.00000000	-100.00000000	115.13618544
 138	60.00000000	10.00000000	-100.00000000	115.13618544
 139	60.00000000	20.00000000	-100.00000000	115.13618544
 140	60.00000000	30.00000000	-100.00000000	115.13618544
 141	60.00000000	40.00000000	-100.00000000	115.13618544
 142	60.00000000	50.00000000	-100.00000000	115.13618544
 143	60.00000000	60.00000000	-100.00000000	115.13618544
 144	60.00000000	70.00000000	-100.00000000	115.13618544
 145	60.00000000	80.00000000	-100.00000000	115.13618544
 146	60.00000000	90.00000000	-100.00000000	115.13618544
 147	60.00000000	100.00000000	-100.00000000	115.13618544
 148	70.00000000	-100.00000000	-100.00000000	145.85602462
 149	70.00000000	-90.00000000	-100.00000000	145.85602462
 150	70.00000000	-80.00000000	-100.00000000	145.85602462
 151	70.00000000	-70.00000000	-100.00000000	145.85602462
 152	70.00000000	-60.00000000	-100.00000000	145.85602462
 153	70.00000000	-50.00000000	-100.00000000	145.85602462
 154	70.00000000	-40.00000000	-100.00000000	145.85602462
 155	70.00000000	-30.00000000	-100.00000000	145.85602462
 156	70.00000000	-20.00000000	-100.00000000	145.85602462
 157	70.00000000	-10.00000000	-100.00000000	145.85602462
 158	70.00000000	0.00000000	-100.00000000	145.85602462
 159	70.00000000	10.00000000	-100.00000000	145.85602462
 160	70.00000000	20.00000000	-100.00000000	145.85602462
 161	70.00000000	30.00000000	-100.00000000	145.85602462
 162	70.00000000	40.00000000	-100.00000000	145.85602462
 163	70.00000000	50.00000000	-100.00000000	145.85602462
 164	70.00000000	60.00000000	-100.00000000	145.85602462
 165	70.00000000	70.00000000	-100.00000000	145.85602462
 166	70.00000000	80.00000000	-100.00000000	145.85602462
 167	70.00000000	90.00000000	-100.00000000	145.85602462
 168	70.00000000	100.00000000	-100.00000000	145.85602462
 169	80.00000000	-100.00000000	-100.00000000	179.65758204
 170	80.00000000	-90.00000000	-100.00000000	179.65758204
 171	80.00000000	-80.00000000	-100.00000000	179.65758204
 172	80.00000000	-70.00000000	-100.00000000	179.65758204
 173	80.00000000	-60.00000000	-100.00000000	179.65758204
 174	80.00000000	-50.00000000	-100.00000000	179.65758204
 175	80.00000000	-40.00000000	-100.00000000	179.65758204
 176	80.00000000	-30.00000000	-100.00000000	179.65758204
 177	80.00000000	-20.00000000	-100.00000000	179.65758204
 178	80.00000000	-10.00000000	-100.00000000	179.65758204
 179	80.00000000	0.00000000	-100.00000000	179.65758204
 180	80.00000000	10.00000000	-100.00000000	179.65758204
 181	80.00000000	20.00000000	-100.00000000	179.65758204
 182	80.00000000	30.00000000	-100.00000000	179.65758204
 183	80.00000000	40.00000000	-100.00000000	179.65758204
 184	80.00000000	50.00000000	-100.00000000	179.65758204
 185	80.00000000	60.00000000	-100.00000000	179.65758204
 186	80.00000000	70.00000000	-100.00000000	179.65758204
 187	80.00000000	80.00000000	-100.00000000	179.65758204
 188	80.00000000	90.00000000	-100.00000000	179.65758204
 189	80.00000000	100.00000000	-100.00000000	179.65758204
 190	90.00000000	-100.00000000	-100.00000000	215.87159961
 191	90.00000000	-90.00000000	-100.00000000	215.87159961
 192	90.00000000	-80.00000000	-100.00000000	215.87159961
 193	90.00000000	-70.00000000	-100.00000000	215.87159961
 194	90.00000000	-60.00000000	-100.00000000	215.87159961
 195	90.00000000	-50.00000000	-100.00000000	215.87159961
 196	90.00000000	-40.00000000	-100.00000000	215.87159961
 197	90.00000000	-30.00000000	-100.00000000	215.87159961
 198	90.00000000	-20.00000000	-100.00000000	215.87159961
 199	90.00000000	-10.00000000	-100.00000000	215.87159961
 200	90.00000000	0.00000000	-100.00000000	215.87159961
 201	90.00000000	10.00000000	-100.00000000	215.87159961
 202	90.00000000	20.00000000	-100.00000000	215.87159961
 203	90.00000000	30.00000000	-100.00000000	215.87159961
 204	90.00000000	40.00000000	-100.00000000	215.87159961
 205	90.00000000	50.00000000	-100.00000000	215.87159961
 206	90.00000000	60.00000000	-100.00000000	215.87159961
 207	90.00000000	70.00000000	-100.00000000	215.87159961
 208	90.00000000	80.00000000	-100.00000000	215.87159961
 209	90.00000000	90.00000000	-100.00000000	215.87159961
 210	90.00000000	100.00000000	-100.00000000	215.87159961
 211	100.00000000	-100.00000000	-100.00000000	255.00000000
 212	100.00000000	-90.00000000	-100.00000000	255.00000000
 213	100.00000000	-80.00000000	-100.00000000	255.00000000
 214	100.00000000	-70.00000000	-100.00000000	255.00000000
 215	100.00000000	-60.00000000	-100.00000000	255.00000000
 216	100.00000000	-50.00000000	-100.00000000	255.00000000
 217	100.00000000	-40.00000000	-100.00000000	255.00000000
 218	100.00000000	-30.00000000	-100.00000000	255.00000000
 219	100.00000000	-20.00000000	-100.00000000	255.00000000
 220	100.00000000	-10.00000000	-100.00000000	255.00000000
 221	100.00000000	0.00000000	-100.00000000	255.00000000
 222	100.00000000	10.00000000	-100.00000000	255.00000000
 223	100.00000000	20.00000000	-100.00000000	255.00000000
 224	100.00000000	30.00000000	-100.00000000	255.00000000
 225	100.00000000	40.00000000	-100.00000000	255.00000000
 226	100.00000000	50.00000000	-100.00000000	255.00000000
 227	100.00000000	60.00000000	-100.00000000	255.00000000
 228	100.00000000	70.00000000	-100.00000000	255.00000000
 229	100.00000000	80.00000000	-100.00000000	255.00000000
 230	100.00000000	90.00000000	-100.00000000	255.00000000
 231	100.00000000	100.00000000	-100.00000000	255.00000000
 232	0.00000000	-100.00000000	-90.00000000	0.02334630
 233	0.00000000	-90.00000000	-90.00000000	0.02334630
 234	0.00000000	-80.00000000	-90.00000000	0.02334630
 235	0.00000000	-70.00000000	-90.00000000	0.02334630
 236	0.00000000	-60.00000000	-90.00000000	0.02334630
 237	0.00000000	-50.00000000	-90.00000000	0.02334630
 238	0.00000000	-40.00000000	-90.00000000	0.02334630
 239	0.00000000	-30.00000000	-90.00000000	0.02334630
 240	0.00000000	-20.00000000	-90.00000000	0.02334630
 241	0.00000000	-10.00000000	-90.00000000	0.02334630
 242	0.00000000	0.00000000	-90.00000000	0.02334630
 243	0.00000000	10.00000000	-90.00000000	0.02334630
 244	0.00000000	20.00000000	-90.00000000	0.02334630
 245	0.00000000	30.00000000	-90.00000000	0.02334630
 246	0.00000000	40.00000000	-90.00000000	0.02334630
 247	0.00000000	50.00000000	-90.00000000	0.02334630
 248	0.00000000	60.00000000	-90.00000000	0.02334630
 249	0.00000000	70.00000000	-90.00000000	0.02334630
 250	0.00000000	80.00000000	-90.00000000	0.02334630
 251	0.00000000	90.00000000	-90.00000000	0.02334630
 252	0.00000000	100.00000000	-90.00000000	0.02334630
 253	10.00000000	-100.00000000	-90.00000000	10.01167333
 254	10.00000000	-90.00000000	-90.00000000	10.01167333
 255	10.00000000	-80.00000000	-90.00000000	10.01167333
 256	10.00000000	-70.00000000	-90.00000000	10.01167333
 257	10.00000000	-60.00000000	-90.00000000	10.01167333
 258	10.00000000	-50.00000000	-90.00000000	10.01167333
 259	10.00000000	-40.00000000	-90.00000000	10.01167333
 260	10.00000000	-30.00000000	-90.00000000	10.01167333
 261	10.00000000	-20.00000000	-90.00000000	10.01167333
 262	10.00000000	-10.00000000	-90.00000000	10.01167333
 263	10.00000000	0.00000000	-90.00000000	10.01167333
 264	10.00000000	10.00000000	-90.00000000	10.01167333
 265	10.00000000	20.00000000	-90.00000000	10.01167333
 266	10.00000000	30.00000000	-90.00000000	10.01167333
 267	10.00000000	40.00000000	-90.00000000	10.01167333
 268	10.00000000	50.00000000	-90.00000000	10.01167333
 269	10.00000000	60.00000000	-90.00000000	10.01167333
 270	10.00000000	70.00000000	-90.00000000	10.01167333
 271	10.00000000	80.00000000	-90.00000000	10.01167333
 272	10.00000000	90.00000000	-90.00000000	10.01167333
 273	10.00000000	100.00000000	-90.00000000	10.01167333
 274	20.00000000	-100.00000000	-90.00000000	23.12062316
 275	20.00000000	-90.00000000	-90.00000000	23.12062316
 276	20.00000000	-80.00000000	-90.00000000	23.12062316
 277	20.00000000	-70.00000000	-90.00000000	23.12062316
 278	20.00000000	-60.00000000	-90.00000000	23.12062316
 279	20.00000000	-50.00000000	-90.00000000	23.12062316
 280	20.00000000	-40.00000000	-90.00000000	23.12062316
 281	20.00000000	-30.00000000	-90.00000000	23.12062316
 282	20.00000000	-20.00000000	-90.00000000	23.12062316
 283	20.00000000	-10.00000000	-90.00000000	23.12062316
 284	20.00000000	0.00000000	-90.00000000	23.12062316
 285	20.00000000	10.00000000	-90.00000000	23.12062316
 286	20.00000000	20.00000000	-90.00000000	23.12062316
 287	20.00000000	30.00000000	-90.00000000	23.12062316
 288	20.00000000	40.00000000	-90.00000000	23.12062316
 289	20.00000000	50.00000000	-90.00000000	23.12062316
 290	20.00000000	60.00000000	-90.00000000	23.12062316
 291	20.00000000	70.00000000	-90.00000000	23.12062316
 292	20.00000000	80.00000000	-90.00000000	23.12062316
 293	20.00000000	90.00000000	-90.00000000	23.12062316
 294	20.00000000	100.00000000	-90.00000000	23.12062316
 295	30.00000000	-100.00000000	-90.00000000	40.93774170
 296	30.00000000	-90.00000000	-90.00000000	40.93774170
 297	30.00000000	-80.00000000	-90.00000000	40.93774170
 298	30.00000000	-70.00000000	-90.00000000	40.93774170
 299	30.00000000	-60.00000000	-90.00000000	40.93774170
 300	30.00000000	-50.00000000	-90.00000000	40.93774170
 301	30.00000000	-40.00000000	-90.00000000	40.93774170
 302	30.00000000	-30.00000000	-90.00000000	40.93774170
 303	30.00000000	-20.00000000	-90.00000000	40.93774170
 304	30.00000000	-10.00000000	-90.00000000	40.93774170
 305	30.00000000	0.00000000	-90.00000000	40.93774170
 306	30.00000000	10.00000000	-90.00000000	40.93774170
 307	30.00000000	20.00000000	-90.00000000	40.93774170
 308	30.00000000	30.00000000	-90.00000000	40.93774170
 309	30.00000000	40.00000000	-90.00000000	40.93774170
 310	30.00000000	50.00000000	-90.00000000	40.93774170
 311	30.00000000	60.00000000	-90.00000000	40.93774170
 312	30.00000000	70.00000000	-90.00000000	40.93774170
 313	30.00000000	80.00000000	-90.00000000	40.93774170
 314	30.00000000	90.00000000	-90.00000000	40.93774170
 315	30.00000000	100.00000000	-90.00000000	40.93774170
 316	40.00000000	-100.00000000	-90.00000000	62.75486380
 317	40.00000000	-90.00000000	-90.00000000	62.75486380
 318	40.00000000	-80.00000000	-90.00000000	62.75486380
 319	40.00000000	-70.00000000	-90.00000000	62.75486380
 320	40.00000000	-60.00000000	-90.00000000	62.75486380
 321	40.00000000	-50.00000000	-90.00000000	62.75486380
 322	40.00000000	-40.00000000	-90.00000000	62.75486380
 323	40.00000000	-30.00000000	-90.00000000	62.75486380
 324	40.00000000	-20.00000000	-90.00000000	62.75486380
 325	40.00000000	-10.00000000	-90.00000000	62.75486380
 326	40.00000000	0.00000000	-90.00000000	62.75486380
 327	40.00000000	10.00000000	-90.00000000	62.75486380
 328	40.00000000	20.00000000	-90.00000000	62.75486380
 329	40.00000000	30.00000000	-90.00000000	62.75486380
 330	40.00000000	40.00000000	-90.00000000	62.75486380
 331	40.00000000	50.00000000	-90.00000000	62.75486380
 332	40.00000000	60.00000000	-90.00000000	62.75486380
 333	40.00000000	70.00000000	-90.00000000	62.75486380
 334	40.00000000	80.00000000	-90.00000000	62.75486380
 335	40.00000000	90.00000000	-90.00000000	62.75486380
 336	40.00000000	100.00000000	-90.00000000	62.75486380
 337	50.00000000	-100.00000000	-90.00000000	87.47471094
 338	50.00000000	-90.00000000	-90.00000000	87.47471094
 339	50.00000000	-80.00000000	-90.00000000	87.47471094
 340	50.00000000	-70.00000000	-90.00000000	87.47471094
 341	50.00000000	-60.00000000	-90.00000000	87.47471094
 342	50.00000000	-50.00000000	-90.00000000	87.47471094
 343	50.00000000	-40.00000000	-90.00000000	87.47471094
 344	50.00000000	-30.00000000	-90.00000000	87.47471094
 345	50.00000000	-20.00000000	-90.00000000	87.47471094
 346	50.00000000	-10.00000000	-90.00000000	87.47471094
 347	50.00000000	0.00000000	-90.00000000	87.47471094
 348	50.00000000	10.00000000	-90.00000000	87.47471094
 349	50.00000000	20.00000000	-90.00000000	87.47471094
 350	50.00000000	30.00000000	-90.00000000	87.47471094
 351	50.00000000	40.00000000	-90.00000000	87.47471094
 352	50.00000000	50.00000000	-90.00000000	87.47471094
 353	50.00000000	60.00000000	-90.00000000	87.47471094
 354	50.00000000	70.00000000	-90.00000000	87.47471094
 355	50.00000000	80.00000000	-90.00000000	87.47471094
 356	50.00000000	90.00000000	-90.00000000	87.47471094
 357	50.00000000	100.00000000	-90.00000000	87.47471094
 358	60.00000000	-100.00000000	-90.00000000	115.13618544
 359	60.00000000	-90.00000000	-90.00000000	115.13618544
 360	60.00000000	-80.00000000	-90.00000000	115.13618544
 361	60.00000000	-70.00000000	-90.00000000	115.13618544
 362	60.00000000	-60.00000000	-90.00000000	115.13618544
 363	60.00000000	-50.00000000	-90.00000000	115.13618544
 364	60.00000000	-40.00000000	-90.00000000	115.13618544
 365	60.00000000	-30.00000000	-90.00000000	115.13618544
 366	60.00000000	-20.00000000	-90.00000000	115.13618544
 367	60.00000000	-10.00000000	-90.00000000	115.13618544
 368	60.00000000	0.00000000	-90.00000000	115.13618544
 369	60.00000000	10.00000000	-90.00000000	115.13618544
 370	60.00000000	20.00000000	-90.00000000	115.13618544
 371	60.00000000	30.00000000	-90.00000000	115.13618544
 372	60.00000000	40.00000000	-90.00000000	115.13618544
 373	60.00000000	50.00000000	-90.00000000	115.13618544
 374	60.00000000	60.00000000	-90.00000000	115.13618544
 375	60.00000000	70.00000000	-90.00000000	115.13618544
 376	60.00000000	80.00000000	-90.00000000	115.13618544
 377	60.00000000	90.00000000	-90.00000000	115.13618544
 378	60.00000000	100.00000000	-90.00000000	115.13618544
 379	70.00000000	-100.00000000	-90.00000000	145.85602462
 380	70.00000000	-90.00000000	-90.00000000	145.85602462
 381	70.00000000	-80.00000000	-90.00000000	145.85602462
 382	70.00000000	-70.00000000	-90.00000000	145.85602462
 383	70.00000000	-60.00000000	-90.00000000	145.85602462
 384	70.00000000	-50.00000000	-90.00000000	145.85602462
 385	70.00000000	-40.00000000	-90.00000000	145.85602462
 386	70.00000000	-30.00000000	-90.00000000	145.85602462
 387	70.00000000	-20.00000000	-90.00000000	145.85602462
 388	70.00000000	-10.00000000	-90.00000000	145.85602462
 389	70.00000000	0.00000000	-90.00000000	145.85602462
 390	70.00000000	10.00000000	-90.00000000	145.85602462
 391	70.00000000	20.00000000	-90.00000000	145.85602462
 392	70.00000000	30.00000000	-90.00000000	145.85602462
 393	70.00000000	40.00000000	-90.00000000	145.85602462
 394	70.00000000	50.00000000	-90.00000000	145.85602462
 395	70.00000000	60.00000000	-90.00000000	145.85602462
 396	70.00000000	70.00000000	-90.00000000	145.85602462
 397	70.00000000	80.00000000	-90.00000000	145.85602462
 398	70.00000000	90.00000000	-90.00000000	145.85602462
 399	70.00000000	100.00000000	-90.00000000	145.85602462
 400	80.00000000	-100.00000000	-90.00000000	179.65758204
 401	80.00000000	-90.00000000	-90.00000000	179.65758204
 402	80.00000000	-80.00000000	-90.00000000	179.65758204
 403	80.00000000	-70.00000000	-90.00000000	179.65758204
 404	80.00000000	-60.00000000	-90.00000000	179.65758204
 405	80.00000000	-50.00000000	-90.00000000	179.65758204
 406	80.00000000	-40.00000000	-90.00000000	179.65758204
 407	80.00000000	-30.00000000	-90.00000000	179.65758204
 408	80.00000000	-20.00000000	-90.00000000	179.65758204
 409	80.00000000	-10.00000000	-90.00000000	179.65758204
 410	80.00000000	0.00000000	-90.00000000	179.65758204
 411	80.00000000	10.00000000	-90.00000000	179.65758204
 412	80.00000000	20.00000000	-90.00000000	179.65758204
 413	80.00000000	30.00000000	-90.00000000	179.65758204
 414	80.00000000	40.00000000	-90.00000000	179.65758204
 415	80.00000000	50.00000000	-90.00000000	179.65758204
 416	80.00000000	60.00000000	-90.00000000	179.65758204
 417	80.00000000	70.00000000	-90.00000000	179.65758204
 418	80.00000000	80.00000000	-90.00000000	179.65758204
 419	80.00000000	90.00000000	-90.00000000	179.65758204
 420	80.00000000	100.00000000	-90.00000000	179.65758204
 421	90.00000000	-100.00000000	-90.00000000	215.87159961
 422	90.00000000	-90.00000000	-90.00000000	215.87159961
 423	90.00000000	-80.00000000	-90.00000000	215.87159961
 424	90.00000000	-70.00000000	-90.00000000	215.87159961
 425	90.00000000	-60.00000000	-90.00000000	215.87159961
 426	90.00000000	-50.00000000	-90.00000000	215.87159961
 427	90.00000000	-40.00000000	-90.00000000	215.87159961
 428	90.00000000	-30.00000000	-90.00000000	215.87159961
 429	90.00000000	-20.00000000	-90.00000000	215.87159961
 430	90.00000000	-10.00000000	-90.00000000	215.87159961
 431	90.00000000	0.00000000	-90.00000000	215.87159961
 432	90.00000000	10.00000000	-90.00000000	215.87159961
