bench/lcms_compat/reference/lab_to_RISO_MZ770_Black.icc_Relative_BPC.it8
CGATS.17
ORIGINATOR	"icctrans"
#
# Data follows
#
NUMBER_OF_SETS	4851.00000000
NUMBER_OF_FIELDS	5.00000000
BEGIN_DATA_FORMAT
 SAMPLE_ID	IN_LAB_L	IN_LAB_A	IN_LAB_B	OUT_GRAY
END_DATA_FORMAT
BEGIN_DATA
 1	0.00000000	-100.00000000	-100.00000000	0.45136187
 2	0.00000000	-90.00000000	-100.00000000	0.45136187
 3	0.00000000	-80.00000000	-100.00000000	0.45136187
 4	0.00000000	-70.00000000	-100.00000000	0.45136187
 5	0.00000000	-60.00000000	-100.00000000	0.45136187
 6	0.00000000	-50.00000000	-100.00000000	0.45136187
 7	0.00000000	-40.00000000	-100.00000000	0.45136187
 8	0.00000000	-30.00000000	-100.00000000	0.45136187
 9	0.00000000	-20.00000000	-100.00000000	0.45136187
 10	0.00000000	-10.00000000	-100.00000000	0.45136187
 11	0.00000000	0.00000000	-100.00000000	0.45136187
 12	0.00000000	10.00000000	-100.00000000	0.45136187
 13	0.00000000	20.00000000	-100.00000000	0.45136187
 14	0.00000000	30.00000000	-100.00000000	0.45136187
 15	0.00000000	40.00000000	-100.00000000	0.45136187
 16	0.00000000	50.00000000	-100.00000000	0.45136187
 17	0.00000000	60.00000000	-100.00000000	0.45136187
 18	0.00000000	70.00000000	-100.00000000	0.45136187
 19	0.00000000	80.00000000	-100.00000000	0.45136187
 20	0.00000000	90.00000000	-100.00000000	0.45136187
 21	0.00000000	100.00000000	-100.00000000	0.45136187
 22	10.00000000	-100.00000000	-100.00000000	13.42023388
 23	10.00000000	-90.00000000	-100.00000000	13.42023388
 24	10.00000000	-80.00000000	-100.00000000	13.42023388
 25	10.00000000	-70.00000000	-100.00000000	13.42023388
 26	10.00000000	-60.00000000	-100.00000000	13.42023388
 27	10.00000000	-50.00000000	-100.00000000	13.42023388
 28	10.00000000	-40.00000000	-100.00000000	13.42023388
 29	10.00000000	-30.00000000	-100.00000000	13.42023388
 30	10.00000000	-20.00000000	-100.00000000	13.42023388
 31	10.00000000	-10.00000000	-100.00000000	13.42023388
 32	10.00000000	0.00000000	-100.00000000	13.42023388
 33	10.00000000	10.00000000	-100.00000000	13.42023388
 34	10.00000000	20.00000000	-100.00000000	13.42023388
 35	10.00000000	30.00000000	-100.00000000	13.42023388
 36	10.00000000	40.00000000	-100.00000000	13.42023388
 37	10.00000000	50.00000000	-100.00000000	13.42023388
 38	10.00000000	60.00000000	-100.00000000	13.42023388
 39	10.00000000	70.00000000	-100.00000000	13.42023388
 40	10.00000000	80.00000000	-100.00000000	13.42023388
 41	10.00000000	90.00000000	-100.00000000	13.42023388
 42	10.00000000	100.00000000	-100.00000000	13.42023388
 43	20.00000000	-100.00000000	-100.00000000	29.88326848
 44	20.00000000	-90.00000000	-100.00000000	29.88326848
 45	20.00000000	-80.00000000	-100.00000000	29.88326848
 46	20.00000000	-70.00000000	-100.00000000	29.88326848
 47	20.00000000	-60.00000000	-100.00000000	29.88326848
 48	20.00000000	-50.00000000	-100.00000000	29.88326848
 49	20.00000000	-40.00000000	-100.00000000	29.88326848
 50	20.00000000	-30.00000000	-100.00000000	29.88326848
 51	20.00000000	-20.00000000	-100.00000000	29.88326848
 52	20.00000000	-10.00000000	-100.00000000	29.88326848
 53	20.00000000	0.00000000	-100.00000000	29.88326848
 54	20.00000000	10.00000000	-100.00000000	29.88326848
 55	20.00000000	20.00000000	-100.00000000	29.88326848
 56	20.00000000	30.00000000	-100.00000000	29.88326848
 57	20.00000000	40.00000000	-100.00000000	29.88326848
 58	20.00000000	50.00000000	-100.00000000	29.88326848
 59	20.00000000	60.00000000	-100.00000000	29.88326848
 60	20.00000000	70.00000000	-100.00000000	29.88326848
 61	20.00000000	80.00000000	-100.00000000	29.88326848
 62	20.00000000	90.00000000	-100.00000000	29.88326848
 63	20.00000000	100.00000000	-100.00000000	29.88326848
 64	30.00000000	-100.00000000	-100.00000000	41.43579617
 65	30.00000000	-90.00000000	-100.00000000	41.43579617
 66	30.00000000	-80.00000000	-100.00000000	41.43579617
 67	30.00000000	-70.00000000	-100.00000000	41.43579617
 68	30.00000000	-60.00000000	-100.00000000	41.43579617
 69	30.00000000	-50.00000000	-100.00000000	41.43579617
 70	30.00000000	-40.00000000	-100.00000000	41.43579617
 71	30.00000000	-30.00000000	-100.00000000	41.43579617
 72	30.00000000	-20.00000000	-100.00000000	41.43579617
 73	30.00000000	-10.00000000	-100.00000000	41.43579617
 74	30.00000000	0.00000000	-100.00000000	41.43579617
 75	30.00000000	10.00000000	-100.00000000	41.43579617
 76	30.00000000	20.00000000	-100.00000000	41.43579617
 77	30.00000000	30.00000000	-100.00000000	41.43579617
 78	30.00000000	40.00000000	-100.00000000	41.43579617
 79	30.00000000	50.00000000	-100.00000000	41.43579617
 80	30.00000000	60.00000000	-100.00000000	41.43579617
 81	30.00000000	70.00000000	-100.00000000	41.43579617
 82	30.00000000	80.00000000	-100.00000000	41.43579617
 83	30.00000000	90.00000000	-100.00000000	41.43579617
 84	30.00000000	100.00000000	-100.00000000	41.43579617
 85	40.00000000	-100.00000000	-100.00000000	50.59922107
 86	40.00000000	-90.00000000	-100.00000000	50.59922107
 87	40.00000000	-80.00000000	-100.00000000	50.59922107
 88	40.00000000	-70.00000000	-100.00000000	50.59922107
 89	40.00000000	-60.00000000	-100.00000000	50.59922107
 90	40.00000000	-50.00000000	-100.00000000	50.59922107
 91	40.00000000	-40.00000000	-100.00000000	50.59922107
 92	40.00000000	-30.00000000	-100.00000000	50.59922107
 93	40.00000000	-20.00000000	-100.00000000	50.59922107
 94	40.00000000	-10.00000000	-100.00000000	50.59922107
 95	40.00000000	0.00000000	-100.00000000	50.59922107
 96	40.00000000	10.00000000	-100.00000000	50.59922107
 97	40.00000000	20.00000000	-100.00000000	50.59922107
 98	40.00000000	30.00000000	-100.00000000	50.59922107
 99	40.00000000	40.00000000	-100.00000000	50.59922107
 100	40.00000000	50.00000000	-100.00000000	50.59922107
 101	40.00000000	60.00000000	-100.00000000	50.59922107
 102	40.00000000	70.00000000	-100.00000000	50.59922107
 103	40.00000000	80.00000000	-100.00000000	50.59922107
 104	40.00000000	90.00000000	-100.00000000	50.59922107
 105	40.00000000	100.00000000	-100.00000000	50.59922107
 106	50.00000000	-100.00000000	-100.00000000	73.62646043
 107	50.00000000	-90.00000000	-100.00000000	73.62646043
 108	50.00000000	-80.00000000	-100.00000000	73.62646043
 109	50.00000000	-70.00000000	-100.00000000	73.62646043
 110	50.00000000	-60.00000000	-100.00000000	73.62646043
 111	50.00000000	-50.00000000	-100.00000000	73.62646043
 112	50.00000000	-40.00000000	-100.00000000	73.62646043
 113	50.00000000	-30.00000000	-100.00000000	73.62646043
 114	50.00000000	-20.00000000	-100.00000000	73.62646043
 115	50.00000000	-10.00000000	-100.00000000	73.62646043
 116	50.00000000	0.00000000	-100.00000000	73.62646043
 117	50.00000000	10.00000000	-100.00000000	73.62646043
 118	50.00000000	20.00000000	-100.00000000	73.62646043
 119	50.00000000	30.00000000	-100.00000000	73.62646043
 120	50.00000000	40.00000000	-100.00000000	73.62646043
 121	50.00000000	50.00000000	-100.00000000	73.62646043
 122	50.00000000	60.00000000	-100.00000000	73.62646043
 123	50.00000000	70.00000000	-100.00000000	73.62646043
 124	50.00000000	80.00000000	-100.00000000	73.62646043
 125	50.00000000	90.00000000	-100.00000000	73.62646043
 126	50.00000000	100.00000000	-100.00000000	73.62646043
 127	60.00000000	-100.00000000	-100.00000000	112.10894868
 128	60.00000000	-90.00000000	-100.00000000	112.10894868
 129	60.00000000	-80.00000000	-100.00000000	112.10894868
 130	60.00000000	-70.00000000	-100.00000000	112.10894868
 131	60.00000000	-60.00000000	-100.00000000	112.10894868
 132	60.00000000	-50.00000000	-100.00000000	112.10894868
 133	60.00000000	-40.00000000	-100.00000000	112.10894868
 134	60.00000000	-30.00000000	-100.00000000	112.10894868
 135	60.00000000	-20.00000000	-100.00000000	112.10894868
 136	60.00000000	-10.00000000	-100.00000000	112.10894868
 137	60.00000000	0.00000000	-100.00000000	112.10894868
 138	60.00000000	10.00000000	-100.00000000	112.10894868
 139	60.00000000	20.00000000	-100.00000000	112.10894868
 140	60.00000000	30.00000000	-100.00000000	112.10894868
 141	60.00000000	40.00000000	-100.00000000	112.10894868
 142	60.00000000	50.00000000	-100.00000000	112.10894868
 143	60.00000000	60.00000000	-100.00000000	112.10894868
 144	60.00000000	70.00000000	-100.00000000	112.10894868
 145	60.00000000	80.00000000	-100.00000000	112.10894868
 146	60.00000000	90.00000000	-100.00000000	112.10894868
 147	60.00000000	100.00000000	-100.00000000	112.10894868
 148	70.00000000	-100.00000000	-100.00000000	159.06615257
 149	70.00000000	-90.00000000	-100.00000000	159.06615257
 150	70.00000000	-80.00000000	-100.00000000	159.06615257
 151	70.00000000	-70.00000000	-100.00000000	159.06615257
 152	70.00000000	-60.00000000	-100.00000000	159.06615257
 153	70.00000000	-50.00000000	-100.00000000	159.06615257
 154	70.00000000	-40.00000000	-100.00000000	159.06615257
 155	70.00000000	-30.00000000	-100.00000000	159.06615257
 156	70.00000000	-20.00000000	-100.00000000	159.06615257
 157	70.00000000	-10.00000000	-100.00000000	159.06615257
 158	70.00000000	0.00000000	-100.00000000	159.06615257
 159	70.00000000	10.00000000	-100.00000000	159.06615257
 160	70.00000000	20.00000000	-100.00000000	159.06615257
 161	70.00000000	30.00000000	-100.00000000	159.06615257
 162	70.00000000	40.00000000	-100.00000000	159.06615257
 163	70.00000000	50.00000000	-100.00000000	159.06615257
 164	70.00000000	60.00000000	-100.00000000	159.06615257
 165	70.00000000	70.00000000	-100.00000000	159.06615257
 166	70.00000000	80.00000000	-100.00000000	159.06615257
 167	70.00000000	90.00000000	-100.00000000	159.06615257
 168	70.00000000	100.00000000	-100.00000000	159.06615257
 169	80.00000000	-100.00000000	-100.00000000	175.60310841
 170	80.00000000	-90.00000000	-100.00000000	175.60310841
 171	80.00000000	-80.00000000	-100.00000000	175.60310841
 172	80.00000000	-70.00000000	-100.00000000	175.60310841
 173	80.00000000	-60.00000000	-100.00000000	175.60310841
 174	80.00000000	-50.00000000	-100.00000000	175.60310841
 175	80.00000000	-40.00000000	-100.00000000	175.60310841
 176	80.00000000	-30.00000000	-100.00000000	175.60310841
 177	80.00000000	-20.00000000	-100.00000000	175.60310841
 178	80.00000000	-10.00000000	-100.00000000	175.60310841
 179	80.00000000	0.00000000	-100.00000000	175.60310841
 180	80.00000000	10.00000000	-100.00000000	175.60310841
 181	80.00000000	20.00000000	-100.00000000	175.60310841
 182	80.00000000	30.00000000	-100.00000000	175.60310841
 183	80.00000000	40.00000000	-100.00000000	175.60310841
 184	80.00000000	50.00000000	-100.00000000	175.60310841
 185	80.00000000	60.00000000	-100.00000000	175.60310841
 186	80.00000000	70.00000000	-100.00000000	175.60310841
 187	80.00000000	80.00000000	-100.00000000	175.60310841
 188	80.00000000	90.00000000	-100.00000000	175.60310841
 189	80.00000000	100.00000000	-100.00000000	175.60310841
 190	90.00000000	-100.00000000	-100.00000000	203.76654357
 191	90.00000000	-90.00000000	-100.00000000	203.76654357
 192	90.00000000	-80.00000000	-100.00000000	203.76654357
 193	90.00000000	-70.00000000	-100.00000000	203.76654357
 194	90.00000000	-60.00000000	-100.00000000	203.76654357
 195	90.00000000	-50.00000000	-100.00000000	203.76654357
 196	90.00000000	-40.00000000	-100.00000000	203.76654357
 197	90.00000000	-30.00000000	-100.00000000	203.76654357
 198	90.00000000	-20.00000000	-100.00000000	203.76654357
 199	90.00000000	-10.00000000	-100.00000000	203.76654357
 200	90.00000000	0.00000000	-100.00000000	203.76654357
 201	90.00000000	10.00000000	-100.00000000	203.76654357
 202	90.00000000	20.00000000	-100.00000000	203.76654357
 203	90.00000000	30.00000000	-100.00000000	203.76654357
 204	90.00000000	40.00000000	-100.00000000	203.76654357
 205	90.00000000	50.00000000	-100.00000000	203.76654357
 206	90.00000000	60.00000000	-100.00000000	203.76654357
 207	90.00000000	70.00000000	-100.00000000	203.76654357
 208	90.00000000	80.00000000	-100.00000000	203.76654357
 209	90.00000000	90.00000000	-100.00000000	203.76654357
 210	90.00000000	100.00000000	-100.00000000	203.76654357
 211	100.00000000	-100.00000000	-100.00000000	255.00000000
 212	100.00000000	-90.00000000	-100.00000000	255.00000000
 213	100.00000000	-80.00000000	-100.00000000	255.00000000
 214	100.00000000	-70.00000000	-100.00000000	255.00000000
 215	100.00000000	-60.00000000	-100.00000000	255.00000000
 216	100.00000000	-50.00000000	-100.00000000	255.00000000
 217	100.00000000	-40.00000000	-100.00000000	255.00000000
 218	100.00000000	-30.00000000	-100.00000000	255.00000000
 219	100.00000000	-20.00000000	-100.00000000	255.00000000
 220	100.00000000	-10.00000000	-100.00000000	255.00000000
 221	100.00000000	0.00000000	-100.00000000	255.00000000
 222	100.00000000	10.00000000	-100.00000000	255.00000000
 223	100.00000000	20.00000000	-100.00000000	255.00000000
 224	100.00000000	30.00000000	-100.00000000	255.00000000
 225	100.00000000	40.00000000	-100.00000000	255.00000000
 226	100.00000000	50.00000000	-100.00000000	255.00000000
 227	100.00000000	60.00000000	-100.00000000	255.00000000
 228	100.00000000	70.00000000	-100.00000000	255.00000000
 229	100.00000000	80.00000000	-100.00000000	255.00000000
 230	100.00000000	90.00000000	-100.00000000	255.00000000
 231	100.00000000	100.00000000	-100.00000000	255.00000000
 232	0.00000000	-100.00000000	-90.00000000	0.45136187
 233	0.00000000	-90.00000000	-90.00000000	0.45136187
 234	0.00000000	-80.00000000	-90.00000000	0.45136187
 235	0.00000000	-70.00000000	-90.00000000	0.45136187
 236	0.00000000	-60.00000000	-90.00000000	0.45136187
 237	0.00000000	-50.00000000	-90.00000000	0.45136187
 238	0.00000000	-40.00000000	-90.00000000	0.45136187
 239	0.00000000	-30.00000000	-90.00000000	0.45136187
 240	0.00000000	-20.00000000	-90.00000000	0.45136187
 241	0.00000000	-10.00000000	-90.00000000	0.45136187
 242	0.00000000	0.00000000	-90.00000000	0.45136187
 243	0.00000000	10.00000000	-90.00000000	0.45136187
 244	0.00000000	20.00000000	-90.00000000	0.45136187
 245	0.00000000	30.00000000	-90.00000000	0.45136187
 246	0.00000000	40.00000000	-90.00000000	0.45136187
 247	0.00000000	50.00000000	-90.00000000	0.45136187
 248	0.00000000	60.00000000	-90.00000000	0.45136187
 249	0.00000000	70.00000000	-90.00000000	0.45136187
 250	0.00000000	80.00000000	-90.00000000	0.45136187
 251	0.00000000	90.00000000	-90.00000000	0.45136187
 252	0.00000000	100.00000000	-90.00000000	0.45136187
 253	10.00000000	-100.00000000	-90.00000000	13.42023388
 254	10.00000000	-90.00000000	-90.00000000	13.42023388
 255	10.00000000	-80.00000000	-90.00000000	13.42023388
 256	10.00000000	-70.00000000	-90.00000000	13.42023388
 257	10.00000000	-60.00000000	-90.00000000	13.42023388
 258	10.00000000	-50.00000000	-90.00000000	13.42023388
 259	10.00000000	-40.00000000	-90.00000000	13.42023388
 260	10.00000000	-30.00000000	-90.00000000	13.42023388
 261	10.00000000	-20.00000000	-90.00000000	13.42023388
 262	10.00000000	-10.00000000	-90.00000000	13.42023388
 263	10.00000000	0.00000000	-90.00000000	13.42023388
 264	10.00000000	10.00000000	-90.00000000	13.42023388
 265	10.00000000	20.00000000	-90.00000000	13.42023388
 266	10.00000000	30.00000000	-90.00000000	13.42023388
 267	10.00000000	40.00000000	-90.00000000	13.42023388
 268	10.00000000	50.00000000	-90.00000000	13.42023388
 269	10.00000000	60.00000000	-90.00000000	13.42023388
 270	10.00000000	70.00000000	-90.00000000	13.42023388
 271	10.00000000	80.00000000	-90.00000000	13.42023388
 272	10.00000000	90.00000000	-90.00000000	13.42023388
 273	10.00000000	100.00000000	-90.00000000	13.42023388
 274	20.00000000	-100.00000000	-90.00000000	29.88326848
 275	20.00000000	-90.00000000	-90.00000000	29.88326848
 276	20.00000000	-80.00000000	-90.00000000	29.88326848
 277	20.00000000	-70.00000000	-90.00000000	29.88326848
 278	20.00000000	-60.00000000	-90.00000000	29.88326848
 279	20.00000000	-50.00000000	-90.00000000	29.88326848
 280	20.00000000	-40.00000000	-90.00000000	29.88326848
 281	20.00000000	-30.00000000	-90.00000000	29.88326848
 282	20.00000000	-20.00000000	-90.00000000	29.88326848
 283	20.00000000	-10.00000000	-90.00000000	29.88326848
 284	20.00000000	0.00000000	-90.00000000	29.88326848
 285	20.00000000	10.00000000	-90.00000000	29.88326848
 286	20.00000000	20.00000000	-90.00000000	29.88326848
 287	20.00000000	30.00000000	-90.00000000	29.88326848
 288	20.00000000	40.00000000	-90.00000000	29.88326848
 289	20.00000000	50.00000000	-90.00000000	29.88326848
 290	20.00000000	60.00000000	-90.00000000	29.88326848
 291	20.00000000	70.00000000	-90.00000000	29.88326848
 292	20.00000000	80.00000000	-90.00000000	29.88326848
 293	20.00000000	90.00000000	-90.00000000	29.88326848
 294	20.00000000	100.00000000	-90.00000000	29.88326848
 295	30.00000000	-100.00000000	-90.00000000	41.43579617
 296	30.00000000	-90.00000000	-90.00000000	41.43579617
 297	30.00000000	-80.00000000	-90.00000000	41.43579617
 298	30.00000000	-70.00000000	-90.00000000	41.43579617
 299	30.00000000	-60.00000000	-90.00000000	41.43579617
 300	30.00000000	-50.00000000	-90.00000000	41.43579617
 301	30.00000000	-40.00000000	-90.00000000	41.43579617
 302	30.00000000	-30.00000000	-90.00000000	41.43579617
 303	30.00000000	-20.00000000	-90.00000000	41.43579617
 304	30.00000000	-10.00000000	-90.00000000	41.43579617
 305	30.00000000	0.00000000	-90.00000000	41.43579617
 306	30.00000000	10.00000000	-90.00000000	41.43579617
 307	30.00000000	20.00000000	-90.00000000	41.43579617
 308	30.00000000	30.00000000	-90.00000000	41.43579617
 309	30.00000000	40.00000000	-90.00000000	41.43579617
 310	30.00000000	50.00000000	-90.00000000	41.43579617
 311	30.00000000	60.00000000	-90.00000000	41.43579617
 312	30.00000000	70.00000000	-90.00000000	41.43579617
 313	30.00000000	80.00000000	-90.00000000	41.43579617
 314	30.00000000	90.00000000	-90.00000000	41.43579617
 315	30.00000000	100.00000000	-90.00000000	41.43579617
 316	40.00000000	-100.00000000	-90.00000000	50.59922107
 317	40.00000000	-90.00000000	-90.00000000	50.59922107
 318	40.00000000	-80.00000000	-90.00000000	50.59922107
 319	40.00000000	-70.00000000	-90.00000000	50.59922107
 320	40.00000000	-60.00000000	-90.00000000	50.59922107
 321	40.00000000	-50.00000000	-90.00000000	50.59922107
 322	40.00000000	-40.00000000	-90.00000000	50.59922107
 323	40.00000000	-30.00000000	-90.00000000	50.59922107
 324	40.00000000	-20.00000000	-90.00000000	50.59922107
 325	40.00000000	-10.00000000	-90.00000000	50.59922107
 326	40.00000000	0.00000000	-90.00000000	50.59922107
 327	40.00000000	10.00000000	-90.00000000	50.59922107
 328	40.00000000	20.00000000	-90.00000000	50.59922107
 329	40.00000000	30.00000000	-90.00000000	50.59922107
 330	40.00000000	40.00000000	-90.00000000	50.59922107
 331	40.00000000	50.00000000	-90.00000000	50.59922107
 332	40.00000000	60.00000000	-90.00000000	50.59922107
 333	40.00000000	70.00000000	-90.00000000	50.59922107
 334	40.00000000	80.00000000	-90.00000000	50.59922107
 335	40.00000000	90.00000000	-90.00000000	50.59922107
 336	40.00000000	100.00000000	-90.00000000	50.59922107
 337	50.00000000	-100.00000000	-90.00000000	73.62646043
 338	50.00000000	-90.00000000	-90.00000000	73.62646043
 339	50.00000000	-80.00000000	-90.00000000	73.62646043
 340	50.00000000	-70.00000000	-90.00000000	73.62646043
 341	50.00000000	-60.00000000	-90.00000000	73.62646043
 342	50.00000000	-50.00000000	-90.00000000	73.62646043
 343	50.00000000	-40.00000000	-90.00000000	73.62646043
 344	50.00000000	-30.00000000	-90.00000000	73.62646043
 345	50.00000000	-20.00000000	-90.00000000	73.62646043
 346	50.00000000	-10.00000000	-90.00000000	73.62646043
 347	50.00000000	0.00000000	-90.00000000	73.62646043
 348	50.00000000	10.00000000	-90.00000000	73.62646043
 349	50.00000000	20.00000000	-90.00000000	73.62646043
 350	50.00000000	30.00000000	-90.00000000	73.62646043
 351	50.00000000	40.00000000	-90.00000000	73.62646043
 352	50.00000000	50.00000000	-90.00000000	73.62646043
 353	50.00000000	60.00000000	-90.00000000	73.62646043
 354	50.00000000	70.00000000	-90.00000000	73.62646043
 355	50.00000000	80.00000000	-90.00000000	73.62646043
 356	50.00000000	90.00000000	-90.00000000	73.62646043
 357	50.00000000	100.00000000	-90.00000000	73.62646043
 358	60.00000000	-100.00000000	-90.00000000	112.10894868
 359	60.00000000	-90.00000000	-90.00000000	112.10894868
 360	60.00000000	-80.00000000	-90.00000000	112.10894868
 361	60.00000000	-70.00000000	-90.00000000	112.10894868
 362	60.00000000	-60.00000000	-90.00000000	112.10894868
 363	60.00000000	-50.00000000	-90.00000000	112.10894868
 364	60.00000000	-40.00000000	-90.00000000	112.10894868
 365	60.00000000	-30.00000000	-90.00000000	112.10894868
 366	60.00000000	-20.00000000	-90.00000000	112.10894868
 367	60.00000000	-10.00000000	-90.00000000	112.10894868
 368	60.00000000	0.00000000	-90.00000000	112.10894868
 369	60.00000000	10.00000000	-90.00000000	112.10894868
 370	60.00000000	20.00000000	-90.00000000	112.10894868
 371	60.00000000	30.00000000	-90.00000000	112.10894868
 372	60.00000000	40.00000000	-90.00000000	112.10894868
 373	60.00000000	50.00000000	-90.00000000	112.10894868
 374	60.00000000	60.00000000	-90.00000000	112.10894868
 375	60.00000000	70.00000000	-90.00000000	112.10894868
 376	60.00000000	80.00000000	-90.00000000	112.10894868
 377	60.00000000	90.00000000	-90.00000000	112.10894868
 378	60.00000000	100.00000000	-90.00000000	112.10894868
 379	70.00000000	-100.00000000	-90.00000000	159.06615257
 380	70.00000000	-90.00000000	-90.00000000	159.06615257
 381	70.00000000	-80.00000000	-90.00000000	159.06615257
 382	70.00000000	-70.00000000	-90.00000000	159.06615257
 383	70.00000000	-60.00000000	-90.00000000	159.06615257
 384	70.00000000	-50.00000000	-90.00000000	159.06615257
 385	70.00000000	-40.00000000	-90.00000000	159.06615257
 386	70.00000000	-30.00000000	-90.00000000	159.06615257
 387	70.00000000	-20.00000000	-90.00000000	159.06615257
 388	70.00000000	-10.00000000	-90.00000000	159.06615257
 389	70.00000000	0.00000000	-90.00000000	159.06615257
 390	70.00000000	10.00000000	-90.00000000	159.06615257
 391	70.00000000	20.00000000	-90.00000000	159.06615257
 392	70.00000000	30.00000000	-90.00000000	159.06615257
 393	70.00000000	40.00000000	-90.00000000	159.06615257
 394	70.00000000	50.00000000	-90.00000000	159.06615257
 395	70.00000000	60.00000000	-90.00000000	159.06615257
 396	70.00000000	70.00000000	-90.00000000	159.06615257
 397	70.00000000	80.00000000	-90.00000000	159.06615257
 398	70.00000000	90.00000000	-90.00000000	159.06615257
 399	70.00000000	100.00000000	-90.00000000	159.06615257
 400	80.00000000	-100.00000000	-90.00000000	175.60310841
 401	80.00000000	-90.00000000	-90.00000000	175.60310841
 402	80.00000000	-80.00000000	-90.00000000	175.60310841
 403	80.00000000	-70.00000000	-90.00000000	175.60310841
 404	80.00000000	-60.00000000	-90.00000000	175.60310841
 405	80.00000000	-50.00000000	-90.00000000	175.60310841
 406	80.00000000	-40.00000000	-90.00000000	175.60310841
 407	80.00000000	-30.00000000	-90.00000000	175.60310841
 408	80.00000000	-20.00000000	-90.00000000	175.60310841
 409	80.00000000	-10.00000000	-90.00000000	175.60310841
 410	80.00000000	0.00000000	-90.00000000	175.60310841
 411	80.00000000	10.00000000	-90.00000000	175.60310841
 412	80.00000000	20.00000000	-90.00000000	175.60310841
 413	80.00000000	30.00000000	-90.00000000	175.60310841
 414	80.00000000	40.00000000	-90.00000000	175.60310841
 415	80.00000000	50.00000000	-90.00000000	175.60310841
 416	80.00000000	60.00000000	-90.00000000	175.60310841
 417	80.00000000	70.00000000	-90.00000000	175.60310841
 418	80.00000000	80.00000000	-90.00000000	175.60310841
 419	80.00000000	90.00000000	-90.00000000	175.60310841
 420	80.00000000	100.00000000	-90.00000000	175.60310841
 421	90.00000000	-100.00000000	-90.00000000	203.76654357
 422	90.00000000	-90.00000000	-90.00000000	203.76654357
 423	90.00000000	-80.00000000	-90.00000000	203.76654357
 424	90.00000000	-70.00000000	-90.00000000	203.76654357
 425	90.00000000	-60.00000000	-90.00000000	203.76654357
 426	90.00000000	-50.00000000	-90.00000000	203.76654357
 427	90.00000000	-40.00000000	-90.00000000	203.76654357
 428	90.00000000	-30.00000000	-90.00000000	203.76654357
 429	90.00000000	-20.00000000	-90.00000000	203.76654357
 430	90.00000000	-10.00000000	-90.00000000	203.76654357
 431	90.00000000	0.00000000	-90.00000000	203.76654357
 432	90.00000000	10.00000000	-90.00000000	203.76654357
