bench/lcms_compat/reference/lab_to_RISO_MZ770_Black.icc_Absolute.it8
CGATS.17
ORIGINATOR	"icctrans"
#
# Data follows
#
NUMBER_OF_SETS	4851.00000000
NUMBER_OF_FIELDS	5.00000000
BEGIN_DATA_FORMAT
 SAMPLE_ID	IN_LAB_L	IN_LAB_A	IN_LAB_B	OUT_GRAY
END_DATA_FORMAT
BEGIN_DATA
 1	0.00000000	-100.00000000	-100.00000000	0.00000000
 2	0.00000000	-90.00000000	-100.00000000	0.00000000
 3	0.00000000	-80.00000000	-100.00000000	0.00000000
 4	0.00000000	-70.00000000	-100.00000000	0.00000000
 5	0.00000000	-60.00000000	-100.00000000	0.00000000
 6	0.00000000	-50.00000000	-100.00000000	0.00000000
 7	0.00000000	-40.00000000	-100.00000000	0.00000000
 8	0.00000000	-30.00000000	-100.00000000	0.00000000
 9	0.00000000	-20.00000000	-100.00000000	0.00000000
 10	0.00000000	-10.00000000	-100.00000000	0.00000000
 11	0.00000000	0.00000000	-100.00000000	0.00000000
 12	0.00000000	10.00000000	-100.00000000	0.00000000
 13	0.00000000	20.00000000	-100.00000000	0.00000000
 14	0.00000000	30.00000000	-100.00000000	0.00000000
 15	0.00000000	40.00000000	-100.00000000	0.00000000
 16	0.00000000	50.00000000	-100.00000000	0.00000000
 17	0.00000000	60.00000000	-100.00000000	0.00000000
 18	0.00000000	70.00000000	-100.00000000	0.00000000
 19	0.00000000	80.00000000	-100.00000000	0.00000000
 20	0.00000000	90.00000000	-100.00000000	0.00000000
 21	0.00000000	100.00000000	-100.00000000	0.00000000
 22	10.00000000	-100.00000000	-100.00000000	0.00000000
 23	10.00000000	-90.00000000	-100.00000000	0.00000000
 24	10.00000000	-80.00000000	-100.00000000	0.00000000
 25	10.00000000	-70.00000000	-100.00000000	0.00000000
 26	10.00000000	-60.00000000	-100.00000000	0.00000000
 27	10.00000000	-50.00000000	-100.00000000	0.00000000
 28	10.00000000	-40.00000000	-100.00000000	0.00000000
 29	10.00000000	-30.00000000	-100.00000000	0.00000000
 30	10.00000000	-20.00000000	-100.00000000	0.00000000
 31	10.00000000	-10.00000000	-100.00000000	0.00000000
 32	10.00000000	0.00000000	-100.00000000	0.00000000
 33	10.00000000	10.00000000	-100.00000000	0.00000000
 34	10.00000000	20.00000000	-100.00000000	0.00000000
 35	10.00000000	30.00000000	-100.00000000	0.00000000
 36	10.00000000	40.00000000	-100.00000000	0.00000000
 37	10.00000000	50.00000000	-100.00000000	0.00000000
 38	10.00000000	60.00000000	-100.00000000	0.00000000
 39	10.00000000	70.00000000	-100.00000000	0.00000000
 40	10.00000000	80.00000000	-100.00000000	0.00000000
 41	10.00000000	90.00000000	-100.00000000	0.00000000
 42	10.00000000	100.00000000	-100.00000000	0.00000000
 43	20.00000000	-100.00000000	-100.00000000	0.00000000
 44	20.00000000	-90.00000000	-100.00000000	0.00000000
 45	20.00000000	-80.00000000	-100.00000000	0.00000000
 46	20.00000000	-70.00000000	-100.00000000	0.00000000
 47	20.00000000	-60.00000000	-100.00000000	0.00000000
 48	20.00000000	-50.00000000	-100.00000000	0.00000000
 49	20.00000000	-40.00000000	-100.00000000	0.00000000
 50	20.00000000	-30.00000000	-100.00000000	0.00000000
 51	20.00000000	-20.00000000	-100.00000000	0.00000000
 52	20.00000000	-10.00000000	-100.00000000	0.00000000
 53	20.00000000	0.00000000	-100.00000000	0.00000000
 54	20.00000000	10.00000000	-100.00000000	0.00000000
 55	20.00000000	20.00000000	-100.00000000	0.00000000
 56	20.00000000	30.00000000	-100.00000000	0.00000000
 57	20.00000000	40.00000000	-100.00000000	0.00000000
 58	20.00000000	50.00000000	-100.00000000	0.00000000
 59	20.00000000	60.00000000	-100.00000000	0.00000000
 60	20.00000000	70.00000000	-100.00000000	0.00000000
 61	20.00000000	80.00000000	-100.00000000	0.00000000
 62	20.00000000	90.00000000	-100.00000000	0.00000000
 63	20.00000000	100.00000000	-100.00000000	0.00000000
 64	30.00000000	-100.00000000	-100.00000000	15.29961113
 65	30.00000000	-90.00000000	-100.00000000	15.29961113
 66	30.00000000	-80.00000000	-100.00000000	15.29961113
 67	30.00000000	-70.00000000	-100.00000000	15.29961113
 68	30.00000000	-60.00000000	-100.00000000	15.29961113
 69	30.00000000	-50.00000000	-100.00000000	15.29961113
 70	30.00000000	-40.00000000	-100.00000000	15.29961113
 71	30.00000000	-30.00000000	-100.00000000	15.29961113
 72	30.00000000	-20.00000000	-100.00000000	15.29961113
 73	30.00000000	-10.00000000	-100.00000000	15.29961113
 74	30.00000000	0.00000000	-100.00000000	15.29961113
 75	30.00000000	10.00000000	-100.00000000	15.29961113
 76	30.00000000	20.00000000	-100.00000000	15.29961113
 77	30.00000000	30.00000000	-100.00000000	15.29961113
 78	30.00000000	40.00000000	-100.00000000	15.29961113
 79	30.00000000	50.00000000	-100.00000000	15.29961113
 80	30.00000000	60.00000000	-100.00000000	15.29961113
 81	30.00000000	70.00000000	-100.00000000	15.29961113
 82	30.00000000	80.00000000	-100.00000000	15.29961113
 83	30.00000000	90.00000000	-100.00000000	15.29961113
 84	30.00000000	100.00000000	-100.00000000	15.29961113
 85	40.00000000	-100.00000000	-100.00000000	43.57976653
 86	40.00000000	-90.00000000	-100.00000000	43.57976653
 87	40.00000000	-80.00000000	-100.00000000	43.57976653
 88	40.00000000	-70.00000000	-100.00000000	43.57976653
 89	40.00000000	-60.00000000	-100.00000000	43.57976653
 90	40.00000000	-50.00000000	-100.00000000	43.57976653
 91	40.00000000	-40.00000000	-100.00000000	43.57976653
 92	40.00000000	-30.00000000	-100.00000000	43.57976653
 93	40.00000000	-20.00000000	-100.00000000	43.57976653
 94	40.00000000	-10.00000000	-100.00000000	43.57976653
 95	40.00000000	0.00000000	-100.00000000	43.57976653
 96	40.00000000	10.00000000	-100.00000000	43.57976653
 97	40.00000000	20.00000000	-100.00000000	43.57976653
 98	40.00000000	30.00000000	-100.00000000	43.57976653
 99	40.00000000	40.00000000	-100.00000000	43.57976653
 100	40.00000000	50.00000000	-100.00000000	43.57976653
 101	40.00000000	60.00000000	-100.00000000	43.57976653
 102	40.00000000	70.00000000	-100.00000000	43.57976653
 103	40.00000000	80.00000000	-100.00000000	43.57976653
 104	40.00000000	90.00000000	-100.00000000	43.57976653
 105	40.00000000	100.00000000	-100.00000000	43.57976653
 106	50.00000000	-100.00000000	-100.00000000	66.52140409
 107	50.00000000	-90.00000000	-100.00000000	66.52140409
 108	50.00000000	-80.00000000	-100.00000000	66.52140409
 109	50.00000000	-70.00000000	-100.00000000	66.52140409
 110	50.00000000	-60.00000000	-100.00000000	66.52140409
 111	50.00000000	-50.00000000	-100.00000000	66.52140409
 112	50.00000000	-40.00000000	-100.00000000	66.52140409
 113	50.00000000	-30.00000000	-100.00000000	66.52140409
 114	50.00000000	-20.00000000	-100.00000000	66.52140409
 115	50.00000000	-10.00000000	-100.00000000	66.52140409
 116	50.00000000	0.00000000	-100.00000000	66.52140409
 117	50.00000000	10.00000000	-100.00000000	66.52140409
 118	50.00000000	20.00000000	-100.00000000	66.52140409
 119	50.00000000	30.00000000	-100.00000000	66.52140409
 120	50.00000000	40.00000000	-100.00000000	66.52140409
 121	50.00000000	50.00000000	-100.00000000	66.52140409
 122	50.00000000	60.00000000	-100.00000000	66.52140409
 123	50.00000000	70.00000000	-100.00000000	66.52140409
 124	50.00000000	80.00000000	-100.00000000	66.52140409
 125	50.00000000	90.00000000	-100.00000000	66.52140409
 126	50.00000000	100.00000000	-100.00000000	66.52140409
 127	60.00000000	-100.00000000	-100.00000000	113.60311210
 128	60.00000000	-90.00000000	-100.00000000	113.60311210
 129	60.00000000	-80.00000000	-100.00000000	113.60311210
 130	60.00000000	-70.00000000	-100.00000000	113.60311210
 131	60.00000000	-60.00000000	-100.00000000	113.60311210
 132	60.00000000	-50.00000000	-100.00000000	113.60311210
 133	60.00000000	-40.00000000	-100.00000000	113.60311210
 134	60.00000000	-30.00000000	-100.00000000	113.60311210
 135	60.00000000	-20.00000000	-100.00000000	113.60311210
 136	60.00000000	-10.00000000	-100.00000000	113.60311210
 137	60.00000000	0.00000000	-100.00000000	113.60311210
 138	60.00000000	10.00000000	-100.00000000	113.60311210
 139	60.00000000	20.00000000	-100.00000000	113.60311210
 140	60.00000000	30.00000000	-100.00000000	113.60311210
 141	60.00000000	40.00000000	-100.00000000	113.60311210
 142	60.00000000	50.00000000	-100.00000000	113.60311210
 143	60.00000000	60.00000000	-100.00000000	113.60311210
 144	60.00000000	70.00000000	-100.00000000	113.60311210
 145	60.00000000	80.00000000	-100.00000000	113.60311210
 146	60.00000000	90.00000000	-100.00000000	113.60311210
 147	60.00000000	100.00000000	-100.00000000	113.60311210
 148	70.00000000	-100.00000000	-100.00000000	164.29182976
 149	70.00000000	-90.00000000	-100.00000000	164.29182976
 150	70.00000000	-80.00000000	-100.00000000	164.29182976
 151	70.00000000	-70.00000000	-100.00000000	164.29182976
 152	70.00000000	-60.00000000	-100.00000000	164.29182976
 153	70.00000000	-50.00000000	-100.00000000	164.29182976
 154	70.00000000	-40.00000000	-100.00000000	164.29182976
 155	70.00000000	-30.00000000	-100.00000000	164.29182976
 156	70.00000000	-20.00000000	-100.00000000	164.29182976
 157	70.00000000	-10.00000000	-100.00000000	164.29182976
 158	70.00000000	0.00000000	-100.00000000	164.29182976
 159	70.00000000	10.00000000	-100.00000000	164.29182976
 160	70.00000000	20.00000000	-100.00000000	164.29182976
 161	70.00000000	30.00000000	-100.00000000	164.29182976
 162	70.00000000	40.00000000	-100.00000000	164.29182976
 163	70.00000000	50.00000000	-100.00000000	164.29182976
 164	70.00000000	60.00000000	-100.00000000	164.29182976
 165	70.00000000	70.00000000	-100.00000000	164.29182976
 166	70.00000000	80.00000000	-100.00000000	164.29182976
 167	70.00000000	90.00000000	-100.00000000	164.29182976
 168	70.00000000	100.00000000	-100.00000000	164.29182976
 169	80.00000000	-100.00000000	-100.00000000	185.13618886
 170	80.00000000	-90.00000000	-100.00000000	185.13618886
 171	80.00000000	-80.00000000	-100.00000000	185.13618886
 172	80.00000000	-70.00000000	-100.00000000	185.13618886
 173	80.00000000	-60.00000000	-100.00000000	185.13618886
 174	80.00000000	-50.00000000	-100.00000000	185.13618886
 175	80.00000000	-40.00000000	-100.00000000	185.13618886
 176	80.00000000	-30.00000000	-100.00000000	185.13618886
 177	80.00000000	-20.00000000	-100.00000000	185.13618886
 178	80.00000000	-10.00000000	-100.00000000	185.13618886
 179	80.00000000	0.00000000	-100.00000000	185.13618886
 180	80.00000000	10.00000000	-100.00000000	185.13618886
 181	80.00000000	20.00000000	-100.00000000	185.13618886
 182	80.00000000	30.00000000	-100.00000000	185.13618886
 183	80.00000000	40.00000000	-100.00000000	185.13618886
 184	80.00000000	50.00000000	-100.00000000	185.13618886
 185	80.00000000	60.00000000	-100.00000000	185.13618886
 186	80.00000000	70.00000000	-100.00000000	185.13618886
 187	80.00000000	80.00000000	-100.00000000	185.13618886
 188	80.00000000	90.00000000	-100.00000000	185.13618886
 189	80.00000000	100.00000000	-100.00000000	185.13618886
 190	90.00000000	-100.00000000	-100.00000000	211.12840533
 191	90.00000000	-90.00000000	-100.00000000	211.12840533
 192	90.00000000	-80.00000000	-100.00000000	211.12840533
 193	90.00000000	-70.00000000	-100.00000000	211.12840533
 194	90.00000000	-60.00000000	-100.00000000	211.12840533
 195	90.00000000	-50.00000000	-100.00000000	211.12840533
 196	90.00000000	-40.00000000	-100.00000000	211.12840533
 197	90.00000000	-30.00000000	-100.00000000	211.12840533
 198	90.00000000	-20.00000000	-100.00000000	211.12840533
 199	90.00000000	-10.00000000	-100.00000000	211.12840533
 200	90.00000000	0.00000000	-100.00000000	211.12840533
 201	90.00000000	10.00000000	-100.00000000	211.12840533
 202	90.00000000	20.00000000	-100.00000000	211.12840533
 203	90.00000000	30.00000000	-100.00000000	211.12840533
 204	90.00000000	40.00000000	-100.00000000	211.12840533
 205	90.00000000	50.00000000	-100.00000000	211.12840533
 206	90.00000000	60.00000000	-100.00000000	211.12840533
 207	90.00000000	70.00000000	-100.00000000	211.12840533
 208	90.00000000	80.00000000	-100.00000000	211.12840533
 209	90.00000000	90.00000000	-100.00000000	211.12840533
 210	90.00000000	100.00000000	-100.00000000	211.12840533
 211	100.00000000	-100.00000000	-100.00000000	255.00000000
 212	100.00000000	-90.00000000	-100.00000000	255.00000000
 213	100.00000000	-80.00000000	-100.00000000	255.00000000
 214	100.00000000	-70.00000000	-100.00000000	255.00000000
 215	100.00000000	-60.00000000	-100.00000000	255.00000000
 216	100.00000000	-50.00000000	-100.00000000	255.00000000
 217	100.00000000	-40.00000000	-100.00000000	255.00000000
 218	100.00000000	-30.00000000	-100.00000000	255.00000000
 219	100.00000000	-20.00000000	-100.00000000	255.00000000
 220	100.00000000	-10.00000000	-100.00000000	255.00000000
 221	100.00000000	0.00000000	-100.00000000	255.00000000
 222	100.00000000	10.00000000	-100.00000000	255.00000000
 223	100.00000000	20.00000000	-100.00000000	255.00000000
 224	100.00000000	30.00000000	-100.00000000	255.00000000
 225	100.00000000	40.00000000	-100.00000000	255.00000000
 226	100.00000000	50.00000000	-100.00000000	255.00000000
 227	100.00000000	60.00000000	-100.00000000	255.00000000
 228	100.00000000	70.00000000	-100.00000000	255.00000000
 229	100.00000000	80.00000000	-100.00000000	255.00000000
 230	100.00000000	90.00000000	-100.00000000	255.00000000
 231	100.00000000	100.00000000	-100.00000000	255.00000000
 232	0.00000000	-100.00000000	-90.00000000	0.00000000
 233	0.00000000	-90.00000000	-90.00000000	0.00000000
 234	0.00000000	-80.00000000	-90.00000000	0.00000000
 235	0.00000000	-70.00000000	-90.00000000	0.00000000
 236	0.00000000	-60.00000000	-90.00000000	0.00000000
 237	0.00000000	-50.00000000	-90.00000000	0.00000000
 238	0.00000000	-40.00000000	-90.00000000	0.00000000
 239	0.00000000	-30.00000000	-90.00000000	0.00000000
 240	0.00000000	-20.00000000	-90.00000000	0.00000000
 241	0.00000000	-10.00000000	-90.00000000	0.00000000
 242	0.00000000	0.00000000	-90.00000000	0.00000000
 243	0.00000000	10.00000000	-90.00000000	0.00000000
 244	0.00000000	20.00000000	-90.00000000	0.00000000
 245	0.00000000	30.00000000	-90.00000000	0.00000000
 246	0.00000000	40.00000000	-90.00000000	0.00000000
 247	0.00000000	50.00000000	-90.00000000	0.00000000
 248	0.00000000	60.00000000	-90.00000000	0.00000000
 249	0.00000000	70.00000000	-90.00000000	0.00000000
 250	0.00000000	80.00000000	-90.00000000	0.00000000
 251	0.00000000	90.00000000	-90.00000000	0.00000000
 252	0.00000000	100.00000000	-90.00000000	0.00000000
 253	10.00000000	-100.00000000	-90.00000000	0.00000000
 254	10.00000000	-90.00000000	-90.00000000	0.00000000
 255	10.00000000	-80.00000000	-90.00000000	0.00000000
 256	10.00000000	-70.00000000	-90.00000000	0.00000000
 257	10.00000000	-60.00000000	-90.00000000	0.00000000
 258	10.00000000	-50.00000000	-90.00000000	0.00000000
 259	10.00000000	-40.00000000	-90.00000000	0.00000000
 260	10.00000000	-30.00000000	-90.00000000	0.00000000
 261	10.00000000	-20.00000000	-90.00000000	0.00000000
 262	10.00000000	-10.00000000	-90.00000000	0.00000000
 263	10.00000000	0.00000000	-90.00000000	0.00000000
 264	10.00000000	10.00000000	-90.00000000	0.00000000
 265	10.00000000	20.00000000	-90.00000000	0.00000000
 266	10.00000000	30.00000000	-90.00000000	0.00000000
 267	10.00000000	40.00000000	-90.00000000	0.00000000
 268	10.00000000	50.00000000	-90.00000000	0.00000000
 269	10.00000000	60.00000000	-90.00000000	0.00000000
 270	10.00000000	70.00000000	-90.00000000	0.00000000
 271	10.00000000	80.00000000	-90.00000000	0.00000000
 272	10.00000000	90.00000000	-90.00000000	0.00000000
 273	10.00000000	100.00000000	-90.00000000	0.00000000
 274	20.00000000	-100.00000000	-90.00000000	0.00000000
 275	20.00000000	-90.00000000	-90.00000000	0.00000000
 276	20.00000000	-80.00000000	-90.00000000	0.00000000
 277	20.00000000	-70.00000000	-90.00000000	0.00000000
 278	20.00000000	-60.00000000	-90.00000000	0.00000000
 279	20.00000000	-50.00000000	-90.00000000	0.00000000
 280	20.00000000	-40.00000000	-90.00000000	0.00000000
 281	20.00000000	-30.00000000	-90.00000000	0.00000000
 282	20.00000000	-20.00000000	-90.00000000	0.00000000
 283	20.00000000	-10.00000000	-90.00000000	0.00000000
 284	20.00000000	0.00000000	-90.00000000	0.00000000
 285	20.00000000	10.00000000	-90.00000000	0.00000000
 286	20.00000000	20.00000000	-90.00000000	0.00000000
 287	20.00000000	30.00000000	-90.00000000	0.00000000
 288	20.00000000	40.00000000	-90.00000000	0.00000000
 289	20.00000000	50.00000000	-90.00000000	0.00000000
 290	20.00000000	60.00000000	-90.00000000	0.00000000
 291	20.00000000	70.00000000	-90.00000000	0.00000000
 292	20.00000000	80.00000000	-90.00000000	0.00000000
 293	20.00000000	90.00000000	-90.00000000	0.00000000
 294	20.00000000	100.00000000	-90.00000000	0.00000000
 295	30.00000000	-100.00000000	-90.00000000	15.29961113
 296	30.00000000	-90.00000000	-90.00000000	15.29961113
 297	30.00000000	-80.00000000	-90.00000000	15.29961113
 298	30.00000000	-70.00000000	-90.00000000	15.29961113
 299	30.00000000	-60.00000000	-90.00000000	15.29961113
 300	30.00000000	-50.00000000	-90.00000000	15.29961113
 301	30.00000000	-40.00000000	-90.00000000	15.29961113
 302	30.00000000	-30.00000000	-90.00000000	15.29961113
 303	30.00000000	-20.00000000	-90.00000000	15.29961113
 304	30.00000000	-10.00000000	-90.00000000	15.29961113
 305	30.00000000	0.00000000	-90.00000000	15.29961113
 306	30.00000000	10.00000000	-90.00000000	15.29961113
 307	30.00000000	20.00000000	-90.00000000	15.29961113
 308	30.00000000	30.00000000	-90.00000000	15.29961113
 309	30.00000000	40.00000000	-90.00000000	15.29961113
 310	30.00000000	50.00000000	-90.00000000	15.29961113
 311	30.00000000	60.00000000	-90.00000000	15.29961113
 312	30.00000000	70.00000000	-90.00000000	15.29961113
 313	30.00000000	80.00000000	-90.00000000	15.29961113
 314	30.00000000	90.00000000	-90.00000000	15.29961113
 315	30.00000000	100.00000000	-90.00000000	15.29961113
 316	40.00000000	-100.00000000	-90.00000000	43.57976653
 317	40.00000000	-90.00000000	-90.00000000	43.57976653
 318	40.00000000	-80.00000000	-90.00000000	43.57976653
 319	40.00000000	-70.00000000	-90.00000000	43.57976653
 320	40.00000000	-60.00000000	-90.00000000	43.57976653
 321	40.00000000	-50.00000000	-90.00000000	43.57976653
 322	40.00000000	-40.00000000	-90.00000000	43.57976653
 323	40.00000000	-30.00000000	-90.00000000	43.57976653
 324	40.00000000	-20.00000000	-90.00000000	43.57976653
 325	40.00000000	-10.00000000	-90.00000000	43.57976653
 326	40.00000000	0.00000000	-90.00000000	43.57976653
 327	40.00000000	10.00000000	-90.00000000	43.57976653
 328	40.00000000	20.00000000	-90.00000000	43.57976653
 329	40.00000000	30.00000000	-90.00000000	43.57976653
 330	40.00000000	40.00000000	-90.00000000	43.57976653
 331	40.00000000	50.00000000	-90.00000000	43.57976653
 332	40.00000000	60.00000000	-90.00000000	43.57976653
 333	40.00000000	70.00000000	-90.00000000	43.57976653
 334	40.00000000	80.00000000	-90.00000000	43.57976653
 335	40.00000000	90.00000000	-90.00000000	43.57976653
 336	40.00000000	100.00000000	-90.00000000	43.57976653
 337	50.00000000	-100.00000000	-90.00000000	66.52140409
 338	50.00000000	-90.00000000	-90.00000000	66.52140409
 339	50.00000000	-80.00000000	-90.00000000	66.52140409
 340	50.00000000	-70.00000000	-90.00000000	66.52140409
 341	50.00000000	-60.00000000	-90.00000000	66.52140409
 342	50.00000000	-50.00000000	-90.00000000	66.52140409
 343	50.00000000	-40.00000000	-90.00000000	66.52140409
 344	50.00000000	-30.00000000	-90.00000000	66.52140409
 345	50.00000000	-20.00000000	-90.00000000	66.52140409
 346	50.00000000	-10.00000000	-90.00000000	66.52140409
 347	50.00000000	0.00000000	-90.00000000	66.52140409
 348	50.00000000	10.00000000	-90.00000000	66.52140409
 349	50.00000000	20.00000000	-90.00000000	66.52140409
 350	50.00000000	30.00000000	-90.00000000	66.52140409
 351	50.00000000	40.00000000	-90.00000000	66.52140409
 352	50.00000000	50.00000000	-90.00000000	66.52140409
 353	50.00000000	60.00000000	-90.00000000	66.52140409
 354	50.00000000	70.00000000	-90.00000000	66.52140409
 355	50.00000000	80.00000000	-90.00000000	66.52140409
 356	50.00000000	90.00000000	-90.00000000	66.52140409
 357	50.00000000	100.00000000	-90.00000000	66.52140409
 358	60.00000000	-100.00000000	-90.00000000	113.60311210
 359	60.00000000	-90.00000000	-90.00000000	113.60311210
 360	60.00000000	-80.00000000	-90.00000000	113.60311210
 361	60.00000000	-70.00000000	-90.00000000	113.60311210
 362	60.00000000	-60.00000000	-90.00000000	113.60311210
 363	60.00000000	-50.00000000	-90.00000000	113.60311210
 364	60.00000000	-40.00000000	-90.00000000	113.60311210
 365	60.00000000	-30.00000000	-90.00000000	113.60311210
 366	60.00000000	-20.00000000	-90.00000000	113.60311210
 367	60.00000000	-10.00000000	-90.00000000	113.60311210
 368	60.00000000	0.00000000	-90.00000000	113.60311210
 369	60.00000000	10.00000000	-90.00000000	113.60311210
 370	60.00000000	20.00000000	-90.00000000	113.60311210
 371	60.00000000	30.00000000	-90.00000000	113.60311210
 372	60.00000000	40.00000000	-90.00000000	113.60311210
 373	60.00000000	50.00000000	-90.00000000	113.60311210
 374	60.00000000	60.00000000	-90.00000000	113.60311210
 375	60.00000000	70.00000000	-90.00000000	113.60311210
 376	60.00000000	80.00000000	-90.00000000	113.60311210
 377	60.00000000	90.00000000	-90.00000000	113.60311210
 378	60.00000000	100.00000000	-90.00000000	113.60311210
 379	70.00000000	-100.00000000	-90.00000000	164.29182976
 380	70.00000000	-90.00000000	-90.00000000	164.29182976
 381	70.00000000	-80.00000000	-90.00000000	164.29182976
 382	70.00000000	-70.00000000	-90.00000000	164.29182976
 383	70.00000000	-60.00000000	-90.00000000	164.29182976
 384	70.00000000	-50.00000000	-90.00000000	164.29182976
 385	70.00000000	-40.00000000	-90.00000000	164.29182976
 386	70.00000000	-30.00000000	-90.00000000	164.29182976
 387	70.00000000	-20.00000000	-90.00000000	164.29182976
 388	70.00000000	-10.00000000	-90.00000000	164.29182976
 389	70.00000000	0.00000000	-90.00000000	164.29182976
 390	70.00000000	10.00000000	-90.00000000	164.29182976
 391	70.00000000	20.00000000	-90.00000000	164.29182976
 392	70.00000000	30.00000000	-90.00000000	164.29182976
 393	70.00000000	40.00000000	-90.00000000	164.29182976
 394	70.00000000	50.00000000	-90.00000000	164.29182976
 395	70.00000000	60.00000000	-90.00000000	164.29182976
 396	70.00000000	70.00000000	-90.00000000	164.29182976
 397	70.00000000	80.00000000	-90.00000000	164.29182976
 398	70.00000000	90.00000000	-90.00000000	164.29182976
 399	70.00000000	100.00000000	-90.00000000	164.29182976
 400	80.00000000	-100.00000000	-90.00000000	185.13618886
 401	80.00000000	-90.00000000	-90.00000000	185.13618886
 402	80.00000000	-80.00000000	-90.00000000	185.13618886
 403	80.00000000	-70.00000000	-90.00000000	185.13618886
 404	80.00000000	-60.00000000	-90.00000000	185.13618886
 405	80.00000000	-50.00000000	-90.00000000	185.13618886
 406	80.00000000	-40.00000000	-90.00000000	185.13618886
 407	80.00000000	-30.00000000	-90.00000000	185.13618886
 408	80.00000000	-20.00000000	-90.00000000	185.13618886
 409	80.00000000	-10.00000000	-90.00000000	185.13618886
 410	80.00000000	0.00000000	-90.00000000	185.13618886
 411	80.00000000	10.00000000	-90.00000000	185.13618886
 412	80.00000000	20.00000000	-90.00000000	185.13618886
 413	80.00000000	30.00000000	-90.00000000	185.13618886
 414	80.00000000	40.00000000	-90.00000000	185.13618886
 415	80.00000000	50.00000000	-90.00000000	185.13618886
 416	80.00000000	60.00000000	-90.00000000	185.13618886
 417	80.00000000	70.00000000	-90.00000000	185.13618886
 418	80.00000000	80.00000000	-90.00000000	185.13618886
 419	80.00000000	90.00000000	-90.00000000	185.13618886
 420	80.00000000	100.00000000	-90.00000000	185.13618886
 421	90.00000000	-100.00000000	-90.00000000	211.12840533
 422	90.00000000	-90.00000000	-90.00000000	211.12840533
 423	90.00000000	-80.00000000	-90.00000000	211.12840533
 424	90.00000000	-70.00000000	-90.00000000	211.12840533
 425	90.00000000	-60.00000000	-90.00000000	211.12840533
 426	90.00000000	-50.00000000	-90.00000000	211.12840533
 427	90.00000000	-40.00000000	-90.00000000	211.12840533
 428	90.00000000	-30.00000000	-90.00000000	211.12840533
 429	90.00000000	-20.00000000	-90.00000000	211.12840533
 430	90.00000000	-10.00000000	-90.00000000	211.12840533
 431	90.00000000	0.00000000	-90.00000000	211.12840533
 432	90.00000000	10.00000000	-90.00000000	211.12840533
 433	90.00000000	20.00000000	-90.00000000	211.12840533
