bench/lcms_compat/reference/lab_to_ISOcoated_v2_grey1c_bas.ICC_Perceptual.it8
CGATS.17
ORIGINATOR	"icctrans"
#
# Data follows
#
NUMBER_OF_SETS	4851.00000000
NUMBER_OF_FIELDS	5.00000000
BEGIN_DATA_FORMAT
 SAMPLE_ID	IN_LAB_L	IN_LAB_A	IN_LAB_B	OUT_GRAY
END_DATA_FORMAT
BEGIN_DATA
 1	0.00000000	-100.00000000	-100.00000000	0.00000000
 2	0.00000000	-90.00000000	-100.00000000	0.00000000
 3	0.00000000	-80.00000000	-100.00000000	0.00000000
 4	0.00000000	-70.00000000	-100.00000000	0.00000000
 5	0.00000000	-60.00000000	-100.00000000	0.00000000
 6	0.00000000	-50.00000000	-100.00000000	0.00000000
 7	0.00000000	-40.00000000	-100.00000000	0.00000000
 8	0.00000000	-30.00000000	-100.00000000	0.00000000
 9	0.00000000	-20.00000000	-100.00000000	0.00000000
 10	0.00000000	-10.00000000	-100.00000000	0.00000000
 11	0.00000000	0.00000000	-100.00000000	0.00000000
 12	0.00000000	10.00000000	-100.00000000	0.00000000
 13	0.00000000	20.00000000	-100.00000000	0.00000000
 14	0.00000000	30.00000000	-100.00000000	0.00000000
 15	0.00000000	40.00000000	-100.00000000	0.00000000
 16	0.00000000	50.00000000	-100.00000000	0.00000000
 17	0.00000000	60.00000000	-100.00000000	0.00000000
 18	0.00000000	70.00000000	-100.00000000	0.00000000
 19	0.00000000	80.00000000	-100.00000000	0.00000000
 20	0.00000000	90.00000000	-100.00000000	0.00000000
 21	0.00000000	100.00000000	-100.00000000	0.00000000
 22	10.00000000	-100.00000000	-100.00000000	0.00000000
 23	10.00000000	-90.00000000	-100.00000000	0.00000000
 24	10.00000000	-80.00000000	-100.00000000	0.00000000
 25	10.00000000	-70.00000000	-100.00000000	0.00000000
 26	10.00000000	-60.00000000	-100.00000000	0.00000000
 27	10.00000000	-50.00000000	-100.00000000	0.00000000
 28	10.00000000	-40.00000000	-100.00000000	0.00000000
 29	10.00000000	-30.00000000	-100.00000000	0.00000000
 30	10.00000000	-20.00000000	-100.00000000	0.00000000
 31	10.00000000	-10.00000000	-100.00000000	0.00000000
 32	10.00000000	0.00000000	-100.00000000	0.00000000
 33	10.00000000	10.00000000	-100.00000000	0.00000000
 34	10.00000000	20.00000000	-100.00000000	0.00000000
 35	10.00000000	30.00000000	-100.00000000	0.00000000
 36	10.00000000	40.00000000	-100.00000000	0.00000000
 37	10.00000000	50.00000000	-100.00000000	0.00000000
 38	10.00000000	60.00000000	-100.00000000	0.00000000
 39	10.00000000	70.00000000	-100.00000000	0.00000000
 40	10.00000000	80.00000000	-100.00000000	0.00000000
 41	10.00000000	90.00000000	-100.00000000	0.00000000
 42	10.00000000	100.00000000	-100.00000000	0.00000000
 43	20.00000000	-100.00000000	-100.00000000	5.72762646
 44	20.00000000	-90.00000000	-100.00000000	5.72762646
 45	20.00000000	-80.00000000	-100.00000000	5.72762646
 46	20.00000000	-70.00000000	-100.00000000	5.72762646
 47	20.00000000	-60.00000000	-100.00000000	5.72762646
 48	20.00000000	-50.00000000	-100.00000000	5.72762646
 49	20.00000000	-40.00000000	-100.00000000	5.72762646
 50	20.00000000	-30.00000000	-100.00000000	5.72762646
 51	20.00000000	-20.00000000	-100.00000000	5.72762646
 52	20.00000000	-10.00000000	-100.00000000	5.72762646
 53	20.00000000	0.00000000	-100.00000000	5.72762646
 54	20.00000000	10.00000000	-100.00000000	5.72762646
 55	20.00000000	20.00000000	-100.00000000	5.72762646
 56	20.00000000	30.00000000	-100.00000000	5.72762646
 57	20.00000000	40.00000000	-100.00000000	5.72762646
 58	20.00000000	50.00000000	-100.00000000	5.72762646
 59	20.00000000	60.00000000	-100.00000000	5.72762646
 60	20.00000000	70.00000000	-100.00000000	5.72762646
 61	20.00000000	80.00000000	-100.00000000	5.72762646
 62	20.00000000	90.00000000	-100.00000000	5.72762646
 63	20.00000000	100.00000000	-100.00000000	5.72762646
 64	30.00000000	-100.00000000	-100.00000000	28.84435862
 65	30.00000000	-90.00000000	-100.00000000	28.84435862
 66	30.00000000	-80.00000000	-100.00000000	28.84435862
 67	30.00000000	-70.00000000	-100.00000000	28.84435862
 68	30.00000000	-60.00000000	-100.00000000	28.84435862
 69	30.00000000	-50.00000000	-100.00000000	28.84435862
 70	30.00000000	-40.00000000	-100.00000000	28.84435862
 71	30.00000000	-30.00000000	-100.00000000	28.84435862
 72	30.00000000	-20.00000000	-100.00000000	28.84435862
 73	30.00000000	-10.00000000	-100.00000000	28.84435862
 74	30.00000000	0.00000000	-100.00000000	28.84435862
 75	30.00000000	10.00000000	-100.00000000	28.84435862
 76	30.00000000	20.00000000	-100.00000000	28.84435862
 77	30.00000000	30.00000000	-100.00000000	28.84435862
 78	30.00000000	40.00000000	-100.00000000	28.84435862
 79	30.00000000	50.00000000	-100.00000000	28.84435862
 80	30.00000000	60.00000000	-100.00000000	28.84435862
 81	30.00000000	70.00000000	-100.00000000	28.84435862
 82	30.00000000	80.00000000	-100.00000000	28.84435862
 83	30.00000000	90.00000000	-100.00000000	28.84435862
 84	30.00000000	100.00000000	-100.00000000	28.84435862
 85	40.00000000	-100.00000000	-100.00000000	53.65758575
 86	40.00000000	-90.00000000	-100.00000000	53.65758575
 87	40.00000000	-80.00000000	-100.00000000	53.65758575
 88	40.00000000	-70.00000000	-100.00000000	53.65758575
 89	40.00000000	-60.00000000	-100.00000000	53.65758575
 90	40.00000000	-50.00000000	-100.00000000	53.65758575
 91	40.00000000	-40.00000000	-100.00000000	53.65758575
 92	40.00000000	-30.00000000	-100.00000000	53.65758575
 93	40.00000000	-20.00000000	-100.00000000	53.65758575
 94	40.00000000	-10.00000000	-100.00000000	53.65758575
 95	40.00000000	0.00000000	-100.00000000	53.65758575
 96	40.00000000	10.00000000	-100.00000000	53.65758575
 97	40.00000000	20.00000000	-100.00000000	53.65758575
 98	40.00000000	30.00000000	-100.00000000	53.65758575
 99	40.00000000	40.00000000	-100.00000000	53.65758575
 100	40.00000000	50.00000000	-100.00000000	53.65758575
 101	40.00000000	60.00000000	-100.00000000	53.65758575
 102	40.00000000	70.00000000	-100.00000000	53.65758575
 103	40.00000000	80.00000000	-100.00000000	53.65758575
 104	40.00000000	90.00000000	-100.00000000	53.65758575
 105	40.00000000	100.00000000	-100.00000000	53.65758575
 106	50.00000000	-100.00000000	-100.00000000	81.20233431
 107	50.00000000	-90.00000000	-100.00000000	81.20233431
 108	50.00000000	-80.00000000	-100.00000000	81.20233431
 109	50.00000000	-70.00000000	-100.00000000	81.20233431
 110	50.00000000	-60.00000000	-100.00000000	81.20233431
 111	50.00000000	-50.00000000	-100.00000000	81.20233431
 112	50.00000000	-40.00000000	-100.00000000	81.20233431
 113	50.00000000	-30.00000000	-100.00000000	81.20233431
 114	50.00000000	-20.00000000	-100.00000000	81.20233431
 115	50.00000000	-10.00000000	-100.00000000	81.20233431
 116	50.00000000	0.00000000	-100.00000000	81.20233431
 117	50.00000000	10.00000000	-100.00000000	81.20233431
 118	50.00000000	20.00000000	-100.00000000	81.20233431
 119	50.00000000	30.00000000	-100.00000000	81.20233431
 120	50.00000000	40.00000000	-100.00000000	81.20233431
 121	50.00000000	50.00000000	-100.00000000	81.20233431
 122	50.00000000	60.00000000	-100.00000000	81.20233431
 123	50.00000000	70.00000000	-100.00000000	81.20233431
 124	50.00000000	80.00000000	-100.00000000	81.20233431
 125	50.00000000	90.00000000	-100.00000000	81.20233431
 126	50.00000000	100.00000000	-100.00000000	81.20233431
 127	60.00000000	-100.00000000	-100.00000000	110.30349836
 128	60.00000000	-90.00000000	-100.00000000	110.30349836
 129	60.00000000	-80.00000000	-100.00000000	110.30349836
 130	60.00000000	-70.00000000	-100.00000000	110.30349836
 131	60.00000000	-60.00000000	-100.00000000	110.30349836
 132	60.00000000	-50.00000000	-100.00000000	110.30349836
 133	60.00000000	-40.00000000	-100.00000000	110.30349836
 134	60.00000000	-30.00000000	-100.00000000	110.30349836
 135	60.00000000	-20.00000000	-100.00000000	110.30349836
 136	60.00000000	-10.00000000	-100.00000000	110.30349836
 137	60.00000000	0.00000000	-100.00000000	110.30349836
 138	60.00000000	10.00000000	-100.00000000	110.30349836
 139	60.00000000	20.00000000	-100.00000000	110.30349836
 140	60.00000000	30.00000000	-100.00000000	110.30349836
 141	60.00000000	40.00000000	-100.00000000	110.30349836
 142	60.00000000	50.00000000	-100.00000000	110.30349836
 143	60.00000000	60.00000000	-100.00000000	110.30349836
 144	60.00000000	70.00000000	-100.00000000	110.30349836
 145	60.00000000	80.00000000	-100.00000000	110.30349836
 146	60.00000000	90.00000000	-100.00000000	110.30349836
 147	60.00000000	100.00000000	-100.00000000	110.30349836
 148	70.00000000	-100.00000000	-100.00000000	142.61478335
 149	70.00000000	-90.00000000	-100.00000000	142.61478335
 150	70.00000000	-80.00000000	-100.00000000	142.61478335
 151	70.00000000	-70.00000000	-100.00000000	142.61478335
 152	70.00000000	-60.00000000	-100.00000000	142.61478335
 153	70.00000000	-50.00000000	-100.00000000	142.61478335
 154	70.00000000	-40.00000000	-100.00000000	142.61478335
 155	70.00000000	-30.00000000	-100.00000000	142.61478335
 156	70.00000000	-20.00000000	-100.00000000	142.61478335
 157	70.00000000	-10.00000000	-100.00000000	142.61478335
 158	70.00000000	0.00000000	-100.00000000	142.61478335
 159	70.00000000	10.00000000	-100.00000000	142.61478335
 160	70.00000000	20.00000000	-100.00000000	142.61478335
 161	70.00000000	30.00000000	-100.00000000	142.61478335
 162	70.00000000	40.00000000	-100.00000000	142.61478335
 163	70.00000000	50.00000000	-100.00000000	142.61478335
 164	70.00000000	60.00000000	-100.00000000	142.61478335
 165	70.00000000	70.00000000	-100.00000000	142.61478335
 166	70.00000000	80.00000000	-100.00000000	142.61478335
 167	70.00000000	90.00000000	-100.00000000	142.61478335
 168	70.00000000	100.00000000	-100.00000000	142.61478335
 169	80.00000000	-100.00000000	-100.00000000	177.52528846
 170	80.00000000	-90.00000000	-100.00000000	177.52528846
 171	80.00000000	-80.00000000	-100.00000000	177.52528846
 172	80.00000000	-70.00000000	-100.00000000	177.52528846
 173	80.00000000	-60.00000000	-100.00000000	177.52528846
 174	80.00000000	-50.00000000	-100.00000000	177.52528846
 175	80.00000000	-40.00000000	-100.00000000	177.52528846
 176	80.00000000	-30.00000000	-100.00000000	177.52528846
 177	80.00000000	-20.00000000	-100.00000000	177.52528846
 178	80.00000000	-10.00000000	-100.00000000	177.52528846
 179	80.00000000	0.00000000	-100.00000000	177.52528846
 180	80.00000000	10.00000000	-100.00000000	177.52528846
 181	80.00000000	20.00000000	-100.00000000	177.52528846
 182	80.00000000	30.00000000	-100.00000000	177.52528846
 183	80.00000000	40.00000000	-100.00000000	177.52528846
 184	80.00000000	50.00000000	-100.00000000	177.52528846
 185	80.00000000	60.00000000	-100.00000000	177.52528846
 186	80.00000000	70.00000000	-100.00000000	177.52528846
 187	80.00000000	80.00000000	-100.00000000	177.52528846
 188	80.00000000	90.00000000	-100.00000000	177.52528846
 189	80.00000000	100.00000000	-100.00000000	177.52528846
 190	90.00000000	-100.00000000	-100.00000000	214.82490778
 191	90.00000000	-90.00000000	-100.00000000	214.82490778
 192	90.00000000	-80.00000000	-100.00000000	214.82490778
 193	90.00000000	-70.00000000	-100.00000000	214.82490778
 194	90.00000000	-60.00000000	-100.00000000	214.82490778
 195	90.00000000	-50.00000000	-100.00000000	214.82490778
 196	90.00000000	-40.00000000	-100.00000000	214.82490778
 197	90.00000000	-30.00000000	-100.00000000	214.82490778
 198	90.00000000	-20.00000000	-100.00000000	214.82490778
 199	90.00000000	-10.00000000	-100.00000000	214.82490778
 200	90.00000000	0.00000000	-100.00000000	214.82490778
 201	90.00000000	10.00000000	-100.00000000	214.82490778
 202	90.00000000	20.00000000	-100.00000000	214.82490778
 203	90.00000000	30.00000000	-100.00000000	214.82490778
 204	90.00000000	40.00000000	-100.00000000	214.82490778
 205	90.00000000	50.00000000	-100.00000000	214.82490778
 206	90.00000000	60.00000000	-100.00000000	214.82490778
 207	90.00000000	70.00000000	-100.00000000	214.82490778
 208	90.00000000	80.00000000	-100.00000000	214.82490778
 209	90.00000000	90.00000000	-100.00000000	214.82490778
 210	90.00000000	100.00000000	-100.00000000	214.82490778
 211	100.00000000	-100.00000000	-100.00000000	255.00000000
 212	100.00000000	-90.00000000	-100.00000000	255.00000000
 213	100.00000000	-80.00000000	-100.00000000	255.00000000
 214	100.00000000	-70.00000000	-100.00000000	255.00000000
 215	100.00000000	-60.00000000	-100.00000000	255.00000000
 216	100.00000000	-50.00000000	-100.00000000	255.00000000
 217	100.00000000	-40.00000000	-100.00000000	255.00000000
 218	100.00000000	-30.00000000	-100.00000000	255.00000000
 219	100.00000000	-20.00000000	-100.00000000	255.00000000
 220	100.00000000	-10.00000000	-100.00000000	255.00000000
 221	100.00000000	0.00000000	-100.00000000	255.00000000
 222	100.00000000	10.00000000	-100.00000000	255.00000000
 223	100.00000000	20.00000000	-100.00000000	255.00000000
 224	100.00000000	30.00000000	-100.00000000	255.00000000
 225	100.00000000	40.00000000	-100.00000000	255.00000000
 226	100.00000000	50.00000000	-100.00000000	255.00000000
 227	100.00000000	60.00000000	-100.00000000	255.00000000
 228	100.00000000	70.00000000	-100.00000000	255.00000000
 229	100.00000000	80.00000000	-100.00000000	255.00000000
 230	100.00000000	90.00000000	-100.00000000	255.00000000
 231	100.00000000	100.00000000	-100.00000000	255.00000000
 232	0.00000000	-100.00000000	-90.00000000	0.00000000
 233	0.00000000	-90.00000000	-90.00000000	0.00000000
 234	0.00000000	-80.00000000	-90.00000000	0.00000000
 235	0.00000000	-70.00000000	-90.00000000	0.00000000
 236	0.00000000	-60.00000000	-90.00000000	0.00000000
 237	0.00000000	-50.00000000	-90.00000000	0.00000000
 238	0.00000000	-40.00000000	-90.00000000	0.00000000
 239	0.00000000	-30.00000000	-90.00000000	0.00000000
 240	0.00000000	-20.00000000	-90.00000000	0.00000000
 241	0.00000000	-10.00000000	-90.00000000	0.00000000
 242	0.00000000	0.00000000	-90.00000000	0.00000000
 243	0.00000000	10.00000000	-90.00000000	0.00000000
 244	0.00000000	20.00000000	-90.00000000	0.00000000
 245	0.00000000	30.00000000	-90.00000000	0.00000000
 246	0.00000000	40.00000000	-90.00000000	0.00000000
 247	0.00000000	50.00000000	-90.00000000	0.00000000
 248	0.00000000	60.00000000	-90.00000000	0.00000000
 249	0.00000000	70.00000000	-90.00000000	0.00000000
 250	0.00000000	80.00000000	-90.00000000	0.00000000
 251	0.00000000	90.00000000	-90.00000000	0.00000000
 252	0.00000000	100.00000000	-90.00000000	0.00000000
 253	10.00000000	-100.00000000	-90.00000000	0.00000000
 254	10.00000000	-90.00000000	-90.00000000	0.00000000
 255	10.00000000	-80.00000000	-90.00000000	0.00000000
 256	10.00000000	-70.00000000	-90.00000000	0.00000000
 257	10.00000000	-60.00000000	-90.00000000	0.00000000
 258	10.00000000	-50.00000000	-90.00000000	0.00000000
 259	10.00000000	-40.00000000	-90.00000000	0.00000000
 260	10.00000000	-30.00000000	-90.00000000	0.00000000
 261	10.00000000	-20.00000000	-90.00000000	0.00000000
 262	10.00000000	-10.00000000	-90.00000000	0.00000000
 263	10.00000000	0.00000000	-90.00000000	0.00000000
 264	10.00000000	10.00000000	-90.00000000	0.00000000
 265	10.00000000	20.00000000	-90.00000000	0.00000000
 266	10.00000000	30.00000000	-90.00000000	0.00000000
 267	10.00000000	40.00000000	-90.00000000	0.00000000
 268	10.00000000	50.00000000	-90.00000000	0.00000000
 269	10.00000000	60.00000000	-90.00000000	0.00000000
 270	10.00000000	70.00000000	-90.00000000	0.00000000
 271	10.00000000	80.00000000	-90.00000000	0.00000000
 272	10.00000000	90.00000000	-90.00000000	0.00000000
 273	10.00000000	100.00000000	-90.00000000	0.00000000
 274	20.00000000	-100.00000000	-90.00000000	5.72762646
 275	20.00000000	-90.00000000	-90.00000000	5.72762646
 276	20.00000000	-80.00000000	-90.00000000	5.72762646
 277	20.00000000	-70.00000000	-90.00000000	5.72762646
 278	20.00000000	-60.00000000	-90.00000000	5.72762646
 279	20.00000000	-50.00000000	-90.00000000	5.72762646
 280	20.00000000	-40.00000000	-90.00000000	5.72762646
 281	20.00000000	-30.00000000	-90.00000000	5.72762646
 282	20.00000000	-20.00000000	-90.00000000	5.72762646
 283	20.00000000	-10.00000000	-90.00000000	5.72762646
 284	20.00000000	0.00000000	-90.00000000	5.72762646
 285	20.00000000	10.00000000	-90.00000000	5.72762646
 286	20.00000000	20.00000000	-90.00000000	5.72762646
 287	20.00000000	30.00000000	-90.00000000	5.72762646
 288	20.00000000	40.00000000	-90.00000000	5.72762646
 289	20.00000000	50.00000000	-90.00000000	5.72762646
 290	20.00000000	60.00000000	-90.00000000	5.72762646
 291	20.00000000	70.00000000	-90.00000000	5.72762646
 292	20.00000000	80.00000000	-90.00000000	5.72762646
 293	20.00000000	90.00000000	-90.00000000	5.72762646
 294	20.00000000	100.00000000	-90.00000000	5.72762646
 295	30.00000000	-100.00000000	-90.00000000	28.84435862
 296	30.00000000	-90.00000000	-90.00000000	28.84435862
 297	30.00000000	-80.00000000	-90.00000000	28.84435862
 298	30.00000000	-70.00000000	-90.00000000	28.84435862
 299	30.00000000	-60.00000000	-90.00000000	28.84435862
 300	30.00000000	-50.00000000	-90.00000000	28.84435862
 301	30.00000000	-40.00000000	-90.00000000	28.84435862
 302	30.00000000	-30.00000000	-90.00000000	28.84435862
 303	30.00000000	-20.00000000	-90.00000000	28.84435862
 304	30.00000000	-10.00000000	-90.00000000	28.84435862
 305	30.00000000	0.00000000	-90.00000000	28.84435862
 306	30.00000000	10.00000000	-90.00000000	28.84435862
 307	30.00000000	20.00000000	-90.00000000	28.84435862
 308	30.00000000	30.00000000	-90.00000000	28.84435862
 309	30.00000000	40.00000000	-90.00000000	28.84435862
 310	30.00000000	50.00000000	-90.00000000	28.84435862
 311	30.00000000	60.00000000	-90.00000000	28.84435862
 312	30.00000000	70.00000000	-90.00000000	28.84435862
 313	30.00000000	80.00000000	-90.00000000	28.84435862
 314	30.00000000	90.00000000	-90.00000000	28.84435862
 315	30.00000000	100.00000000	-90.00000000	28.84435862
 316	40.00000000	-100.00000000	-90.00000000	53.65758575
 317	40.00000000	-90.00000000	-90.00000000	53.65758575
 318	40.00000000	-80.00000000	-90.00000000	53.65758575
 319	40.00000000	-70.00000000	-90.00000000	53.65758575
 320	40.00000000	-60.00000000	-90.00000000	53.65758575
 321	40.00000000	-50.00000000	-90.00000000	53.65758575
 322	40.00000000	-40.00000000	-90.00000000	53.65758575
 323	40.00000000	-30.00000000	-90.00000000	53.65758575
 324	40.00000000	-20.00000000	-90.00000000	53.65758575
 325	40.00000000	-10.00000000	-90.00000000	53.65758575
 326	40.00000000	0.00000000	-90.00000000	53.65758575
 327	40.00000000	10.00000000	-90.00000000	53.65758575
 328	40.00000000	20.00000000	-90.00000000	53.65758575
 329	40.00000000	30.00000000	-90.00000000	53.65758575
 330	40.00000000	40.00000000	-90.00000000	53.65758575
 331	40.00000000	50.00000000	-90.00000000	53.65758575
 332	40.00000000	60.00000000	-90.00000000	53.65758575
 333	40.00000000	70.00000000	-90.00000000	53.65758575
 334	40.00000000	80.00000000	-90.00000000	53.65758575
 335	40.00000000	90.00000000	-90.00000000	53.65758575
 336	40.00000000	100.00000000	-90.00000000	53.65758575
 337	50.00000000	-100.00000000	-90.00000000	81.20233431
 338	50.00000000	-90.00000000	-90.00000000	81.20233431
 339	50.00000000	-80.00000000	-90.00000000	81.20233431
 340	50.00000000	-70.00000000	-90.00000000	81.20233431
 341	50.00000000	-60.00000000	-90.00000000	81.20233431
 342	50.00000000	-50.00000000	-90.00000000	81.20233431
 343	50.00000000	-40.00000000	-90.00000000	81.20233431
 344	50.00000000	-30.00000000	-90.00000000	81.20233431
 345	50.00000000	-20.00000000	-90.00000000	81.20233431
 346	50.00000000	-10.00000000	-90.00000000	81.20233431
 347	50.00000000	0.00000000	-90.00000000	81.20233431
 348	50.00000000	10.00000000	-90.00000000	81.20233431
 349	50.00000000	20.00000000	-90.00000000	81.20233431
 350	50.00000000	30.00000000	-90.00000000	81.20233431
 351	50.00000000	40.00000000	-90.00000000	81.20233431
 352	50.00000000	50.00000000	-90.00000000	81.20233431
 353	50.00000000	60.00000000	-90.00000000	81.20233431
 354	50.00000000	70.00000000	-90.00000000	81.20233431
 355	50.00000000	80.00000000	-90.00000000	81.20233431
 356	50.00000000	90.00000000	-90.00000000	81.20233431
 357	50.00000000	100.00000000	-90.00000000	81.20233431
 358	60.00000000	-100.00000000	-90.00000000	110.30349836
 359	60.00000000	-90.00000000	-90.00000000	110.30349836
 360	60.00000000	-80.00000000	-90.00000000	110.30349836
 361	60.00000000	-70.00000000	-90.00000000	110.30349836
 362	60.00000000	-60.00000000	-90.00000000	110.30349836
 363	60.00000000	-50.00000000	-90.00000000	110.30349836
 364	60.00000000	-40.00000000	-90.00000000	110.30349836
 365	60.00000000	-30.00000000	-90.00000000	110.30349836
 366	60.00000000	-20.00000000	-90.00000000	110.30349836
 367	60.00000000	-10.00000000	-90.00000000	110.30349836
 368	60.00000000	0.00000000	-90.00000000	110.30349836
 369	60.00000000	10.00000000	-90.00000000	110.30349836
 370	60.00000000	20.00000000	-90.00000000	110.30349836
 371	60.00000000	30.00000000	-90.00000000	110.30349836
 372	60.00000000	40.00000000	-90.00000000	110.30349836
 373	60.00000000	50.00000000	-90.00000000	110.30349836
 374	60.00000000	60.00000000	-90.00000000	110.30349836
 375	60.00000000	70.00000000	-90.00000000	110.30349836
 376	60.00000000	80.00000000	-90.00000000	110.30349836
 377	60.00000000	90.00000000	-90.00000000	110.30349836
 378	60.00000000	100.00000000	-90.00000000	110.30349836
 379	70.00000000	-100.00000000	-90.00000000	142.61478335
 380	70.00000000	-90.00000000	-90.00000000	142.61478335
 381	70.00000000	-80.00000000	-90.00000000	142.61478335
 382	70.00000000	-70.00000000	-90.00000000	142.61478335
 383	70.00000000	-60.00000000	-90.00000000	142.61478335
 384	70.00000000	-50.00000000	-90.00000000	142.61478335
 385	70.00000000	-40.00000000	-90.00000000	142.61478335
 386	70.00000000	-30.00000000	-90.00000000	142.61478335
 387	70.00000000	-20.00000000	-90.00000000	142.61478335
 388	70.00000000	-10.00000000	-90.00000000	142.61478335
 389	70.00000000	0.00000000	-90.00000000	142.61478335
 390	70.00000000	10.00000000	-90.00000000	142.61478335
 391	70.00000000	20.00000000	-90.00000000	142.61478335
 392	70.00000000	30.00000000	-90.00000000	142.61478335
 393	70.00000000	40.00000000	-90.00000000	142.61478335
 394	70.00000000	50.00000000	-90.00000000	142.61478335
 395	70.00000000	60.00000000	-90.00000000	142.61478335
 396	70.00000000	70.00000000	-90.00000000	142.61478335
 397	70.00000000	80.00000000	-90.00000000	142.61478335
 398	70.00000000	90.00000000	-90.00000000	142.61478335
 399	70.00000000	100.00000000	-90.00000000	142.61478335
 400	80.00000000	-100.00000000	-90.00000000	177.52528846
 401	80.00000000	-90.00000000	-90.00000000	177.52528846
 402	80.00000000	-80.00000000	-90.00000000	177.52528846
 403	80.00000000	-70.00000000	-90.00000000	177.52528846
 404	80.00000000	-60.00000000	-90.00000000	177.52528846
 405	80.00000000	-50.00000000	-90.00000000	177.52528846
 406	80.00000000	-40.00000000	-90.00000000	177.52528846
 407	80.00000000	-30.00000000	-90.00000000	177.52528846
 408	80.00000000	-20.00000000	-90.00000000	177.52528846
 409	80.00000000	-10.00000000	-90.00000000	177.52528846
 410	80.00000000	0.00000000	-90.00000000	177.52528846
 411	80.00000000	10.00000000	-90.00000000	177.52528846
 412	80.00000000	20.00000000	-90.00000000	177.52528846
 413	80.00000000	30.00000000	-90.00000000	177.52528846
 414	80.00000000	40.00000000	-90.00000000	177.52528846
 415	80.00000000	50.00000000	-90.00000000	177.52528846
 416	80.00000000	60.00000000	-90.00000000	177.52528846
 417	80.00000000	70.00000000	-90.00000000	177.52528846
 418	80.00000000	80.00000000	-90.00000000	177.52528846
 419	80.00000000	90.00000000	-90.00000000	177.52528846
 420	80.00000000	100.00000000	-90.00000000	177.52528846
 421	90.00000000	-100.00000000	-90.00000000	214.82490778
 422	90.00000000	-90.00000000	-90.00000000	214.82490778
 423	90.00000000	-80.00000000	-90.00000000	214.82490778
 424	90.00000000	-70.00000000	-90.00000000	214.82490778
 425	90.00000000	-60.00000000	-90.00000000	214.82490778
 426	90.00000000	-50.00000000	-90.00000000	214.82490778
 427	90.00000000	-40.00000000	-90.00000000	214.82490778
 428	90.00000000	-30.00000000	-90.00000000	214.82490778
 429	90.00000000	-20.00000000	-90.00000000	214.82490778
 430	90.00000000	-10.00000000	-90.00000000	214.82490778
 431	90.00000000	0.00000000	-90.00000000	214.82490778
 432	90.00000000	10.00000000	-90.00000000	214.82490778
 433	90.00000000	20.00000000	-90.00000000	214.82490778
