bench/lcms_compat/reference/lab_to_AdobeRGB1998.icc_Relative_BPC.it8
CGATS.17
ORIGINATOR	"icctrans"
#
# Data follows
#
NUMBER_OF_SETS	4851.00000000
NUMBER_OF_FIELDS	7.00000000
BEGIN_DATA_FORMAT
 SAMPLE_ID	IN_LAB_L	IN_LAB_A	IN_LAB_B	OUT_RGB_R	OUT_RGB_G	OUT_RGB_B
END_DATA_FORMAT
BEGIN_DATA
 1	0.00000000	-100.00000000	-100.00000000	0.00000000	52.85064965	144.83837843
 2	0.00000000	-90.00000000	-100.00000000	0.00000000	50.95461600	144.85461116
 3	0.00000000	-80.00000000	-100.00000000	0.00000000	48.96994829	144.87084389
 4	0.00000000	-70.00000000	-100.00000000	0.00000000	46.88378423	144.88706142
 5	0.00000000	-60.00000000	-100.00000000	0.00000000	44.67986830	144.90329415
 6	0.00000000	-50.00000000	-100.00000000	0.00000000	42.33716480	144.91952688
 7	0.00000000	-40.00000000	-100.00000000	0.00000000	39.82761227	144.93574440
 8	0.00000000	-30.00000000	-100.00000000	0.00000000	37.11236537	144.95196193
 9	0.00000000	-20.00000000	-100.00000000	0.00000000	34.13498193	144.96817946
 10	0.00000000	-10.00000000	-100.00000000	0.00000000	30.80782916	144.98439699
 11	0.00000000	0.00000000	-100.00000000	0.00000000	26.98110580	145.00061452
 12	0.00000000	10.00000000	-100.00000000	0.00000000	22.35623717	145.01683205
 13	0.00000000	20.00000000	-100.00000000	0.00000000	16.13119081	145.03303438
 14	0.00000000	30.00000000	-100.00000000	0.00000000	0.00000000	145.04925191
 15	0.00000000	40.00000000	-100.00000000	0.00000000	0.00000000	145.06594062
 16	0.00000000	50.00000000	-100.00000000	0.00000000	0.00000000	145.08560836
 17	0.00000000	60.00000000	-100.00000000	0.00000000	0.00000000	145.10889351
 18	0.00000000	70.00000000	-100.00000000	0.00000000	0.00000000	145.13606966
 19	0.00000000	80.00000000	-100.00000000	0.00000000	0.00000000	145.16744077
 20	0.00000000	90.00000000	-100.00000000	0.00000000	0.00000000	145.20331085
 21	0.00000000	100.00000000	-100.00000000	0.00000000	0.00000000	145.24398386
 22	10.00000000	-100.00000000	-100.00000000	0.00000000	62.77334221	172.00067371
 23	10.00000000	-90.00000000	-100.00000000	0.00000000	61.24153800	172.01388180
 24	10.00000000	-80.00000000	-100.00000000	0.00000000	59.66234274	172.02708989
 25	10.00000000	-70.00000000	-100.00000000	0.00000000	58.03135626	172.04029799
 26	10.00000000	-60.00000000	-100.00000000	0.00000000	56.34345263	172.05350608
 27	10.00000000	-50.00000000	-100.00000000	0.00000000	54.59261678	172.06671417
 28	10.00000000	-40.00000000	-100.00000000	0.00000000	52.77170509	172.07992226
 29	10.00000000	-30.00000000	-100.00000000	0.00000000	50.87213002	172.09311515
 30	10.00000000	-20.00000000	-100.00000000	0.00000000	48.88342693	172.10632324
 31	10.00000000	-10.00000000	-100.00000000	0.00000000	46.79261193	172.11951613
 32	10.00000000	0.00000000	-100.00000000	0.00000000	44.41489711	172.13369697
 33	10.00000000	10.00000000	-100.00000000	0.00000000	41.36073120	172.15061367
 34	10.00000000	20.00000000	-100.00000000	0.00000000	37.37383693	172.17052460
 35	10.00000000	30.00000000	-100.00000000	0.00000000	31.97293974	172.19370335
 36	10.00000000	40.00000000	-100.00000000	0.00000000	23.92613433	172.22037792
 37	10.00000000	50.00000000	-100.00000000	0.00000000	0.00000000	172.25079149
 38	10.00000000	60.00000000	-100.00000000	0.00000000	0.00000000	172.28520244
 39	10.00000000	70.00000000	-100.00000000	0.00000000	0.00000000	172.32383877
 40	10.00000000	80.00000000	-100.00000000	0.00000000	0.00000000	172.36694366
 41	10.00000000	90.00000000	-100.00000000	32.93796636	0.00000000	172.41476029
 42	10.00000000	100.00000000	-100.00000000	52.21810520	0.00000000	172.46754706
 43	20.00000000	-100.00000000	-100.00000000	0.00000000	78.66404772	200.28884858
 44	20.00000000	-90.00000000	-100.00000000	0.00000000	77.50220686	200.29985279
 45	20.00000000	-80.00000000	-100.00000000	0.00000000	76.31908715	200.31085700
 46	20.00000000	-70.00000000	-100.00000000	0.00000000	75.11355624	200.32186121
 47	20.00000000	-60.00000000	-100.00000000	0.00000000	73.88436779	200.33286542
 48	20.00000000	-50.00000000	-100.00000000	0.00000000	72.62648329	200.34390002
 49	20.00000000	-40.00000000	-100.00000000	0.00000000	71.17062181	200.35639375
 50	20.00000000	-30.00000000	-100.00000000	0.00000000	69.39074412	200.37125856
 51	20.00000000	-20.00000000	-100.00000000	0.00000000	67.23007366	200.38867682
 52	20.00000000	-10.00000000	-100.00000000	0.00000000	64.61566955	200.40887654
 53	20.00000000	0.00000000	-100.00000000	0.00000000	61.44937925	200.43207049
 54	20.00000000	10.00000000	-100.00000000	0.00000000	57.59123348	200.45842588
 55	20.00000000	20.00000000	-100.00000000	0.00000000	52.82562800	200.48818588
 56	20.00000000	30.00000000	-100.00000000	0.00000000	46.78155072	200.52153289
 57	20.00000000	40.00000000	-100.00000000	0.00000000	38.69368091	200.55869490
 58	20.00000000	50.00000000	-100.00000000	0.00000000	26.25078309	200.59983909
 59	20.00000000	60.00000000	-100.00000000	0.00000000	0.00000000	200.64519346
 60	20.00000000	70.00000000	-100.00000000	22.35542212	0.00000000	200.69494039
 61	20.00000000	80.00000000	-100.00000000	50.81489369	0.00000000	200.74929267
 62	20.00000000	90.00000000	-100.00000000	68.19650620	0.00000000	200.80844790
 63	20.00000000	100.00000000	-100.00000000	82.42193207	0.00000000	200.87261885
 64	30.00000000	-100.00000000	-100.00000000	0.00000000	101.63291842	229.54577386
 65	30.00000000	-90.00000000	-100.00000000	0.00000000	100.76211154	229.55531895
 66	30.00000000	-80.00000000	-100.00000000	0.00000000	99.72902298	229.56653595
 67	30.00000000	-70.00000000	-100.00000000	0.00000000	98.48876953	229.57982004
 68	30.00000000	-60.00000000	-100.00000000	0.00000000	97.01509461	229.59533840
 69	30.00000000	-50.00000000	-100.00000000	0.00000000	95.27792662	229.61325824
 70	30.00000000	-40.00000000	-100.00000000	0.00000000	93.24209467	229.63377714
 71	30.00000000	-30.00000000	-100.00000000	0.00000000	90.86551219	229.65706229
 72	30.00000000	-20.00000000	-100.00000000	0.00000000	88.09644878	229.68326569
 73	30.00000000	-10.00000000	-100.00000000	0.00000000	84.86943394	229.71258491
 74	30.00000000	0.00000000	-100.00000000	0.00000000	81.09856188	229.74518716
 75	30.00000000	10.00000000	-100.00000000	0.00000000	76.66610733	229.78123963
 76	30.00000000	20.00000000	-100.00000000	0.00000000	71.40134543	229.82092470
 77	30.00000000	30.00000000	-100.00000000	0.00000000	65.03696814	229.86439437
 78	30.00000000	40.00000000	-100.00000000	0.00000000	57.10424781	229.91184622
 79	30.00000000	50.00000000	-100.00000000	0.00000000	46.61020271	229.96344745
 80	30.00000000	60.00000000	-100.00000000	42.85165720	30.37034154	230.01933485
 81	30.00000000	70.00000000	-100.00000000	66.05916649	0.00000000	230.07972121
 82	30.00000000	80.00000000	-100.00000000	83.21371078	0.00000000	230.14475852
 83	30.00000000	90.00000000	-100.00000000	97.84145907	0.00000000	230.21461397
 84	30.00000000	100.00000000	-100.00000000	111.05037868	0.00000000	230.28945476
 85	40.00000000	-100.00000000	-100.00000000	0.00000000	128.20601732	259.72655118
 86	40.00000000	-90.00000000	-100.00000000	0.00000000	126.91418543	259.74272311
 87	40.00000000	-80.00000000	-100.00000000	0.00000000	125.42034879	259.76111412
 88	40.00000000	-70.00000000	-100.00000000	0.00000000	123.70324373	259.78196740
 89	40.00000000	-60.00000000	-100.00000000	0.00000000	121.73883274	259.80540454
 90	40.00000000	-50.00000000	-100.00000000	0.00000000	119.49951410	259.83154714
 91	40.00000000	-40.00000000	-100.00000000	0.00000000	116.95304275	259.86057758
 92	40.00000000	-30.00000000	-100.00000000	0.00000000	114.06110913	259.89264786
 93	40.00000000	-20.00000000	-100.00000000	0.00000000	110.77720374	259.92787957
 94	40.00000000	-10.00000000	-100.00000000	0.00000000	107.04350129	259.96645510
 95	40.00000000	0.00000000	-100.00000000	0.00000000	102.78610334	260.00846565
 96	40.00000000	10.00000000	-100.00000000	0.00000000	97.90733993	260.05412400
 97	40.00000000	20.00000000	-100.00000000	0.00000000	92.27248549	260.10355175
 98	40.00000000	30.00000000	-100.00000000	0.00000000	85.68531856	260.15690088
 99	40.00000000	40.00000000	-100.00000000	12.24233128	77.83753127	260.21432340
 100	40.00000000	50.00000000	-100.00000000	57.99391307	68.18763748	260.27594090
 101	40.00000000	60.00000000	-100.00000000	80.12896791	55.58913991	260.34193575
 102	40.00000000	70.00000000	-100.00000000	97.61996135	36.39465608	260.41239917
 103	40.00000000	80.00000000	-100.00000000	112.85265997	0.00000000	260.48754394
 104	40.00000000	90.00000000	-100.00000000	126.73187122	0.00000000	260.56749165
 105	40.00000000	100.00000000	-100.00000000	139.71125275	0.00000000	260.65236390
 106	50.00000000	-100.00000000	-100.00000000	0.00000000	155.96781403	290.80228686
 107	50.00000000	-90.00000000	-100.00000000	0.00000000	154.25594509	290.82590640
 108	50.00000000	-80.00000000	-100.00000000	0.00000000	152.33165234	290.85207939
 109	50.00000000	-70.00000000	-100.00000000	0.00000000	150.17526805	290.88092744
 110	50.00000000	-60.00000000	-100.00000000	0.00000000	147.76454061	290.91260254
 111	50.00000000	-50.00000000	-100.00000000	0.00000000	145.07404178	290.94722629
 112	50.00000000	-40.00000000	-100.00000000	0.00000000	142.07422435	290.98492026
 113	50.00000000	-30.00000000	-100.00000000	0.00000000	138.73028219	291.02580607
 114	50.00000000	-20.00000000	-100.00000000	0.00000000	135.00055432	291.07006609
 115	50.00000000	-10.00000000	-100.00000000	0.00000000	130.83416909	291.11776114
 116	50.00000000	0.00000000	-100.00000000	0.00000000	126.16752550	291.16907358
 117	50.00000000	10.00000000	-100.00000000	0.00000000	120.91916353	291.22409463
 118	50.00000000	20.00000000	-100.00000000	0.00000000	114.98108536	291.28297627
 119	50.00000000	30.00000000	-100.00000000	37.05725312	108.20429340	291.34584010
 120	50.00000000	40.00000000	-100.00000000	71.34675756	100.37192568	291.41280770
 121	50.00000000	50.00000000	-100.00000000	93.48332092	91.14434123	291.48403108
 122	50.00000000	60.00000000	-100.00000000	111.57657444	79.92903024	291.55960143
 123	50.00000000	70.00000000	-100.00000000	127.52773851	65.48963785	291.63964033
 124	50.00000000	80.00000000	-100.00000000	142.13859290	44.05615836	291.72433019
 125	50.00000000	90.00000000	-100.00000000	155.83279967	0.00000000	291.81376219
 126	50.00000000	100.00000000	-100.00000000	168.86458039	0.00000000	291.90805793
 127	60.00000000	-100.00000000	-100.00000000	0.00000000	184.76876378	322.73051441
 128	60.00000000	-90.00000000	-100.00000000	0.00000000	182.66344875	322.76191592
 129	60.00000000	-80.00000000	-100.00000000	0.00000000	180.33967584	322.79608369
 130	60.00000000	-70.00000000	-100.00000000	0.00000000	177.77914524	322.83310890
 131	60.00000000	-60.00000000	-100.00000000	0.00000000	174.96118605	322.87311316
 132	60.00000000	-50.00000000	-100.00000000	0.00000000	171.86233073	322.91621804
 133	60.00000000	-40.00000000	-100.00000000	0.00000000	168.45546395	322.96251476
 134	60.00000000	-30.00000000	-100.00000000	0.00000000	164.70900178	323.01218569
 135	60.00000000	-20.00000000	-100.00000000	0.00000000	160.58556944	323.06526124
 136	60.00000000	-10.00000000	-100.00000000	0.00000000	156.04025334	323.12189341
 137	60.00000000	0.00000000	-100.00000000	0.00000000	151.01806283	323.18220377
 138	60.00000000	10.00000000	-100.00000000	0.00000000	145.45023680	323.24628353
 139	60.00000000	20.00000000	-100.00000000	51.68309771	139.24854398	323.31428468
 140	60.00000000	30.00000000	-100.00000000	83.72485176	132.29616344	323.38626802
 141	60.00000000	40.00000000	-100.00000000	106.32811368	124.43221182	323.46238554
 142	60.00000000	50.00000000	-100.00000000	125.17262489	115.42338923	323.54272842
 143	60.00000000	60.00000000	-100.00000000	141.91300660	104.90670875	323.62741828
 144	60.00000000	70.00000000	-100.00000000	157.29623795	92.25587279	323.71657670
 145	60.00000000	80.00000000	-100.00000000	171.73166335	76.19174078	323.81029487
 146	60.00000000	90.00000000	-100.00000000	185.47072291	53.02574426	323.90869439
 147	60.00000000	100.00000000	-100.00000000	198.68012130	0.00000000	324.01186645
 148	70.00000000	-100.00000000	-100.00000000	0.00000000	214.52847809	355.47375262
 149	70.00000000	-90.00000000	-100.00000000	0.00000000	212.05543399	355.51302731
 150	70.00000000	-80.00000000	-100.00000000	0.00000000	209.36064899	355.55522025
 151	70.00000000	-70.00000000	-100.00000000	0.00000000	206.42702401	355.60039222
 152	70.00000000	-60.00000000	-100.00000000	0.00000000	203.23531687	355.64866483
 153	70.00000000	-50.00000000	-100.00000000	0.00000000	199.76380795	355.70015967
 154	70.00000000	-40.00000000	-100.00000000	0.00000000	195.98760098	355.75493753
 155	70.00000000	-30.00000000	-100.00000000	0.00000000	191.87795430	355.81315041
 156	70.00000000	-20.00000000	-100.00000000	0.00000000	187.40124732	355.87482870
 157	70.00000000	-10.00000000	-100.00000000	0.00000000	182.51765817	355.94012439
 158	70.00000000	0.00000000	-100.00000000	0.00000000	177.17920303	356.00915909
 159	70.00000000	10.00000000	-100.00000000	63.89177799	171.32719785	356.08196318
 160	70.00000000	20.00000000	-100.00000000	95.45398638	164.88816977	356.15868866
 161	70.00000000	30.00000000	-100.00000000	118.77416342	157.76802063	356.23945713
 162	70.00000000	40.00000000	-100.00000000	138.46324772	149.84239072	356.32429898
 163	70.00000000	50.00000000	-100.00000000	156.04057252	140.94057798	356.41333580
 164	70.00000000	60.00000000	-100.00000000	172.22490728	130.81640124	356.50671959
 165	70.00000000	70.00000000	-100.00000000	187.42076308	119.08986568	356.60448074
 166	70.00000000	80.00000000	-100.00000000	201.88097835	105.11415482	356.70674086
 167	70.00000000	90.00000000	-100.00000000	215.77526718	87.59975463	356.81362152
 168	70.00000000	100.00000000	-100.00000000	229.22358155	63.04050967	356.92521393
 169	80.00000000	-100.00000000	-100.00000000	0.00000000	245.18863767	388.99853289
 170	80.00000000	-90.00000000	-100.00000000	0.00000000	242.37146884	389.04568076
 171	80.00000000	-80.00000000	-100.00000000	0.00000000	239.33105439	389.09583807
 172	80.00000000	-70.00000000	-100.00000000	0.00000000	236.05137438	389.14906561
 173	80.00000000	-60.00000000	-100.00000000	0.00000000	232.51449376	389.20548499
 174	80.00000000	-50.00000000	-100.00000000	0.00000000	228.70027363	389.26515698
 175	80.00000000	-40.00000000	-100.00000000	0.00000000	224.58582401	389.32823360
 176	80.00000000	-30.00000000	-100.00000000	0.00000000	220.14489591	389.39471483
 177	80.00000000	-20.00000000	-100.00000000	0.00000000	215.34715176	389.46475267
 178	80.00000000	-10.00000000	-100.00000000	0.00000000	210.15702546	389.53843832
 179	80.00000000	0.00000000	-100.00000000	74.86758783	204.53235447	389.61583257
 180	80.00000000	10.00000000	-100.00000000	106.69826701	198.42243433	389.69702661
 181	80.00000000	20.00000000	-100.00000000	130.88853657	191.76510036	389.78214204
 182	80.00000000	30.00000000	-100.00000000	151.48563534	184.48280632	389.87123966
 183	80.00000000	40.00000000	-100.00000000	169.93408620	176.47630155	389.96444106
 184	80.00000000	50.00000000	-100.00000000	186.94086403	167.61481225	390.06180704
 185	80.00000000	60.00000000	-100.00000000	202.91174144	157.71965683	390.16339839
 186	80.00000000	70.00000000	-100.00000000	218.10379744	146.53462261	390.26936710
 187	80.00000000	80.00000000	-100.00000000	232.69129068	133.66790503	390.37977397
 188	80.00000000	90.00000000	-100.00000000	246.79830730	118.46197978	390.49467981
 189	80.00000000	100.00000000	-100.00000000	260.51657438	99.63849664	390.61420619
 190	90.00000000	-100.00000000	-100.00000000	0.00000000	276.70297623	423.27479124
 191	90.00000000	-90.00000000	-100.00000000	0.00000000	273.56288552	423.32969069
 192	90.00000000	-80.00000000	-100.00000000	0.00000000	270.19924521	423.38769078
 193	90.00000000	-70.00000000	-100.00000000	0.00000000	266.59703851	423.44879150
 194	90.00000000	-60.00000000	-100.00000000	0.00000000	262.73951590	423.51314485
 195	90.00000000	-50.00000000	-100.00000000	0.00000000	258.60795200	423.58084202
 196	90.00000000	-40.00000000	-100.00000000	0.00000000	254.18126553	423.65191340
 197	90.00000000	-30.00000000	-100.00000000	0.00000000	249.43541139	423.72645020
 198	90.00000000	-20.00000000	-100.00000000	9.36772948	244.34284866	423.80454361
 199	90.00000000	-10.00000000	-100.00000000	85.04958227	238.87168944	423.88628483
 200	90.00000000	0.00000000	-100.00000000	117.55203500	232.98455894	423.97173464
 201	90.00000000	10.00000000	-100.00000000	142.71509796	226.63715154	424.06101465
 202	90.00000000	20.00000000	-100.00000000	164.26615834	219.77619410	424.15418565
 203	90.00000000	30.00000000	-100.00000000	183.61160427	212.33652771	424.25127804
 204	90.00000000	40.00000000	-100.00000000	201.45733148	204.23688233	424.35244381
 205	90.00000000	50.00000000	-100.00000000	218.21475148	195.37358433	424.45771337
 206	90.00000000	60.00000000	-100.00000000	234.14723575	185.61046422	424.56720829
 207	90.00000000	70.00000000	-100.00000000	249.43462104	174.76233512	424.68095899
 208	90.00000000	80.00000000	-100.00000000	264.20578122	162.56543040	424.79908705
 209	90.00000000	90.00000000	-100.00000000	278.55645597	148.62014830	424.92165327
 210	90.00000000	100.00000000	-100.00000000	292.55998135	132.26555228	425.04874885
 211	100.00000000	-100.00000000	-100.00000000	0.00000000	309.03279662	458.27535152
 212	100.00000000	-90.00000000	-100.00000000	0.00000000	305.58872223	458.33788097
 213	100.00000000	-80.00000000	-100.00000000	0.00000000	301.92164540	458.40351105
 214	100.00000000	-70.00000000	-100.00000000	0.00000000	298.01743090	458.47233295
 215	100.00000000	-60.00000000	-100.00000000	0.00000000	293.86045396	458.54443789
 216	100.00000000	-50.00000000	-100.00000000	0.00000000	289.43329632	458.61985624
 217	100.00000000	-40.00000000	-100.00000000	0.00000000	284.71638143	458.69867921
 218	100.00000000	-30.00000000	-100.00000000	32.28445083	279.68767047	458.78099799
 219	100.00000000	-20.00000000	-100.00000000	94.65092987	274.32208478	458.86687338
 220	100.00000000	-10.00000000	-100.00000000	128.07462037	268.59080672	458.95639658
 221	100.00000000	0.00000000	-100.00000000	154.28445876	262.46051967	459.04962838
 222	100.00000000	10.00000000	-100.00000000	176.82456046	255.89213133	459.14662957
 223	100.00000000	20.00000000	-100.00000000	197.08733797	248.83942097	459.24749136
 224	100.00000000	30.00000000	-100.00000000	215.78535944	241.24674439	459.35224414
 225	100.00000000	40.00000000	-100.00000000	233.33876073	233.04619163	459.46103990
 226	100.00000000	50.00000000	-100.00000000	250.01871049	224.15330082	459.57387865
 227	100.00000000	60.00000000	-100.00000000	266.01153553	214.46053773	459.69088197
 228	100.00000000	70.00000000	-100.00000000	281.45141423	203.82723391	459.81208026
 229	100.00000000	80.00000000	-100.00000000	296.43835723	192.06300437	459.93759513
 230	100.00000000	90.00000000	-100.00000000	311.04927242	178.89842838	460.06745696
 231	100.00000000	100.00000000	-100.00000000	325.34447014	163.92939001	460.20172656
 232	0.00000000	-100.00000000	-90.00000000	0.00000000	51.64439298	129.53707069
 233	0.00000000	-90.00000000	-90.00000000	0.00000000	49.69285190	129.55562890
 234	0.00000000	-80.00000000	-90.00000000	0.00000000	47.64476560	129.57418710
 235	0.00000000	-70.00000000	-90.00000000	0.00000000	45.48522368	129.59273010
 236	0.00000000	-60.00000000	-90.00000000	0.00000000	43.19510937	129.61128831
 237	0.00000000	-50.00000000	-90.00000000	0.00000000	40.74921101	129.62983131
 238	0.00000000	-40.00000000	-90.00000000	0.00000000	38.11313286	129.64837432
 239	0.00000000	-30.00000000	-90.00000000	0.00000000	35.23783095	129.66691732
 240	0.00000000	-20.00000000	-90.00000000	0.00000000	32.04914466	129.68546033
 241	0.00000000	-10.00000000	-90.00000000	0.00000000	28.42517842	129.70398813
 242	0.00000000	0.00000000	-90.00000000	0.00000000	24.13822185	129.72251594
 243	0.00000000	10.00000000	-90.00000000	0.00000000	18.65434092	129.74104375
 244	0.00000000	20.00000000	-90.00000000	0.00000000	9.70119009	129.75957155
 245	0.00000000	30.00000000	-90.00000000	0.00000000	0.00000000	129.77809936
 246	0.00000000	40.00000000	-90.00000000	0.00000000	0.00000000	129.79715914
 247	0.00000000	50.00000000	-90.00000000	0.00000000	0.00000000	129.81965393
 248	0.00000000	60.00000000	-90.00000000	0.00000000	0.00000000	129.84625250
 249	0.00000000	70.00000000	-90.00000000	0.00000000	0.00000000	129.87728924
 250	0.00000000	80.00000000	-90.00000000	0.00000000	0.00000000	129.91314411
 251	0.00000000	90.00000000	-90.00000000	19.69857238	0.00000000	129.95412111
 252	0.00000000	100.00000000	-90.00000000	38.67321141	0.00000000	130.00056982
 253	10.00000000	-100.00000000	-90.00000000	0.00000000	61.49862841	155.92645705
 254	10.00000000	-90.00000000	-90.00000000	0.00000000	59.92757611	155.94132185
 255	10.00000000	-80.00000000	-90.00000000	0.00000000	58.30551155	155.95618665
 256	10.00000000	-70.00000000	-90.00000000	0.00000000	56.62743039	155.97103626
 257	10.00000000	-60.00000000	-90.00000000	0.00000000	54.88748476	155.98590106
 258	10.00000000	-50.00000000	-90.00000000	0.00000000	53.07874002	156.00075066
 259	10.00000000	-40.00000000	-90.00000000	0.00000000	51.19287081	156.01560026
 260	10.00000000	-30.00000000	-90.00000000	0.00000000	49.21976209	156.03044987
 261	10.00000000	-20.00000000	-90.00000000	0.00000000	47.14690492	156.04529947
 262	10.00000000	-10.00000000	-90.00000000	0.00000000	44.95852634	156.06014907
 263	10.00000000	0.00000000	-90.00000000	0.00000000	42.45659240	156.07607782
 264	10.00000000	10.00000000	-90.00000000	0.00000000	39.21763100	156.09510720
 265	10.00000000	20.00000000	-90.00000000	0.00000000	34.93355088	156.11751080
 266	10.00000000	30.00000000	-90.00000000	0.00000000	28.97788916	156.14356220
 267	10.00000000	40.00000000	-90.00000000	0.00000000	19.42030381	156.17355019
 268	10.00000000	50.00000000	-90.00000000	0.00000000	0.00000000	156.20776355
 269	10.00000000	60.00000000	-90.00000000	0.00000000	0.00000000	156.24644548
 270	10.00000000	70.00000000	-90.00000000	0.00000000	0.00000000	156.28988475
 271	10.00000000	80.00000000	-90.00000000	36.74069211	0.00000000	156.33833975
 272	10.00000000	90.00000000	-90.00000000	53.12420838	0.00000000	156.39209926
 273	10.00000000	100.00000000	-90.00000000	66.03138998	0.00000000	156.45142168
 274	20.00000000	-100.00000000	-90.00000000	0.00000000	77.44056657	183.49391699
 275	20.00000000	-90.00000000	-90.00000000	0.00000000	76.25630692	183.50615233
 276	20.00000000	-80.00000000	-90.00000000	0.00000000	75.04956007	183.51837248
 277	20.00000000	-70.00000000	-90.00000000	0.00000000	73.81908730	183.53059262
 278	20.00000000	-60.00000000	-90.00000000	0.00000000	72.56351307	183.54281276
 279	20.00000000	-50.00000000	-90.00000000	0.00000000	71.27757847	183.55507851
 280	20.00000000	-40.00000000	-90.00000000	0.00000000	69.78784561	183.56894016
 281	20.00000000	-30.00000000	-90.00000000	0.00000000	67.96435386	183.58543128
 282	20.00000000	-20.00000000	-90.00000000	0.00000000	65.74718803	183.60479504
 283	20.00000000	-10.00000000	-90.00000000	0.00000000	63.05862330	183.62722903
 284	20.00000000	0.00000000	-90.00000000	0.00000000	59.79275554	183.65297645
 285	20.00000000	10.00000000	-90.00000000	0.00000000	55.79605781	183.68226528
 286	20.00000000	20.00000000	-90.00000000	0.00000000	50.82641847	183.71530831
 287	20.00000000	30.00000000	-90.00000000	0.00000000	44.45174754	183.75234872
 288	20.00000000	40.00000000	-90.00000000	0.00000000	35.71899153	183.79359931
 289	20.00000000	50.00000000	-90.00000000	0.00000000	21.14308577	183.83927286
 290	20.00000000	60.00000000	-90.00000000	29.60099682	0.00000000	183.88962775
 291	20.00000000	70.00000000	-90.00000000	52.38782689	0.00000000	183.94486159
 292	20.00000000	80.00000000	-90.00000000	68.11792642	0.00000000	184.00520235
 293	20.00000000	90.00000000	-90.00000000	81.35060236	0.00000000	184.07087803
 294	20.00000000	100.00000000	-90.00000000	93.26680854	0.00000000	184.14210141
 295	30.00000000	-100.00000000	-90.00000000	0.00000000	100.52786171	212.06649899
 296	30.00000000	-90.00000000	-90.00000000	0.00000000	99.64544266	212.07701683
 297	30.00000000	-80.00000000	-90.00000000	0.00000000	98.59830245	212.08934337
 298	30.00000000	-70.00000000	-90.00000000	0.00000000	97.34072953	212.10393459
