bench/lcms_compat/reference/lab_to_sRGB_v4_ICC_preference.icc_Relative_BPC.it8
CGATS.17
ORIGINATOR	"icctrans"
#
# Data follows
#
NUMBER_OF_SETS	4851.00000000
NUMBER_OF_FIELDS	7.00000000
BEGIN_DATA_FORMAT
 SAMPLE_ID	IN_LAB_L	IN_LAB_A	IN_LAB_B	OUT_RGB_R	OUT_RGB_G	OUT_RGB_B
END_DATA_FORMAT
BEGIN_DATA
 1	0.00000000	-100.00000000	-100.00000000	-472.24242926	37.66905449	148.91568124
 2	0.00000000	-90.00000000	-100.00000000	-472.24242926	37.66905449	148.91568124
 3	0.00000000	-80.00000000	-100.00000000	-472.24242926	37.66905449	148.91568124
 4	0.00000000	-70.00000000	-100.00000000	-472.24242926	37.66905449	148.91568124
 5	0.00000000	-60.00000000	-100.00000000	-472.24242926	37.66905449	148.91568124
 6	0.00000000	-50.00000000	-100.00000000	-472.24242926	37.66905449	148.91568124
 7	0.00000000	-40.00000000	-100.00000000	-448.75260651	35.02180874	148.95147532
 8	0.00000000	-30.00000000	-100.00000000	-423.12735915	32.03763887	148.98723900
 9	0.00000000	-20.00000000	-100.00000000	-396.96719170	28.48764896	149.03491884
 10	0.00000000	-10.00000000	-100.00000000	-371.87580049	24.77174286	149.07066733
 11	0.00000000	0.00000000	-100.00000000	-346.25052273	20.29499028	149.11831677
 12	0.00000000	10.00000000	-100.00000000	-320.62424183	14.80009943	149.15403485
 13	0.00000000	20.00000000	-100.00000000	-294.99896407	7.74510208	149.18975294
 14	0.00000000	30.00000000	-100.00000000	-269.37268317	-0.30691001	149.23734158
 15	0.00000000	40.00000000	-100.00000000	-243.21354926	-8.65714481	149.27304447
 16	0.00000000	50.00000000	-100.00000000	-212.24969476	-18.20026908	149.32060272
 17	0.00000000	60.00000000	-100.00000000	-175.41234344	-29.83153615	149.38003153
 18	0.00000000	70.00000000	-100.00000000	-132.16868788	-43.25155534	149.45130050
 19	0.00000000	80.00000000	-100.00000000	-83.05361018	-58.75913501	149.52253908
 20	0.00000000	90.00000000	-100.00000000	-26.46345388	-76.35485083	149.61744279
 21	0.00000000	100.00000000	-100.00000000	27.98104685	-96.33577466	149.71225530
 22	10.00000000	-100.00000000	-100.00000000	-692.73055315	59.16659854	176.49770200
 23	10.00000000	-90.00000000	-100.00000000	-686.85813546	58.78867462	176.50729269
 24	10.00000000	-80.00000000	-100.00000000	-661.23182416	57.05296956	176.53603435
 25	10.00000000	-70.00000000	-100.00000000	-635.60654640	55.25579900	176.57435149
 26	10.00000000	-60.00000000	-100.00000000	-609.98029590	53.39072607	176.60309315
 27	10.00000000	-50.00000000	-100.00000000	-584.35501814	51.45060718	176.63181961
 28	10.00000000	-40.00000000	-100.00000000	-558.72974038	49.50305209	176.67010635
 29	10.00000000	-30.00000000	-100.00000000	-533.10342908	47.38793738	176.69881761
 30	10.00000000	-20.00000000	-100.00000000	-507.47818172	45.16557723	176.72752887
 31	10.00000000	-10.00000000	-100.00000000	-481.85293436	42.81960972	176.76581562
 32	10.00000000	0.00000000	-100.00000000	-454.62505460	40.23447163	176.79449648
 33	10.00000000	10.00000000	-100.00000000	-421.52576029	36.73827164	176.84231311
 34	10.00000000	20.00000000	-100.00000000	-383.08684051	32.27680184	176.89009935
 35	10.00000000	30.00000000	-100.00000000	-338.24158609	26.11274790	176.94743067
 36	10.00000000	40.00000000	-100.00000000	-286.45720482	16.78558979	177.01427668
 37	10.00000000	50.00000000	-100.00000000	-227.73162961	-0.30691001	177.08109230
 38	10.00000000	60.00000000	-100.00000000	-160.99813610	-21.18249726	177.16695249
 39	10.00000000	70.00000000	-100.00000000	-85.72290614	-44.44444813	177.26229697
 40	10.00000000	80.00000000	-100.00000000	-2.43977427	-70.68862528	177.36709535
 41	10.00000000	90.00000000	-100.00000000	46.14210203	-99.61622223	177.48131722
 42	10.00000000	100.00000000	-100.00000000	68.45693663	-131.52662873	177.61446208
 43	20.00000000	-100.00000000	-100.00000000	-904.67594504	77.54648969	204.91794258
 44	20.00000000	-90.00000000	-100.00000000	-879.04963374	76.29626557	204.94160771
 45	20.00000000	-80.00000000	-100.00000000	-853.42441678	75.02123639	204.97316122
 46	20.00000000	-70.00000000	-100.00000000	-827.79913902	73.76888439	204.99681115
 47	20.00000000	-60.00000000	-100.00000000	-802.17282772	72.44133443	205.02834946
 48	20.00000000	-50.00000000	-100.00000000	-776.54754996	71.08461723	205.05199939
 49	20.00000000	-40.00000000	-100.00000000	-747.71810174	69.54063848	205.08352250
 50	20.00000000	-30.00000000	-100.00000000	-713.01726937	67.63358921	205.11504561
 51	20.00000000	-20.00000000	-100.00000000	-672.97672033	65.27069360	205.16229987
 52	20.00000000	-10.00000000	-100.00000000	-625.99707484	62.45178446	205.20955414
 53	20.00000000	0.00000000	-100.00000000	-572.07626581	58.97798046	205.26466638
 54	20.00000000	10.00000000	-100.00000000	-510.14749289	54.77894738	205.32762140
 55	20.00000000	20.00000000	-100.00000000	-441.27855957	49.57950778	205.39841920
 56	20.00000000	30.00000000	-100.00000000	-363.33404124	42.81960972	205.48490256
 57	20.00000000	40.00000000	-100.00000000	-277.38161981	33.79115358	205.57135552
 58	20.00000000	50.00000000	-100.00000000	-181.28480673	19.37164363	205.67344844
 59	20.00000000	60.00000000	-100.00000000	-75.57957083	-10.74470339	205.78332335
 60	20.00000000	70.00000000	-100.00000000	28.94335091	-46.83022611	205.90096503
 61	20.00000000	80.00000000	-100.00000000	63.60142417	-86.49442434	206.03418589
 62	20.00000000	90.00000000	-100.00000000	85.72250336	-129.43906635	206.17511272
 63	20.00000000	100.00000000	-100.00000000	103.83372992	-176.26060992	206.33154273
 64	30.00000000	-100.00000000	-100.00000000	-1218.58950377	101.76048517	233.89944345
 65	30.00000000	-90.00000000	-100.00000000	-1192.43036985	100.86395368	233.91933918
 66	30.00000000	-80.00000000	-100.00000000	-1162.00038671	99.78863418	233.94584656
 67	30.00000000	-70.00000000	-100.00000000	-1125.69695234	98.49292651	233.97898078
 68	30.00000000	-60.00000000	-100.00000000	-1082.98712254	96.93100512	234.01209980
 69	30.00000000	-50.00000000	-100.00000000	-1034.40590858	95.12268975	234.05847251
 70	30.00000000	-40.00000000	-100.00000000	-978.34961414	92.97703609	234.10483003
 71	30.00000000	-30.00000000	-100.00000000	-914.28541660	90.50304204	234.16441083
 72	30.00000000	-20.00000000	-100.00000000	-842.21331596	87.54871577	234.22397643
 73	30.00000000	-10.00000000	-100.00000000	-762.13337302	84.13671926	234.29673493
 74	30.00000000	0.00000000	-100.00000000	-672.97672033	80.15435055	234.37608987
 75	30.00000000	10.00000000	-100.00000000	-574.21169043	75.40164918	234.46201086
 76	30.00000000	20.00000000	-100.00000000	-465.30223846	69.80071932	234.55448270
 77	30.00000000	30.00000000	-100.00000000	-346.25052273	62.92202063	234.66013223
 78	30.00000000	40.00000000	-100.00000000	-215.98671824	54.29755881	234.77228701
 79	30.00000000	50.00000000	-100.00000000	-74.51185092	42.64040373	234.89758909
 80	30.00000000	60.00000000	-100.00000000	42.75798462	24.31003533	235.02936602
 81	30.00000000	70.00000000	-100.00000000	76.95926920	-21.18249726	235.17421424
 82	30.00000000	80.00000000	-100.00000000	100.36015391	-76.95129722	235.32552212
 83	30.00000000	90.00000000	-100.00000000	119.62609291	-136.59640789	235.49640656
 84	30.00000000	100.00000000	-100.00000000	136.69257313	-201.01366729	235.67368984
 85	40.00000000	-100.00000000	-100.00000000	-1640.34583569	129.22516823	263.38961542
 86	40.00000000	-90.00000000	-100.00000000	-1589.09430742	127.91764319	263.42925489
 87	40.00000000	-80.00000000	-100.00000000	-1530.90258837	126.36630803	263.47454846
 88	40.00000000	-70.00000000	-100.00000000	-1464.70296621	124.61117461	263.52549613
 89	40.00000000	-60.00000000	-100.00000000	-1390.49544096	122.58883953	263.57641339
 90	40.00000000	-50.00000000	-100.00000000	-1307.21230030	120.28259888	263.63863885
 91	40.00000000	-40.00000000	-100.00000000	-1214.85244989	117.67162979	263.71217251
 92	40.00000000	-30.00000000	-100.00000000	-1113.41820002	114.67337787	263.78567576
 93	40.00000000	-20.00000000	-100.00000000	-1001.30555034	111.27883002	263.87045681
 94	40.00000000	-10.00000000	-100.00000000	-878.51577759	107.41124555	263.96083117
 95	40.00000000	0.00000000	-100.00000000	-745.04882097	102.97341049	264.06245291
 96	40.00000000	10.00000000	-100.00000000	-599.83696818	97.87181944	264.16966796
 97	40.00000000	20.00000000	-100.00000000	-442.88015842	91.93729028	264.28810000
 98	40.00000000	30.00000000	-100.00000000	-273.64459634	85.00516266	264.41209495
 99	40.00000000	40.00000000	-100.00000000	-91.06149808	76.66922316	264.54727650
 100	40.00000000	50.00000000	-100.00000000	50.09728320	66.27166629	264.69364464
 101	40.00000000	60.00000000	-100.00000000	87.16461718	52.60984898	264.85110819
 102	40.00000000	70.00000000	-100.00000000	112.54716396	31.18654154	265.01410425
 103	40.00000000	80.00000000	-100.00000000	133.49847972	-29.23509166	265.19378901
 104	40.00000000	90.00000000	-100.00000000	151.90961659	-108.56348053	265.38450837
 105	40.00000000	100.00000000	-100.00000000	168.80005985	-193.25987935	265.58066905
 106	50.00000000	-100.00000000	-100.00000000	-2111.21632576	157.42578059	293.44089568
 107	50.00000000	-90.00000000	-100.00000000	-2025.26384354	155.69813490	293.49485278
 108	50.00000000	-80.00000000	-100.00000000	-1930.23574591	153.76884162	293.55856776
 109	50.00000000	-70.00000000	-100.00000000	-1825.06334782	151.58809304	293.62228274
 110	50.00000000	-60.00000000	-100.00000000	-1710.28251171	149.14189070	293.70068014
 111	50.00000000	-50.00000000	-100.00000000	-1584.28954124	146.41339391	293.77904713
 112	50.00000000	-40.00000000	-100.00000000	-1447.08553076	143.38225096	293.86717200
 113	50.00000000	-30.00000000	-100.00000000	-1298.67060184	139.97953355	293.96502435
 114	50.00000000	-20.00000000	-100.00000000	-1137.44178772	136.19329512	294.06774044
 115	50.00000000	-10.00000000	-100.00000000	-963.93537641	131.93468124	294.18018401
 116	50.00000000	0.00000000	-100.00000000	-777.08140612	127.17000291	294.30235505
 117	50.00000000	10.00000000	-100.00000000	-576.88097119	121.77335769	294.42932904
 118	50.00000000	20.00000000	-100.00000000	-362.26632893	115.63661098	294.57086384
 119	50.00000000	30.00000000	-100.00000000	-133.23640019	108.60774815	294.71717119
 120	50.00000000	40.00000000	-100.00000000	51.29836455	100.46236843	294.87314522
 121	50.00000000	50.00000000	-100.00000000	94.10962611	90.76931655	295.03875554
 122	50.00000000	60.00000000	-100.00000000	122.34370708	78.90817702	295.21883547
 123	50.00000000	70.00000000	-100.00000000	145.29648185	63.38814922	295.40362716
 124	50.00000000	80.00000000	-100.00000000	165.38738698	39.85087462	295.60279727
 125	50.00000000	90.00000000	-100.00000000	183.63545179	-32.51553923	295.81151247
 126	50.00000000	100.00000000	-100.00000000	200.63464522	-139.87686306	296.03460610
 127	60.00000000	-100.00000000	-100.00000000	-2616.25579834	186.24864757	324.00253415
 128	60.00000000	-90.00000000	-100.00000000	-2487.05956936	184.14778590	324.07552063
 129	60.00000000	-80.00000000	-100.00000000	-2346.11862659	181.84137046	324.15282369
 130	60.00000000	-70.00000000	-100.00000000	-2193.43272686	179.28694993	324.24292445
 131	60.00000000	-60.00000000	-100.00000000	-2029.00077581	176.48721457	324.33302522
 132	60.00000000	-50.00000000	-100.00000000	-1851.22345448	173.39326859	324.43592370
 133	60.00000000	-40.00000000	-100.00000000	-1660.63249111	169.98466909	324.54307795
 134	60.00000000	-30.00000000	-100.00000000	-1455.62735081	166.21894956	324.65874374
 135	60.00000000	-20.00000000	-100.00000000	-1237.27562428	162.08299309	324.78292108
 136	60.00000000	-10.00000000	-100.00000000	-1003.44097495	157.52104908	324.91560996
 137	60.00000000	0.00000000	-100.00000000	-754.65932608	152.44535744	325.05674958
 138	60.00000000	10.00000000	-100.00000000	-490.39469361	146.83096111	325.20637035
 139	60.00000000	20.00000000	-100.00000000	-210.11425495	140.53191751	325.36447227
 140	60.00000000	30.00000000	-100.00000000	45.24589732	133.45187902	325.53096414
 141	60.00000000	40.00000000	-100.00000000	97.91842014	125.40353850	325.71013212
 142	60.00000000	50.00000000	-100.00000000	129.81247991	116.11448854	325.89346468
 143	60.00000000	60.00000000	-100.00000000	155.18611997	105.22120267	326.09366834
 144	60.00000000	70.00000000	-100.00000000	177.13976115	91.97467268	326.29794538
 145	60.00000000	80.00000000	-100.00000000	196.95366114	74.97352615	326.51483774
 146	60.00000000	90.00000000	-100.00000000	215.27402848	49.80810732	326.74425423
 147	60.00000000	100.00000000	-100.00000000	232.52630353	-28.63864526	326.98619485
 148	70.00000000	-100.00000000	-100.00000000	-3143.18331242	215.60977846	355.07146060
 149	70.00000000	-90.00000000	-100.00000000	-2961.66808605	213.17337960	355.16259491
 150	70.00000000	-80.00000000	-100.00000000	-2766.27223492	210.53007424	355.26126802
 151	70.00000000	-70.00000000	-100.00000000	-2557.53004074	207.64306515	355.36751032
 152	70.00000000	-60.00000000	-100.00000000	-2334.37366962	204.49900746	355.47746122
 153	70.00000000	-50.00000000	-100.00000000	-2095.73431492	201.08232200	355.59878111
 154	70.00000000	-40.00000000	-100.00000000	-1842.14686632	197.34637767	355.72380960
 155	70.00000000	-30.00000000	-100.00000000	-1573.07850122	193.28200936	355.86014628
 156	70.00000000	-20.00000000	-100.00000000	-1287.45846748	188.84714574	356.00396097
 157	70.00000000	-10.00000000	-100.00000000	-985.28980494	183.99207026	356.15151465
 158	70.00000000	0.00000000	-100.00000000	-665.50273418	178.68950039	356.31408513
 159	70.00000000	10.00000000	-100.00000000	-328.09825838	172.85374314	356.48033381
 160	70.00000000	20.00000000	-100.00000000	22.62180492	166.39655203	356.65779948
 161	70.00000000	30.00000000	-100.00000000	97.91842014	159.24209833	356.84645176
 162	70.00000000	40.00000000	-100.00000000	134.75435793	151.26754224	357.04255164
 163	70.00000000	50.00000000	-100.00000000	163.06078702	142.23784357	357.24600792
 164	70.00000000	60.00000000	-100.00000000	187.19724387	131.91080332	357.46059000
 165	70.00000000	70.00000000	-100.00000000	208.73929113	119.87928092	357.68629789
 166	70.00000000	80.00000000	-100.00000000	228.52066487	105.41118488	357.92307079
 167	70.00000000	90.00000000	-100.00000000	247.04556763	87.03112274	358.17090869
 168	70.00000000	100.00000000	-100.00000000	264.60190237	60.77357791	358.42601180
 169	80.00000000	-100.00000000	-100.00000000	-3680.78722000	245.50552547	386.61472321
 170	80.00000000	-90.00000000	-100.00000000	-3437.87798882	242.77584314	386.72303259
 171	80.00000000	-80.00000000	-100.00000000	-3179.48577404	239.82896447	386.83806002
 172	80.00000000	-70.00000000	-100.00000000	-2905.07775307	236.63190722	386.95983589
 173	80.00000000	-60.00000000	-100.00000000	-2614.65416908	233.19411010	387.09167361
 174	80.00000000	-50.00000000	-100.00000000	-2306.61193371	229.47821349	387.22685516
 175	80.00000000	-40.00000000	-100.00000000	-1982.02119112	225.45451820	387.37206817
 176	80.00000000	-30.00000000	-100.00000000	-1638.74323368	221.11352473	387.52734303
 177	80.00000000	-20.00000000	-100.00000000	-1277.31513977	216.41813189	387.68593132
 178	80.00000000	-10.00000000	-100.00000000	-897.20189810	211.32503718	387.85789490
 179	80.00000000	0.00000000	-100.00000000	-497.86871016	205.78303456	388.03314149
 180	80.00000000	10.00000000	-100.00000000	-78.78273055	199.77253228	388.22173297
 181	80.00000000	20.00000000	-100.00000000	92.99570829	193.17970365	388.41692090
 182	80.00000000	30.00000000	-100.00000000	136.73351973	185.95700562	388.62207949
 183	80.00000000	40.00000000	-100.00000000	168.70647848	177.99187303	388.83377373
 184	80.00000000	50.00000000	-100.00000000	195.33722788	169.15334970	389.05878246
 185	80.00000000	60.00000000	-100.00000000	218.84629279	159.22331214	389.29032683
 186	80.00000000	70.00000000	-100.00000000	240.27541012	147.93030292	389.53506410
 187	80.00000000	80.00000000	-100.00000000	260.17848372	134.85462695	389.78630662
 188	80.00000000	90.00000000	-100.00000000	278.96665156	119.25761908	390.05071163
 189	80.00000000	100.00000000	-100.00000000	296.87177718	99.72095981	390.32156110
 190	90.00000000	-100.00000000	-100.00000000	-3703.21051598	274.85274911	391.84157073
 191	90.00000000	-90.00000000	-100.00000000	-3390.36339283	271.81877911	391.97787702
 192	90.00000000	-80.00000000	-100.00000000	-3059.36528206	268.56867671	392.12403238
 193	90.00000000	-70.00000000	-100.00000000	-2710.74997902	265.08237898	392.27678418
 194	90.00000000	-60.00000000	-100.00000000	-2343.98320198	261.33775592	392.43941545
 195	90.00000000	-50.00000000	-100.00000000	-1957.46259212	257.33006537	392.60858238
 196	90.00000000	-40.00000000	-100.00000000	-1552.25695610	253.02269250	392.78425455
 197	90.00000000	-30.00000000	-100.00000000	-1126.76466465	248.40580344	392.96977580
 198	90.00000000	-20.00000000	-100.00000000	-680.98462343	243.43510777	393.16511571
 199	90.00000000	-10.00000000	-100.00000000	-214.38513458	238.08204621	393.37021351
 200	90.00000000	0.00000000	-100.00000000	81.36536837	232.31264859	393.58181655
 201	90.00000000	10.00000000	-100.00000000	133.87680262	226.07420415	393.80646050
 202	90.00000000	20.00000000	-100.00000000	169.51539427	219.31564361	394.03751850
 203	90.00000000	30.00000000	-100.00000000	198.47721219	211.96077347	394.27830398
 204	90.00000000	40.00000000	-100.00000000	223.73074830	203.91431004	394.53203917
 205	90.00000000	50.00000000	-100.00000000	246.53350711	195.08279353	394.79215801
 206	90.00000000	60.00000000	-100.00000000	267.60495722	185.29473156	395.06519616
 207	90.00000000	70.00000000	-100.00000000	287.40143895	174.34899330	395.34784019
 208	90.00000000	80.00000000	-100.00000000	306.18240237	161.95440799	395.64002931
 209	90.00000000	90.00000000	-100.00000000	324.18212771	147.64094085	395.94507694
 210	90.00000000	100.00000000	-100.00000000	341.52226925	130.63720286	396.25960886
 211	100.00000000	-100.00000000	-100.00000000	-3489.12963867	304.55672801	389.05543864
 212	100.00000000	-90.00000000	-100.00000000	-3097.27034569	301.25017583	389.22995567
 213	100.00000000	-80.00000000	-100.00000000	-2685.65843582	297.71283925	389.41103876
 214	100.00000000	-70.00000000	-100.00000000	-2253.75889778	293.95894468	389.60209250
 215	100.00000000	-60.00000000	-100.00000000	-1801.57355547	289.94332016	389.80305612
 216	100.00000000	-50.00000000	-100.00000000	-1328.56666803	285.66022038	390.01389921
 217	100.00000000	-40.00000000	-100.00000000	-833.13770056	281.09371662	390.23130834
 218	100.00000000	-30.00000000	-100.00000000	-316.35336220	276.21638954	390.45853615
 219	100.00000000	-20.00000000	-100.00000000	73.55689377	270.99711120	390.69564342
 220	100.00000000	-10.00000000	-100.00000000	133.96070212	265.40967822	390.94585240
 221	100.00000000	0.00000000	-100.00000000	172.64177531	259.42354023	391.20253623
 222	100.00000000	10.00000000	-100.00000000	203.57073247	252.99194455	391.47232175
 223	100.00000000	20.00000000	-100.00000000	230.27534992	246.05944455	391.74849093
 224	100.00000000	30.00000000	-100.00000000	254.25419122	238.57022882	392.03767061
 225	100.00000000	40.00000000	-100.00000000	276.32320940	230.45520186	392.33986080
 226	100.00000000	50.00000000	-100.00000000	296.99039161	221.60275608	392.64834344
 227	100.00000000	60.00000000	-100.00000000	316.56192541	211.90895945	392.97308922
 228	100.00000000	70.00000000	-100.00000000	335.26315391	201.22099936	393.30406666
 229	100.00000000	80.00000000	-100.00000000	353.25783312	189.28322554	393.65121603
 230	100.00000000	90.00000000	-100.00000000	370.67977667	175.79477012	394.00781929
 231	100.00000000	100.00000000	-100.00000000	387.60111988	160.27082473	394.37718987
 232	0.00000000	-100.00000000	-90.00000000	-396.96719170	35.89036994	133.07010591
 233	0.00000000	-90.00000000	-90.00000000	-396.96719170	35.89036994	133.07010591
 234	0.00000000	-80.00000000	-90.00000000	-396.96719170	35.89036994	133.07010591
 235	0.00000000	-70.00000000	-90.00000000	-396.96719170	35.89036994	133.07010591
 236	0.00000000	-60.00000000	-90.00000000	-396.96719170	35.89036994	133.07010591
 237	0.00000000	-50.00000000	-90.00000000	-396.96719170	35.89036994	133.07010591
 238	0.00000000	-40.00000000	-90.00000000	-373.47736895	33.10079142	133.11140209
 239	0.00000000	-30.00000000	-90.00000000	-347.85212159	29.93028335	133.15268308
 240	0.00000000	-20.00000000	-90.00000000	-321.69195414	26.11274790	133.20768893
 241	0.00000000	-10.00000000	-90.00000000	-296.60056293	22.04420172	133.24892431
 242	0.00000000	0.00000000	-90.00000000	-270.97425163	16.99533474	133.30388457
 243	0.00000000	10.00000000	-90.00000000	-245.34898907	10.40807661	133.34508955
 244	0.00000000	20.00000000	-90.00000000	-219.72374171	2.67531651	133.38626415
 245	0.00000000	30.00000000	-90.00000000	-194.09743041	-5.37669534	133.44116360
 246	0.00000000	40.00000000	-90.00000000	-167.93831170	-13.72692967	133.48230779
 247	0.00000000	50.00000000	-90.00000000	-136.97445720	-23.27005584	133.53714645
 248	0.00000000	60.00000000	-90.00000000	-100.13711348	-34.90132101	133.60564917
 249	0.00000000	70.00000000	-90.00000000	-56.89344652	-48.32134210	133.68780077
 250	0.00000000	80.00000000	-90.00000000	-7.77836977	-63.82892177	133.76989156
 251	0.00000000	90.00000000	-90.00000000	32.52152771	-81.42463759	133.87924969
 252	0.00000000	100.00000000	-90.00000000	52.08221309	-101.40556142	133.98848623
 253	10.00000000	-100.00000000	-90.00000000	-595.03220201	57.70268530	160.05697221
 254	10.00000000	-90.00000000	-90.00000000	-589.15972352	57.31385216	160.06785482
 255	10.00000000	-80.00000000	-90.00000000	-563.53450656	55.52615829	160.10047227
 256	10.00000000	-70.00000000	-90.00000000	-537.90819526	53.67156520	160.14394194
 257	10.00000000	-60.00000000	-90.00000000	-512.28291750	51.74310409	160.17654419
 258	10.00000000	-50.00000000	-90.00000000	-486.65767014	49.73203540	160.20913124
 259	10.00000000	-40.00000000	-90.00000000	-461.03135884	47.70771302	160.25257051
 260	10.00000000	-30.00000000	-90.00000000	-435.40611148	45.50217077	160.28514236
 261	10.00000000	-20.00000000	-90.00000000	-409.78086412	43.17566581	160.31769902
 262	10.00000000	-10.00000000	-90.00000000	-384.15455282	40.70868999	160.36110789
 263	10.00000000	0.00000000	-90.00000000	-356.92770660	37.97415532	160.39364934
 264	10.00000000	10.00000000	-90.00000000	-323.82737875	34.24375489	160.44786483
 265	10.00000000	20.00000000	-90.00000000	-285.38949251	29.41344079	160.50204992
 266	10.00000000	30.00000000	-90.00000000	-240.54425329	22.54636187	160.56704164
 267	10.00000000	40.00000000	-90.00000000	-188.75883847	11.26240851	160.64283997
 268	10.00000000	50.00000000	-90.00000000	-130.03324807	-7.16603120	160.71857750
 269	10.00000000	60.00000000	-90.00000000	-63.29976216	-28.04220077	160.81589788
 270	10.00000000	70.00000000	-90.00000000	11.95533268	-51.30356647	160.92394888
 271	10.00000000	80.00000000	-90.00000000	47.45238572	-77.54774362	161.04268491
 272	10.00000000	90.00000000	-90.00000000	67.59527966	-106.47592574	161.17207557
 273	10.00000000	100.00000000	-90.00000000	83.80295277	-138.38574708	161.32288188
 274	20.00000000	-100.00000000	-90.00000000	-781.35231614	76.24949768	187.96238601
 275	20.00000000	-90.00000000	-90.00000000	-755.72703838	74.97352615	187.98886299
 276	20.00000000	-80.00000000	-90.00000000	-730.10072708	73.67151082	188.02418590
 277	20.00000000	-70.00000000	-90.00000000	-704.47551012	72.39161789	188.05066288
 278	20.00000000	-60.00000000	-90.00000000	-678.84919882	71.03378356	188.08595538
 279	20.00000000	-50.00000000	-90.00000000	-653.22392106	69.64480609	188.11243236
 280	20.00000000	-40.00000000	-90.00000000	-624.39550638	68.06274578	188.14770967
 281	20.00000000	-30.00000000	-90.00000000	-589.69357967	66.10604838	188.18298697
 282	20.00000000	-20.00000000	-90.00000000	-549.65412498	63.67749989	188.23588014
 283	20.00000000	-10.00000000	-90.00000000	-502.67344594	60.77357791	188.28875810
 284	20.00000000	0.00000000	-90.00000000	-448.75260651	57.18357995	188.35043639
 285	20.00000000	10.00000000	-90.00000000	-386.82386398	52.82408148	188.42086941
 286	20.00000000	20.00000000	-90.00000000	-317.95493066	47.38793738	188.50010276
 287	20.00000000	30.00000000	-90.00000000	-240.01039714	40.23447163	188.58804524
 288	20.00000000	40.00000000	-90.00000000	-154.05797571	30.43875307	188.69352758
