bench/lcms_compat/reference/lab_to_USSheetfedCoated.icc_Absolute.it8
CGATS.17
ORIGINATOR	"icctrans"
#
# Data follows
#
NUMBER_OF_SETS	4851.00000000
NUMBER_OF_FIELDS	8.00000000
BEGIN_DATA_FORMAT
 SAMPLE_ID	IN_LAB_L	IN_LAB_A	IN_LAB_B	OUT_CMYK_C	OUT_CMYK_M	OUT_CMYK_Y	OUT_CMYK_K
END_DATA_FORMAT
BEGIN_DATA
 1	0.00000000	-100.00000000	-100.00000000	100.00000000	91.18638635	33.57747793	9.41023901
 2	0.00000000	-90.00000000	-100.00000000	100.00000000	91.18638635	33.57747793	9.41023901
 3	0.00000000	-80.00000000	-100.00000000	100.00000000	91.18638635	33.57747793	9.41023901
 4	0.00000000	-70.00000000	-100.00000000	100.00000000	91.18638635	33.57747793	9.41023901
 5	0.00000000	-60.00000000	-100.00000000	100.00000000	91.18638635	33.57747793	9.41023901
 6	0.00000000	-50.00000000	-100.00000000	100.00000000	91.18638635	33.57747793	9.41023901
 7	0.00000000	-40.00000000	-100.00000000	100.00000000	91.18638635	33.57747793	9.41023901
 8	0.00000000	-30.00000000	-100.00000000	100.00000000	91.18638635	33.57747793	9.41023901
 9	0.00000000	-20.00000000	-100.00000000	100.00000000	91.18638635	33.57747793	9.41023901
 10	0.00000000	-10.00000000	-100.00000000	100.00000000	91.18638635	33.57747793	9.41023901
 11	0.00000000	0.00000000	-100.00000000	100.00000000	91.18638635	33.57747793	9.41023901
 12	0.00000000	10.00000000	-100.00000000	100.00000000	91.78454280	34.19394195	9.25307125
 13	0.00000000	20.00000000	-100.00000000	100.00000000	92.36285686	34.55558121	8.80445540
 14	0.00000000	30.00000000	-100.00000000	100.00000000	92.75501370	35.09117365	8.51911157
 15	0.00000000	40.00000000	-100.00000000	100.00000000	93.17769408	35.73357761	8.09948891
 16	0.00000000	50.00000000	-100.00000000	100.00000000	94.00473237	35.82818210	7.58525953
 17	0.00000000	60.00000000	-100.00000000	100.00000000	94.65018511	35.56115031	6.95048422
 18	0.00000000	70.00000000	-100.00000000	100.00000000	95.71831822	34.45334435	6.44083321
 19	0.00000000	80.00000000	-100.00000000	100.00000000	96.65979743	32.83894062	6.21042177
 20	0.00000000	90.00000000	-100.00000000	100.00000000	98.61295223	29.28206325	6.61478564
 21	0.00000000	100.00000000	-100.00000000	100.00000000	100.00000000	26.75822079	7.40825534
 22	10.00000000	-100.00000000	-100.00000000	100.00000000	74.41977859	15.13694972	5.16060106
 23	10.00000000	-90.00000000	-100.00000000	100.00000000	74.41977859	15.13694972	5.16060106
 24	10.00000000	-80.00000000	-100.00000000	100.00000000	74.41977859	15.13694972	5.16060106
 25	10.00000000	-70.00000000	-100.00000000	100.00000000	74.41977859	15.13694972	5.16060106
 26	10.00000000	-60.00000000	-100.00000000	100.00000000	74.41977859	15.13694972	5.16060106
 27	10.00000000	-50.00000000	-100.00000000	100.00000000	74.41977859	15.13694972	5.16060106
 28	10.00000000	-40.00000000	-100.00000000	100.00000000	74.74326491	15.13694972	5.16060106
 29	10.00000000	-30.00000000	-100.00000000	100.00000000	75.36278367	15.13694972	5.01564033
 30	10.00000000	-20.00000000	-100.00000000	100.00000000	75.97314119	15.04539549	4.90577556
 31	10.00000000	-10.00000000	-100.00000000	100.00000000	76.46753788	14.92332369	4.76844423
 32	10.00000000	0.00000000	-100.00000000	100.00000000	77.07331777	14.89433199	4.51361872
 33	10.00000000	10.00000000	-100.00000000	100.00000000	78.03463936	14.90806490	4.51361872
 34	10.00000000	20.00000000	-100.00000000	100.00000000	78.68924737	15.15831202	4.29541469
 35	10.00000000	30.00000000	-100.00000000	100.00000000	79.92218137	15.08201659	4.00549322
 36	10.00000000	40.00000000	-100.00000000	100.00000000	81.28175735	14.85313177	3.79186682
 37	10.00000000	50.00000000	-100.00000000	100.00000000	82.64591694	14.74784464	3.41039151
 38	10.00000000	60.00000000	-100.00000000	100.00000000	84.13214087	14.45639729	3.08995191
 39	10.00000000	70.00000000	-100.00000000	100.00000000	85.87472439	14.09628391	2.50095371
 40	10.00000000	80.00000000	-100.00000000	100.00000000	90.02212286	8.76173005	1.13984896
 41	10.00000000	90.00000000	-100.00000000	100.00000000	94.18478608	2.10574511	0.32654307
 42	10.00000000	100.00000000	-100.00000000	94.89738345	99.05241728	0.00000000	0.03814755
 43	20.00000000	-100.00000000	-100.00000000	100.00000000	52.90150046	7.13359267	2.17593648
 44	20.00000000	-90.00000000	-100.00000000	100.00000000	53.00831795	7.11528212	2.17593648
 45	20.00000000	-80.00000000	-100.00000000	100.00000000	53.27229500	7.05577210	2.17593648
 46	20.00000000	-70.00000000	-100.00000000	100.00000000	53.95284891	6.92454427	2.17593648
 47	20.00000000	-60.00000000	-100.00000000	100.00000000	54.41824794	6.68802932	2.17593648
 48	20.00000000	-50.00000000	-100.00000000	100.00000000	54.80124950	6.43472970	2.16067750
 49	20.00000000	-40.00000000	-100.00000000	100.00000000	55.40856123	6.20279238	2.05844212
 50	20.00000000	-30.00000000	-100.00000000	100.00000000	56.10284805	5.76638430	2.05844212
 51	20.00000000	-20.00000000	-100.00000000	100.00000000	56.71930909	5.71145192	2.01266501
 52	20.00000000	-10.00000000	-100.00000000	100.00000000	57.84084797	5.34218363	1.78377964
 53	20.00000000	0.00000000	-100.00000000	100.00000000	58.68009329	5.14991991	1.78377964
 54	20.00000000	10.00000000	-100.00000000	100.00000000	59.92522836	4.77759987	1.78377964
 55	20.00000000	20.00000000	-100.00000000	100.00000000	61.64797544	4.22674902	1.45418476
 56	20.00000000	30.00000000	-100.00000000	100.00000000	63.53704333	3.44701298	1.19935917
 57	20.00000000	40.00000000	-100.00000000	100.00000000	66.74601436	1.25581753	0.48218509
 58	20.00000000	50.00000000	-100.00000000	100.00000000	70.41428089	0.00000000	0.00000000
 59	20.00000000	60.00000000	-100.00000000	100.00000000	74.34500456	0.00000000	0.00000000
 60	20.00000000	70.00000000	-100.00000000	95.35973072	78.64194512	0.00000000	0.00000000
 61	20.00000000	80.00000000	-100.00000000	90.95750451	82.89921284	0.00000000	0.00000000
 62	20.00000000	90.00000000	-100.00000000	86.66056395	87.06340194	0.00000000	0.00000000
 63	20.00000000	100.00000000	-100.00000000	81.73189759	90.95292687	0.00000000	0.00000000
 64	30.00000000	-100.00000000	-100.00000000	100.00000000	30.81406951	11.14213765	1.67238880
 65	30.00000000	-90.00000000	-100.00000000	100.00000000	31.07347190	11.00785807	1.67238880
 66	30.00000000	-80.00000000	-100.00000000	100.00000000	31.38170540	10.85831970	1.67238880
 67	30.00000000	-70.00000000	-100.00000000	100.00000000	32.09582567	10.67368612	1.67238880
 68	30.00000000	-60.00000000	-100.00000000	100.00000000	32.52308071	10.48752591	1.67238880
 69	30.00000000	-50.00000000	-100.00000000	100.00000000	33.31044614	9.95193422	1.65102612
 70	30.00000000	-40.00000000	-100.00000000	100.00000000	34.57541764	8.97383094	1.52590219
 71	30.00000000	-30.00000000	-100.00000000	100.00000000	36.10894978	8.14221427	1.52590219
 72	30.00000000	-20.00000000	-100.00000000	100.00000000	38.11245859	6.84367120	1.21919587
 73	30.00000000	-10.00000000	-100.00000000	100.00000000	40.56916237	5.13771251	0.96742203
 74	30.00000000	0.00000000	-100.00000000	100.00000000	43.75371933	2.38651112	0.63782712
 75	30.00000000	10.00000000	-100.00000000	100.00000000	47.44945467	0.00000000	0.30518044
 76	30.00000000	20.00000000	-100.00000000	100.00000000	51.83642507	0.00000000	0.05951019
 77	30.00000000	30.00000000	-100.00000000	100.00000000	56.50873780	0.00000000	0.00000000
 78	30.00000000	40.00000000	-100.00000000	100.00000000	61.53200865	0.00000000	0.00000000
 79	30.00000000	50.00000000	-100.00000000	94.64255571	66.04104638	0.00000000	0.00000000
 80	30.00000000	60.00000000	-100.00000000	90.07095695	71.07652426	0.00000000	0.00000000
 81	30.00000000	70.00000000	-100.00000000	85.64125896	75.92126131	0.00000000	0.00000000
 82	30.00000000	80.00000000	-100.00000000	82.00656176	79.93591428	0.00000000	0.00000000
 83	30.00000000	90.00000000	-100.00000000	77.98275948	83.80865455	0.00000000	0.00000000
 84	30.00000000	100.00000000	-100.00000000	73.11970592	87.51201630	0.00000000	0.00000000
 85	40.00000000	-100.00000000	-100.00000000	100.00000000	15.90447873	14.33890313	1.17799649
 86	40.00000000	-90.00000000	-100.00000000	100.00000000	16.56824648	13.35469633	0.97810328
 87	40.00000000	-80.00000000	-100.00000000	100.00000000	17.87899584	12.49866486	0.78583965
 88	40.00000000	-70.00000000	-100.00000000	100.00000000	19.42778677	10.98496988	0.78583965
 89	40.00000000	-60.00000000	-100.00000000	100.00000000	20.87434232	9.32478830	0.78583965
 90	40.00000000	-50.00000000	-100.00000000	100.00000000	22.90837020	7.67528787	0.74921800
 91	40.00000000	-40.00000000	-100.00000000	100.00000000	25.04005432	5.62905334	0.49286643
 92	40.00000000	-30.00000000	-100.00000000	100.00000000	27.57762969	3.40428762	0.39215689
 93	40.00000000	-20.00000000	-100.00000000	100.00000000	30.60349524	0.00152590	0.14496071
 94	40.00000000	-10.00000000	-100.00000000	100.00000000	34.01693702	0.00000000	0.00000000
 95	40.00000000	0.00000000	-100.00000000	100.00000000	38.04531991	0.00000000	0.00000000
 96	40.00000000	10.00000000	-100.00000000	100.00000000	42.70695150	0.00000000	0.00000000
 97	40.00000000	20.00000000	-100.00000000	99.81536865	47.70580530	0.00000000	0.00000000
 98	40.00000000	30.00000000	-100.00000000	93.79720688	52.97017097	0.00000000	0.00000000
 99	40.00000000	40.00000000	-100.00000000	88.84260058	58.16891789	0.00000000	0.00000000
 100	40.00000000	50.00000000	-100.00000000	84.35339928	63.41191530	0.00000000	0.00000000
 101	40.00000000	60.00000000	-100.00000000	80.71565032	68.20935607	0.00000000	0.00000000
 102	40.00000000	70.00000000	-100.00000000	77.50056982	72.71534204	0.00000000	0.00000000
 103	40.00000000	80.00000000	-100.00000000	74.19852018	76.56214237	0.00000000	0.00000000
 104	40.00000000	90.00000000	-100.00000000	70.41885853	80.18005490	0.00000000	0.00000000
 105	40.00000000	100.00000000	-100.00000000	65.80147743	83.70183706	0.00000000	0.00000000
 106	50.00000000	-100.00000000	-100.00000000	100.00000000	7.04509020	10.67063436	0.28381781
 107	50.00000000	-90.00000000	-100.00000000	100.00000000	8.04455653	9.30342600	0.19226368
 108	50.00000000	-80.00000000	-100.00000000	100.00000000	9.42702368	7.57915601	0.07324331
 109	50.00000000	-70.00000000	-100.00000000	100.00000000	11.04142815	5.49629964	0.00000000
 110	50.00000000	-60.00000000	-100.00000000	100.00000000	12.66804039	3.39665823	0.00000000
 111	50.00000000	-50.00000000	-100.00000000	100.00000000	14.46097493	0.71564815	0.00000000
 112	50.00000000	-40.00000000	-100.00000000	100.00000000	16.46143347	0.00000000	0.00000000
 113	50.00000000	-30.00000000	-100.00000000	100.00000000	19.06462163	0.00000000	0.00000000
 114	50.00000000	-20.00000000	-100.00000000	100.00000000	22.31326699	0.00000000	0.00000000
 115	50.00000000	-10.00000000	-100.00000000	100.00000000	27.06492841	0.00000000	0.00000000
 116	50.00000000	0.00000000	-100.00000000	100.00000000	32.83131123	0.00000000	0.00000000
 117	50.00000000	10.00000000	-100.00000000	94.20309663	38.49698603	0.00000000	0.00000000
 118	50.00000000	20.00000000	-100.00000000	88.12085390	44.10315156	0.00000000	0.00000000
 119	50.00000000	30.00000000	-100.00000000	83.39971304	50.10147095	0.00000000	0.00000000
 120	50.00000000	40.00000000	-100.00000000	79.24467921	55.42687178	0.00000000	0.00000000
 121	50.00000000	50.00000000	-100.00000000	76.06622577	60.12512445	0.00000000	0.00000000
 122	50.00000000	60.00000000	-100.00000000	72.98848033	65.14229178	0.00000000	0.00000000
 123	50.00000000	70.00000000	-100.00000000	70.53940892	69.13252473	0.00000000	0.00000000
 124	50.00000000	80.00000000	-100.00000000	67.51201749	72.76722193	0.00000000	0.00000000
 125	50.00000000	90.00000000	-100.00000000	63.86358142	76.21881366	0.00000000	0.00000000
 126	50.00000000	100.00000000	-100.00000000	59.75127816	79.50408459	0.00000000	0.00000000
 127	60.00000000	-100.00000000	-100.00000000	100.00000000	0.00000000	5.31624332	0.00000000
 128	60.00000000	-90.00000000	-100.00000000	100.00000000	0.00000000	3.82543691	0.00000000
 129	60.00000000	-80.00000000	-100.00000000	100.00000000	0.00000000	1.84481572	0.00000000
 130	60.00000000	-70.00000000	-100.00000000	100.00000000	0.00000000	0.00000000	0.00000000
 131	60.00000000	-60.00000000	-100.00000000	100.00000000	1.19783320	0.00000000	0.00000000
 132	60.00000000	-50.00000000	-100.00000000	100.00000000	2.86259260	0.00000000	0.00000000
 133	60.00000000	-40.00000000	-100.00000000	100.00000000	5.62294945	0.00000000	0.00000000
 134	60.00000000	-30.00000000	-100.00000000	100.00000000	10.43106765	0.00000000	0.00000000
 135	60.00000000	-20.00000000	-100.00000000	100.00000000	16.71168059	0.00000000	0.00000000
 136	60.00000000	-10.00000000	-100.00000000	95.73662877	23.24406803	0.00000000	0.00000000
 137	60.00000000	0.00000000	-100.00000000	88.46875429	28.95704508	0.00000000	0.00000000
 138	60.00000000	10.00000000	-100.00000000	82.08132982	34.42893028	0.00000000	0.00000000
 139	60.00000000	20.00000000	-100.00000000	76.17151141	38.81284893	0.00000000	0.00000000
 140	60.00000000	30.00000000	-100.00000000	70.52720189	43.18913519	0.00000000	0.00000000
 141	60.00000000	40.00000000	-100.00000000	65.56344032	46.74296081	0.00000000	0.00000000
 142	60.00000000	50.00000000	-100.00000000	61.63271666	49.98245239	0.00000000	0.00000000
 143	60.00000000	60.00000000	-100.00000000	58.32455754	52.95948982	0.00000000	0.00000000
 144	60.00000000	70.00000000	-100.00000000	56.09674454	56.16540909	0.00000000	0.00000000
 145	60.00000000	80.00000000	-100.00000000	53.92843485	59.89471078	0.00000000	0.00000000
 146	60.00000000	90.00000000	-100.00000000	51.71434879	64.15655613	0.00000000	0.00000000
 147	60.00000000	100.00000000	-100.00000000	49.79629219	69.63149309	0.00000000	0.00000000
 148	70.00000000	-100.00000000	-100.00000000	100.00000000	0.00000000	0.00000000	0.00000000
 149	70.00000000	-90.00000000	-100.00000000	100.00000000	0.00000000	0.00000000	0.00000000
 150	70.00000000	-80.00000000	-100.00000000	100.00000000	0.00000000	0.00000000	0.00000000
 151	70.00000000	-70.00000000	-100.00000000	100.00000000	0.00000000	0.00000000	0.00000000
 152	70.00000000	-60.00000000	-100.00000000	100.00000000	0.00000000	0.00000000	0.00000000
 153	70.00000000	-50.00000000	-100.00000000	100.00000000	0.00000000	0.00000000	0.00000000
 154	70.00000000	-40.00000000	-100.00000000	100.00000000	0.00000000	0.00000000	0.00000000
 155	70.00000000	-30.00000000	-100.00000000	96.11352682	4.38696891	0.00000000	0.00000000
 156	70.00000000	-20.00000000	-100.00000000	85.86099148	10.52567363	0.00000000	0.00000000
 157	70.00000000	-10.00000000	-100.00000000	77.05195546	15.06370604	0.00000000	0.00000000
 158	70.00000000	0.00000000	-100.00000000	69.37972307	19.31181848	0.00000000	0.00000000
 159	70.00000000	10.00000000	-100.00000000	62.52689362	23.28068912	0.00000000	0.00000000
 160	70.00000000	20.00000000	-100.00000000	56.80628419	26.89402699	0.00000000	0.00000000
 161	70.00000000	30.00000000	-100.00000000	52.15686560	30.31662405	0.00000000	0.00000000
 162	70.00000000	40.00000000	-100.00000000	47.82635272	33.28145146	0.00000000	0.00000000
 163	70.00000000	50.00000000	-100.00000000	44.88746524	36.35004163	0.00000000	0.00000000
 164	70.00000000	60.00000000	-100.00000000	42.23849773	38.94254863	0.00000000	0.00000000
 165	70.00000000	70.00000000	-100.00000000	40.88349640	41.81734920	0.00000000	0.00000000
 166	70.00000000	80.00000000	-100.00000000	38.83573711	45.24910450	0.00000000	0.00000000
 167	70.00000000	90.00000000	-100.00000000	37.01838851	49.04402196	0.00000000	0.00000000
 168	70.00000000	100.00000000	-100.00000000	35.14610529	53.63240838	0.00000000	0.00000000
 169	80.00000000	-100.00000000	-100.00000000	100.00000000	0.00000000	0.00000000	0.00000000
 170	80.00000000	-90.00000000	-100.00000000	100.00000000	0.00000000	0.00000000	0.00000000
 171	80.00000000	-80.00000000	-100.00000000	100.00000000	0.00000000	0.00000000	0.00000000
 172	80.00000000	-70.00000000	-100.00000000	100.00000000	0.00000000	0.00000000	0.00000000
 173	80.00000000	-60.00000000	-100.00000000	100.00000000	0.00000000	0.00000000	0.00000000
 174	80.00000000	-50.00000000	-100.00000000	94.21988130	0.00000000	0.00000000	0.00000000
 175	80.00000000	-40.00000000	-100.00000000	83.50805044	0.00000000	0.00000000	0.00000000
 176	80.00000000	-30.00000000	-100.00000000	73.29823971	0.00000000	0.00000000	0.00000000
 177	80.00000000	-20.00000000	-100.00000000	64.02075291	1.64492261	0.00000000	0.00000000
 178	80.00000000	-10.00000000	-100.00000000	56.67048097	6.09903112	0.00000000	0.00000000
 179	80.00000000	0.00000000	-100.00000000	50.33035874	10.34561694	0.00000000	0.00000000
 180	80.00000000	10.00000000	-100.00000000	44.33203638	13.77279311	0.00000000	0.00000000
 181	80.00000000	20.00000000	-100.00000000	39.72075880	16.76661372	0.00000000	0.00000000
 182	80.00000000	30.00000000	-100.00000000	35.79003513	19.85198706	0.00000000	0.00000000
 183	80.00000000	40.00000000	-100.00000000	32.49713778	22.16525525	0.00000000	0.00000000
 184	80.00000000	50.00000000	-100.00000000	30.33035696	24.44800436	0.00000000	0.00000000
 185	80.00000000	60.00000000	-100.00000000	28.67933214	26.95811391	0.00000000	0.00000000
 186	80.00000000	70.00000000	-100.00000000	27.47844756	28.96009684	0.00000000	0.00000000
 187	80.00000000	80.00000000	-100.00000000	26.07766986	31.48546517	0.00000000	0.00000000
 188	80.00000000	90.00000000	-100.00000000	24.26489592	35.28343737	0.00000000	0.00000000
 189	80.00000000	100.00000000	-100.00000000	22.67338037	39.69634473	0.00000000	0.00000000
 190	90.00000000	-100.00000000	-100.00000000	100.00000000	0.00000000	0.00000000	0.00000000
 191	90.00000000	-90.00000000	-100.00000000	100.00000000	0.00000000	0.00000000	0.00000000
 192	90.00000000	-80.00000000	-100.00000000	100.00000000	0.00000000	0.00000000	0.00000000
 193	90.00000000	-70.00000000	-100.00000000	95.68017125	0.00000000	0.00000000	0.00000000
 194	90.00000000	-60.00000000	-100.00000000	83.62554312	0.00000000	0.00000000	0.00000000
 195	90.00000000	-50.00000000	-100.00000000	71.40612006	0.00000000	0.00000000	0.00000000
 196	90.00000000	-40.00000000	-100.00000000	62.17746139	0.00000000	0.00000000	0.00000000
 197	90.00000000	-30.00000000	-100.00000000	53.84298563	0.00000000	0.00000000	0.00000000
 198	90.00000000	-20.00000000	-100.00000000	46.07766867	0.00000000	0.00000000	0.00000000
 199	90.00000000	-10.00000000	-100.00000000	39.73754346	0.00000000	0.00000000	0.00000000
 200	90.00000000	0.00000000	-100.00000000	34.14511383	3.60875875	0.00000000	0.00000000
 201	90.00000000	10.00000000	-100.00000000	29.35683131	6.82993829	0.00000000	0.00000000
 202	90.00000000	20.00000000	-100.00000000	25.54360330	9.40871313	0.00000000	0.00000000
 203	90.00000000	30.00000000	-100.00000000	22.38345891	11.88220009	0.00000000	0.00000000
 204	90.00000000	40.00000000	-100.00000000	20.03814727	14.06576633	0.00000000	0.00000000
 205	90.00000000	50.00000000	-100.00000000	18.53971183	15.65270424	0.00000000	0.00000000
 206	90.00000000	60.00000000	-100.00000000	17.79964864	16.99397266	0.00000000	0.00000000
 207	90.00000000	70.00000000	-100.00000000	17.21370220	18.38254333	0.00000000	0.00000000
 208	90.00000000	80.00000000	-100.00000000	16.12115651	20.91096342	0.00000000	0.00000000
 209	90.00000000	90.00000000	-100.00000000	14.57846910	23.83001447	0.00000000	0.00000000
 210	90.00000000	100.00000000	-100.00000000	12.88776994	27.47692168	0.00000000	0.00000000
 211	100.00000000	-100.00000000	-100.00000000	99.95422363	0.00000000	0.00000000	0.00000000
 212	100.00000000	-90.00000000	-100.00000000	94.23361421	0.00000000	0.00000000	0.00000000
 213	100.00000000	-80.00000000	-100.00000000	87.11985946	0.00000000	0.00000000	0.00000000
 214	100.00000000	-70.00000000	-100.00000000	78.16891670	0.00000000	0.00000000	0.00000000
 215	100.00000000	-60.00000000	-100.00000000	67.39452481	0.00000000	0.00000000	0.00000000
 216	100.00000000	-50.00000000	-100.00000000	56.26153946	0.00000000	0.00000000	0.00000000
 217	100.00000000	-40.00000000	-100.00000000	48.45044613	0.00000000	0.00000000	0.00000000
 218	100.00000000	-30.00000000	-100.00000000	41.42519236	0.00000000	0.00000000	0.00000000
 219	100.00000000	-20.00000000	-100.00000000	34.23514068	0.00000000	0.00000000	0.00000000
 220	100.00000000	-10.00000000	-100.00000000	28.72663438	0.00000000	0.00000000	0.00000000
 221	100.00000000	0.00000000	-100.00000000	23.87426496	0.00000000	0.00000000	0.00000000
 222	100.00000000	10.00000000	-100.00000000	20.09460628	2.26443894	0.00000000	0.00000000
 223	100.00000000	20.00000000	-100.00000000	16.68726653	4.96375971	0.00000000	0.00000000
 224	100.00000000	30.00000000	-100.00000000	14.29007351	6.99473545	0.00000000	0.00000000
 225	100.00000000	40.00000000	-100.00000000	12.56275326	8.72205719	0.00000000	0.00000000
 226	100.00000000	50.00000000	-100.00000000	11.12993062	9.90920886	0.00000000	0.00000000
 227	100.00000000	60.00000000	-100.00000000	10.83848327	11.04142815	0.00000000	0.00000000
 228	100.00000000	70.00000000	-100.00000000	10.83848327	12.30182350	0.00000000	0.00000000
 229	100.00000000	80.00000000	-100.00000000	9.95193422	14.25497830	0.00000000	0.00000000
 230	100.00000000	90.00000000	-100.00000000	8.49317163	16.79407954	0.00000000	0.00000000
 231	100.00000000	100.00000000	-100.00000000	6.89555183	20.12054622	0.00000000	0.00000000
 232	0.00000000	-100.00000000	-90.00000000	100.00000000	92.60852933	42.01876819	15.92431515
 233	0.00000000	-90.00000000	-90.00000000	100.00000000	92.60852933	42.01876819	15.92431515
 234	0.00000000	-80.00000000	-90.00000000	100.00000000	92.60852933	42.01876819	15.92431515
 235	0.00000000	-70.00000000	-90.00000000	100.00000000	92.60852933	42.01876819	15.92431515
 236	0.00000000	-60.00000000	-90.00000000	100.00000000	92.60852933	42.01876819	15.92431515
 237	0.00000000	-50.00000000	-90.00000000	100.00000000	92.60852933	42.01876819	15.92431515
 238	0.00000000	-40.00000000	-90.00000000	100.00000000	92.60852933	42.01876819	15.92431515
 239	0.00000000	-30.00000000	-90.00000000	100.00000000	92.60852933	42.01876819	15.92431515
 240	0.00000000	-20.00000000	-90.00000000	100.00000000	92.60852933	42.01876819	15.92431515
 241	0.00000000	-10.00000000	-90.00000000	100.00000000	92.60852933	42.01876819	15.92431515
 242	0.00000000	0.00000000	-90.00000000	100.00000000	92.60852933	42.01876819	15.92431515
 243	0.00000000	10.00000000	-90.00000000	100.00000000	93.00068617	42.36209691	15.67711979
 244	0.00000000	20.00000000	-90.00000000	100.00000000	93.41267943	42.76798666	15.17357081
 245	0.00000000	30.00000000	-90.00000000	100.00000000	94.12375093	43.28526855	14.73716348
 246	0.00000000	40.00000000	-90.00000000	100.00000000	94.59983110	43.56603324	14.16342407
 247	0.00000000	50.00000000	-90.00000000	100.00000000	95.28343678	43.57671440	13.43862116
 248	0.00000000	60.00000000	-90.00000000	100.00000000	96.07843161	42.73746908	12.71992028
 249	0.00000000	70.00000000	-90.00000000	100.00000000	96.78339958	40.80109894	12.74280846
 250	0.00000000	80.00000000	-90.00000000	100.00000000	98.47867489	37.79049218	13.34706694
 251	0.00000000	90.00000000	-90.00000000	100.00000000	100.00000000	34.54490006	14.34958428
 252	0.00000000	100.00000000	-90.00000000	99.16533232	100.00000000	33.18532109	15.02098143
 253	10.00000000	-100.00000000	-90.00000000	100.00000000	75.74883699	22.33768255	10.05264372
 254	10.00000000	-90.00000000	-90.00000000	100.00000000	75.74883699	22.33768255	10.05264372
 255	10.00000000	-80.00000000	-90.00000000	100.00000000	75.74883699	22.33768255	10.05264372
 256	10.00000000	-70.00000000	-90.00000000	100.00000000	75.74883699	22.33768255	10.05264372
 257	10.00000000	-60.00000000	-90.00000000	100.00000000	75.74883699	22.33768255	10.05264372
 258	10.00000000	-50.00000000	-90.00000000	100.00000000	75.74883699	22.33768255	10.05264372
 259	10.00000000	-40.00000000	-90.00000000	100.00000000	76.08148456	22.33768255	10.05264372
 260	10.00000000	-30.00000000	-90.00000000	100.00000000	76.58503056	22.47806489	9.92904529
 261	10.00000000	-20.00000000	-90.00000000	100.00000000	77.23811865	22.67032862	9.73678157
 262	10.00000000	-10.00000000	-90.00000000	100.00000000	78.06973457	22.67643213	9.66048688
 263	10.00000000	0.00000000	-90.00000000	100.00000000	78.57785821	23.03959727	9.44228247
 264	10.00000000	10.00000000	-90.00000000	100.00000000	79.69024181	23.20439517	9.36293602
