bench/lcms_compat/reference/RISO_MZ770_Black.icc_to_lab_Absolute.it8
CGATS.17
ORIGINATOR	"icctrans"
#
# Data follows
#
NUMBER_OF_SETS	256.00000000
NUMBER_OF_FIELDS	5.00000000
BEGIN_DATA_FORMAT
 SAMPLE_ID	IN_GRAY	OUT_LAB_L	OUT_LAB_A	OUT_LAB_B
END_DATA_FORMAT
BEGIN_DATA
 1	0.00000000	27.26990581	0.98014218	2.81115752
 2	1.00000000	27.37911344	0.97840947	2.79407364
 3	2.00000000	27.48832405	0.97296816	2.78089595
 4	3.00000000	27.59898603	0.97128105	2.76370567
 5	4.00000000	27.70965397	0.96587014	2.75040638
 6	5.00000000	27.81886458	0.96041363	2.73333770
 7	6.00000000	27.93098390	0.95874172	2.71602583
 8	7.00000000	28.04164886	0.95333081	2.70272654
 9	8.00000000	28.15377116	0.95167410	2.68541467
 10	9.00000000	28.29210162	0.94676477	2.66586852
 11	10.00000000	28.43043506	0.94187063	2.64632237
 12	11.00000000	28.56876850	0.93694609	2.62677622
 13	12.00000000	28.71000767	0.93209755	2.60698688
 14	13.00000000	28.85125279	0.92724901	2.58719754
 15	14.00000000	28.99395525	0.92241567	2.56728661
 16	15.00000000	29.13956940	0.91764313	2.54711729
 17	16.00000000	29.28808928	0.91291618	2.52670479
 18	17.00000000	29.49923277	0.90560538	2.49708158
 19	18.00000000	29.71037030	0.89832497	2.46745837
 20	19.00000000	29.92733121	0.89487475	2.43734878
 21	20.00000000	30.14574945	0.88770074	2.40710241
 22	21.00000000	30.36853373	0.88063312	2.37649125
 23	22.00000000	30.59714735	0.87364149	2.34148753
 24	23.00000000	30.82867265	0.86672586	2.31013161
 25	24.00000000	31.07766807	0.86011422	2.27339518
 26	25.00000000	31.41257763	0.85138988	2.22545695
 27	26.00000000	31.75913393	0.84286314	2.17263979
 28	27.00000000	32.11734295	0.83082539	2.11883467
 29	28.00000000	32.48865306	0.82275462	2.06001383
 30	29.00000000	32.87452757	0.81120324	2.00386804
 31	30.00000000	33.27932954	0.80374044	1.94220495
 32	31.00000000	33.69723558	0.79281223	1.87943232
 33	32.00000000	34.14426446	0.77867699	1.80638504
 34	33.00000000	34.63352323	0.77277970	1.71418679
 35	34.00000000	35.14753580	0.76359940	1.61986065
 36	35.00000000	35.68484485	0.75485986	1.51577663
 37	36.00000000	36.24836504	0.74659151	1.41336453
 38	37.00000000	36.83518469	0.73502493	1.30117935
 39	38.00000000	37.44966984	0.72397512	1.18663830
 40	39.00000000	38.08599710	0.71333569	1.06635195
 41	40.00000000	38.73979449	0.70301545	0.94068509
 42	41.00000000	39.38340247	0.69996041	0.81977558
 43	42.00000000	40.03283083	0.69701177	0.69834930
 44	43.00000000	40.69100320	0.69421512	0.57622385
 45	44.00000000	41.34188890	0.68757308	0.45080018
 46	45.00000000	41.98549688	0.68450284	0.32989067
 47	46.00000000	42.61745214	0.68125021	0.21386009
 48	47.00000000	43.23484898	0.67770880	0.09518486
 49	48.00000000	43.80419254	0.67702484	-0.01161981
 50	49.00000000	44.20754015	0.67699444	-0.08484948
 51	50.00000000	44.59778368	0.67672086	-0.15695441
 52	51.00000000	44.97783184	0.68000388	-0.22430199
 53	52.00000000	45.34623325	0.67933512	-0.29456782
 54	53.00000000	45.70297897	0.68217736	-0.35603333
 55	54.00000000	46.04953825	0.68109822	-0.42053866
 56	55.00000000	46.38590515	0.68357569	-0.48417765
 57	56.00000000	46.72518075	0.68609875	-0.54416883
 58	57.00000000	47.09940553	0.68553638	-0.61102244
 59	58.00000000	47.46343493	0.68851542	-0.67311871
 60	59.00000000	47.81581759	0.69128168	-0.73421943
 61	60.00000000	48.15655053	0.69383514	-0.79433221
 62	61.00000000	48.49000275	0.69625181	-0.85382941
 63	62.00000000	48.81326556	0.69847089	-0.90856168
 64	63.00000000	49.12924469	0.70058358	-0.96657696
 65	64.00000000	49.44376945	0.70263547	-1.02055687
 66	65.00000000	49.76702929	0.70486975	-1.07529673
 67	66.00000000	50.08591413	0.70701283	-1.12967181
 68	67.00000000	50.39606690	0.70900393	-1.18330213
 69	68.00000000	50.70040226	0.71087343	-1.23641568
 70	69.00000000	51.00036263	0.71268213	-1.28528106
 71	70.00000000	51.29450560	0.71436924	-1.33753586
 72	71.00000000	51.58427358	0.71971935	-1.38552728
 73	72.00000000	51.84345841	0.72076809	-1.43091965
 74	73.00000000	52.03858018	0.72435510	-1.46697971
 75	74.00000000	52.23078728	0.72417271	-1.49889040
 76	75.00000000	52.42008567	0.72765332	-1.53055790
 77	76.00000000	52.60792375	0.73111874	-1.56599480
 78	77.00000000	52.79139876	0.73450816	-1.59716073
 79	78.00000000	52.97341347	0.73412818	-1.62821266
 80	79.00000000	53.15251946	0.73742640	-1.65900621
 81	80.00000000	53.33161950	0.74072462	-1.68980736
 82	81.00000000	53.50927114	0.74400765	-1.72048691
 83	82.00000000	53.68545651	0.74352127	-1.75103727
 84	83.00000000	53.86019349	0.74672830	-1.77755985
 85	84.00000000	54.03347015	0.74993533	-1.80787462
 86	85.00000000	54.20383811	0.75306636	-1.83792341
 87	86.00000000	54.37274575	0.75245839	-1.86396721
 88	87.00000000	54.54165936	0.75555903	-1.89389440
 89	88.00000000	54.72949743	0.75903964	-1.92544031
 90	89.00000000	54.96248007	0.76332581	-1.96081641
 91	90.00000000	55.19400239	0.76387298	-1.99996191
 92	91.00000000	55.42261600	0.76808316	-2.03497323
 93	92.00000000	55.64976931	0.77226293	-2.07374635
 94	93.00000000	55.87546825	0.77641231	-2.10849929
 95	94.00000000	56.09971285	0.77682269	-2.14703682
 96	95.00000000	56.32249713	0.78091127	-2.18153897
 97	96.00000000	56.57586455	0.78560781	-2.22254637
 98	97.00000000	56.88164830	0.79123151	-2.27189812
 99	98.00000000	57.18598366	0.79684001	-2.32501927
 100	99.00000000	57.49030709	0.80244851	-2.37424943
 101	100.00000000	57.79172778	0.80427241	-2.42322880
 102	101.00000000	58.09168816	0.80982012	-2.47209418
 103	102.00000000	58.39019418	0.81530702	-2.52082276
 104	103.00000000	58.68725181	0.82076353	-2.56553876
 105	104.00000000	58.94789100	0.82558167	-2.61106032
 106	105.00000000	59.15465951	0.82939667	-2.64420974
 107	106.00000000	59.36288238	0.83324206	-2.67748836
 108	107.00000000	59.56820250	0.83702666	-2.71440718
 109	108.00000000	59.77351069	0.84079605	-2.74742740
 110	109.00000000	59.97882485	0.84458065	-2.78045523
 111	110.00000000	60.18123031	0.84830445	-2.81323227
 112	111.00000000	60.38508415	0.85207385	-2.85003710
 113	112.00000000	60.55982113	0.85528088	-2.87655967
 114	113.00000000	60.69960594	0.85786474	-2.90012601
 115	114.00000000	60.83939672	0.86044860	-2.92369235
 116	115.00000000	60.97627282	0.86297166	-2.94700789
 117	116.00000000	61.11460328	0.86923373	-2.97043744
 118	117.00000000	61.25438809	0.87181759	-2.99400377
 119	118.00000000	61.39127016	0.87432545	-3.01731932
 120	119.00000000	61.52960062	0.87689412	-3.04076406
 121	120.00000000	61.64900661	0.87909800	-3.06259009
 122	121.00000000	61.74947619	0.88095230	-3.08281261
 123	122.00000000	61.84994578	0.88651520	-3.09913653
 124	123.00000000	61.95041537	0.88836950	-3.11936665
 125	124.00000000	62.04943657	0.89019340	-3.13556898
 126	125.00000000	62.15136051	0.89209330	-3.15593588
 127	126.00000000	62.25183606	0.89767140	-3.17225981
 128	127.00000000	62.35376000	0.89952570	-3.19260392
 129	128.00000000	62.45861053	0.90147120	-3.20930022
 130	129.00000000	62.56927252	0.90352309	-3.23039669
 131	130.00000000	62.67993450	0.90928358	-3.25147796
 132	131.00000000	62.79060245	0.91132027	-3.27257442
 133	132.00000000	62.90272474	0.91337216	-3.28988630
 134	133.00000000	63.01630139	0.91548485	-3.31122595
 135	134.00000000	63.12987804	0.92130613	-3.33256561
 136	135.00000000	63.24346066	0.92338842	-3.35389766
 137	136.00000000	63.37887645	0.92589629	-3.37709162
 138	137.00000000	63.52885962	0.93238634	-3.40542290
 139	138.00000000	63.68466020	0.93525898	-3.43423295
 140	139.00000000	63.84046674	0.94185543	-3.45915961
 141	140.00000000	63.99627328	0.94472808	-3.48797727
 142	141.00000000	64.15644884	0.95140052	-3.51717490
 143	142.00000000	64.31662440	0.95434916	-3.54636493
 144	143.00000000	64.48116302	0.96112800	-3.57592735
 145	144.00000000	64.68647718	0.96489739	-3.61284617
 146	145.00000000	64.92819190	0.97307456	-3.66064760
 147	146.00000000	65.17428160	0.98134291	-3.70493042
 148	147.00000000	65.42328000	0.98965687	-3.75335503
 149	148.00000000	65.67955017	0.99439901	-3.79850420
 150	149.00000000	65.94165564	1.00295615	-3.84803835
 151	150.00000000	66.20958447	1.01161969	-3.89807406
 152	151.00000000	66.48624539	1.02043521	-3.94884694
 153	152.00000000	66.83279872	1.03055787	-4.01335227
 154	153.00000000	67.23032594	1.04160768	-4.08997896
 155	154.00000000	67.63949990	1.05660927	-4.16760120
 156	155.00000000	68.06322932	1.06814545	-4.24645457
 157	156.00000000	68.50152612	1.08367902	-4.32653147
 158	157.00000000	68.95146370	1.09942538	-4.41151011
 159	158.00000000	69.41450834	1.11543012	-4.50149688
 160	159.00000000	69.88921165	1.12790865	-4.58857301
 161	160.00000000	70.33187151	1.14351821	-4.67292848
 162	161.00000000	70.75269222	1.15873259	-4.75542966
 163	162.00000000	71.18370533	1.17412937	-4.83879718
 164	163.00000000	71.62491083	1.18970853	-4.92303106
 165	164.00000000	72.07193375	1.20542449	-5.01167271
 166	165.00000000	72.52333760	1.22120124	-5.09677294
 167	166.00000000	72.98055887	1.23708439	-5.18625814
 168	167.00000000	73.44069481	1.25301313	-5.27599412
 169	168.00000000	73.87025356	1.26837951	-5.35534146
 170	169.00000000	74.28524494	1.28348750	-5.43345007
 171	170.00000000	74.69587922	1.29479569	-5.51119390
 172	171.00000000	75.09776950	1.30964530	-5.58818537
 173	172.00000000	75.49819946	1.32449490	-5.66117185
 174	173.00000000	75.88989735	1.33543831	-5.73340598
 175	174.00000000	76.27868652	1.35005993	-5.80928031
 176	175.00000000	76.66310072	1.36460555	-5.88089886
 177	176.00000000	76.97616816	1.37410504	-5.93867096
 178	177.00000000	77.25865245	1.38302696	-5.98993781
 179	178.00000000	77.53677368	1.39190328	-6.04083228
 180	179.00000000	77.81489491	1.40073401	-6.09562534
 181	180.00000000	78.09010148	1.40956473	-6.14628422
 182	181.00000000	78.36676240	1.41838026	-6.19705710
 183	182.00000000	78.64196897	1.43090439	-6.24770838
 184	183.00000000	78.91718149	1.43970472	-6.29835206
 185	184.00000000	79.15307283	1.44777548	-6.34176853
 186	185.00000000	79.37440276	1.45560306	-6.38395387
 187	186.00000000	79.59573865	1.46338505	-6.42612401
 188	187.00000000	79.81852293	1.47122782	-6.46843094
 189	188.00000000	80.04130721	1.47907060	-6.51073787
 190	189.00000000	80.26700616	1.48697418	-6.55328038
 191	190.00000000	80.49416542	1.49486256	-6.59595969
 192	191.00000000	80.72131872	1.50278133	-6.63863140
 193	192.00000000	81.01399541	1.51190084	-6.69855419
 194	193.00000000	81.32851720	1.52515453	-6.76422986
 195	194.00000000	81.64158463	1.53840822	-6.82590815
 196	195.00000000	81.95611238	1.55163151	-6.89158383
 197	196.00000000	82.26626515	1.56108540	-6.95299613
 198	197.00000000	82.57496357	1.57423270	-7.01818544
 199	198.00000000	82.88074732	1.58733439	-7.07922536
 200	199.00000000	83.17925334	1.60031450	-7.13964212
 201	200.00000000	83.61754417	1.61584806	-7.23142239
 202	201.00000000	84.08642411	1.63563740	-7.32969272
 203	202.00000000	84.54363942	1.65528995	-7.42308411
 204	203.00000000	84.98775959	1.67462331	-7.51535836
 205	204.00000000	85.42022705	1.69006568	-7.60663706
 206	205.00000000	85.83959341	1.70898867	-7.69290763
 207	206.00000000	86.24585271	1.72392946	-7.77806866
 208	207.00000000	86.64046526	1.74236608	-7.86223415
 209	208.00000000	87.07147837	1.75777805	-7.94560927
 210	209.00000000	87.49957681	1.77312922	-8.03262460
 211	210.00000000	87.91602850	1.78826761	-8.11475340
 212	211.00000000	88.31937313	1.80690181	-8.19577265
 213	212.00000000	88.71107101	1.82156903	-8.27189776
 214	213.00000000	89.08966184	1.83600825	-8.34692094
 215	214.00000000	89.45951462	1.85029548	-8.42119935
 216	215.00000000	89.81918097	1.86435473	-8.49070522
 217	216.00000000	90.06527066	1.87262309	-8.53890184
 218	217.00000000	90.28659463	1.88043547	-8.58498576
 219	218.00000000	90.50064683	1.88809586	-8.62655553
 220	219.00000000	90.71323872	1.89946485	-8.66798851
 221	220.00000000	90.92146754	1.90704924	-8.70905671
 222	221.00000000	91.12387300	1.91451204	-8.74962333
 223	222.00000000	91.32481217	1.92194444	-8.79006836
 224	223.00000000	91.52139425	1.92927045	-8.82623482
 225	224.00000000	91.66991711	1.93576050	-8.85443690
 226	225.00000000	91.80824757	1.93831396	-8.88176504
 227	226.00000000	91.94512367	1.94454563	-8.90897918
 228	227.00000000	92.08054543	1.94703829	-8.93607172
 229	228.00000000	92.21451283	1.95325476	-8.96302748
 230	229.00000000	92.34555960	1.95938003	-8.98587185
 231	230.00000000	92.47660637	1.96179670	-9.01258442
 232	231.00000000	92.60620475	1.96792197	-9.03918299
 233	232.00000000	92.69065857	1.96948749	-9.05414659
 234	233.00000000	92.77074337	1.97468561	-9.06874540
 235	234.00000000	92.85083413	1.97615993	-9.08721241
 236	235.00000000	92.92946458	1.97760385	-9.10168964
 237	236.00000000	93.00664067	1.98277158	-9.11603767
 238	237.00000000	93.08527112	1.98421550	-9.13050729
 239	238.00000000	93.16244721	1.98935282	-9.14876911
 240	239.00000000	93.23961735	1.99078155	-9.16311714
 241	240.00000000	93.30659509	1.99201268	-9.17659882
 242	241.00000000	93.37213039	1.99695241	-9.18995890
 243	242.00000000	93.43910813	1.99819875	-9.20344058
 244	243.00000000	93.50608587	1.99944508	-9.21692225
 245	244.00000000	93.57161522	2.00435442	-9.23028234
 246	245.00000000	93.63713861	2.00557035	-9.24363482
 247	246.00000000	93.70412230	2.01054049	-9.25711650
 248	247.00000000	93.76819730	2.01171082	-9.27035499
 249	248.00000000	93.83080602	2.01286596	-9.28345668
 250	249.00000000	93.89342070	2.01403630	-9.29266739
 251	250.00000000	93.95603538	2.01888484	-9.30577669
 252	251.00000000	94.01718378	2.02002478	-9.31876439
 253	252.00000000	94.07980442	2.02117991	-9.33187369
 254	253.00000000	94.14095879	2.02605885	-9.34097800
 255	254.00000000	94.20211911	2.02716839	-9.35396570
 256	255.00000000	94.26472783	2.02832353	-9.36707500
END_DATA
