bench/lcms_compat/reference/RISO_MZ770_Black.icc_to_srgb_Relative.it8
CGATS.17
ORIGINATOR	"icctrans"
#
# Data follows
#
NUMBER_OF_SETS	256.00000000
NUMBER_OF_FIELDS	5.00000000
BEGIN_DATA_FORMAT
 SAMPLE_ID	IN_GRAY	OUT_RGB_R	OUT_RGB_G	OUT_RGB_B
END_DATA_FORMAT
BEGIN_DATA
 1	0.00000000	72.96156451	69.21476036	59.47737627
 2	1.00000000	73.21897030	69.48042691	59.74681601
 3	2.00000000	73.47227231	69.74813014	60.01018748
 4	3.00000000	73.73356909	70.01764208	60.28342701
 5	4.00000000	73.99070889	70.28920591	60.55061348
 6	5.00000000	74.24272656	70.55754751	60.82062699
 7	6.00000000	74.50796753	70.83111763	61.09789811
 8	7.00000000	74.76551771	71.10320583	61.36565454
 9	8.00000000	75.03110066	71.37711033	61.64331324
 10	9.00000000	75.35512447	71.71678171	61.98317461
 11	10.00000000	75.67938387	72.05671147	62.32333615
 12	11.00000000	76.00384846	72.39691481	62.66379029
 13	12.00000000	76.33567706	72.74445936	63.01146403
 14	13.00000000	76.66774884	73.09229270	63.35944936
 15	14.00000000	77.00362802	73.44394863	63.71121548
 16	15.00000000	77.34692439	73.80298376	64.07023922
 17	16.00000000	77.69762278	74.16941330	64.43652436
 18	17.00000000	78.19535807	74.69119370	64.95875314
 19	18.00000000	78.69364053	75.21357447	65.48166588
 20	19.00000000	79.21289027	75.74882135	66.01937503
 21	20.00000000	79.73017171	76.29029229	66.56111196
 22	21.00000000	80.25886014	76.84311703	67.11407349
 23	22.00000000	80.80075666	77.41108015	67.68795669
 24	23.00000000	81.35228947	77.98676446	68.26347381
 25	24.00000000	81.94606081	78.60635921	68.88812229
 26	25.00000000	82.74672344	79.44091603	69.72741365
 27	26.00000000	83.57591495	80.30589402	70.60279548
 28	27.00000000	84.42939475	81.20334506	71.50806651
 29	28.00000000	85.32145008	82.13311717	72.45350897
 30	29.00000000	86.24710321	83.10282513	73.43007177
 31	30.00000000	87.22636387	84.11974177	74.46148083
 32	31.00000000	88.23421419	85.17352402	75.52719444
 33	32.00000000	89.30747420	86.30475372	76.67932302
 34	33.00000000	90.49482688	87.54095659	77.96386689
 35	34.00000000	91.74109161	88.84451464	79.31290090
 36	35.00000000	93.04559961	90.21039695	80.73612973
 37	36.00000000	94.42163497	91.64606631	82.22232878
 38	37.00000000	95.85029751	93.14706936	83.78367260
 39	38.00000000	97.35323086	94.72267762	85.41909724
 40	39.00000000	98.91410351	96.35874823	87.12103352
 41	40.00000000	100.52203283	98.04453537	88.87900919
 42	41.00000000	102.12275013	99.70496267	90.61104745
 43	42.00000000	103.74267161	101.38524771	92.36350581
 44	43.00000000	105.38947284	103.09303567	94.14385468
 45	44.00000000	107.01309532	104.78918865	95.91769829
 46	45.00000000	108.63035694	106.46906331	97.67222375
 47	46.00000000	110.22318587	108.12316015	99.39575046
 48	47.00000000	111.77968115	109.74388719	101.09348416
 49	48.00000000	113.22420403	111.24068767	102.65913695
 50	49.00000000	114.25154731	112.30291307	103.76672432
 51	50.00000000	115.24591595	113.33250582	104.84242380
 52	51.00000000	116.22355789	114.33470204	105.88715494
 53	52.00000000	117.16305748	115.31004891	106.90981686
 54	53.00000000	118.08380887	116.25371307	107.89080262
 55	54.00000000	118.96998972	117.17411488	108.85321498
 56	55.00000000	119.83697399	118.06670219	109.79064748
 57	56.00000000	120.71485609	118.96808222	110.73048145
 58	57.00000000	121.67801321	119.96566549	111.76975608
 59	58.00000000	122.62416244	120.93536586	112.77749240
 60	59.00000000	123.54049087	121.87547341	113.75618309
 61	60.00000000	124.42686930	122.78585896	114.70569134
 62	61.00000000	125.29485673	123.67804348	115.63739374
 63	62.00000000	126.13870025	124.54400942	116.53682828
 64	63.00000000	126.96187288	125.39174393	117.42493182
 65	64.00000000	127.78419435	126.23647660	118.30365747
 66	65.00000000	128.63092571	127.10563436	119.20671701
 67	66.00000000	129.46685046	127.96412230	120.09938791
 68	67.00000000	130.28018922	128.80021423	120.97001240
 69	68.00000000	131.07870877	129.62160856	121.82625085
 70	69.00000000	131.86842799	130.43202907	122.66517743
 71	70.00000000	132.64109373	131.22779757	123.49632964
 72	71.00000000	133.41178358	132.01032758	124.31024596
 73	72.00000000	134.09352779	132.71325946	125.04315823
 74	73.00000000	134.61130321	133.24132472	125.59881762
 75	74.00000000	135.11676729	133.76390308	126.14016697
 76	75.00000000	135.62160820	134.27679956	126.67431191
 77	76.00000000	136.12065822	134.78624582	127.21171707
 78	77.00000000	136.61033034	135.28404951	127.73102760
 79	78.00000000	137.08940864	135.78042448	128.24662954
 80	79.00000000	137.56780297	136.26704156	128.75495106
 81	80.00000000	138.04648608	136.75396264	129.26363736
 82	81.00000000	138.52150619	137.23726630	129.76875186
 83	82.00000000	138.98587167	137.71908045	130.27012736
 84	83.00000000	139.45570886	138.19492131	130.76128900
 85	84.00000000	139.91964877	138.66722077	131.25565767
 86	85.00000000	140.37592828	139.13190544	131.74251795
 87	86.00000000	140.82369626	139.59491819	132.21876919
 88	87.00000000	141.27647996	140.05618304	132.70231605
 89	88.00000000	141.78135127	140.56938350	133.23737293
 90	89.00000000	142.41005033	141.20627493	133.89498085
 91	90.00000000	143.02607328	141.84202641	134.55587178
 92	91.00000000	143.64381373	142.46797442	135.20279467
 93	92.00000000	144.25579369	143.09059381	135.85315257
 94	93.00000000	144.86645132	143.70958060	136.49328142
 95	94.00000000	145.46434164	144.32741225	137.13669330
 96	95.00000000	146.06790125	144.93936181	137.76996732
 97	96.00000000	146.75387084	145.63594043	138.49391967
 98	97.00000000	147.58257598	146.47745848	139.36829835
 99	98.00000000	148.40587020	147.31601268	140.24659842
 100	99.00000000	149.23221946	148.15525085	141.11898601
 101	100.00000000	150.04426628	148.98957968	141.98421478
 102	101.00000000	150.86015850	149.81851280	142.84658611
 103	102.00000000	151.67279810	150.64425409	143.70591760
 104	103.00000000	152.48444974	151.46665156	144.55524802
 105	104.00000000	153.19362849	152.18917519	145.31241059
 106	105.00000000	153.75835419	152.76268601	145.90830982
 107	106.00000000	154.32750285	153.34060460	146.50864720
 108	107.00000000	154.88668084	153.91104519	147.10837662
 109	108.00000000	155.44845790	154.48168337	147.70157039
 110	109.00000000	156.01061493	155.05273193	148.29522014
 111	110.00000000	156.56502038	155.61605930	148.88127029
 112	111.00000000	157.12155372	156.18394643	149.47870463
 113	112.00000000	157.60181755	156.67083710	149.98217762
 114	113.00000000	157.98485219	157.06062019	150.38936377
 115	114.00000000	158.36803883	157.45060086	150.79674751
 116	115.00000000	158.74326110	157.83263236	151.19628847
 117	116.00000000	159.12986755	158.21663976	151.60020679
 118	117.00000000	159.51355577	158.60713720	152.00816810
 119	118.00000000	159.88927960	158.98970068	152.40828663
 120	119.00000000	160.26922882	159.37645912	152.81263053
 121	120.00000000	160.59637606	159.71053720	153.16465884
 122	121.00000000	160.87064534	159.99181330	153.46431077
 123	122.00000000	161.15449011	160.27074873	153.75725985
 124	123.00000000	161.42892659	160.55219203	154.05712456
 125	124.00000000	161.70169115	160.82953155	154.34607625
 126	125.00000000	161.98039860	161.11521542	154.65021193
 127	126.00000000	162.26459295	161.39451563	154.94357139
 128	127.00000000	162.54343718	161.68041229	155.24790466
 129	128.00000000	162.83287525	161.97441012	155.55345386
 130	129.00000000	163.13643336	162.28497505	155.88231862
 131	130.00000000	163.44730228	162.59338170	156.21145695
 132	131.00000000	163.75107318	162.90417463	156.54059529
 133	132.00000000	164.06131893	163.21899533	156.86686099
 134	133.00000000	164.37347978	163.53817821	157.20434368
 135	134.00000000	164.69295144	163.85518759	157.54211515
 136	135.00000000	165.00534028	164.17461365	157.87987143
 137	136.00000000	165.37924021	164.55549002	158.27868283
 138	137.00000000	165.79920888	164.97538269	158.72552365
 139	138.00000000	166.22850984	165.41410714	159.18868840
 140	139.00000000	166.66758388	165.85059732	159.64522630
 141	140.00000000	167.09731042	166.28976256	160.10889262
 142	141.00000000	167.54679590	166.73914164	160.58518946
 143	142.00000000	167.98925936	167.19104379	161.06156230
 144	143.00000000	168.45151216	167.65319020	161.55059606
 145	144.00000000	169.01952088	168.23305428	162.16105610
 146	145.00000000	169.69337672	168.91408414	162.88829148
 147	146.00000000	170.38240135	169.60780531	163.62133294
 148	147.00000000	171.07784003	170.31046361	164.37022716
 149	148.00000000	171.78945065	171.03636146	165.13295263
 150	149.00000000	172.52308488	171.77721530	165.91999680
 151	150.00000000	173.27378780	172.53516823	166.72410965
 152	151.00000000	174.04988855	173.31850380	167.55357474
 153	152.00000000	175.02055407	174.30129826	168.59522045
 154	153.00000000	176.13249600	175.43032408	169.79632080
 155	154.00000000	177.28623569	176.59157217	171.03212088
 156	155.00000000	178.47554147	177.79803783	172.31063068
 157	156.00000000	179.71521735	179.04526770	173.63239735
 158	157.00000000	180.98738909	180.32757729	174.99625057
 159	158.00000000	182.29632765	181.64922237	176.40650690
 160	159.00000000	183.63540620	183.00822705	177.84471452
 161	160.00000000	184.89166439	184.27485108	179.19379413
 162	161.00000000	186.08668506	185.48034400	180.48230499
 163	162.00000000	187.31245369	186.71661526	181.80168539
 164	163.00000000	188.56904626	187.98378646	183.15204173
 165	164.00000000	189.84156758	189.26947027	184.52817589
 166	165.00000000	191.13070160	190.56927413	185.91154486
 167	166.00000000	192.43584037	191.88771218	187.32078284
 168	167.00000000	193.75099540	193.21628809	188.74037147
 169	168.00000000	194.98402923	194.45760548	190.05920470
 170	169.00000000	196.17620766	195.65815866	191.33765370
 171	170.00000000	197.34955430	196.84974432	192.60490090
 172	171.00000000	198.50622743	198.01492900	193.84851336
 173	172.00000000	199.66239899	199.17696744	195.08213997
 174	173.00000000	200.78675866	200.31719506	196.29166067
 175	174.00000000	201.90886885	201.44793838	197.50156134
 176	175.00000000	203.02182913	202.56694794	198.69284302
 177	176.00000000	203.92469108	203.48057091	199.66283977
 178	177.00000000	204.74122167	204.30535465	200.53723365
 179	178.00000000	205.54559290	205.11797905	201.39962018
 180	179.00000000	206.34806424	205.93139380	202.27000147
 181	180.00000000	207.14504868	206.73667699	203.12524438
 182	181.00000000	207.94685125	207.54682392	203.98541182
 183	182.00000000	208.75256002	208.35092157	204.84218985
 184	183.00000000	209.55127716	209.15796787	205.69943905
 185	184.00000000	210.23738354	209.84984994	206.43477559
 186	185.00000000	210.88108420	210.49934149	207.12791920
 187	186.00000000	211.52511925	211.14921302	207.82148838
 188	187.00000000	212.17382044	211.80372030	208.51973891
 189	188.00000000	212.82291681	212.45862275	209.21844542
 190	189.00000000	213.48091990	213.12249273	209.92613465
 191	190.00000000	214.14360434	213.79105926	210.63858122
 192	191.00000000	214.80668396	214.46000576	211.35145336
 193	192.00000000	215.65618157	215.32338023	212.27994114
 194	193.00000000	216.57602102	216.24978572	213.28115702
 195	194.00000000	217.49479651	217.17245221	214.27158147
 196	195.00000000	218.41606468	218.10033202	215.27454525
 197	196.00000000	219.31997538	219.01824117	216.25787169
 198	197.00000000	220.22539079	219.93034422	217.24531710
 199	198.00000000	221.12539530	220.83428532	218.21756333
 200	199.00000000	222.00448573	221.71734273	219.16901708
 201	200.00000000	223.28709930	223.01751137	220.57313293
 202	201.00000000	224.66727644	224.40794796	222.07736582
 203	202.00000000	226.01693362	225.76503754	223.54141206
 204	203.00000000	227.32891202	227.08460033	224.96822029
 205	204.00000000	228.59974623	228.37323278	226.36178792
 206	205.00000000	229.84308511	229.62145060	227.71056354
 207	206.00000000	231.04061365	230.83416313	229.02147800
 208	207.00000000	232.21216679	232.01077759	230.29915184
 209	208.00000000	233.48883748	233.29989642	231.67949617
 210	209.00000000	234.75543112	234.58181083	233.06014448
 211	210.00000000	235.99089682	235.82986146	234.39986140
 212	211.00000000	237.19599456	237.03729987	235.70180833
 213	212.00000000	238.36187840	238.21310878	236.96236789
 214	213.00000000	239.48933870	239.35050935	238.18474710
 215	214.00000000	240.59147716	240.46257287	239.38195646
 216	215.00000000	241.66634828	241.54469401	240.54201901
 217	216.00000000	242.39897937	242.28655100	241.33751392
 218	217.00000000	243.05724084	242.95402318	242.05871522
 219	218.00000000	243.69641215	243.59965414	242.75077969
 220	219.00000000	244.33936805	244.23874944	243.43896836
 221	220.00000000	244.96160746	244.86737251	244.11414653
 222	221.00000000	245.56645900	245.47869891	244.77205843
 223	222.00000000	246.16719157	246.08587593	245.42586654
 224	223.00000000	246.75755829	246.67995125	246.05918616
 225	224.00000000	247.20515907	247.12840319	246.53963238
 226	225.00000000	247.61409312	247.54856944	246.98917866
 227	226.00000000	248.02661419	247.96200246	247.43466675
 228	227.00000000	248.42694551	248.37359637	247.87570149
 229	228.00000000	248.83093983	248.77842665	248.31264764
 230	229.00000000	249.22874808	249.17436540	248.73333067
 231	230.00000000	249.61619049	249.57307041	249.16152209
 232	231.00000000	250.00726551	249.96501178	249.58562493
 233	232.00000000	250.25861442	250.22199959	249.85735595
 234	233.00000000	250.50459802	250.46328664	250.11603087
 235	234.00000000	250.74012458	250.70724875	250.38215339
 236	235.00000000	250.97388804	250.94668150	250.63632935
 237	236.00000000	251.21122330	251.17924422	250.88634074
 238	237.00000000	251.44506276	251.41873777	251.14060789
 239	238.00000000	251.67976856	251.65157408	251.39831007
 240	239.00000000	251.90927625	251.88672066	251.64826065
 241	240.00000000	252.10777760	252.09089130	251.86723530
 242	241.00000000	252.30988115	252.28820711	252.08201498
 243	242.00000000	252.50844330	252.49243855	252.30106562
 244	243.00000000	252.70706624	252.69670039	252.52016187
 245	244.00000000	252.90916979	252.89412260	252.73503274
 246	245.00000000	253.10340017	253.09400707	252.94975162
 247	246.00000000	253.31004828	253.29589784	253.16912144
 248	247.00000000	253.49990129	253.49143535	253.37949336
 249	248.00000000	253.68536174	253.68254989	253.58544230
 250	249.00000000	253.87351245	253.87349725	253.78379166
 251	250.00000000	254.06689167	254.06219512	253.98999900
 252	251.00000000	254.24798995	254.24896270	254.19160098
 253	252.00000000	254.43354160	254.44019884	254.39768672
 254	253.00000000	254.62529451	254.62433696	254.59196270
 255	254.00000000	254.80643839	254.81118053	254.79367107
 256	255.00000000	254.99206603	255.00246227	254.99983281
END_DATA
