bench/lcms_compat/reference/RISO_MZ770_RedGreen.icc_to_lab_Relative_BPC.it8
CGATS.17
ORIGINATOR	"icctrans"
#
# Data follows
#
NUMBER_OF_SETS	121.00000000
NUMBER_OF_FIELDS	6.00000000
BEGIN_DATA_FORMAT
 SAMPLE_ID	IN_CH1	IN_CH2	OUT_LAB_L	OUT_LAB_A	OUT_LAB_B
END_DATA_FORMAT
BEGIN_DATA
 1	0.00000000	0.00000000	100.00000000	-0.00000763	-0.00000763
 2	0.00000000	0.10000000	98.86029363	-1.52734327	0.62891942
 3	0.00000000	0.20000000	93.94608140	-7.88672003	3.50392115
 4	0.00000000	0.30000000	87.54901886	-15.18359008	6.89063382
 5	0.00000000	0.40000000	76.76930428	-24.42968714	11.39843833
 6	0.00000000	0.50000000	73.10202122	-28.26953310	13.16797298
 7	0.00000000	0.60000000	69.73345876	-32.35546905	14.96094477
 8	0.00000000	0.70000000	66.01409316	-37.43749875	17.23437798
 9	0.00000000	0.80000000	59.04412270	-45.49999732	20.75001013
 10	0.00000000	0.90000000	51.00643635	-53.96484110	24.67579228
 11	0.00000000	1.00000000	49.88970459	-56.35156143	25.79297793
 12	0.10000000	0.00000000	95.89001536	6.75391716	2.07031888
 13	0.10000000	0.10000000	94.48223114	5.03906918	2.62501311
 14	0.10000000	0.20000000	88.80361319	-1.83203372	5.16406727
 15	0.10000000	0.30000000	82.85539150	-9.47265613	8.03516281
 16	0.10000000	0.40000000	73.69791865	-19.08984128	11.51173306
 17	0.10000000	0.50000000	69.97089386	-22.63280916	12.90625823
 18	0.10000000	0.60000000	66.67892337	-26.42578083	14.42578149
 19	0.10000000	0.70000000	63.00092340	-31.17968294	16.35156375
 20	0.10000000	0.80000000	55.81801534	-39.41406149	19.80469686
 21	0.10000000	0.90000000	49.54350591	-49.05858997	23.55470043
 22	0.10000000	1.00000000	48.78063798	-51.42968553	24.38281280
 23	0.20000000	0.00000000	90.41973352	16.47265565	5.63673151
 24	0.20000000	0.10000000	89.77941275	13.48437440	5.53907675
 25	0.20000000	0.20000000	84.34895873	6.45312530	7.17187953
 26	0.20000000	0.30000000	78.86182666	-2.26953465	8.95703894
 27	0.20000000	0.40000000	70.26654482	-11.45703125	12.05859971
 28	0.20000000	0.50000000	66.94087386	-15.08593532	13.17187917
 29	0.20000000	0.60000000	63.62591982	-18.80859557	14.36328244
 30	0.20000000	0.70000000	59.77787971	-23.42578101	15.91407043
 31	0.20000000	0.80000000	53.52481604	-32.40234333	18.87500834
 32	0.20000000	0.90000000	47.92279303	-42.02734086	22.02344340
 33	0.20000000	1.00000000	47.16145992	-45.01952830	22.86328954
 34	0.30000000	0.00000000	84.69056487	26.91016358	10.21484745
 35	0.30000000	0.10000000	83.26593041	25.11719179	10.40625077
 36	0.30000000	0.20000000	77.82934904	17.49218655	11.13672358
 37	0.30000000	0.30000000	72.93198705	9.85938412	11.60548162
 38	0.30000000	0.40000000	64.36427832	1.16797370	13.67969912
 39	0.30000000	0.50000000	61.45220995	-2.63671654	14.47656196
 40	0.30000000	0.60000000	58.67494345	-6.68359059	15.22656572
 41	0.30000000	0.70000000	55.15625477	-11.39453220	16.18750376
 42	0.30000000	0.80000000	49.98927712	-21.12499687	18.03125602
 43	0.30000000	0.90000000	45.22058964	-30.73827583	20.24219018
 44	0.30000000	1.00000000	44.28462088	-32.35156286	20.68360490
 45	0.40000000	0.00000000	78.73008847	37.64454198	16.35156375
 46	0.40000000	0.10000000	77.43872404	35.61719877	16.19140995
 47	0.40000000	0.20000000	72.37898707	27.71876019	15.80860329
 48	0.40000000	0.30000000	67.67923236	20.14062923	15.69922996
 49	0.40000000	0.40000000	60.78584790	10.50001454	15.83594662
 50	0.40000000	0.50000000	58.00551772	6.25781578	16.03906852
 51	0.40000000	0.60000000	55.32782078	2.08203745	16.50001419
 52	0.40000000	0.70000000	52.35601068	-3.26562840	16.95703846
 53	0.40000000	0.80000000	47.38664329	-12.65624690	17.88672698
 54	0.40000000	0.90000000	42.57506132	-19.60546601	18.91797644
 55	0.40000000	1.00000000	41.77696109	-20.74999499	19.14453548
 56	0.50000000	0.00000000	74.76716042	44.38671780	21.41015631
 57	0.50000000	0.10000000	73.84957075	42.30078173	20.86719584
 58	0.50000000	0.20000000	68.93382668	35.05469215	19.96875685
 59	0.50000000	0.30000000	64.29228187	27.31640738	19.08984882
 60	0.50000000	0.40000000	58.05760026	17.41015655	18.44140601
 61	0.50000000	0.50000000	55.49939275	13.49218678	18.20312840
 62	0.50000000	0.60000000	53.01317573	9.16406703	18.01953745
 63	0.50000000	0.70000000	50.03982782	4.18750447	18.05469316
 64	0.50000000	0.80000000	45.54993808	-4.51562452	18.28515840
 65	0.50000000	0.90000000	40.92065096	-10.86328271	18.33203268
 66	0.50000000	1.00000000	40.14552832	-11.49218696	18.23828411
 67	0.60000000	0.00000000	71.38940096	50.43749791	26.94922549
 68	0.60000000	0.10000000	70.17003894	48.50391847	26.46874887
 69	0.60000000	0.20000000	65.75980783	41.56641793	24.82813370
 70	0.60000000	0.30000000	61.08762622	33.81250840	23.01953715
 71	0.60000000	0.40000000	54.92953658	24.42968708	21.70313579
 72	0.60000000	0.50000000	52.63020992	20.55470061	21.17187870
 73	0.60000000	0.60000000	50.41973591	16.93750751	20.55470061
 74	0.60000000	0.70000000	47.54442275	12.28515875	19.83204019
 75	0.60000000	0.80000000	43.34712029	4.50001490	19.13281691
 76	0.60000000	0.90000000	39.51746523	-1.39453280	18.13672316
 77	0.60000000	1.00000000	38.81740272	-2.25390989	17.77344745
 78	0.70000000	0.00000000	67.55821109	57.69141507	35.64063591
 79	0.70000000	0.10000000	66.27757549	55.76953900	34.97266215
 80	0.70000000	0.20000000	61.55943871	48.19922042	32.05469233
 81	0.70000000	0.30000000	57.54902363	40.69532228	28.77735299
 82	0.70000000	0.40000000	51.79687738	31.54298139	26.01172459
 83	0.70000000	0.50000000	49.71047938	28.10156685	25.03125560
 84	0.70000000	0.60000000	47.98253775	24.87500799	24.08203614
 85	0.70000000	0.70000000	45.56372464	20.77735347	22.83204001
 86	0.70000000	0.80000000	41.74326062	13.79297864	20.71876061
 87	0.70000000	0.90000000	38.40686381	6.98047620	18.66798025
 88	0.70000000	1.00000000	37.79411912	5.46093774	18.16797268
 89	0.80000000	0.00000000	64.33210969	63.39843524	45.34765583
 90	0.80000000	0.10000000	63.16176653	61.28124964	44.10547209
 91	0.80000000	0.20000000	58.87255073	53.57422960	39.55469948
 92	0.80000000	0.30000000	55.02297878	46.83985096	35.52345020
 93	0.80000000	0.40000000	49.83762205	37.23828298	30.58594954
 94	0.80000000	0.50000000	48.15563858	33.90235078	29.00781822
 95	0.80000000	0.60000000	46.69423997	31.26172048	27.85938305
 96	0.80000000	0.70000000	44.58792806	27.75782210	26.20312792
 97	0.80000000	0.80000000	41.31740332	20.98438156	22.91797620
 98	0.80000000	0.90000000	37.76348233	12.93360156	19.33593881
 99	0.80000000	1.00000000	36.74172759	10.66798073	18.36328220
 100	0.90000000	0.00000000	62.91053891	64.98047274	49.85547554
 101	0.90000000	0.10000000	61.93780899	62.88281810	48.19922042
 102	0.90000000	0.20000000	58.07598233	55.26953143	42.65626025
 103	0.90000000	0.30000000	54.21109200	48.64063513	38.46484196
 104	0.90000000	0.40000000	49.35508668	39.38671809	32.60548037
 105	0.90000000	0.50000000	47.80484140	36.10156637	30.71094763
 106	0.90000000	0.60000000	46.37101591	33.54688746	29.37890631
 107	0.90000000	0.70000000	44.33670342	30.25000197	27.49218595
 108	0.90000000	0.80000000	41.14277065	23.83203995	23.82813376
 109	0.90000000	0.90000000	37.52604127	15.20703477	19.59766877
 110	0.90000000	1.00000000	36.40165627	12.68360537	18.46484315
 111	1.00000000	0.00000000	60.44577360	65.84766221	56.98047322
 112	1.00000000	0.10000000	59.95251536	63.86328709	54.53516763
 113	1.00000000	0.20000000	57.45251775	56.23437566	46.05859768
 114	1.00000000	0.30000000	53.20619345	49.29296893	42.24609506
 115	1.00000000	0.40000000	49.22947288	41.36718702	35.16406548
 116	1.00000000	0.50000000	47.87990153	38.59376144	32.73829085
 117	1.00000000	0.60000000	46.24693692	35.60548019	30.76172811
 118	1.00000000	0.70000000	44.19577122	32.27343899	28.53126299
 119	1.00000000	0.80000000	40.72304070	26.66797978	24.35546947
 120	1.00000000	0.90000000	37.19056547	17.63282460	19.99219400
 121	1.00000000	1.00000000	36.37867868	15.04297477	19.05859929
END_DATA
