bench/lcms_compat/reference/RISO_MZ770_RedGreen.icc_to_srgb_Relative.it8
CGATS.17
ORIGINATOR	"icctrans"
#
# Data follows
#
NUMBER_OF_SETS	121.00000000
NUMBER_OF_FIELDS	6.00000000
BEGIN_DATA_FORMAT
 SAMPLE_ID	IN_CH1	IN_CH2	OUT_RGB_R	OUT_RGB_G	OUT_RGB_B
END_DATA_FORMAT
BEGIN_DATA
 1	0.00000000	0.00000000	254.99998480	255.00000000	255.00000000
 2	0.00000000	0.10000000	249.01972890	252.63283342	250.40545374
 3	0.00000000	0.20000000	223.79763991	242.20579773	230.45134127
 4	0.00000000	0.30000000	192.69392252	227.93692499	205.60967267
 5	0.00000000	0.40000000	145.74133158	202.18930900	167.18785197
 6	0.00000000	0.50000000	127.96419829	193.74821395	153.94016683
 7	0.00000000	0.60000000	109.77929369	186.20587707	141.57596469
 8	0.00000000	0.70000000	86.84475034	178.03772897	127.51524478
 9	0.00000000	0.80000000	34.61117238	161.95320725	103.04696694
 10	0.00000000	0.90000000	-120.16000986	142.86350280	75.73103830
 11	0.00000000	1.00000000	-149.54055011	140.52869529	70.83916560
 12	0.10000000	0.00000000	257.73126304	238.68242919	239.46087062
 13	0.10000000	0.10000000	250.69241434	235.75780213	234.28434759
 14	0.10000000	0.20000000	222.65715390	223.84325266	213.03333431
 15	0.10000000	0.30000000	192.58438200	211.47367001	190.72418422
 16	0.10000000	0.40000000	149.82292056	191.03415638	159.01895911
 17	0.10000000	0.50000000	133.00316870	182.48646945	146.43791020
 18	0.10000000	0.60000000	116.54805288	175.21580279	134.90046769
 19	0.10000000	0.70000000	96.27758458	167.25193173	121.72570825
 20	0.10000000	0.80000000	53.22781362	151.06587946	97.07855120
 21	0.10000000	0.90000000	-66.99548945	137.47717023	74.54647467
 22	0.10000000	1.00000000	-97.38163054	136.14552408	71.07674405
 23	0.20000000	0.00000000	261.67438745	216.30544513	217.58621961
 24	0.20000000	0.10000000	254.41484660	216.60740733	215.81756651
 25	0.20000000	0.20000000	226.91737890	206.04417175	197.24360079
 26	0.20000000	0.30000000	196.30497515	196.17123753	178.44339520
 27	0.20000000	0.40000000	157.00891256	177.70070225	149.30281967
 28	0.20000000	0.50000000	141.57895893	170.54740369	138.40673715
 29	0.20000000	0.60000000	125.91494545	163.43192071	127.51974374
 30	0.20000000	0.70000000	106.85933277	155.24845183	114.72982004
 31	0.20000000	0.80000000	70.01616016	142.34888881	93.46970245
 32	0.20000000	0.90000000	8.12952697	130.97924531	73.83104146
 33	0.20000000	1.00000000	-31.78294424	129.92240041	70.34894630
 34	0.30000000	0.00000000	264.72471178	192.29842454	193.57635677
 35	0.30000000	0.10000000	257.63043165	189.73397255	189.20476735
 36	0.30000000	0.20000000	229.46122080	180.41711569	172.64496714
 37	0.30000000	0.30000000	202.93438822	172.33573973	158.26690346
 38	0.30000000	0.40000000	165.49729228	154.80606437	131.65942401
 39	0.30000000	0.50000000	151.47467673	149.30101097	122.59023786
 40	0.30000000	0.60000000	137.35022664	144.21936125	114.02858287
 41	0.30000000	0.70000000	120.12584969	137.46230543	103.31560493
 42	0.30000000	0.80000000	88.71166617	128.57145131	86.95004269
 43	0.30000000	0.90000000	54.26048800	120.09406820	71.20184854
 44	0.30000000	1.00000000	47.02456668	118.26846376	68.13992724
 45	0.40000000	0.00000000	266.20353162	166.69738948	166.66917980
 46	0.40000000	0.10000000	259.14849579	164.93887424	163.38285774
 47	0.40000000	0.20000000	231.86320871	157.79635191	150.18730581
 48	0.40000000	0.30000000	206.50803566	151.03833854	137.66214430
 49	0.40000000	0.40000000	172.16769755	139.60038990	119.21470419
 50	0.40000000	0.50000000	157.93937624	135.07805496	111.62456587
 51	0.40000000	0.60000000	144.23322290	130.67620397	103.92224997
 52	0.40000000	0.70000000	127.80331492	126.06559977	95.52622810
 53	0.40000000	0.80000000	99.15215313	118.16758677	81.40952200
 54	0.40000000	0.90000000	74.33936298	109.11676124	67.91539729
 55	0.40000000	1.00000000	70.10892078	107.58491904	65.60806990
 56	0.50000000	0.00000000	265.79950690	149.41220820	147.39434928
 57	0.50000000	0.10000000	259.78099465	148.92741501	145.83204031
 58	0.50000000	0.20000000	234.08736616	142.30044901	134.19514954
 59	0.50000000	0.30000000	208.82164031	136.51431710	123.37049559
 60	0.50000000	0.40000000	176.22578859	127.79753923	108.20519015
 61	0.50000000	0.50000000	163.21799219	123.95492703	102.04653382
 62	0.50000000	0.60000000	149.86461192	120.46400875	96.00612715
 63	0.50000000	0.70000000	134.33293015	116.00525960	88.43737409
 64	0.50000000	0.80000000	108.99272069	109.58547369	76.82085782
 65	0.50000000	0.90000000	86.81889653	101.24726951	65.56978315
 66	0.50000000	1.00000000	83.79719988	99.63675633	63.90799552
 67	0.60000000	0.00000000	265.52172661	133.77902627	129.08937871
 68	0.60000000	0.10000000	258.90354574	132.51059353	126.68495893
 69	0.60000000	0.20000000	235.26890516	127.66260087	117.89590895
 70	0.60000000	0.30000000	209.98437792	122.55084157	108.81726131
 71	0.60000000	0.40000000	178.65580380	114.50250864	95.28472826
 72	0.60000000	0.50000000	166.57464087	111.63662642	90.35739586
 73	0.60000000	0.60000000	155.15394330	108.71128500	85.85599020
 74	0.60000000	0.70000000	140.49013495	104.73721504	79.93146211
 75	0.60000000	0.80000000	117.86617935	99.24344704	70.75574487
 76	0.60000000	0.90000000	98.94051969	93.22343767	63.22785102
 77	0.60000000	1.00000000	95.75350910	91.99116379	62.18521357
 78	0.70000000	0.00000000	265.35824418	114.46802169	104.43966821
 79	0.70000000	0.10000000	258.59980524	113.29265356	102.28782088
 80	0.70000000	0.20000000	233.20224166	109.30575550	95.20298705
 81	0.70000000	0.30000000	210.32765150	106.67312756	90.57263911
 82	0.70000000	0.40000000	180.57953417	100.54095581	80.82534894
 83	0.70000000	0.50000000	169.77944970	98.26674744	77.29593113
 84	0.70000000	0.60000000	160.35461783	96.61953583	74.60200489
 85	0.70000000	0.70000000	147.82556534	93.84910449	70.76528996
 86	0.70000000	0.80000000	127.47494414	89.55288783	64.99051943
 87	0.70000000	0.90000000	108.74258772	85.90118498	60.33422649
 88	0.70000000	1.00000000	104.87589240	85.34492522	59.67640959
 89	0.80000000	0.00000000	264.19961035	97.23305851	79.54384491
 90	0.80000000	0.10000000	257.50987172	96.95031568	78.75560001
 91	0.80000000	0.20000000	233.27475697	95.39815217	75.88190541
 92	0.80000000	0.30000000	212.05525160	93.23717013	73.24280262
 93	0.80000000	0.40000000	183.30163211	90.12180090	68.79562005
 94	0.80000000	0.50000000	173.79794687	89.11623806	67.30689794
 95	0.80000000	0.60000000	165.95769078	87.91034997	65.66176102
 96	0.80000000	0.70000000	155.11875719	85.80133393	63.33757773
 97	0.80000000	0.80000000	136.54456347	83.36128727	60.86013347
 98	0.80000000	0.90000000	115.52637890	80.64662173	58.17455918
 99	0.80000000	1.00000000	109.55658004	79.71361220	57.32045621
 100	0.90000000	0.00000000	262.24347532	90.51388666	67.90910482
 101	0.90000000	0.10000000	256.20046198	90.92803404	68.42384040
 102	0.90000000	0.20000000	233.41864765	90.89521140	68.55450019
 103	0.90000000	0.30000000	212.34713674	88.86384800	66.28010184
 104	0.90000000	0.40000000	184.99395490	86.65439576	64.36595455
 105	0.90000000	0.50000000	175.92113614	86.07361972	63.75651285
 106	0.90000000	0.60000000	168.25971365	84.95854676	62.51349695
 107	0.90000000	0.70000000	157.87643641	82.97625393	60.78558147
 108	0.90000000	0.80000000	139.98117507	80.70084482	59.16625276
 109	0.90000000	0.90000000	118.02500322	78.55526716	57.36934438
 110	0.90000000	1.00000000	111.44494951	77.61829063	56.52737416
 111	1.00000000	0.00000000	256.10899329	81.49709970	47.93346271
 112	1.00000000	0.10000000	251.75830275	83.35756347	51.44285180
 113	1.00000000	0.20000000	233.13623160	87.74515003	60.87704256
 114	1.00000000	0.30000000	210.61526567	85.25764391	57.09969945
 115	1.00000000	0.40000000	187.54896820	84.15925205	59.77642402
 116	1.00000000	0.50000000	179.65861559	83.69753882	60.64925998
 117	1.00000000	0.60000000	170.76858222	82.62766823	60.04093163
 118	1.00000000	0.70000000	160.24787396	80.75376838	58.87756325
 119	1.00000000	0.80000000	142.57567585	77.33843565	57.57441938
 120	1.00000000	0.90000000	120.43880850	76.05398297	56.14387214
 121	1.00000000	1.00000000	114.68184382	75.97429365	55.66830866
END_DATA
