bench/lcms_compat/reference/RISO_MZ770_Black.icc_to_srgb_Perceptual_BPC.it8
CGATS.17
ORIGINATOR	"icctrans"
#
# Data follows
#
NUMBER_OF_SETS	256.00000000
NUMBER_OF_FIELDS	5.00000000
BEGIN_DATA_FORMAT
 SAMPLE_ID	IN_GRAY	OUT_RGB_R	OUT_RGB_G	OUT_RGB_B
END_DATA_FORMAT
BEGIN_DATA
 1	0.00000000	-0.07523666	0.06178639	0.00626784
 2	1.00000000	1.62947725	1.52711822	0.84482595
 3	2.00000000	3.33977878	2.99803699	1.68897137
 4	3.00000000	5.04338387	4.47186082	2.52334152
 5	4.00000000	6.75367305	5.94278041	3.36752441
 6	5.00000000	8.47289270	7.41905915	4.20771134
 7	6.00000000	10.18217493	8.89844516	5.04763300
 8	7.00000000	11.82003619	10.38455492	5.89899536
 9	8.00000000	13.34410686	11.80457292	6.76312362
 10	9.00000000	15.11000510	13.46829465	7.88715840
 11	10.00000000	16.75646245	15.01226865	9.02814740
 12	11.00000000	18.28733761	16.45516902	10.16494950
 13	12.00000000	19.73324172	17.81959601	11.27499249
 14	13.00000000	21.11439161	19.12068229	12.32182587
 15	14.00000000	22.43274607	20.36410477	13.32747420
 16	15.00000000	23.70833192	21.55840918	14.28654084
 17	16.00000000	24.94050320	22.72574075	15.25054721
 18	17.00000000	26.32667452	24.10636436	16.68309979
 19	18.00000000	27.74510231	25.50348479	18.02506618
 20	19.00000000	29.21876963	26.92223366	19.28780492
 21	20.00000000	30.75607974	28.37991714	20.49743012
 22	21.00000000	32.34191515	29.86949231	21.64968219
 23	22.00000000	33.99869084	31.40359350	22.77549528
 24	23.00000000	35.69487423	32.97774643	23.91616747
 25	24.00000000	37.44565308	34.60202627	25.11977378
 26	25.00000000	39.14575405	36.23982199	26.55475158
 27	26.00000000	40.91129512	37.94756815	28.04952107
 28	27.00000000	42.74725020	39.71619084	29.59907982
 29	28.00000000	44.67561632	41.57413535	31.22895487
 30	29.00000000	46.67563900	43.50826576	32.92447329
 31	30.00000000	48.79258901	45.54877147	34.71858881
 32	31.00000000	51.00525208	47.68766150	36.59406178
 33	32.00000000	53.29183638	49.89653237	38.55571032
 34	33.00000000	55.22695854	51.81929380	40.40263921
 35	34.00000000	57.27055348	53.84248003	42.34999672
 36	35.00000000	59.42156486	55.98156005	44.41470332
 37	36.00000000	61.68313131	58.22928004	46.58032492
 38	37.00000000	64.06229764	60.59413254	48.86103474
 39	38.00000000	66.56057239	63.07783127	51.25862628
 40	39.00000000	69.16559860	65.66814467	53.76141138
 41	40.00000000	71.77244112	68.27799663	56.31256029
 42	41.00000000	73.91000122	70.47441557	58.63113888
 43	42.00000000	76.08419135	72.70165086	60.98466419
 44	43.00000000	78.28687996	74.96733248	63.37641545
 45	44.00000000	80.47364742	77.21963882	65.75787306
 46	45.00000000	82.65302807	79.46508273	68.12922701
 47	46.00000000	84.79019299	81.67085677	70.46436131
 48	47.00000000	86.89540923	83.84699240	72.77291983
 49	48.00000000	88.81994516	85.83391339	74.88844112
 50	49.00000000	90.06446198	87.13204533	76.30891889
 51	50.00000000	91.28015354	88.40046287	77.69506931
 52	51.00000000	92.46128976	89.63535100	79.04925585
 53	52.00000000	93.60577315	90.83263636	80.36123425
 54	53.00000000	94.72344518	91.99361086	81.63434833
 55	54.00000000	95.80701783	93.12968150	82.88153261
 56	55.00000000	96.85704589	94.23101440	84.08909261
 57	56.00000000	97.91709021	95.33240810	85.29327840
 58	57.00000000	99.06233355	96.52333260	86.57127142
 59	58.00000000	100.17863005	97.67750546	87.81597823
 60	59.00000000	101.25859290	98.80244270	89.02403221
 61	60.00000000	102.30923653	99.89014953	90.19823000
 62	61.00000000	103.34094957	100.95734507	91.34643719
 63	62.00000000	104.33762088	101.99858800	92.46736184
 64	63.00000000	105.31966299	103.01705495	93.56855795
 65	64.00000000	106.29195482	104.02197942	94.64415103
 66	65.00000000	107.27708995	105.03994480	95.73296741
 67	66.00000000	108.24669152	106.04062110	96.79877982
 68	67.00000000	109.20249224	107.02782333	97.85171092
 69	68.00000000	110.13502300	107.98997730	98.87387887
 70	69.00000000	111.05541721	108.94240379	99.89316657
 71	70.00000000	111.95615128	109.87334624	100.88520214
 72	71.00000000	112.84663349	110.79428002	101.86765462
 73	72.00000000	113.64657417	111.62094846	102.74461716
 74	73.00000000	114.23881039	112.23449394	103.39232281
 75	74.00000000	114.82853875	112.83901870	104.03994486
 76	75.00000000	115.40926918	113.43250126	104.67036143
 77	76.00000000	115.97999096	114.02483627	105.29749498
 78	77.00000000	116.54632017	114.60409999	105.91408789
 79	78.00000000	117.10156918	115.17238230	106.51996538
 80	79.00000000	117.65260801	115.74315727	107.11967200
 81	80.00000000	118.20103258	116.30476713	107.71915823
 82	81.00000000	118.75194222	116.86671138	108.31260279
 83	82.00000000	119.28497761	117.41974130	108.89505073
 84	83.00000000	119.82900202	117.97494471	109.48201284
 85	84.00000000	120.35797924	118.51519972	110.05430773
 86	85.00000000	120.87962285	119.04818192	110.61949700
 87	86.00000000	121.39876619	119.58759338	111.18882045
 88	87.00000000	121.91550806	120.11358395	111.74077123
 89	88.00000000	122.50037268	120.70970356	112.36856595
 90	89.00000000	123.20684597	121.44041955	113.14013734
 91	90.00000000	123.91508996	122.16187924	113.89848545
 92	91.00000000	124.62014973	122.88020790	114.65386212
 93	92.00000000	125.31132504	123.59369561	115.40228516
 94	93.00000000	126.00604936	124.30188641	116.14789635
 95	94.00000000	126.69752106	125.00690818	116.89050570
 96	95.00000000	127.37893850	125.71090400	117.62990043
 97	96.00000000	128.16168129	126.50703728	118.46282333
 98	97.00000000	129.10550505	127.46837810	119.47236836
 99	98.00000000	130.03583193	128.42537194	120.47551453
 100	99.00000000	130.97024739	129.37757045	121.47643402
 101	100.00000000	131.90189660	130.32710910	122.47495964
 102	101.00000000	132.83076435	131.27398789	123.47103059
 103	102.00000000	133.75207812	132.22019792	124.45770085
 104	103.00000000	134.67137039	133.15772921	125.44491827
 105	104.00000000	135.47755033	133.97792280	126.30295023
 106	105.00000000	136.12065822	134.63323563	126.99129090
 107	106.00000000	136.75639451	135.28122246	127.67248034
 108	107.00000000	137.39658415	135.93370825	128.35820675
 109	108.00000000	138.02245617	136.58107191	129.03660715
 110	109.00000000	138.66190106	137.23060906	129.71294045
 111	110.00000000	139.29572225	137.87687838	130.39275438
 112	111.00000000	139.92607802	138.51974308	131.06931567
 113	112.00000000	140.46767056	139.07174706	131.64930135
 114	113.00000000	140.89640915	139.50887561	132.10887909
 115	114.00000000	141.32937312	139.95021433	132.57269740
 116	115.00000000	141.75463110	140.38387746	133.02893132
 117	116.00000000	142.19504267	140.82351387	133.49349439
 118	117.00000000	142.62075663	141.25766337	133.95029068
 119	118.00000000	143.05065036	141.69602305	134.41129714
 120	119.00000000	143.47680509	142.13065892	134.86867100
 121	120.00000000	143.85347128	142.51357198	135.26812077
 122	121.00000000	144.16417301	142.83302844	135.61143994
 123	122.00000000	144.48024005	143.14626843	135.94428688
 124	123.00000000	144.79338884	143.46586168	136.28105521
 125	124.00000000	145.11065662	143.78954351	136.62192732
 126	125.00000000	145.42403340	144.10937995	136.95898443
 127	126.00000000	145.74461460	144.42713410	137.29639113
 128	127.00000000	146.05821937	144.74722892	137.63375223
 129	128.00000000	146.38978958	145.08758426	137.99793988
 130	129.00000000	146.72772825	145.43195218	138.35940689
 131	130.00000000	147.07157940	145.78460366	138.73584509
 132	131.00000000	147.42181420	146.14126772	139.10956264
 133	132.00000000	147.77302176	146.49203449	139.48654801
 134	133.00000000	148.12354535	146.84901774	139.86059994
 135	134.00000000	148.47601444	147.21031755	140.24571687
 136	135.00000000	148.83086979	147.57163256	140.62414616
 137	136.00000000	149.25197840	148.00146550	141.07724905
 138	137.00000000	149.73041832	148.48165333	141.58946157
 139	138.00000000	150.21411717	148.97640198	142.11377263
 140	139.00000000	150.69634169	149.46727484	142.62755066
 141	140.00000000	151.19976908	149.97245014	143.16468984
 142	141.00000000	151.69641763	150.48019409	143.70201141
 143	142.00000000	152.20141053	150.99628240	144.24769253
 144	143.00000000	152.71786362	151.51449859	144.79791820
 145	144.00000000	153.36662561	152.17655987	145.49528718
 146	145.00000000	154.12764877	152.94623137	146.31541997
 147	146.00000000	154.90376472	153.72857898	147.14146525
 148	147.00000000	155.69450229	154.52796489	147.99134284
 149	148.00000000	156.49907112	155.35060555	148.86201292
 150	149.00000000	157.32777625	156.18801981	149.74987328
 151	150.00000000	158.18166643	157.05058873	150.66284269
 152	151.00000000	159.05669868	157.93433011	151.59701496
 153	152.00000000	160.15371501	159.04712319	152.77913153
 154	153.00000000	161.42514199	160.33656120	154.14372951
 155	154.00000000	162.72871524	161.66068375	155.54992765
 156	155.00000000	164.08638239	163.02950710	157.00324327
 157	156.00000000	165.48159152	164.44784939	158.51054639
 158	157.00000000	166.91815764	165.90517759	160.05007178
 159	158.00000000	168.40475947	167.40805775	161.65142745
 160	159.00000000	169.93408620	168.96077603	163.29338014
 161	160.00000000	171.35773301	170.39855808	164.82393801
 162	161.00000000	172.72807628	171.78069592	166.29260480
 163	162.00000000	174.11965281	173.19624156	167.79931515
 164	163.00000000	175.55371106	174.64473903	169.34159160
 165	164.00000000	177.01061368	176.11618727	170.90703160
 166	165.00000000	178.48631769	177.60651290	172.49162257
 167	166.00000000	179.97851282	179.11592871	174.10253853
 168	167.00000000	181.47627085	180.63820302	175.71716309
 169	168.00000000	182.89429396	182.06867427	177.23630637
 170	169.00000000	184.25918072	183.45328957	178.70062619
 171	170.00000000	185.61333686	184.82731104	180.15470177
 172	171.00000000	186.95822150	186.17982566	181.58309072
 173	172.00000000	188.28242004	187.52407193	183.00804466
 174	173.00000000	189.58134234	188.84057969	184.39858764
 175	174.00000000	190.87347060	190.15039980	185.78270137
 176	175.00000000	192.15120524	191.43871307	187.15518773
 177	176.00000000	193.19847465	192.49876499	188.27691793
 178	177.00000000	194.15217787	193.46274287	189.29605365
 179	178.00000000	195.08984596	194.41077679	190.29938221
 180	179.00000000	196.02412462	195.35545170	191.29950374
 181	180.00000000	196.95499867	196.29673719	192.29638785
 182	181.00000000	197.88664788	197.23888904	193.29422951
 183	182.00000000	198.81487727	198.17763627	194.28878814
 184	183.00000000	199.74816799	199.12144482	195.28854489
 185	184.00000000	200.54884583	199.93016303	196.14666045
 186	185.00000000	201.29836321	200.69501638	196.95150286
 187	186.00000000	202.05345869	201.45821303	197.76441604
 188	187.00000000	202.81580418	202.22601503	198.57491255
 189	188.00000000	203.58042955	202.99880236	199.39752281
 190	189.00000000	204.34988827	203.77639264	200.22504240
 191	190.00000000	205.12834489	204.56307203	201.06168151
 192	191.00000000	205.91841370	205.35864294	201.90014452
 193	192.00000000	206.92105830	206.37738347	202.98971325
 194	193.00000000	208.00661445	207.47172475	204.16456461
 195	194.00000000	209.09239858	208.57365042	205.33739448
 196	195.00000000	210.18003702	209.67014998	206.51473850
 197	196.00000000	211.25683844	210.76584399	207.68889070
 198	197.00000000	212.33192235	211.84717476	208.84425670
 199	198.00000000	213.38490665	212.91924924	209.99515414
 200	199.00000000	214.42325413	213.96399558	211.11436129
 201	200.00000000	215.96198916	215.52238315	212.78215259
 202	201.00000000	217.62602627	217.20145226	214.58766371
 203	202.00000000	219.23979968	218.83775085	216.34110242
 204	203.00000000	220.82018048	220.43074697	218.05423290
 205	204.00000000	222.35335261	221.97382897	219.71068561
 206	205.00000000	223.84170234	223.48234802	221.33034110
 207	206.00000000	225.28676480	224.94490474	222.89716423
 208	207.00000000	226.70212805	226.36777639	224.42720532
 209	208.00000000	228.25674623	227.94274628	226.11407161
 210	209.00000000	229.81587857	229.51957047	227.79583097
 211	210.00000000	231.32030904	231.04181439	229.42332923
 212	211.00000000	232.79420435	232.53081769	231.01064086
 213	212.00000000	234.20962840	233.97165477	232.54744560
 214	213.00000000	235.59507966	235.37236601	234.04702753
 215	214.00000000	236.94520801	236.73504889	235.50151348
 216	215.00000000	238.26171577	238.06415677	236.92265242
 217	216.00000000	239.16966945	238.98399621	237.90306062
 218	217.00000000	239.98873830	239.81213897	238.78459811
 219	218.00000000	240.79505503	240.62765121	239.65361148
 220	219.00000000	241.58001691	241.42170221	240.50119400
 221	220.00000000	242.35213548	242.20307708	241.33620679
 222	221.00000000	243.11423779	242.97150224	242.15097427
 223	222.00000000	243.86091292	243.72741848	242.96060443
 224	223.00000000	244.59745020	244.47033942	243.75000447
 225	224.00000000	245.15621781	245.03281564	244.35170978
 226	225.00000000	245.66774637	245.55829704	244.91382122
 227	226.00000000	246.18997514	246.08133137	245.46878904
 228	227.00000000	246.68864518	246.59401506	246.01820916
 229	228.00000000	247.19356209	247.09982872	246.55601710
 230	229.00000000	247.69607753	247.60602236	247.10157663
 231	230.00000000	248.18470091	248.10586274	247.63081223
 232	231.00000000	248.67870480	248.60360563	248.16805780
 233	232.00000000	248.99610937	248.92663389	248.50578368
 234	233.00000000	249.29328382	249.23222870	248.83346289
 235	234.00000000	249.60283041	249.53984499	249.16586906
 236	235.00000000	249.89833295	249.84097123	249.48173851
 237	236.00000000	250.19128203	250.14237106	249.80523795
 238	237.00000000	250.47982335	250.43940872	250.12445122
 239	238.00000000	250.78341186	250.73825508	250.44073105
 240	239.00000000	251.07212037	251.03544474	250.76005071
 241	240.00000000	251.32366687	251.29263014	251.03200972
 242	241.00000000	251.58761591	251.55180663	251.30863488
 243	242.00000000	251.83659375	251.80928081	251.58833027
 244	243.00000000	252.08829224	252.06660300	251.86047167
 245	244.00000000	252.34350175	252.31711596	252.12841809
 246	245.00000000	252.59082288	252.57013679	252.39622772
 247	246.00000000	252.84796268	252.82531589	252.67628789
 248	247.00000000	253.09540540	253.07839751	252.94420391
 249	248.00000000	253.32959443	253.31827104	253.19889665
 250	249.00000000	253.56825203	253.56258273	253.45804274
 251	250.00000000	253.81040543	253.80005479	253.71299386
 252	251.00000000	254.04915422	254.04444247	253.97224635
 253	252.00000000	254.28082019	254.28465039	254.23475146
 254	253.00000000	254.52318639	254.52222884	254.48985457
 255	254.00000000	254.75760341	254.76234555	254.74482089
 256	255.00000000	254.99206603	255.00246227	254.99983281
END_DATA
