bench/lcms_compat/reference/RISO_MZ770_RedGreen.icc_to_srgb_Absolute.it8
CGATS.17
ORIGINATOR	"icctrans"
#
# Data follows
#
NUMBER_OF_SETS	121.00000000
NUMBER_OF_FIELDS	6.00000000
BEGIN_DATA_FORMAT
 SAMPLE_ID	IN_CH1	IN_CH2	OUT_RGB_R	OUT_RGB_G	OUT_RGB_B
END_DATA_FORMAT
BEGIN_DATA
 1	0.00000000	0.00000000	247.20751494	246.93260729	259.67885613
 2	0.00000000	0.10000000	241.39299095	244.65128571	255.02915204
 3	0.00000000	0.20000000	216.88632756	234.59430456	234.83936101
 4	0.00000000	0.30000000	186.66940659	220.81186652	209.69846606
 5	0.00000000	0.40000000	141.06793195	195.89693785	170.78872114
 6	0.00000000	0.50000000	123.79022107	187.73102403	157.38624752
 7	0.00000000	0.60000000	106.10245138	180.43666184	144.88789737
 8	0.00000000	0.70000000	83.78318623	172.53764570	130.69117516
 9	0.00000000	0.80000000	32.74451114	156.96460694	105.98655760
 10	0.00000000	0.90000000	-113.09434980	138.46429646	78.46362367
 11	0.00000000	1.00000000	-140.48473924	136.20521128	73.57634872
 12	0.10000000	0.00000000	250.19164681	231.01257116	243.89916927
 13	0.10000000	0.10000000	243.34114641	228.19474876	238.65621060
 14	0.10000000	0.20000000	216.07405275	216.70802593	217.13992596
 15	0.10000000	0.30000000	186.82530463	204.77932602	194.56232786
 16	0.10000000	0.40000000	145.22939265	185.02787948	162.45576829
 17	0.10000000	0.50000000	128.87548059	176.75962955	149.71698225
 18	0.10000000	0.60000000	112.87453920	169.72977877	138.04797560
 19	0.10000000	0.70000000	93.16083223	162.03043431	124.73630190
 20	0.10000000	0.80000000	51.29009239	146.36427015	99.84403521
 21	0.10000000	0.90000000	-62.96243906	133.21446776	77.17268854
 22	0.10000000	1.00000000	-91.42565534	131.93060786	73.70816365
 23	0.20000000	0.00000000	254.44112599	209.16087091	221.70106441
 24	0.20000000	0.10000000	247.31936574	209.49625611	219.91301715
 25	0.20000000	0.20000000	220.52995205	199.33611810	201.09600127
 26	0.20000000	0.30000000	190.68256885	189.85527724	182.06172824
 27	0.20000000	0.40000000	152.45780557	172.02096462	152.55178213
 28	0.20000000	0.50000000	137.44265288	165.11097461	141.51875496
 29	0.20000000	0.60000000	122.20260546	158.23577553	130.49971104
 30	0.20000000	0.70000000	103.66742045	150.32759428	117.56446034
 31	0.20000000	0.80000000	67.83020586	137.86373109	96.09830260
 32	0.20000000	0.90000000	7.87726611	126.87504753	76.32816106
 33	0.20000000	1.00000000	-29.60906569	125.86203709	72.85074726
 34	0.30000000	0.00000000	257.78385222	185.69278300	197.35295892
 35	0.30000000	0.10000000	250.86459070	183.23442131	192.91991919
 36	0.30000000	0.20000000	223.38255018	174.31370080	176.13149285
 37	0.30000000	0.30000000	197.48698533	166.58014297	161.55448705
 38	0.30000000	0.40000000	161.03421897	149.67664361	134.59019154
 39	0.30000000	0.50000000	147.37417996	144.37600404	125.40793106
 40	0.30000000	0.60000000	133.61025453	139.48566645	116.74281523
 41	0.30000000	0.70000000	116.83288559	132.97211677	105.90129018
 42	0.30000000	0.80000000	86.22555077	124.41996887	89.37419862
 43	0.30000000	0.90000000	52.71641806	116.25144839	73.50875795
 44	0.30000000	1.00000000	45.69801986	114.48795542	70.42687252
 45	0.40000000	0.00000000	259.55796182	160.62987506	170.09896696
 46	0.40000000	0.10000000	252.66420454	158.96588355	166.76178843
 47	0.40000000	0.20000000	226.00966841	152.18840003	153.36806953
 48	0.40000000	0.30000000	201.24660999	145.76104492	140.66238731
 49	0.40000000	0.40000000	167.72527993	134.80726629	121.94906786
 50	0.40000000	0.50000000	153.83957863	130.47487557	114.25606146
 51	0.40000000	0.60000000	140.47265589	126.25349209	106.45802110
 52	0.40000000	0.70000000	124.44353521	121.83773383	97.96143383
 53	0.40000000	0.80000000	96.49995625	114.26068962	83.68765935
 54	0.40000000	0.90000000	72.33592808	105.53046048	70.04655853
 55	0.40000000	1.00000000	68.22139487	104.05152664	67.71745071
 56	0.50000000	0.00000000	259.35529590	143.68099093	150.60329229
 57	0.50000000	0.10000000	253.46296728	143.26280057	149.00923222
 58	0.50000000	0.20000000	228.35481137	136.99667841	137.18405396
 59	0.50000000	0.30000000	203.66157800	131.53874248	126.18820399
 60	0.50000000	0.40000000	171.81931704	123.25293750	110.79525277
 61	0.50000000	0.50000000	159.11371082	119.58485752	104.54397261
 62	0.50000000	0.60000000	146.07046992	116.25877440	98.41729537
 63	0.50000000	0.70000000	130.90831071	111.99602634	90.74754372
 64	0.50000000	0.80000000	106.17495909	105.86194709	78.99042740
 65	0.50000000	0.90000000	84.54325944	97.83074364	67.58676052
 66	0.50000000	1.00000000	81.59448087	96.27380759	65.89665681
 67	0.60000000	0.00000000	259.24111962	128.31355155	132.12178320
 68	0.60000000	0.10000000	252.76875973	127.13854820	129.67213064
 69	0.60000000	0.20000000	229.65657592	122.62122139	120.72024420
 70	0.60000000	0.30000000	204.92873400	117.84729436	111.47222444
 71	0.60000000	0.40000000	174.31291044	110.23004830	97.71986559
 72	0.60000000	0.50000000	162.50550002	107.51961574	92.71334544
 73	0.60000000	0.60000000	151.34125829	104.74277034	88.13477352
 74	0.60000000	0.70000000	137.00874656	100.95961735	82.11078197
 75	0.60000000	0.80000000	114.90481585	95.73384136	72.80026317
 76	0.60000000	0.90000000	96.40759081	89.96239185	65.14067978
 77	0.60000000	1.00000000	93.28771502	88.77675667	64.07071039
 78	0.70000000	0.00000000	259.25595403	109.25486863	107.31660783
 79	0.70000000	0.10000000	252.64474958	108.18410888	105.11714146
 80	0.70000000	0.20000000	227.79385507	104.57321584	97.85600469
 81	0.70000000	0.30000000	205.39925516	102.24602312	93.07539001
 82	0.70000000	0.40000000	176.30181491	96.52696520	83.12305525
 83	0.70000000	0.50000000	165.73836654	94.39730868	79.52066615
 84	0.70000000	0.60000000	156.51776612	92.86662161	76.76727310
 85	0.70000000	0.70000000	144.26080942	90.25829718	72.84538954
 86	0.70000000	0.80000000	124.34898108	86.21023759	66.93746656
 87	0.70000000	0.90000000	106.01486608	82.76678637	62.16587260
 88	0.70000000	1.00000000	102.22744212	82.24707305	61.48673125
 89	0.80000000	0.00000000	258.25399339	92.15417504	82.41627038
 90	0.80000000	0.10000000	251.70404166	91.98405817	81.57428876
 91	0.80000000	0.20000000	227.97382861	90.81825793	78.50596860
 92	0.80000000	0.30000000	207.19421804	88.97520483	75.69559380
 93	0.80000000	0.40000000	179.04133111	86.25562996	71.03778094
 94	0.80000000	0.50000000	169.73619282	85.37109062	69.48370993
 95	0.80000000	0.60000000	162.06191182	84.26797181	67.78364316
 96	0.80000000	0.70000000	151.45110279	82.30505794	65.37797704
 97	0.80000000	0.80000000	133.25749665	80.08161485	62.77339920
 98	0.80000000	0.90000000	112.66526923	77.58981496	59.95524622
 99	0.80000000	1.00000000	106.81564271	76.71960846	59.06355187
 100	0.90000000	0.00000000	256.38698637	85.47562301	70.86774766
 101	0.90000000	0.10000000	250.46622008	85.99891573	71.31363854
 102	0.90000000	0.20000000	228.14939439	86.34570792	71.21561900
 103	0.90000000	0.30000000	207.51557440	84.64375645	68.75516742
 104	0.90000000	0.40000000	180.72284728	82.81916276	66.61088929
 105	0.90000000	0.50000000	171.83536738	82.35349014	65.93312725
 106	0.90000000	0.60000000	164.33379471	81.34155884	64.63176548
 107	0.90000000	0.70000000	154.16557074	79.50316429	62.81890176
 108	0.90000000	0.80000000	136.63162440	77.44427517	61.06617741
 109	0.90000000	0.90000000	115.11408582	75.52682966	59.13035989
 110	0.90000000	1.00000000	108.66598383	74.65914622	58.24694529
 111	1.00000000	0.00000000	250.44632435	76.54436186	51.28733754
 112	1.00000000	0.10000000	246.17702544	78.50001052	54.62520383
 113	1.00000000	0.20000000	227.90775776	83.21572468	63.63309927
 114	1.00000000	0.30000000	205.86441100	81.09307498	59.66306470
 115	1.00000000	0.40000000	183.25097322	80.32470301	62.06056885
 116	1.00000000	0.50000000	175.51314443	79.96803895	62.85023868
 117	1.00000000	0.60000000	166.80369258	79.01917666	62.16480486
 118	1.00000000	0.70000000	156.49729282	77.29315728	60.90828829
 119	1.00000000	0.80000000	139.17595267	74.12139907	59.44547698
 120	1.00000000	0.90000000	117.48254433	73.06078479	57.88175449
 121	1.00000000	1.00000000	111.84214219	73.02785575	57.37986982
END_DATA
