bench/lcms_compat/reference/RISO_MZ770_RedGreen.icc_to_lab_Perceptual.it8
CGATS.17
ORIGINATOR	"icctrans"
#
# Data follows
#
NUMBER_OF_SETS	121.00000000
NUMBER_OF_FIELDS	6.00000000
BEGIN_DATA_FORMAT
 SAMPLE_ID	IN_CH1	IN_CH2	OUT_LAB_L	OUT_LAB_A	OUT_LAB_B
END_DATA_FORMAT
BEGIN_DATA
 1	0.00000000	0.00000000	100.00000000	-0.00000763	-0.00000763
 2	0.00000000	0.10000000	98.48192334	-1.88281420	0.77344847
 3	0.00000000	0.20000000	92.06495285	-9.56640470	4.23828495
 4	0.00000000	0.30000000	83.91850591	-18.17968372	8.21484756
 5	0.00000000	0.40000000	70.55147290	-29.31250113	13.62501246
 6	0.00000000	0.50000000	66.06004834	-34.28515750	15.91797662
 7	0.00000000	0.60000000	61.93474531	-39.91796765	18.41796887
 8	0.00000000	0.70000000	57.34681487	-47.56640244	21.89844531
 9	0.00000000	0.80000000	48.51562381	-63.96484810	29.49218583
 10	0.00000000	0.90000000	37.29013503	-119.20312434	40.91406894
 11	0.00000000	1.00000000	35.49019694	-128.00000000	42.80469549
 12	0.10000000	0.00000000	94.63694692	8.34375185	2.52735835
 13	0.10000000	0.10000000	92.74356365	6.23437864	3.18359834
 14	0.10000000	0.20000000	85.32935381	-2.05078039	6.14063007
 15	0.10000000	0.30000000	77.92739272	-11.11327890	9.50782698
 16	0.10000000	0.40000000	66.70649648	-22.83984485	13.83985293
 17	0.10000000	0.50000000	62.14307547	-27.50781077	15.76954138
 18	0.10000000	0.60000000	58.09283257	-32.82812569	18.04688078
 19	0.10000000	0.70000000	53.51256132	-40.16015145	21.30078298
 20	0.10000000	0.80000000	44.20802593	-57.94921610	29.96875626
 21	0.10000000	0.90000000	34.98314917	-121.26171850	38.39843673
 22	0.10000000	1.00000000	33.69025886	-128.00000000	39.29296952
 23	0.20000000	0.00000000	87.71446347	19.92188257	6.79297906
 24	0.20000000	0.10000000	86.82597876	16.32422042	6.64845002
 25	0.20000000	0.20000000	79.81924415	7.89063376	8.50392085
 26	0.20000000	0.30000000	72.93045521	-2.44531322	10.61329406
 27	0.20000000	0.40000000	62.41881251	-13.58984160	14.67579287
 28	0.20000000	0.50000000	58.33333731	-18.29297084	16.37500089
 29	0.20000000	0.60000000	54.21721935	-23.48046768	18.42578125
 30	0.20000000	0.70000000	49.34283197	-30.64843345	21.55079436
 31	0.20000000	0.80000000	41.01409316	-49.44531041	29.75000960
 32	0.20000000	0.90000000	32.29932785	-115.82812454	34.69922882
 33	0.20000000	1.00000000	30.91452420	-128.00000000	34.91406929
 34	0.30000000	0.00000000	80.63266277	32.05859852	12.25390923
 35	0.30000000	0.10000000	78.79595757	29.90235102	12.45312494
 36	0.30000000	0.20000000	71.88112736	20.93360108	13.29687726
 37	0.30000000	0.30000000	65.74602127	12.05469352	13.97266340
 38	0.30000000	0.40000000	55.08118868	1.83594745	17.35546988
 39	0.30000000	0.50000000	51.39706135	-2.89843890	18.96875691
 40	0.30000000	0.60000000	47.84007370	-8.25781572	20.82422775
 41	0.30000000	0.70000000	43.20312440	-15.22655818	23.92969471
 42	0.30000000	0.80000000	35.80576181	-36.04687217	30.08203578
 43	0.30000000	0.90000000	27.44179070	-109.35156207	29.11719155
 44	0.30000000	1.00000000	25.50704777	-128.00000000	27.37109405
 45	0.40000000	0.00000000	73.39307666	44.39843637	19.78907210
 46	0.40000000	0.10000000	71.73407078	42.04687935	19.59766877
 47	0.40000000	0.20000000	65.30637741	33.04297370	19.32422024
 48	0.40000000	0.30000000	59.38112736	24.50782609	19.60548115
 49	0.40000000	0.40000000	50.62347054	13.57423198	21.10156727
 50	0.40000000	0.50000000	47.00520933	8.53126419	22.30859530
 51	0.40000000	0.60000000	43.43137443	3.28906548	24.34375089
 52	0.40000000	0.70000000	39.32598233	-4.12499788	27.44140548
 53	0.40000000	0.80000000	31.58241510	-26.44921798	30.55079383
 54	0.40000000	0.90000000	21.90104127	-100.91015543	22.67579240
 55	0.40000000	1.00000000	19.88051534	-121.47265610	19.66407400
 56	0.50000000	0.00000000	68.60294342	52.19531399	26.35546935
 57	0.50000000	0.10000000	67.41268635	49.83203840	25.72266650
 58	0.50000000	0.20000000	61.15196347	41.83594507	25.11719179
 59	0.50000000	0.30000000	55.23437858	33.39062464	24.82813370
 60	0.50000000	0.40000000	47.15073407	22.56641906	26.07422364
 61	0.50000000	0.50000000	43.72855425	18.17578506	27.16797215
 62	0.50000000	0.60000000	40.29718339	13.03516251	28.89063251
 63	0.50000000	0.70000000	35.98805368	6.38281387	32.41796803
 64	0.50000000	0.80000000	28.34405899	-14.77734628	32.68751037
 65	0.50000000	0.90000000	17.81709641	-83.96484311	18.60938740
 66	0.50000000	1.00000000	15.46875089	-99.86718740	14.08984911
 67	0.60000000	0.00000000	64.53125477	59.29687452	34.20312744
 68	0.60000000	0.10000000	62.96109557	57.19140750	33.79297745
 69	0.60000000	0.20000000	57.29320049	49.80469507	32.69922894
 70	0.60000000	0.30000000	51.24387741	41.71485317	31.92578804
 71	0.60000000	0.40000000	43.03768277	32.20703375	34.33593792
 72	0.60000000	0.50000000	39.83455896	28.16797209	36.27343875
 73	0.60000000	0.60000000	36.64062619	24.32031375	39.13281572
 74	0.60000000	0.70000000	32.09099472	17.96485078	42.22265792
 75	0.60000000	0.80000000	24.02726710	-1.19530949	35.98438066
 76	0.60000000	0.90000000	13.67953569	-55.57030815	15.42187524
 77	0.60000000	1.00000000	11.00183800	-69.30859256	9.35547036
 78	0.70000000	0.00000000	59.89736915	67.99609733	48.95703655
 79	0.70000000	0.10000000	58.23529959	66.01953459	48.66016608
 80	0.70000000	0.20000000	52.07414627	58.44140363	47.73438376
 81	0.70000000	0.30000000	46.72947228	51.00781691	46.35937434
 82	0.70000000	0.40000000	38.74081075	42.65235406	53.84375674
 83	0.70000000	0.50000000	35.67095697	39.57032424	58.86328739
 84	0.70000000	0.60000000	32.94730484	36.16406542	59.72266448
 85	0.70000000	0.70000000	28.72855663	30.86328906	55.73438329
 86	0.70000000	0.80000000	20.49632370	16.41015661	39.69922853
 87	0.70000000	0.90000000	9.56495106	-24.71483904	13.25000298
 88	0.70000000	1.00000000	6.50428981	-38.40624917	5.73438627
 89	0.80000000	0.00000000	55.95282316	75.08203310	74.94531643
 90	0.80000000	0.10000000	54.40564156	72.98047227	74.98437834
 91	0.80000000	0.20000000	48.68719280	65.58204126	76.59375918
 92	0.80000000	0.30000000	43.42830777	59.49609023	78.00390911
 93	0.80000000	0.40000000	35.98345816	51.35156167	75.30077976
 94	0.80000000	0.50000000	33.37775767	48.40234232	71.97656614
 95	0.80000000	0.60000000	30.93596995	45.85938197	68.10937685
 96	0.80000000	0.70000000	27.05882490	42.02734840	60.85938108
 97	0.80000000	0.80000000	19.64001209	31.50391948	44.05078542
 98	0.80000000	0.90000000	6.71262294	1.04688179	12.34375161
 99	0.80000000	1.00000000	1.61151979	-19.33593887	-0.49609381
 100	0.90000000	0.00000000	54.17585969	77.24609298	100.08593780
 101	0.90000000	0.10000000	52.87224650	75.15625072	97.83203554
 102	0.90000000	0.20000000	47.67310023	67.89453638	92.15234351
 103	0.90000000	0.30000000	42.37285554	62.18750101	87.82812995
 104	0.90000000	0.40000000	35.32628715	54.60157287	77.93359768
 105	0.90000000	0.50000000	32.87530839	51.66407210	73.66016459
 106	0.90000000	0.60000000	30.44730425	49.32421845	69.29687393
 107	0.90000000	0.70000000	26.63756311	46.02734816	61.79297578
 108	0.90000000	0.80000000	19.28921640	37.29687583	45.12500298
 109	0.90000000	0.90000000	5.66023290	11.02344406	11.94532019
 110	0.90000000	1.00000000	0.17003677	-10.69530892	-1.34765851
 111	1.00000000	0.00000000	51.10906959	79.28906095	112.84765941
 112	1.00000000	0.10000000	50.40288568	77.19140631	110.34374577
 113	1.00000000	0.20000000	46.90716863	69.42577821	99.34374642
 114	1.00000000	0.30000000	41.07230306	63.84375614	91.56250876
 115	1.00000000	0.40000000	35.21139920	57.34765512	80.20312470
 116	1.00000000	0.50000000	33.06525946	54.94922382	75.76563162
 117	1.00000000	0.60000000	30.28798997	52.31249970	70.35937291
 118	1.00000000	0.70000000	26.42157078	49.22656369	62.49609005
 119	1.00000000	0.80000000	18.24142188	43.32812500	44.35546827
 120	1.00000000	0.90000000	4.12224270	21.35156345	10.78126025
 121	1.00000000	1.00000000	0.00000000	0.00780475	0.00780475
END_DATA
