bench/lcms_compat/reference/RISO_MZ770_Black.icc_to_lab_Relative_BPC.it8
CGATS.17
ORIGINATOR	"icctrans"
#
# Data follows
#
NUMBER_OF_SETS	256.00000000
NUMBER_OF_FIELDS	5.00000000
BEGIN_DATA_FORMAT
 SAMPLE_ID	IN_GRAY	OUT_LAB_L	OUT_LAB_A	OUT_LAB_B
END_DATA_FORMAT
BEGIN_DATA
 1	0.00000000	0.00000147	0.73358101	22.89557260
 2	1.00000000	0.44099507	0.72216642	22.99088669
 3	2.00000000	0.88422708	0.69553745	23.09899849
 4	3.00000000	1.33563178	0.68394047	23.19609088
 5	4.00000000	1.78934652	0.65684032	23.30610257
 6	5.00000000	2.23935451	0.62937540	23.40173584
 7	6.00000000	2.70368457	0.61710966	23.50063694
 8	7.00000000	3.16432565	0.58917356	23.61104381
 9	8.00000000	3.63338329	0.57664943	23.71008170
 10	9.00000000	4.21539843	0.54886532	23.83854520
 11	10.00000000	4.80105281	0.52074683	23.96713030
 12	11.00000000	5.39037399	0.49220276	24.09586740
 13	12.00000000	5.99586889	0.46335471	24.22800910
 14	13.00000000	6.60521761	0.43411148	24.36030281
 15	14.00000000	7.22475871	0.40450346	24.49439001
 16	15.00000000	7.86100328	0.37456107	24.63192743
 17	16.00000000	8.50356370	0.32920671	24.75460005
 18	17.00000000	9.37045962	0.26576531	24.83401579
 19	18.00000000	10.18916145	0.20993870	24.81560957
 20	19.00000000	10.98750681	0.17305028	24.70840973
 21	20.00000000	11.75317764	0.12707275	24.51934707
 22	21.00000000	12.49984279	0.08522940	24.25171983
 23	22.00000000	13.23433667	0.04671466	23.89139277
 24	23.00000000	13.94923329	0.01128536	23.47397757
 25	24.00000000	14.68918175	-0.02168167	22.94316125
 26	25.00000000	15.64281583	-0.06200510	22.12941211
 27	26.00000000	16.58566445	-0.09890872	21.15759146
 28	27.00000000	17.51934439	-0.14230239	20.04122657
 29	28.00000000	18.44883263	-0.17332393	18.75701708
 30	29.00000000	19.37843263	-0.21097231	17.44417232
 31	30.00000000	20.31851858	-0.23746449	16.30929482
 32	31.00000000	21.25566602	-0.27047712	15.34528655
 33	32.00000000	22.22484052	-0.30915904	14.46516258
 34	33.00000000	23.25061560	-0.32963234	13.62037671
 35	34.00000000	24.29342717	-0.35632211	12.87286562
 36	35.00000000	25.34966171	-0.38146156	12.18972307
 37	36.00000000	26.42442882	-0.40529388	11.58462834
 38	37.00000000	27.51169801	-0.43474990	11.02376324
 39	38.00000000	28.61912251	-0.46277720	10.51392180
 40	39.00000000	29.73598242	-0.48966455	10.04417580
 41	40.00000000	30.85512817	-0.51562476	9.61075586
 42	41.00000000	31.93160594	-0.52894685	9.23249376
 43	42.00000000	32.99493194	-0.54225373	8.88774586
 44	43.00000000	34.05130506	-0.55552262	8.57076687
 45	44.00000000	35.07682681	-0.57476479	8.27559870
 46	45.00000000	36.07376814	-0.58829206	8.01069212
 47	46.00000000	37.03745306	-0.60201693	7.77299207
 48	47.00000000	37.96551228	-0.61597738	7.54766417
 49	48.00000000	38.81043494	-0.62509689	7.35571367
 50	49.00000000	39.40307200	-0.63094857	7.22949964
 51	50.00000000	39.97200727	-0.63700545	7.10988206
 52	51.00000000	40.52206278	-0.63787180	7.00145108
 53	52.00000000	41.05162919	-0.64431626	6.89250332
 54	53.00000000	41.56117737	-0.64561579	6.79942352
 55	54.00000000	42.05321074	-0.65238702	6.70474780
 56	55.00000000	42.52808094	-0.65404373	6.61378068
 57	56.00000000	43.00447106	-0.65573844	6.53013957
 58	57.00000000	43.52702200	-0.66231969	6.43930924
 59	58.00000000	44.03251410	-0.66388521	6.35726404
 60	59.00000000	44.51927543	-0.66563311	6.27845627
 61	60.00000000	44.98763382	-0.66754821	6.20258194
 62	61.00000000	45.44385970	-0.66959250	6.12904829
 63	62.00000000	45.88419199	-0.67176598	6.06314462
 64	63.00000000	46.31281197	-0.67405346	5.99397314
 65	64.00000000	46.73775136	-0.67639413	5.93136770
 66	65.00000000	47.17276096	-0.67870441	5.86921823
 67	66.00000000	47.60022163	-0.68107548	5.80851269
 68	67.00000000	48.01443517	-0.68356055	5.74953985
 69	68.00000000	48.41943681	-0.68612921	5.69196534
 70	69.00000000	48.81726503	-0.68875867	5.64066809
 71	70.00000000	49.20609593	-0.69144893	5.58551025
 72	71.00000000	49.58795309	-0.68930584	5.53644729
 73	72.00000000	49.92851913	-0.69231528	5.48999858
 74	73.00000000	50.18430352	-0.69092456	5.45297337
 75	74.00000000	50.43576956	-0.69445077	5.42145026
 76	75.00000000	50.68296194	-0.69312844	5.39038312
 77	76.00000000	50.92778206	-0.69183651	5.35471064
 78	77.00000000	51.16648674	-0.69059777	5.32452506
 79	78.00000000	51.40287280	-0.69421518	5.29464346
 80	79.00000000	51.63508058	-0.69304484	5.26517224
 81	80.00000000	51.86689496	-0.69188970	5.23592901
 82	81.00000000	52.09645629	-0.69074976	5.20697457
 83	82.00000000	52.32375264	-0.69442797	5.17832410
 84	83.00000000	52.54882574	-0.69334123	5.15482616
 85	84.00000000	52.77166963	-0.69226208	5.12670767
 86	85.00000000	52.99044251	-0.69123614	5.09892356
 87	86.00000000	53.20702195	-0.69498274	5.07624638
 88	87.00000000	53.42327952	-0.69397199	5.04888785
 89	88.00000000	53.66342068	-0.69285485	5.02083015
 90	89.00000000	53.96074057	-0.69152492	4.99096376
 91	90.00000000	54.25562859	-0.69492954	4.95661360
 92	91.00000000	54.54627275	-0.69363001	4.92749196
 93	92.00000000	54.83453274	-0.69238368	4.89390177
 94	93.00000000	55.12043834	-0.69117534	4.86541849
 95	94.00000000	55.40400743	-0.69465595	4.83246666
 96	95.00000000	55.68524003	-0.69347802	4.80457616
 97	96.00000000	56.00451231	-0.69214809	4.77100116
 98	97.00000000	56.38904572	-0.69059777	4.73102731
 99	98.00000000	56.77089691	-0.68909305	4.68678248
 100	99.00000000	57.15191364	-0.68759593	4.64767498
 101	100.00000000	57.52849579	-0.69080296	4.60903865
 102	101.00000000	57.90249109	-0.68938184	4.57082790
 103	102.00000000	58.27392340	-0.68802911	4.53299713
 104	103.00000000	58.64281058	-0.68668398	4.50022769
 105	104.00000000	58.96590948	-0.68553644	4.46420562
 106	105.00000000	59.22184587	-0.68463969	4.43933976
 107	106.00000000	59.47924256	-0.68372774	4.41458029
 108	107.00000000	59.73272324	-0.68286139	4.38541305
 109	108.00000000	59.98587608	-0.68200263	4.36103356
 110	109.00000000	60.23872495	-0.68117428	4.33679086
 111	110.00000000	60.48768759	-0.68036112	4.31274575
 112	111.00000000	60.73812246	-0.67953277	4.28418648
 113	112.00000000	60.95255613	-0.67884880	4.26574987
 114	113.00000000	61.12394929	-0.67830163	4.24828601
 115	114.00000000	61.29519939	-0.67776206	4.23089814
 116	115.00000000	61.46275997	-0.67724529	4.21363187
 117	116.00000000	61.63195968	-0.67217636	4.19639599
 118	117.00000000	61.80281639	-0.67165199	4.17916012
 119	118.00000000	61.96998954	-0.67114282	4.16207623
 120	119.00000000	62.13880181	-0.67063364	4.14499235
 121	120.00000000	62.28442192	-0.67020807	4.12842524
 122	121.00000000	62.40687966	-0.66983569	4.11234450
 123	122.00000000	62.52927184	-0.66494915	4.10085392
 124	123.00000000	62.65159249	-0.66459957	4.08481878
 125	124.00000000	62.77208924	-0.66424999	4.07343459
 126	125.00000000	62.89605498	-0.66388521	4.05741465
 127	126.00000000	63.01818490	-0.65902147	4.04603046
 128	127.00000000	63.14201951	-0.65867189	4.03010172
 129	128.00000000	63.26933503	-0.65832990	4.01868713
 130	129.00000000	63.40363622	-0.65794232	4.00262159
 131	130.00000000	63.53786588	-0.65306339	3.98658645
 132	131.00000000	63.67202401	-0.65269861	3.97058171
 133	132.00000000	63.80786300	-0.65233383	3.95913672
 134	133.00000000	63.94539475	-0.65195385	3.94314718
 135	134.00000000	64.08284307	-0.64709771	3.92718804
 136	135.00000000	64.22022581	-0.64673293	3.91127449
 137	136.00000000	64.38391209	-0.64629975	3.89493537
 138	137.00000000	64.56508636	-0.64134482	3.87385410
 139	138.00000000	64.75315094	-0.64086604	3.85269684
 140	139.00000000	64.94107246	-0.63592631	3.83612972
 141	140.00000000	65.12886286	-0.63543993	3.81509405
 142	141.00000000	65.32176733	-0.63047740	3.79402798
 143	142.00000000	65.51454067	-0.63001382	3.77303791
 144	143.00000000	65.71241021	-0.62507409	3.75203264
 145	144.00000000	65.95910788	-0.62449652	3.72584444
 146	145.00000000	66.24924541	-0.61935160	3.69015676
 147	146.00000000	66.54431224	-0.61422187	3.65901363
 148	147.00000000	66.84255004	-0.60911494	3.62346274
 149	148.00000000	67.14916229	-0.60843858	3.59241080
 150	149.00000000	67.46240258	-0.60331646	3.55693591
 151	150.00000000	67.78224707	-0.59820953	3.52150661
 152	151.00000000	68.11214089	-0.59310260	3.48610771
 153	152.00000000	68.52485538	-0.58784369	3.44092053
 154	153.00000000	68.99755597	-0.58249357	3.38637066
 155	154.00000000	69.48334575	-0.57275850	3.33197278
 156	155.00000000	69.98561025	-0.56742358	3.27769649
 157	156.00000000	70.50429583	-0.55772650	3.22354180
 158	157.00000000	71.03590369	-0.54803702	3.16514653
 159	158.00000000	71.58209682	-0.53838554	3.10252589
 160	159.00000000	72.14111686	-0.53312662	3.04452580
 161	160.00000000	72.66159058	-0.52359673	2.98717928
 162	161.00000000	73.15567136	-0.51415804	2.93033433
 163	162.00000000	73.66102338	-0.50474215	2.87365657
 164	163.00000000	74.17759895	-0.49533385	2.81713080
 165	164.00000000	74.70026612	-0.48597115	2.75644046
 166	165.00000000	75.22732615	-0.47663885	2.70034027
 167	166.00000000	75.76045394	-0.46733695	2.64009070
 168	167.00000000	76.29626393	-0.45808065	2.58009952
 169	168.00000000	76.79582834	-0.44890034	2.52921265
 170	169.00000000	77.27788687	-0.43975043	2.47864497
 171	170.00000000	77.75434256	-0.43494749	2.42825967
 172	171.00000000	78.22014689	-0.42588878	2.37813276
 173	172.00000000	78.68376970	-0.41684526	2.33245921
 174	173.00000000	79.13681269	-0.41211832	2.28701365
 175	174.00000000	79.58604693	-0.40316600	2.23740351
 176	175.00000000	80.02979755	-0.39419848	2.19226193
 177	176.00000000	80.39088249	-0.38960832	2.15620947
 178	177.00000000	80.71645498	-0.38506377	2.12468636
 179	178.00000000	81.03679419	-0.38053441	2.09325445
 180	179.00000000	81.35691881	-0.37602025	2.05759716
 181	180.00000000	81.67348504	-0.37149090	2.02630204
 182	181.00000000	81.99152350	-0.36700714	1.99505252
 183	182.00000000	82.30769634	-0.35826761	1.96387899
 184	183.00000000	82.62367845	-0.35375345	1.93275106
 185	184.00000000	82.89435506	-0.34933048	1.90612209
 186	185.00000000	83.14820528	-0.34489232	1.87958431
 187	186.00000000	83.40193629	-0.34048456	1.85307693
 188	187.00000000	83.65720510	-0.33604640	1.82659996
 189	188.00000000	83.91236663	-0.33163863	1.80016857
 190	189.00000000	84.17072892	-0.32724607	1.77376759
 191	190.00000000	84.43064690	-0.32285351	1.74738181
 192	191.00000000	84.69043970	-0.31844574	1.72104162
 193	192.00000000	85.02498865	-0.31399238	1.68173653
 194	193.00000000	85.38429737	-0.30534405	1.63819087
 195	194.00000000	85.74171662	-0.29668051	1.59894657
 196	195.00000000	86.10057831	-0.28801697	1.55553770
 197	196.00000000	86.45424247	-0.28362441	1.51644540
 198	197.00000000	86.80604100	-0.27499127	1.47318852
 199	198.00000000	87.15431094	-0.26635814	1.43423301
 200	199.00000000	87.49410510	-0.25775540	1.39535350
 201	200.00000000	87.99268603	-0.24910706	1.33504313
 202	201.00000000	88.52562904	-0.23627895	1.27056819
 203	202.00000000	89.04489875	-0.22342044	1.21045542
 204	203.00000000	89.54889178	-0.21060753	1.15049464
 205	204.00000000	90.03930092	-0.20205039	1.09067065
 206	205.00000000	90.51451683	-0.18928307	1.03517842
 207	206.00000000	90.97457528	-0.18075633	0.97980779
 208	207.00000000	91.42115712	-0.16804981	0.92454356
 209	208.00000000	91.90860987	-0.15952307	0.87348950
 210	209.00000000	92.39245057	-0.15104192	0.81834686
 211	210.00000000	92.86282063	-0.14254558	0.76747519
 212	211.00000000	93.31811070	-0.12988466	0.71670991
 213	212.00000000	93.75999570	-0.12144911	0.67021561
 214	213.00000000	94.18685436	-0.11299837	0.62378210
 215	214.00000000	94.60363984	-0.10456282	0.57740939
 216	215.00000000	95.00873089	-0.09615767	0.53529245
 217	216.00000000	95.28578520	-0.09194750	0.50583643
 218	217.00000000	95.53488493	-0.08775252	0.47639561
 219	218.00000000	95.77572346	-0.08355755	0.45119536
 220	219.00000000	96.01485133	-0.07518280	0.42599511
 221	220.00000000	96.24900222	-0.07097262	0.40082526
 222	221.00000000	96.47654295	-0.06679285	0.37567061
 223	222.00000000	96.70237899	-0.06256747	0.35053116
 224	223.00000000	96.92325592	-0.05841810	0.32958668
 225	224.00000000	97.09010124	-0.05422312	0.31283718
 226	225.00000000	97.24546671	-0.05420792	0.29610288
 227	226.00000000	97.39917517	-0.05004334	0.27936858
 228	227.00000000	97.55121469	-0.05004334	0.26264948
 229	228.00000000	97.70159721	-0.04583317	0.24593037
 230	229.00000000	97.84868360	-0.04168379	0.23336065
 231	230.00000000	97.99574614	-0.04166859	0.21665674
 232	231.00000000	98.14115763	-0.03747362	0.19995284
 233	232.00000000	98.23590517	-0.03748882	0.19160849
 234	233.00000000	98.32573533	-0.03333944	0.18326414
 235	234.00000000	98.41556549	-0.03332424	0.17075521
 236	235.00000000	98.50375056	-0.03332424	0.16242605
 237	236.00000000	98.59029651	-0.02914447	0.15406650
 238	237.00000000	98.67846370	-0.02912927	0.14573735
 239	238.00000000	98.76499176	-0.02497989	0.13319802
 240	239.00000000	98.85151386	-0.02497989	0.12486887
 241	240.00000000	98.92659783	-0.02499509	0.11653972
 242	241.00000000	99.00004864	-0.02080011	0.10821056
 243	242.00000000	99.07512069	-0.02080011	0.09986621
 244	243.00000000	99.15019274	-0.02080011	0.09153706
 245	244.00000000	99.22361970	-0.01665074	0.08320791
 246	245.00000000	99.29704666	-0.01665074	0.07487875
 247	246.00000000	99.37209487	-0.01247096	0.06654960
 248	247.00000000	99.44387674	-0.01248616	0.05823565
 249	248.00000000	99.51402545	-0.01247096	0.04990649
 250	249.00000000	99.58416224	-0.01247096	0.04575711
 251	250.00000000	99.65429902	-0.00832158	0.03744316
 252	251.00000000	99.72279072	-0.00832158	0.02911401
 253	252.00000000	99.79292154	-0.00832158	0.02080005
 254	253.00000000	99.86140728	-0.00414181	0.01662028
 255	254.00000000	99.92989302	-0.00415701	0.00830632
 256	255.00000000	100.00000000	-0.00414181	-0.00000763
END_DATA
