bench/lcms_compat/reference/RISO_MZ770_Black.icc_to_srgb_Relative_BPC.it8
CGATS.17
ORIGINATOR	"icctrans"
#
# Data follows
#
NUMBER_OF_SETS	256.00000000
NUMBER_OF_FIELDS	5.00000000
BEGIN_DATA_FORMAT
 SAMPLE_ID	IN_GRAY	OUT_RGB_R	OUT_RGB_G	OUT_RGB_B
END_DATA_FORMAT
BEGIN_DATA
 1	0.00000000	19.01667617	-1.92156746	-56.12151794
 2	1.00000000	20.05807679	-0.30957500	-54.74752687
 3	2.00000000	21.04507003	1.32198801	-53.39769870
 4	3.00000000	22.02800889	2.97200079	-51.99015163
 5	4.00000000	22.96377137	4.64205986	-50.60676366
 6	5.00000000	23.85336824	6.29972091	-49.20167126
 7	6.00000000	24.76272974	7.99730642	-47.75143348
 8	7.00000000	25.62152356	9.69326751	-46.34381421
 9	8.00000000	26.48413047	11.35841416	-44.87671293
 10	9.00000000	27.50759225	13.24131858	-43.07066604
 11	10.00000000	28.50257456	14.96818816	-41.25168465
 12	11.00000000	29.47138958	16.57166127	-39.41973075
 13	12.00000000	30.43677527	18.10472891	-37.53714457
 14	13.00000000	31.37907151	19.55068052	-35.64090572
 15	14.00000000	32.30985247	20.93644526	-33.71191263
 16	15.00000000	33.23964357	22.28356037	-31.73048805
 17	16.00000000	34.16862532	23.59723348	-29.69576944
 18	17.00000000	35.45373537	25.37603583	-26.77171424
 19	18.00000000	36.70432046	27.06424344	-23.81663181
 20	19.00000000	37.97272660	28.71207632	-20.74938510
 21	20.00000000	39.20404673	30.30617058	-17.62984559
 22	21.00000000	40.43202683	31.86775569	-14.41530453
 23	22.00000000	41.66127987	33.41111697	-11.04651360
 24	23.00000000	42.88423665	34.91972342	-7.63469093
 25	24.00000000	44.17161517	36.48771688	-3.89357768
 26	25.00000000	45.86364157	38.51931587	1.19547250
 27	26.00000000	47.56773233	40.53987265	6.57997677
 28	27.00000000	49.27552029	42.55663723	12.10561557
 29	28.00000000	51.01516955	44.57127012	16.82799172
 30	29.00000000	52.77602166	46.60118960	20.88305812
 31	30.00000000	54.59431149	48.66102867	24.60523769
 32	31.00000000	56.42227940	50.72970606	28.03906783
 33	32.00000000	58.32498170	52.88430065	31.41151797
 34	33.00000000	60.38210392	55.16942203	34.86072399
 35	34.00000000	62.49241568	57.50951126	38.21321189
 36	35.00000000	64.65286955	59.89364773	41.51615426
 37	36.00000000	66.88322827	62.33316243	44.76091415
 38	37.00000000	69.15119737	64.81898144	47.98758321
 39	38.00000000	71.48962229	67.36501202	51.20298967
 40	39.00000000	73.87156248	69.94750544	54.40079167
 41	40.00000000	76.28032163	72.55016819	57.57053979
 42	41.00000000	78.63705397	75.06174222	60.58093965
 43	42.00000000	80.98390684	77.55609557	63.52911025
 44	43.00000000	83.33374634	80.04713550	66.43676743
 45	44.00000000	85.61794817	82.48118609	69.25707489
 46	45.00000000	87.86362007	84.85601306	71.98013037
 47	46.00000000	90.04873082	87.16239050	74.59768832
 48	47.00000000	92.16030031	89.39386636	77.12617144
 49	48.00000000	94.10042301	91.43163621	79.41822365
 50	49.00000000	95.46945915	92.86514729	81.01848498
 51	50.00000000	96.78644568	94.24516484	82.55697682
 52	51.00000000	98.07382420	95.57989642	84.03721780
 53	52.00000000	99.30428937	96.87112033	85.47356352
 54	53.00000000	100.50408259	98.11341047	86.84022099
 55	54.00000000	101.65331572	99.31872860	88.17089438
 56	55.00000000	102.77259886	100.48184618	89.45787013
 57	56.00000000	103.90103191	101.65083826	90.73942736
 58	57.00000000	105.13360217	102.93832317	92.14690223
 59	58.00000000	106.33898109	104.18372914	93.50237310
 60	59.00000000	107.50145271	105.38561225	94.81042251
 61	60.00000000	108.62147301	106.54446647	96.07191682
 62	61.00000000	109.71412718	107.67555937	97.30282277
 63	62.00000000	110.77262118	108.76917109	98.48482534
 64	63.00000000	111.80168957	109.83585745	99.64612663
 65	64.00000000	112.82635018	110.89502782	100.78969046
 66	65.00000000	113.87801975	111.98106274	101.95940450
 67	66.00000000	114.91300821	113.05012017	103.11041594
 68	67.00000000	115.91699794	114.08788249	104.22811836
 69	68.00000000	116.89983800	115.10426715	105.32279402
 70	69.00000000	117.86916599	116.10409230	106.39112189
 71	70.00000000	118.81502643	117.08304897	107.44555011
 72	71.00000000	119.75604594	118.04305986	108.47435251
 73	72.00000000	120.58646858	118.90325010	109.39769536
 74	73.00000000	121.21598080	119.54811350	110.09583950
 75	74.00000000	121.82951868	120.18519491	110.77446029
 76	75.00000000	122.44133145	120.80941781	111.44257843
 77	76.00000000	123.04519504	121.42841980	112.11335644
 78	77.00000000	123.63683850	122.03234419	112.76019573
 79	78.00000000	124.21482548	122.63360873	113.40113774
 80	79.00000000	124.79119375	123.22215915	114.03179750
 81	80.00000000	125.36708325	123.81021559	114.66169730
 82	81.00000000	125.93780503	124.39305112	115.28603420
 83	82.00000000	126.49498433	124.97327998	115.90458781
 84	83.00000000	127.05798492	125.54552168	116.50948495
 85	84.00000000	127.61320353	126.11272484	117.11726993
 86	85.00000000	128.15856546	126.67005613	117.71479547
 87	86.00000000	128.69310558	127.22467437	118.29833016
 88	87.00000000	129.23301101	127.77647316	118.88985962
 89	88.00000000	129.83422995	128.38960826	119.54328775
 90	89.00000000	130.58184743	129.14933950	120.34480914
 91	90.00000000	131.31318659	129.90644127	121.14862561
 92	91.00000000	132.04546809	130.65065414	121.93383828
 93	92.00000000	132.76978523	131.38972968	122.72161961
 94	93.00000000	133.49147290	132.12336391	123.49549368
 95	94.00000000	134.19706464	132.85449028	124.27183002
 96	95.00000000	134.90832567	133.57757628	125.03450230
 97	96.00000000	135.71549356	134.39938098	125.90467840
 98	97.00000000	136.68894053	135.39039820	126.95330814
 99	98.00000000	137.65422553	136.37600452	128.00406575
 100	99.00000000	138.62134963	137.36056209	129.04528588
 101	100.00000000	139.57006752	138.33755046	130.07560819
 102	101.00000000	140.52164286	139.30646807	131.10023081
 103	102.00000000	141.46782249	140.26998997	132.11901695
 104	103.00000000	142.41132706	141.22794896	133.12383503
 105	104.00000000	143.23442370	142.06825107	134.01785105
 106	105.00000000	143.88906777	142.73438573	134.72035736
 107	106.00000000	144.54813480	143.40488255	135.42708904
 108	107.00000000	145.19493610	144.06594068	136.13211840
 109	108.00000000	145.84407806	144.72652763	136.82856023
 110	109.00000000	146.49296165	145.38687140	137.52457649
 111	110.00000000	147.13226974	146.03760928	138.21081966
 112	111.00000000	147.77337134	146.69290692	138.90948057
 113	112.00000000	148.32610488	147.25419760	139.49758261
 114	113.00000000	148.76659244	147.70321190	139.97273952
 115	114.00000000	149.20697361	148.15210462	140.44774443
 116	115.00000000	149.63791609	148.59158903	140.91318905
 117	116.00000000	150.08164108	149.03301895	141.38336062
 118	117.00000000	150.52173346	149.48162287	141.85786396
 119	118.00000000	150.95241755	149.92078811	142.32285261
 120	119.00000000	151.38764620	150.36452830	142.79235542
 121	120.00000000	151.76218450	150.74756294	143.20083350
 122	121.00000000	152.07604766	151.06989205	143.54830205
 123	122.00000000	152.40070224	151.38939410	143.88780624
 124	123.00000000	152.71444380	151.71163201	144.23513800
 125	124.00000000	153.02614868	152.02899098	144.56961125
 126	125.00000000	153.34448040	152.35578865	144.92150277
 127	126.00000000	153.66895258	152.67510831	145.26070297
 128	127.00000000	153.98719311	153.00182998	145.61241210
 129	128.00000000	154.31734979	153.33765596	145.96530676
 130	129.00000000	154.66345042	153.69223773	146.34492159
 131	130.00000000	155.01774341	154.04417485	146.72464281
 132	131.00000000	155.36375284	154.39866543	147.10410565
 133	132.00000000	155.71699709	154.75756377	147.48005748
 134	133.00000000	156.07224762	155.12126505	147.86868542
 135	134.00000000	156.43561453	155.48232168	148.25741976
 136	135.00000000	156.79077387	155.84593177	148.64589572
 137	136.00000000	157.21565187	156.27927572	149.10430312
 138	137.00000000	157.69260228	156.75671250	149.61754918
 139	138.00000000	158.17984253	157.25524575	150.14912546
 140	139.00000000	158.67782861	157.75095195	150.67270696
 141	140.00000000	159.16496247	158.24931800	151.20400965
 142	141.00000000	159.67415035	158.75897706	151.74938679
 143	142.00000000	160.17506987	159.27117437	152.29442954
 144	143.00000000	160.69802821	159.79461908	152.85350114
 145	144.00000000	161.34022415	160.45093507	153.55076373
 146	145.00000000	162.10141450	161.22104734	154.38053280
 147	146.00000000	162.87903517	162.00479329	155.21598637
 148	147.00000000	163.66314590	162.79787153	156.06852382
 149	148.00000000	164.46476609	163.61639321	156.93581969
 150	149.00000000	165.29041618	164.45099562	157.82971412
 151	150.00000000	166.13448769	165.30400425	158.74193877
 152	151.00000000	167.00625211	166.18473619	159.68181074
 153	152.00000000	168.09541047	167.28848577	160.86058348
 154	153.00000000	169.34151560	168.55482101	162.21764266
 155	154.00000000	170.63271672	169.85550642	163.61163586
 156	155.00000000	171.96190059	171.20493561	165.05140901
 157	156.00000000	173.34549755	172.59801686	166.53740287
 158	157.00000000	174.76338387	174.02822971	168.06815833
 159	158.00000000	176.22019529	175.50024033	169.64832634
 160	159.00000000	177.70848423	177.01167762	171.25711441
 161	160.00000000	179.10288781	178.41845334	172.76377916
 162	161.00000000	180.42766392	179.75567758	174.20067966
 163	162.00000000	181.78490549	181.12536728	175.66990882
 164	163.00000000	183.17465812	182.52755284	177.17149705
 165	164.00000000	184.58032429	183.94857019	178.69960785
 166	165.00000000	186.00269437	185.38343400	180.23360074
 167	166.00000000	187.44103879	186.83717519	181.79413140
 168	167.00000000	188.88880670	188.30037028	183.36399436
 169	168.00000000	190.24464995	189.66595620	184.82057780
 170	169.00000000	191.55427247	190.98533660	186.23087972
 171	170.00000000	192.84196258	192.29357600	187.62722880
 172	171.00000000	194.11015213	193.57161462	188.99608254
 173	172.00000000	195.37663937	194.84503269	190.35248816
 174	173.00000000	196.60724133	196.09343290	191.68103367
 175	174.00000000	197.83428669	197.33038813	193.00868243
 176	175.00000000	199.05037344	198.55345130	194.31465715
 177	176.00000000	200.03613174	199.55130816	195.37712574
 178	177.00000000	200.92709273	200.45155585	196.33421838
 179	178.00000000	201.80431366	201.33803308	197.27754056
 180	179.00000000	202.67892033	202.22484469	198.22899431
 181	180.00000000	203.54712814	203.10232401	199.16331857
 182	181.00000000	204.42007810	203.98460627	200.10240018
 183	182.00000000	205.29681265	204.85985130	201.03722602
 184	183.00000000	206.16549164	205.73780179	201.97202146
 185	184.00000000	206.91130042	206.49010062	202.77342886
 186	185.00000000	207.61075169	207.19601154	203.52846354
 187	186.00000000	208.31027895	207.90202886	204.28361982
 188	187.00000000	209.01459396	208.61278832	205.04353344
 189	188.00000000	209.71901536	209.32369977	205.80356866
 190	189.00000000	210.43282986	210.04403472	206.57302737
 191	190.00000000	211.15141690	210.76918781	207.34730422
 192	191.00000000	211.87020153	211.49443209	208.12168747
 193	192.00000000	212.79060334	212.43004829	209.12975818
 194	193.00000000	213.78665149	213.43345284	210.21615028
 195	194.00000000	214.78105813	214.43226725	211.29018545
 196	195.00000000	215.77765346	215.43617338	212.37715513
 197	196.00000000	216.75494581	216.42878652	213.44222277
 198	197.00000000	217.73339331	217.41459042	214.51112062
 199	198.00000000	218.70547235	218.39110762	215.56294978
 200	199.00000000	219.65452462	219.34458286	216.59178257
 201	200.00000000	221.03842556	220.74763477	218.10902596
 202	201.00000000	222.52653211	222.24701911	219.73319560
 203	202.00000000	223.98072928	223.70940864	221.31272525
 204	203.00000000	225.39338708	225.13039559	222.85089791
 205	204.00000000	226.76087290	226.51719958	224.35213655
 206	205.00000000	228.09792995	227.85965234	225.80416024
 207	206.00000000	229.38498169	229.16317999	227.21449256
 208	207.00000000	230.64347416	230.42717457	228.58819485
 209	208.00000000	232.01404542	231.81125790	230.07136166
 210	209.00000000	233.37303489	233.18681449	231.55390531
 211	210.00000000	234.69791740	234.52526987	232.99161136
 212	211.00000000	235.98952889	235.81946522	234.38796043
 213	212.00000000	237.23847628	237.07914323	235.73916793
 214	213.00000000	238.44568670	238.29706907	237.04876006
 215	214.00000000	239.62523460	239.48730201	238.33073527
 216	215.00000000	240.77509850	240.64497828	239.57231104
 217	216.00000000	241.55855566	241.43833011	240.42335898
 218	217.00000000	242.26226270	242.15193182	241.19471759
 219	218.00000000	242.94542044	242.84203559	241.93467468
 220	219.00000000	243.63243878	243.52495015	242.67030001
 221	220.00000000	244.29715991	244.19652611	243.39182049
 222	221.00000000	244.94315565	244.84946787	244.09469157
 223	222.00000000	245.58463722	245.49780428	244.79303330
 224	223.00000000	246.21485621	246.13203585	245.46932101
 225	224.00000000	246.69261217	246.61068857	245.98224789
 226	225.00000000	247.12902635	247.05907971	246.46210134
 227	226.00000000	247.56917953	247.50023603	246.93754703
 228	227.00000000	247.99626142	247.93935567	247.40814418
 229	228.00000000	248.42720389	248.37117970	247.87431836
 230	229.00000000	248.85147393	248.79348904	248.32307428
 231	230.00000000	249.26464856	249.21865582	248.77977937
 232	231.00000000	249.68162298	249.63655740	249.23204631
 233	232.00000000	249.94955420	249.91055310	249.52177316
 234	233.00000000	250.21178573	250.16775370	249.79756236
 235	234.00000000	250.46284586	250.42781174	250.08127034
 236	235.00000000	250.71200609	250.68299085	250.35221100
 237	236.00000000	250.96495092	250.93085915	250.61868310
 238	237.00000000	251.21414155	251.18608385	250.88968456
 239	238.00000000	251.46424413	251.43416494	251.16433382
 240	239.00000000	251.70876861	251.68473870	251.43065393
 241	240.00000000	251.92025006	251.90226942	251.66397661
 242	241.00000000	252.13556170	252.11245894	251.89280033
 243	242.00000000	252.34707355	252.33003527	252.12616861
 244	243.00000000	252.55863100	252.54762679	252.35955209
 245	244.00000000	252.77391225	252.75787711	252.58842140
 246	245.00000000	252.98077315	252.97078729	252.81712353
 247	246.00000000	253.20084214	253.18576455	253.05078059
 248	247.00000000	253.40302169	253.39400858	253.27480137
 249	248.00000000	253.60051990	253.59749526	253.49411041
 250	249.00000000	253.80081475	253.80082995	253.70530307
 251	250.00000000	254.00673330	254.00173277	253.92484009
 252	251.00000000	254.19951975	254.20055330	254.13949817
 253	252.00000000	254.39704835	254.40414637	254.35888320
 254	253.00000000	254.60117340	254.60015506	254.56569850
 255	254.00000000	254.79399025	254.79902118	254.78038698
 256	255.00000000	254.99156445	255.00264466	254.99981761
END_DATA
