bench/lcms_compat/reference/RISO_MZ770_RedGreen.icc_to_lab_Absolute.it8
CGATS.17
ORIGINATOR	"icctrans"
#
# Data follows
#
NUMBER_OF_SETS	121.00000000
NUMBER_OF_FIELDS	6.00000000
BEGIN_DATA_FORMAT
 SAMPLE_ID	IN_CH1	IN_CH2	OUT_LAB_L	OUT_LAB_A	OUT_LAB_B
END_DATA_FORMAT
BEGIN_DATA
 1	0.00000000	0.00000000	97.50651717	1.80898410	-6.09128597
 2	0.00000000	0.10000000	96.39130831	0.29117835	-5.39688084
 3	0.00000000	0.20000000	91.58273339	-6.03115040	-2.23805714
 4	0.00000000	0.30000000	85.32317877	-13.29731810	1.51491028
 5	0.00000000	0.40000000	74.77517724	-22.54621941	6.62916225
 6	0.00000000	0.50000000	71.18672729	-26.37462798	8.60712332
 7	0.00000000	0.60000000	67.89057255	-30.44004503	10.59304875
 8	0.00000000	0.70000000	64.25115466	-35.48921409	13.08215839
 9	0.00000000	0.80000000	57.43101239	-43.51627576	16.99529481
 10	0.00000000	0.90000000	49.56609607	-51.95513654	21.37832922
 11	0.00000000	1.00000000	48.47337008	-54.31660342	22.56416959
 12	0.10000000	0.00000000	93.48487854	8.37807161	-3.78659564
 13	0.10000000	0.10000000	92.10735559	6.67191756	-3.15300244
 14	0.10000000	0.20000000	86.55080199	-0.16490358	-0.29300231
 15	0.10000000	0.30000000	80.73044419	-7.76168394	2.91616869
 16	0.10000000	0.40000000	71.76981568	-17.34973985	6.90475386
 17	0.10000000	0.50000000	68.12290549	-20.88749442	8.50749266
 18	0.10000000	0.60000000	64.90169764	-24.66400537	10.21349472
 19	0.10000000	0.70000000	61.30275726	-29.39028296	12.34966409
 20	0.10000000	0.80000000	54.27424908	-37.58945259	16.21092570
 21	0.10000000	0.90000000	48.13461602	-47.15942147	20.32400739
 22	0.10000000	1.00000000	47.38814235	-49.50001228	21.19960201
 23	0.20000000	0.00000000	88.13218474	17.83775520	0.09903026
 24	0.20000000	0.10000000	87.50562668	14.89291322	0.03412974
 25	0.20000000	0.20000000	82.19190240	7.90265632	1.96672124
 26	0.20000000	0.30000000	76.82272196	-0.74961621	4.05601633
 27	0.20000000	0.40000000	68.41220260	-9.90690443	7.63670099
 28	0.20000000	0.50000000	65.15801549	-13.52279040	8.93460494
 29	0.20000000	0.60000000	61.91431880	-17.23058584	10.31075430
 30	0.20000000	0.70000000	58.14899206	-21.82525370	12.07749230
 31	0.20000000	0.80000000	52.03034282	-30.73884580	15.39333117
 32	0.20000000	0.90000000	46.54873908	-40.27913827	18.86414093
 33	0.20000000	1.00000000	45.80377042	-43.22970274	19.75148451
 34	0.30000000	0.00000000	82.52616525	27.99932194	5.01900625
 35	0.30000000	0.10000000	81.13215566	26.21618402	5.28693748
 36	0.30000000	0.20000000	75.81243515	18.64271921	6.30944741
 37	0.30000000	0.30000000	71.02034688	11.06999916	7.03957063
 38	0.30000000	0.40000000	62.63680458	2.40036917	9.58227259
 39	0.30000000	0.50000000	59.78733301	-1.38173509	10.53919804
 40	0.30000000	0.60000000	57.06976652	-5.39957869	11.44175601
 41	0.30000000	0.70000000	53.62671018	-10.08117068	12.59607327
 42	0.30000000	0.80000000	48.57080281	-19.71825156	14.72766769
 43	0.30000000	0.90000000	43.90462041	-29.23402774	17.20881295
 44	0.30000000	1.00000000	42.98877120	-30.83306554	17.70333362
 45	0.40000000	0.00000000	76.69381499	38.44883722	11.52371001
 46	0.40000000	0.10000000	75.43020844	36.43758994	11.42993104
 47	0.40000000	0.20000000	70.47923207	28.60146803	11.30938631
 48	0.40000000	0.30000000	65.88050127	21.08551693	11.44582939
 49	0.40000000	0.40000000	59.13529396	11.50974196	11.94574577
 50	0.40000000	0.50000000	56.41472936	7.30005425	12.29667974
 51	0.40000000	0.60000000	53.79459262	3.15715176	12.90236723
 52	0.40000000	0.70000000	50.88666081	-2.14125353	13.51954532
 53	0.40000000	0.80000000	46.02411389	-11.44148248	14.71850258
 54	0.40000000	0.90000000	41.31595790	-18.34149423	16.01166439
 55	0.40000000	1.00000000	40.53501487	-19.47801325	16.28216428
 56	0.50000000	0.00000000	72.81607389	45.00868362	16.83573377
 57	0.50000000	0.10000000	71.91820741	42.94572872	16.33609098
 58	0.50000000	0.20000000	67.10813046	35.75253230	15.68772417
 59	0.50000000	0.30000000	62.56635785	28.08019680	15.04467708
 60	0.50000000	0.40000000	56.46569133	18.25381768	14.71781862
 61	0.50000000	0.50000000	53.96247506	14.36598790	14.61174351
 62	0.50000000	0.60000000	51.52969956	10.07647407	14.55705684
 63	0.50000000	0.70000000	48.62026572	5.14251482	14.74865776
 64	0.50000000	0.80000000	44.22689080	-3.47504276	15.21695983
 65	0.50000000	0.90000000	39.69711065	-9.78141236	15.50734025
 66	0.50000000	1.00000000	38.93865049	-10.41115257	15.45345914
 67	0.60000000	0.00000000	69.51091886	50.89861077	22.60180277
 68	0.60000000	0.10000000	68.31776500	48.98058009	22.18104374
 69	0.60000000	0.20000000	64.00233507	42.09832859	20.75732094
 70	0.60000000	0.30000000	59.43058729	34.41017073	19.17786729
 71	0.60000000	0.40000000	53.40486765	25.09907436	18.17303401
 72	0.60000000	0.50000000	51.15496516	21.25749570	17.75774670
 73	0.60000000	0.60000000	48.99200797	17.67050338	17.25111228
 74	0.60000000	0.70000000	46.17850184	13.05648696	16.67296571
 75	0.60000000	0.80000000	42.07142293	5.34505916	16.18788373
 76	0.60000000	0.90000000	38.32408786	-0.50382259	15.38396847
 77	0.60000000	1.00000000	37.63907254	-1.35875392	15.05419177
 78	0.70000000	0.00000000	65.76208472	57.96310049	31.57228541
 79	0.70000000	0.10000000	64.50897455	56.05561805	30.96556437
 80	0.70000000	0.20000000	59.89225507	48.54705375	28.26919866
 81	0.70000000	0.30000000	55.96804619	41.11477417	25.17307919
 82	0.70000000	0.40000000	50.33954978	32.03634691	22.68472952
 83	0.70000000	0.50000000	48.29799831	28.62390202	21.80503112
 84	0.70000000	0.60000000	46.60719931	25.42809111	20.93803924
 85	0.70000000	0.70000000	44.24037933	21.36598748	19.80386090
 86	0.70000000	0.80000000	40.50203860	14.44687796	17.87225735
 87	0.70000000	0.90000000	37.23736107	7.70413977	15.97830218
 88	0.70000000	1.00000000	36.63778603	6.20221716	15.50598752
 89	0.80000000	0.00000000	62.60532737	63.51777923	41.53568518
 90	0.80000000	0.10000000	61.46014333	61.42018539	40.34382594
 91	0.80000000	0.20000000	57.26312399	53.78406954	35.97751063
 92	0.80000000	0.30000000	53.49630117	47.11004686	32.11228204
 93	0.80000000	0.40000000	48.42240810	37.59927881	27.40282995
 94	0.80000000	0.50000000	46.77657783	34.29675442	25.89887065
 95	0.80000000	0.60000000	45.34659386	31.68054920	24.81688631
 96	0.80000000	0.70000000	43.28555763	28.20642602	23.25640124
 97	0.80000000	0.80000000	40.08533657	21.50308412	20.11354429
 98	0.80000000	0.90000000	36.60780787	13.54080898	16.68602180
 99	0.80000000	1.00000000	35.60801744	11.29975003	15.75830919
 100	0.90000000	0.00000000	61.21431589	65.04937065	46.15854752
 101	0.90000000	0.10000000	60.26249528	62.97404361	44.53852725
 102	0.90000000	0.20000000	56.48368001	55.43663126	39.14869887
 103	0.90000000	0.30000000	52.70186663	48.86597824	35.12266290
 104	0.90000000	0.40000000	47.95024395	39.70178199	29.46578485
 105	0.90000000	0.50000000	46.43332362	36.45117801	27.63568145
 106	0.90000000	0.60000000	45.03031969	33.91979945	26.36700553
 107	0.90000000	0.70000000	43.03973317	30.65015090	24.57018834
 108	0.90000000	0.80000000	39.91445601	24.29710460	21.04102892
 109	0.90000000	0.90000000	36.37546897	15.76989096	16.96257097
 110	0.90000000	1.00000000	35.27525365	13.27404809	15.87864113
 111	1.00000000	0.00000000	58.80252719	65.86261821	53.47681803
 112	1.00000000	0.10000000	58.31987858	63.90602720	51.03550982
 113	1.00000000	0.20000000	55.87361455	56.37452734	42.61424971
 114	1.00000000	0.30000000	51.71856880	49.49098390	38.99056655
 115	1.00000000	0.40000000	47.82733023	41.64487612	32.05390197
 116	1.00000000	0.50000000	46.50676847	38.89999461	29.67725110
 117	1.00000000	0.60000000	44.90890503	35.93967986	27.76871991
 118	1.00000000	0.70000000	42.90183187	32.63519478	25.62598449
 119	1.00000000	0.80000000	39.50375021	27.07580429	21.59513038
 120	1.00000000	0.90000000	36.04720533	18.14708900	17.37825346
 121	1.00000000	1.00000000	35.25277078	15.59087497	16.47891772
END_DATA
