bench/lcms_compat/reference/RISO_MZ770_Black.icc_to_lab_Perceptual.it8
CGATS.17
ORIGINATOR	"icctrans"
#
# Data follows
#
NUMBER_OF_SETS	256.00000000
NUMBER_OF_FIELDS	5.00000000
BEGIN_DATA_FORMAT
 SAMPLE_ID	IN_GRAY	OUT_LAB_L	OUT_LAB_A	OUT_LAB_B
END_DATA_FORMAT
BEGIN_DATA
 1	0.00000000	0.00765931	-0.04296052	0.00780475
 2	1.00000000	0.41360296	-0.04296052	0.26953471
 3	2.00000000	0.82107848	-0.04296052	0.53126466
 4	3.00000000	1.22855399	-0.04688191	0.79688561
 5	4.00000000	1.63602959	-0.04688191	1.05860037
 6	5.00000000	2.04503685	-0.04688191	1.32422131
 7	6.00000000	2.45404411	-0.05077291	1.58985746
 8	7.00000000	2.86611523	-0.05077291	1.85547841
 9	8.00000000	3.28431390	-0.05077291	2.12500554
 10	9.00000000	3.81587036	-0.05469429	2.45703173
 11	10.00000000	4.35202233	-0.05469429	2.78907311
 12	11.00000000	4.88970615	-0.05858529	3.12500548
 13	12.00000000	5.43198548	-0.06250668	3.46093786
 14	13.00000000	5.98039217	-0.06639767	3.80469781
 15	14.00000000	6.53339475	-0.07031906	4.14844257
 16	15.00000000	7.09252506	-0.07031906	4.50001490
 17	16.00000000	7.66390935	-0.07421005	4.84375966
 18	17.00000000	8.36550295	-0.07421005	5.08984965
 19	18.00000000	9.07475501	-0.07813144	5.33984584
 20	19.00000000	9.79166701	-0.07813144	5.59376341
 21	20.00000000	10.52389741	-0.07813144	5.85157198
 22	21.00000000	11.26685068	-0.08202243	6.11328673
 23	22.00000000	12.02818602	-0.08202243	6.37890768
 24	23.00000000	12.80331016	-0.08594382	6.65235621
 25	24.00000000	13.59834671	-0.08594382	6.91407096
 26	25.00000000	14.39185143	-0.08983481	7.01563191
 27	26.00000000	15.21292925	-0.09764719	7.12109905
 28	27.00000000	16.05851799	-0.10156858	7.23047239
 29	28.00000000	16.94087088	-0.10545957	7.34375191
 30	29.00000000	17.85232872	-0.11327195	7.46093762
 31	30.00000000	18.80821139	-0.11719334	7.58204472
 32	31.00000000	19.80239004	-0.12500572	7.71094900
 33	32.00000000	20.82260996	-0.12889671	7.82813472
 34	33.00000000	21.70189917	-0.14063048	7.83204091
 35	34.00000000	22.62254953	-0.14844286	7.83594710
 36	35.00000000	23.58915508	-0.16014624	7.83594710
 37	36.00000000	24.59865212	-0.17188001	7.83985329
 38	37.00000000	25.65410733	-0.18358338	7.84375948
 39	38.00000000	26.75551474	-0.19531715	7.84766567
 40	39.00000000	27.89675295	-0.20702052	7.85157186
 41	40.00000000	29.03799117	-0.22264528	7.83594710
 42	41.00000000	29.99081016	-0.23827004	7.71094900
 43	42.00000000	30.95282018	-0.25000381	7.58595091
 44	43.00000000	31.92555308	-0.26562858	7.46093762
 45	44.00000000	32.88756311	-0.28125334	7.33593953
 46	45.00000000	33.84191394	-0.29687810	7.21484762
 47	46.00000000	34.77481604	-0.31250286	7.09375572
 48	47.00000000	35.69087088	-0.32812762	6.97266382
 49	48.00000000	36.52420342	-0.33984619	6.85938430
 50	49.00000000	37.06648350	-0.34765857	6.76172954
 51	50.00000000	37.59497702	-0.35547096	6.66798097
 52	51.00000000	38.10814917	-0.36328334	6.57423240
 53	52.00000000	38.60447407	-0.37109572	6.48437482
 54	53.00000000	39.08547759	-0.37500191	6.39843863
 55	54.00000000	39.55422938	-0.38281429	6.31250244
 56	55.00000000	40.00765979	-0.39062667	6.23047245
 57	56.00000000	40.46109021	-0.39453286	6.15234864
 58	57.00000000	40.94975591	-0.40234524	6.08203721
 59	58.00000000	41.42310023	-0.40625143	6.01172578
 60	59.00000000	41.88266098	-0.41406381	5.94532055
 61	60.00000000	42.32690036	-0.41797000	5.87891531
 62	61.00000000	42.76194870	-0.42187619	5.81641626
 63	62.00000000	43.18474233	-0.42968857	5.75391722
 64	63.00000000	43.59834492	-0.43359476	5.69141817
 65	64.00000000	44.00582016	-0.43750095	5.63673151
 66	65.00000000	44.41789389	-0.44140714	5.58204484
 67	66.00000000	44.82230544	-0.44531333	5.53126436
 68	67.00000000	45.22058964	-0.44921952	5.48046869
 69	68.00000000	45.60815096	-0.45312572	5.43359441
 70	69.00000000	45.99111676	-0.45703191	5.38281393
 71	70.00000000	46.36488855	-0.46093810	5.33593965
 72	71.00000000	46.73406780	-0.46484429	5.28906536
 73	72.00000000	47.06495106	-0.46875048	5.25000346
 74	73.00000000	47.31004834	-0.47265667	5.22266012
 75	74.00000000	47.55208492	-0.47265667	5.19141060
 76	75.00000000	47.78952301	-0.47265667	5.16406727
 77	76.00000000	48.02542925	-0.47656286	5.13672394
 78	77.00000000	48.25673997	-0.47656286	5.10938060
 79	78.00000000	48.48345518	-0.47656286	5.08203727
 80	79.00000000	48.71017039	-0.48046905	5.05860013
 81	80.00000000	48.93382490	-0.48046905	5.03125679
 82	81.00000000	49.15747643	-0.48046905	5.00781965
 83	82.00000000	49.37653244	-0.48437524	4.98438251
 84	83.00000000	49.59712029	-0.48437524	4.96094537
 85	84.00000000	49.81158078	-0.48437524	4.93750823
 86	85.00000000	50.02297759	-0.48437524	4.91407108
 87	86.00000000	50.23590326	-0.48828143	4.89063394
 88	87.00000000	50.44424534	-0.48828143	4.87110299
 89	88.00000000	50.68014860	-0.48828143	4.84766585
 90	89.00000000	50.96814036	-0.49218762	4.81641632
 91	90.00000000	51.25306845	-0.49218762	4.78907299
 92	91.00000000	51.53645873	-0.49218762	4.76172966
 93	92.00000000	51.81679130	-0.49609381	4.73438632
 94	93.00000000	52.09559202	-0.49609381	4.70704299
 95	94.00000000	52.37286091	-0.49609381	4.67969966
 96	95.00000000	52.64859200	-0.50000000	4.65235633
 97	96.00000000	52.96109319	-0.50000000	4.62501299
 98	97.00000000	53.33793163	-0.50000000	4.58985728
 99	98.00000000	53.71170640	-0.50390619	4.55470157
 100	99.00000000	54.08394933	-0.50390619	4.51954585
 101	100.00000000	54.45466042	-0.50390619	4.48437494
 102	101.00000000	54.82383966	-0.50390619	4.44921923
 103	102.00000000	55.19148707	-0.50781238	4.41796970
 104	103.00000000	55.55607080	-0.50781238	4.38281399
 105	104.00000000	55.87469339	-0.50781238	4.35547066
 106	105.00000000	56.12898469	-0.50781238	4.33203351
 107	106.00000000	56.38021231	-0.50781238	4.30859637
 108	107.00000000	56.63296580	-0.50781238	4.28515923
 109	108.00000000	56.88266158	-0.51171857	4.26172209
 110	109.00000000	57.13388920	-0.51171857	4.24219114
 111	110.00000000	57.38357902	-0.51171857	4.21875399
 112	111.00000000	57.63174295	-0.51171857	4.19531685
 113	112.00000000	57.84467459	-0.51171857	4.17578590
 114	113.00000000	58.01317692	-0.51171857	4.16016114
 115	114.00000000	58.18321109	-0.51171857	4.14453638
 116	115.00000000	58.35018754	-0.51171857	4.12891161
 117	116.00000000	58.52022171	-0.50781238	4.11328685
 118	117.00000000	58.68719816	-0.50781238	4.09766209
 119	118.00000000	58.85570049	-0.50781238	4.08203733
 120	119.00000000	59.02267694	-0.50781238	4.06641257
 121	120.00000000	59.16973352	-0.50781238	4.05469400
 122	121.00000000	59.29228067	-0.50781238	4.03906924
 123	122.00000000	59.41330194	-0.50390619	4.02735066
 124	123.00000000	59.53584909	-0.50390619	4.01563209
 125	124.00000000	59.65992808	-0.50390619	4.00391352
 126	125.00000000	59.78247523	-0.50390619	3.99219495
 127	126.00000000	59.90502834	-0.50000000	3.98047638
 128	127.00000000	60.02757549	-0.50000000	3.96875781
 129	128.00000000	60.15778184	-0.50000000	3.95313305
 130	129.00000000	60.28952599	-0.50000000	3.94141448
 131	130.00000000	60.42432785	-0.50000000	3.92578971
 132	131.00000000	60.56066155	-0.50000000	3.91407114
 133	132.00000000	60.69546938	-0.49609381	3.89844638
 134	133.00000000	60.83180308	-0.49609381	3.88672781
 135	134.00000000	60.96966863	-0.49609381	3.87110305
 136	135.00000000	61.10754013	-0.49609381	3.85938448
 137	136.00000000	61.27144694	-0.49609381	3.84375972
 138	137.00000000	61.45527363	-0.49218762	3.82422876
 139	138.00000000	61.64368987	-0.49218762	3.80469781
 140	139.00000000	61.83058023	-0.49218762	3.78907305
 141	140.00000000	62.02359200	-0.48828143	3.76954210
 142	141.00000000	62.21660972	-0.48828143	3.75001115
 143	142.00000000	62.41268516	-0.48828143	3.73048019
 144	143.00000000	62.61029840	-0.48437524	3.71094924
 145	144.00000000	62.86152005	-0.48437524	3.68751210
 146	145.00000000	63.15410733	-0.48046905	3.65626258
 147	146.00000000	63.45129013	-0.47656286	3.62891924
 148	147.00000000	63.75460029	-0.47265667	3.59766972
 149	148.00000000	64.06556368	-0.47265667	3.56642020
 150	149.00000000	64.38266039	-0.46875048	3.53517067
 151	150.00000000	64.70894814	-0.46484429	3.50392115
 152	151.00000000	65.04289508	-0.46093810	3.47265643
 153	152.00000000	65.46262503	-0.45703191	3.42968833
 154	153.00000000	65.94822407	-0.45312572	3.38281405
 155	154.00000000	66.44607782	-0.44921952	3.33203357
 156	155.00000000	66.96078777	-0.44140714	3.28125310
 157	156.00000000	67.49234200	-0.43750095	3.22656643
 158	157.00000000	68.03768277	-0.43359476	3.17578596
 159	158.00000000	68.59987974	-0.42578238	3.11719310
 160	159.00000000	69.17892098	-0.42187619	3.06250644
 161	160.00000000	69.71507668	-0.41406381	3.00781977
 162	161.00000000	70.22978067	-0.40625143	2.95703930
 163	162.00000000	70.75520754	-0.40234524	2.90235263
 164	163.00000000	71.29289508	-0.39453286	2.84766597
 165	164.00000000	71.83823586	-0.38672048	2.79297930
 166	165.00000000	72.38970995	-0.37890810	2.73829263
 167	166.00000000	72.94730544	-0.37109572	2.67969978
 168	167.00000000	73.50796461	-0.36718953	2.62501311
 169	168.00000000	74.03492928	-0.35937715	2.57423264
 170	169.00000000	74.54350591	-0.35547096	2.52735835
 171	170.00000000	75.04748702	-0.35156476	2.48046887
 172	171.00000000	75.54381490	-0.34375238	2.43750077
 173	172.00000000	76.03554130	-0.33984619	2.39062649
 174	173.00000000	76.51654482	-0.33594000	2.34765840
 175	174.00000000	76.99448466	-0.33203381	2.30469030
 176	175.00000000	77.46477127	-0.32422143	2.25781602
 177	176.00000000	77.85080075	-0.32031524	2.22266030
 178	177.00000000	78.20159197	-0.31640905	2.19141078
 179	178.00000000	78.54626179	-0.31250286	2.16016126
 180	179.00000000	78.88939977	-0.30859667	2.12891173
 181	180.00000000	79.23100591	-0.30469048	2.09766221
 182	181.00000000	79.57261205	-0.30078429	2.06641269
 183	182.00000000	79.91268635	-0.29687810	2.03516316
 184	183.00000000	80.25429249	-0.29297191	2.00391364
 185	184.00000000	80.54687381	-0.28906572	1.97657031
 186	185.00000000	80.82261086	-0.28906572	1.95313317
 187	186.00000000	81.09834790	-0.28515953	1.92578983
 188	187.00000000	81.37561679	-0.28125334	1.90235269
 189	188.00000000	81.65441155	-0.27734715	1.87500936
 190	189.00000000	81.93474412	-0.27344096	1.84766603
 191	190.00000000	82.21814036	-0.26953477	1.82032269
 192	191.00000000	82.50459433	-0.26562858	1.79688555
 193	192.00000000	82.87070990	-0.26172239	1.75782365
 194	193.00000000	83.26439857	-0.25391001	1.71485555
 195	194.00000000	83.65961909	-0.25000381	1.67579365
 196	195.00000000	84.05330777	-0.24219143	1.63282555
 197	196.00000000	84.44546461	-0.23827004	1.58985746
 198	197.00000000	84.83302593	-0.23045766	1.55079556
 199	198.00000000	85.21599174	-0.22656667	1.50782746
 200	199.00000000	85.58976650	-0.21875429	1.46875036
 201	200.00000000	86.14583611	-0.21094191	1.41015750
 202	201.00000000	86.74479127	-0.19920814	1.34375226
 203	202.00000000	87.32690215	-0.19139576	1.28125322
 204	203.00000000	87.89368868	-0.17969239	1.21875417
 205	204.00000000	88.44209909	-0.16795862	1.16016132
 206	205.00000000	88.97671700	-0.16014624	1.10156846
 207	206.00000000	89.49448466	-0.15233386	1.04688179
 208	207.00000000	89.99846578	-0.14063048	0.99219513
 209	208.00000000	90.55453539	-0.13281810	0.93360227
 210	209.00000000	91.11059904	-0.12500572	0.87891561
 211	210.00000000	91.64675474	-0.11719334	0.82422894
 212	211.00000000	92.17064977	-0.10938096	0.77344847
 213	212.00000000	92.67616272	-0.10545957	0.72266799
 214	213.00000000	93.16789508	-0.09764719	0.67188752
 215	214.00000000	93.64583492	-0.08983481	0.62501323
 216	215.00000000	94.11152005	-0.08202243	0.57813895
 217	216.00000000	94.43321228	-0.07813144	0.54688942
 218	217.00000000	94.72273588	-0.07421005	0.51954609
 219	218.00000000	95.00765800	-0.07031906	0.49217236
 220	219.00000000	95.28492689	-0.06639767	0.46484423
 221	220.00000000	95.55760026	-0.06250668	0.43748569
 222	221.00000000	95.82567215	-0.05858529	0.41404855
 223	222.00000000	96.08915448	-0.05469429	0.38672042
 224	223.00000000	96.34804130	-0.05077291	0.36328328
 225	224.00000000	96.54411674	-0.04688191	0.34373713
 226	225.00000000	96.72641158	-0.04688191	0.32422137
 227	226.00000000	96.90870047	-0.04296052	0.30859661
 228	227.00000000	97.08639979	-0.04296052	0.28905046
 229	228.00000000	97.26256132	-0.03906953	0.27342570
 230	229.00000000	97.43872285	-0.03514814	0.25390995
 231	230.00000000	97.61182666	-0.03514814	0.23828518
 232	231.00000000	97.78492451	-0.03125715	0.21873903
 233	232.00000000	97.89675474	-0.03125715	0.21092665
 234	233.00000000	98.00245166	-0.03125715	0.19922328
 235	234.00000000	98.10968041	-0.02733576	0.18748951
 236	235.00000000	98.21384549	-0.02733576	0.17967713
 237	236.00000000	98.31801653	-0.02733576	0.16797376
 238	237.00000000	98.42064977	-0.02733576	0.15623999
 239	238.00000000	98.52481484	-0.02344477	0.14842761
 240	239.00000000	98.62745404	-0.02344477	0.13672423
 241	240.00000000	98.71630073	-0.02344477	0.12891185
 242	241.00000000	98.80667925	-0.01952338	0.12109947
 243	242.00000000	98.89552593	-0.01952338	0.10936570
 244	243.00000000	98.98437262	-0.01952338	0.10155332
 245	244.00000000	99.07169342	-0.01563239	0.09374094
 246	245.00000000	99.15900826	-0.01563239	0.08592856
 247	246.00000000	99.24785495	-0.01171100	0.07422519
 248	247.00000000	99.33516979	-0.01171100	0.06641281
 249	248.00000000	99.41789508	-0.01171100	0.05860043
 250	249.00000000	99.50214624	-0.01171100	0.05078804
 251	250.00000000	99.58486557	-0.00782001	0.04297566
 252	251.00000000	99.66911674	-0.00782001	0.03516328
 253	252.00000000	99.75183606	-0.00782001	0.02342951
 254	253.00000000	99.83456135	-0.00389862	0.01561713
 255	254.00000000	99.91728067	-0.00389862	0.00780475
 256	255.00000000	100.00000000	-0.00389862	-0.00000763
END_DATA
