bench/lcms_compat/reference/RISO_MZ770_Black.icc_to_srgb_Absolute.it8
CGATS.17
ORIGINATOR	"icctrans"
#
# Data follows
#
NUMBER_OF_SETS	256.00000000
NUMBER_OF_FIELDS	5.00000000
BEGIN_DATA_FORMAT
 SAMPLE_ID	IN_GRAY	OUT_RGB_R	OUT_RGB_G	OUT_RGB_B
END_DATA_FORMAT
BEGIN_DATA
 1	0.00000000	67.32737124	63.80972520	60.15154369
 2	1.00000000	67.56636322	64.05831546	60.42237416
 3	2.00000000	67.80164659	64.30881321	60.68728074
 4	3.00000000	68.04425597	64.56099808	60.96193381
 5	4.00000000	68.28311116	64.81510565	61.23067819
 6	5.00000000	68.51693541	65.06622657	61.50210902
 7	6.00000000	68.76320019	65.32220364	61.78081267
 8	7.00000000	69.00242776	65.57680517	62.05013461
 9	8.00000000	69.24900413	65.83310142	62.32922964
 10	9.00000000	69.54984158	66.15093917	62.67094910
 11	10.00000000	69.85089183	66.46902010	63.01296115
 12	11.00000000	70.15213206	66.78736702	63.35526958
 13	12.00000000	70.46022713	67.11257637	63.70484322
 14	13.00000000	70.76853499	67.43805170	64.05473605
 15	14.00000000	71.08038425	67.76711404	64.40842867
 16	15.00000000	71.39912635	68.10306922	64.76941690
 17	16.00000000	71.72476128	68.44594002	65.13772354
 18	17.00000000	72.18683928	68.93419862	65.66280976
 19	18.00000000	72.64941126	69.42300439	66.18857235
 20	19.00000000	73.13165858	69.92380992	66.72921494
 21	20.00000000	73.61189201	70.43048233	67.27393091
 22	21.00000000	74.10274208	70.94777897	67.82993227
 23	22.00000000	74.60558429	71.47924125	68.40682492
 24	23.00000000	75.11766002	72.01793075	68.98552626
 25	24.00000000	75.66876724	72.59769604	69.61351097
 26	25.00000000	76.41199976	73.37859973	70.45733169
 27	26.00000000	77.18145847	74.18798670	71.33731127
 28	27.00000000	77.97333598	75.02779484	72.24737763
 29	28.00000000	78.80094677	75.89781135	73.19769904
 30	29.00000000	79.65992108	76.80520266	74.17950556
 31	30.00000000	80.56862712	77.75674000	75.21631792
 32	31.00000000	81.50371894	78.74280989	76.28767043
 33	32.00000000	82.49890834	79.80141029	77.44567350
 34	33.00000000	83.59935969	80.95819741	78.73622105
 35	34.00000000	84.75438371	82.17803836	80.09168431
 36	35.00000000	85.96293166	83.45622137	81.52147919
 37	36.00000000	87.23824203	84.79967728	83.01479146
 38	37.00000000	88.56164262	86.20432511	84.58340809
 39	38.00000000	89.95405510	87.67877519	86.22656912
 40	39.00000000	91.39996111	89.20980424	87.93648496
 41	40.00000000	92.88921520	90.78737319	89.70262259
 42	41.00000000	94.37231362	92.34110981	91.44276202
 43	42.00000000	95.87317988	93.91343504	93.20345074
 44	43.00000000	97.39894241	95.51149249	94.99218196
 45	44.00000000	98.90253693	97.09872812	96.77423313
 46	45.00000000	100.40062174	98.67069617	98.53697374
 47	46.00000000	101.87621936	100.21852031	100.26867762
 48	47.00000000	103.31761122	101.73515573	101.97425410
 49	48.00000000	104.65561822	103.13579097	103.54723290
 50	49.00000000	105.60739875	104.12974164	104.66009438
 51	50.00000000	106.52849212	105.09319514	105.74087039
 52	51.00000000	107.43453071	106.03092402	106.79061726
 53	52.00000000	108.30454722	106.94361985	107.81802133
 54	53.00000000	109.15795863	107.82659367	108.80377963
 55	54.00000000	109.97866139	108.68787065	109.77071375
 56	55.00000000	110.78169510	109.52308863	110.71250081
 57	56.00000000	111.59517825	110.36649898	111.65684134
 58	57.00000000	112.48739317	111.29998729	112.70110890
 59	58.00000000	113.36431012	112.20732540	113.71377736
 60	59.00000000	114.21348855	113.08697820	114.69721779
 61	60.00000000	115.03478408	113.93882409	115.65130100
 62	61.00000000	115.83897293	114.77364689	116.58745676
 63	62.00000000	116.62101656	115.58393061	117.49130666
 64	63.00000000	117.38350645	116.37716845	118.38359758
 65	64.00000000	118.14550236	117.16758683	119.26660940
 66	65.00000000	118.93020585	117.98084959	120.17409191
 67	66.00000000	119.70482469	118.78414169	121.07114017
 68	67.00000000	120.45844585	119.56645891	121.94600523
 69	68.00000000	121.19827375	120.33505127	122.80637786
 70	69.00000000	121.93025127	121.09334618	123.64949942
 71	70.00000000	122.64600366	121.83796942	124.48464140
 72	71.00000000	123.36047933	122.57013693	125.30255511
 73	72.00000000	123.99202824	123.22788164	126.03901640
 74	73.00000000	124.47166890	123.72197673	126.59727484
 75	74.00000000	124.94001657	124.21097249	127.14131445
 76	75.00000000	125.40797666	124.69085634	127.67807364
 77	76.00000000	125.87019905	125.16753316	128.21796387
 78	77.00000000	126.32405430	125.63331217	128.73979747
 79	78.00000000	126.76782489	126.09779924	129.25792247
 80	79.00000000	127.21120030	126.55309841	129.76872146
 81	80.00000000	127.65481889	127.00869396	130.27985483
 82	81.00000000	128.09503287	127.46089250	130.78741640
 83	82.00000000	128.52510899	127.91176111	131.29122376
 84	83.00000000	128.96086961	128.35696042	131.78490847
 85	84.00000000	129.39076334	128.79887670	132.28166342
 86	85.00000000	129.81352866	129.23366457	132.77083397
 87	86.00000000	130.22854239	129.66691732	133.24953228
 88	87.00000000	130.64805508	130.09849817	133.73537421
 89	88.00000000	131.11599237	130.57867080	134.27306056
 90	89.00000000	131.69906348	131.17455482	134.93402749
 91	90.00000000	132.26974726	131.76943570	135.59817106
 92	91.00000000	132.84261972	132.35509068	136.24839216
 93	92.00000000	133.40973169	132.93766022	136.90191150
 94	93.00000000	133.97602290	133.51679474	137.54529297
 95	94.00000000	134.52982038	134.09492612	138.19183588
 96	95.00000000	135.08945435	134.66747940	138.82831693
 97	96.00000000	135.72538823	135.31922042	139.55587149
 98	97.00000000	136.49360061	136.10658377	140.43461233
 99	98.00000000	137.25641727	136.89118087	141.31712258
 100	99.00000000	138.02241057	137.67641634	142.19384193
 101	100.00000000	138.77490699	138.45709205	143.06340247
 102	101.00000000	139.53118801	139.23266083	143.93004477
 103	102.00000000	140.28441399	140.00528097	144.79361683
 104	103.00000000	141.03707761	140.77473968	145.64730942
 105	104.00000000	141.69412315	141.45076901	146.40808940
 106	105.00000000	142.21761346	141.98736101	147.00696766
 107	106.00000000	142.74523795	142.52808720	147.61031449
 108	107.00000000	143.26316535	143.06183696	148.21285576
 109	108.00000000	143.78388941	143.59575391	148.80901337
 110	109.00000000	144.30499345	144.13005084	149.40561175
 111	110.00000000	144.81886268	144.65714335	149.99458015
 112	111.00000000	145.33434302	145.18850684	150.59482634
 113	112.00000000	145.77966392	145.64404160	151.10088319
 114	113.00000000	146.13459527	146.00874603	151.51004523
 115	114.00000000	146.48966342	146.37363285	151.91942006
 116	115.00000000	146.83735996	146.73108727	152.32089132
 117	116.00000000	147.19581753	147.09035039	152.72673994
 118	117.00000000	147.55134165	147.45572358	153.13670754
 119	118.00000000	147.89947897	147.81367958	153.53877157
 120	119.00000000	148.25153768	148.17555696	153.94506097
 121	120.00000000	148.55451822	148.48814338	154.29874599
 122	121.00000000	148.80834460	148.75133246	154.59973544
 123	122.00000000	149.07164007	149.01228726	154.89409804
 124	123.00000000	149.32560325	149.27564353	155.19530028
 125	124.00000000	149.57841128	149.53512400	155.48568070
 126	125.00000000	149.83634144	149.80246246	155.79118431
 127	126.00000000	150.09998649	150.06373644	156.08595729
 128	127.00000000	150.35802305	150.33127248	156.39164329
 129	128.00000000	150.62631905	150.60634732	156.69871241
 130	129.00000000	150.90735197	150.89694053	157.02908188
 131	130.00000000	151.19540691	151.18548185	157.35972494
 132	131.00000000	151.47663742	151.47628784	157.69035280
 133	132.00000000	151.76425159	151.77086323	158.01827520
 134	133.00000000	152.05327928	152.06951201	158.35730821
 135	134.00000000	152.34932899	152.36609370	158.69661480
 136	135.00000000	152.63853908	152.66498566	159.03592139
 137	136.00000000	152.98495889	153.02134573	159.43666309
 138	137.00000000	153.37402761	153.41419905	159.88554060
 139	138.00000000	153.77154708	153.82471383	160.35084844
 140	139.00000000	154.17874843	154.23307031	160.80965102
 141	140.00000000	154.57664788	154.64399546	161.27546042
 142	141.00000000	154.99313593	155.06445050	161.75396115
 143	142.00000000	155.40287554	155.48729181	162.23256826
 144	143.00000000	155.83124936	155.91967821	162.72389710
 145	144.00000000	156.35729313	156.46224350	163.33722979
 146	145.00000000	156.98114365	157.09946930	164.06768739
 147	146.00000000	157.61952460	157.74852008	164.80416387
 148	147.00000000	158.26345325	158.40597600	165.55641711
 149	148.00000000	158.92258108	159.08516675	166.32279038
 150	149.00000000	159.60198462	159.77835596	167.11340636
 151	150.00000000	160.29725611	160.48753470	167.92121261
 152	151.00000000	161.01611674	161.22046977	168.75450790
 153	152.00000000	161.91504210	162.14003563	169.80097175
 154	153.00000000	162.94448286	163.19643974	171.00749820
 155	154.00000000	164.01298553	164.28295344	172.24892199
 156	155.00000000	165.11428803	165.41181207	173.53332907
 157	156.00000000	166.26264721	166.57875985	174.86119062
 158	157.00000000	167.44079679	167.77853787	176.23126030
 159	158.00000000	168.65267336	169.01515871	177.64783949
 160	159.00000000	169.89272922	170.28673768	179.09273475
 161	160.00000000	171.05598360	171.47186369	180.44790924
 162	161.00000000	172.16234744	172.59979516	181.74216539
 163	162.00000000	173.29724014	173.75651389	183.06745827
 164	163.00000000	174.46078330	174.94214147	184.42392468
 165	164.00000000	175.63868970	176.14512652	185.80616891
 166	165.00000000	176.83243364	177.36128926	187.19583035
 167	166.00000000	178.04061681	178.59490067	188.61134559
 168	167.00000000	179.25810188	179.83801156	190.03728747
 169	168.00000000	180.40004700	180.99944204	191.36216998
 170	169.00000000	181.50400937	182.12272257	192.64644027
 171	170.00000000	182.59021908	183.23767394	193.91944796
 172	171.00000000	183.66116881	184.32788104	195.16868412
 173	172.00000000	184.73202735	185.41512430	196.40799522
 174	173.00000000	185.77309549	186.48201585	197.62310922
 175	174.00000000	186.81186855	187.54000068	198.83839041
 176	175.00000000	187.84255564	188.58698130	200.03511339
 177	176.00000000	188.67852598	189.44182903	201.00957870
 178	177.00000000	189.43468541	190.21355242	201.88801557
 179	178.00000000	190.17956704	190.97387642	202.75438428
 180	179.00000000	190.92221439	191.73497558	203.62864137
 181	180.00000000	191.66022599	192.48844475	204.48783606
 182	181.00000000	192.40267575	193.24645847	205.35197049
 183	182.00000000	193.14900130	193.99878770	206.21265471
 184	183.00000000	193.88857841	194.75391358	207.07385570
 185	184.00000000	194.52393472	195.40127724	207.81258166
 186	185.00000000	195.11986434	196.00897104	208.50885630
 187	186.00000000	195.71609795	196.61704481	209.20554131
 188	187.00000000	196.31664813	197.22943515	209.90696847
 189	188.00000000	196.91756308	197.84220546	210.60883641
 190	189.00000000	197.52680719	198.46333534	211.31973267
 191	190.00000000	198.14035267	199.08890337	212.03541666
 192	191.00000000	198.75427812	199.71479058	212.75154144
 193	192.00000000	199.54012156	200.52268803	213.68404180
 194	193.00000000	200.39116949	201.38949752	214.68952864
 195	194.00000000	201.24168545	202.25276560	215.68434566
 196	195.00000000	202.09405571	203.12097341	216.69158041
 197	196.00000000	202.93045163	203.97986412	217.67926902
 198	197.00000000	203.76806349	204.83329833	218.67090940
 199	198.00000000	204.60108519	205.67908734	219.64738101
 200	199.00000000	205.41465193	206.50531501	220.60298413
 201	200.00000000	206.60105467	207.72188812	222.01308846
 202	201.00000000	207.87790775	209.02287751	223.52373540
 203	202.00000000	209.12682474	210.29266298	224.99410450
 204	203.00000000	210.34067720	211.52735353	226.42700762
 205	204.00000000	211.51607573	212.73313522	227.82650292
 206	205.00000000	212.66656280	213.90105575	229.18106943
 207	206.00000000	213.77420336	215.03578126	230.49759239
 208	207.00000000	214.85798120	216.13671899	231.78061634
 209	208.00000000	216.03956580	217.34291106	233.16713154
 210	209.00000000	217.21136212	218.54240030	234.55375314
 211	210.00000000	218.35464478	219.71016884	235.89938253
 212	211.00000000	219.46996093	220.83987862	237.20701396
 213	212.00000000	220.54901183	221.94005638	238.47316682
 214	213.00000000	221.59234464	223.00430328	239.70091134
 215	214.00000000	222.61211872	224.04483944	240.90336442
 216	215.00000000	223.60699654	225.05734831	242.06859469
 217	216.00000000	224.28492576	225.75147986	242.86761582
 218	217.00000000	224.89372909	226.37604475	243.59191775
 219	218.00000000	225.48525095	226.98015153	244.28705245
 220	219.00000000	226.08055741	227.57807225	244.97826576
 221	220.00000000	226.65634811	228.16628069	245.65643817
 222	221.00000000	227.21595168	228.73828679	246.31720752
 223	222.00000000	227.77174026	229.30641711	246.97385788
 224	223.00000000	228.31833333	229.86226648	247.61008054
 225	224.00000000	228.73275429	230.28183997	248.09268504
 226	225.00000000	229.11094040	230.67499727	248.54422241
 227	226.00000000	229.49271351	231.06184691	248.99165601
 228	227.00000000	229.86288965	231.44699425	249.43463624
 229	228.00000000	230.23675919	231.82578832	249.87348229
 230	229.00000000	230.60533941	232.19622284	250.29612601
 231	230.00000000	230.96353859	232.56931722	250.72618693
 232	231.00000000	231.32538557	232.93604314	251.15211368
 233	232.00000000	231.55803949	233.17650944	251.42510623
 234	233.00000000	231.78598166	233.40223253	251.68496668
 235	234.00000000	232.00348198	233.63055468	251.95215315
 236	235.00000000	232.21978158	233.85457546	252.20751464
 237	236.00000000	232.43969858	234.07215178	252.45863557
 238	237.00000000	232.65607417	234.29626375	252.71407306
 239	238.00000000	232.87307292	234.51409847	252.97279358
 240	239.00000000	233.08543593	234.73413706	253.22388411
 241	240.00000000	233.26898128	234.92520601	253.44381630
 242	241.00000000	233.45611364	235.10980010	253.65950793
 243	242.00000000	233.63971978	235.30091465	253.87953132
 244	243.00000000	233.82338673	235.49205959	254.09956992
 245	244.00000000	234.01053429	235.67674488	254.31536794
 246	245.00000000	234.19011265	235.86380124	254.53101397
 247	246.00000000	234.38150078	236.05266631	254.75132614
 248	247.00000000	234.55700576	236.23564929	254.96261001
 249	248.00000000	234.72842216	236.41449809	255.16944051
 250	249.00000000	234.90278721	236.59314930	255.36879301
 251	250.00000000	235.08183360	236.76970303	255.57586670
 252	251.00000000	235.24922222	236.94444805	255.77831984
 253	252.00000000	235.42072982	237.12341845	255.98530233
 254	253.00000000	235.59871227	237.29565561	256.18052065
 255	254.00000000	235.76613128	237.47050703	256.38309538
 256	255.00000000	235.93768448	237.64952302	256.59013867
END_DATA
