bench/lcms_compat/reference/RISO_MZ770_RedGreen.icc_to_srgb_Perceptual_BPC.it8
CGATS.17
ORIGINATOR	"icctrans"
#
# Data follows
#
NUMBER_OF_SETS	121.00000000
NUMBER_OF_FIELDS	6.00000000
BEGIN_DATA_FORMAT
 SAMPLE_ID	IN_CH1	IN_CH2	OUT_RGB_R	OUT_RGB_G	OUT_RGB_B
END_DATA_FORMAT
BEGIN_DATA
 1	0.00000000	0.00000000	254.99998480	255.00000000	255.00000000
 2	0.00000000	0.10000000	247.30047315	251.75381899	249.01521474
 3	0.00000000	0.20000000	215.46559900	237.76310652	223.62371564
 4	0.00000000	0.30000000	177.05659121	219.20687824	192.90161937
 5	0.00000000	0.40000000	118.89080957	187.15520293	146.32663697
 6	0.00000000	0.50000000	95.31321913	176.90157473	130.20367652
 7	0.00000000	0.60000000	67.94662401	167.82211393	114.83831182
 8	0.00000000	0.70000000	5.72984031	158.02981138	96.62505314
 9	0.00000000	0.80000000	-225.75895786	138.80986512	60.02455831
 10	0.00000000	0.90000000	-431.19116485	116.43348902	-7.45961579
 11	0.00000000	1.00000000	-418.31250072	111.94589183	-18.11877865
 12	0.10000000	0.00000000	257.38767028	234.01966900	235.07455319
 13	0.10000000	0.10000000	248.29177916	229.99431700	228.32138836
 14	0.10000000	0.20000000	213.05426359	214.14877206	201.48254693
 15	0.10000000	0.30000000	176.70617402	198.60594928	174.45827544
 16	0.10000000	0.40000000	124.64636832	173.65954310	136.21109337
 17	0.10000000	0.50000000	103.09732184	163.37972671	120.77628359
 18	0.10000000	0.60000000	80.15501931	154.67328429	106.21129274
 19	0.10000000	0.70000000	44.64104958	145.14132857	88.67736921
 20	0.10000000	0.80000000	-159.80565369	125.67713901	49.14197266
 21	0.10000000	0.90000000	-397.06656396	110.00452280	-4.38446931
 22	0.10000000	1.00000000	-391.40760362	106.91680089	-10.64627632
 23	0.20000000	0.00000000	260.33819675	206.16511166	207.99912125
 24	0.20000000	0.10000000	251.41470999	206.28149182	205.60605526
 25	0.20000000	0.20000000	217.37294465	192.51238346	182.40038127
 26	0.20000000	0.30000000	180.63516319	179.97428745	159.44058448
 27	0.20000000	0.40000000	133.70692134	157.64768869	124.12914768
 28	0.20000000	0.50000000	114.67089280	149.06767309	110.52983701
 29	0.20000000	0.60000000	94.29121837	140.53497255	96.40931591
 30	0.20000000	0.70000000	66.30646482	130.66443980	78.64466876
 31	0.20000000	0.80000000	-83.78409058	115.02085403	42.54971780
 32	0.20000000	0.90000000	-343.89495313	102.06307054	1.64989949
 33	0.20000000	1.00000000	-355.23196399	99.39436734	-3.19852231
 34	0.30000000	0.00000000	261.74679637	176.86535507	178.99986774
 35	0.30000000	0.10000000	252.94082969	173.58287841	173.53744805
 36	0.30000000	0.20000000	218.85611147	161.74970537	153.02651346
 37	0.30000000	0.30000000	187.57661551	151.62748933	135.29082835
 38	0.30000000	0.40000000	143.52553368	130.16090602	101.79906830
 39	0.30000000	0.50000000	126.78222612	123.37625608	89.70249340
 40	0.30000000	0.60000000	109.42352638	117.12110013	77.61196017
 41	0.30000000	0.70000000	86.81923851	108.71062383	60.82022801
 42	0.30000000	0.80000000	13.38376438	97.88095415	30.55431817
 43	0.30000000	0.90000000	-273.00139725	88.52924556	6.72572270
 44	0.30000000	1.00000000	-304.65418518	85.73040694	5.59342098
 45	0.40000000	0.00000000	261.12609208	145.71885198	146.74206108
 46	0.40000000	0.10000000	252.59407550	143.47796023	142.59692430
 47	0.40000000	0.20000000	220.22957057	134.43482548	125.91945961
 48	0.40000000	0.30000000	190.77903807	125.92044756	109.91937697
 49	0.40000000	0.40000000	151.01072162	111.50351956	85.16895667
 50	0.40000000	0.50000000	134.31884050	105.72226658	74.14007127
 51	0.40000000	0.60000000	117.84409493	100.01134023	61.89682804
 52	0.40000000	0.70000000	97.10804522	93.94954830	46.41149238
 53	0.40000000	0.80000000	37.92512655	84.46781069	20.30139294
 54	0.40000000	0.90000000	-215.43997318	74.10832778	10.40452760
 55	0.40000000	1.00000000	-261.70037806	72.45961145	11.40476122
 56	0.50000000	0.00000000	259.16217506	124.22840595	123.21088895
 57	0.50000000	0.10000000	252.05467165	123.60702530	121.13404959
 58	0.50000000	0.20000000	221.84180886	115.14640689	105.90778023
 59	0.50000000	0.30000000	192.75265217	107.70837441	91.26690745
 60	0.50000000	0.40000000	155.37521303	96.30821854	69.03522760
 61	0.50000000	0.50000000	140.28347164	91.15714654	58.85196783
 62	0.50000000	0.60000000	124.48564455	86.38238356	47.53721997
 63	0.50000000	0.70000000	104.87025350	80.24119869	30.48991732
 64	0.50000000	0.80000000	54.86684047	72.61405796	7.92488753
 65	0.50000000	0.90000000	-160.70530862	62.81857498	10.58626710
 66	0.50000000	1.00000000	-202.02076524	60.90463288	13.49448759
 67	0.60000000	0.00000000	257.64976501	103.94587710	99.73945722
 68	0.60000000	0.10000000	249.83946651	102.31147081	96.42087489
 69	0.60000000	0.20000000	222.35488772	95.95441952	83.93566445
 70	0.60000000	0.30000000	193.46412599	89.09751266	70.18760696
 71	0.60000000	0.40000000	157.78280944	77.79786900	46.05120331
 72	0.60000000	0.50000000	143.89435709	73.60284090	34.68239576
 73	0.60000000	0.60000000	130.53124934	69.19215158	20.70176985
 74	0.60000000	0.70000000	110.57571575	63.49707797	-0.70439569
 75	0.60000000	0.80000000	65.54475009	56.95249535	-8.44897868
 76	0.60000000	0.90000000	-87.55471185	49.59673986	7.58857707
 77	0.60000000	1.00000000	-131.39994353	48.07495192	12.58931441
 78	0.70000000	0.00000000	256.20350182	76.28036723	63.02005917
 79	0.70000000	0.10000000	248.30176502	74.66692820	59.37606610
 80	0.70000000	0.20000000	219.12200600	69.00901660	45.56311570
 81	0.70000000	0.30000000	193.26313198	65.20855933	34.52511840
 82	0.70000000	0.40000000	159.57859308	55.09487383	-7.96580991
 83	0.70000000	0.50000000	147.19584793	51.05224416	-27.20692009
 84	0.70000000	0.60000000	135.49211115	48.33401062	-36.22942194
 85	0.70000000	0.70000000	117.45684251	44.08429585	-38.00576583
 86	0.70000000	0.80000000	78.66653278	38.70324880	-24.60532129
 87	0.70000000	0.90000000	-17.58203086	34.70521353	0.84486911
 88	0.70000000	1.00000000	-69.57631856	34.51115415	7.40127515
 89	0.80000000	0.00000000	253.88609737	44.88257982	-18.93640358
 90	0.80000000	0.10000000	246.18216276	44.76835415	-23.39563720
 91	0.80000000	0.20000000	218.57459217	42.83737756	-38.08924735
 92	0.80000000	0.30000000	194.67658013	38.85304816	-51.59965038
 93	0.80000000	0.40000000	162.34004170	32.05000341	-62.21737124
 94	0.80000000	0.50000000	151.12389475	29.93586905	-60.97971685
 95	0.80000000	0.60000000	140.96729815	27.49183450	-58.26010399
 96	0.80000000	0.70000000	125.29095814	23.25343173	-51.86636947
 97	0.80000000	0.80000000	92.86337659	20.99070635	-35.27166434
 98	0.80000000	0.90000000	27.75733005	19.92593888	-5.73568963
 99	0.80000000	1.00000000	-43.99154663	18.93095847	5.95937270
 100	0.90000000	0.00000000	251.31153792	26.66525725	-83.28627169
 101	0.90000000	0.10000000	244.39642578	28.88661996	-80.10945216
 102	0.90000000	0.20000000	218.55778188	31.13369968	-75.81933036
 103	0.90000000	0.30000000	194.84609663	26.48136612	-75.86326361
 104	0.90000000	0.40000000	164.09492433	20.48870388	-68.73875991
 105	0.90000000	0.50000000	153.29664856	19.44679789	-65.06436467
 106	0.90000000	0.60000000	143.35293174	16.55251220	-61.23355463
 107	0.90000000	0.70000000	128.37551862	10.67733301	-54.18986879
 108	0.90000000	0.80000000	97.87923664	8.03666566	-37.92701505
 109	0.90000000	0.90000000	36.34264827	11.10625399	-8.01043186
 110	0.90000000	1.00000000	-27.88305581	9.23947306	3.29811995
 111	1.00000000	0.00000000	243.86798054	-24.25661780	-115.19003615
 112	1.00000000	0.10000000	238.98683846	-10.97597703	-111.24970078
 113	1.00000000	0.20000000	218.11452806	20.05976580	-93.38347748
 114	1.00000000	0.30000000	192.78218418	10.73897235	-86.34791180
 115	1.00000000	0.40000000	166.88011408	7.15774289	-73.40680942
 116	1.00000000	0.50000000	157.54716128	6.17527379	-68.51245165
 117	1.00000000	0.60000000	146.14429235	2.80842051	-63.22357245
 118	1.00000000	0.70000000	131.14231735	-3.14277645	-55.59795544
 119	1.00000000	0.80000000	100.95055863	-11.47817804	-38.33387822
 120	1.00000000	0.90000000	42.94479400	-2.81253379	-10.14613671
 121	1.00000000	1.00000000	0.02664075	-0.00668778	-0.01868740
END_DATA
