bench/lcms_compat/reference/RISO_MZ770_Black.icc_to_lab_Relative.it8
CGATS.17
ORIGINATOR	"icctrans"
#
# Data follows
#
NUMBER_OF_SETS	256.00000000
NUMBER_OF_FIELDS	5.00000000
BEGIN_DATA_FORMAT
 SAMPLE_ID	IN_GRAY	OUT_LAB_L	OUT_LAB_A	OUT_LAB_B
END_DATA_FORMAT
BEGIN_DATA
 1	0.00000000	29.52052951	0.19141090	6.50392097
 2	1.00000000	29.63541746	0.18748951	6.49609339
 3	2.00000000	29.75030839	0.17967713	6.49218720
 4	3.00000000	29.86672819	0.17578614	6.48437482
 5	4.00000000	29.98315096	0.16797376	6.48046863
 6	5.00000000	30.09804189	0.16016138	6.47265625
 7	6.00000000	30.21599352	0.15623999	6.46484387
 8	7.00000000	30.33241630	0.14842761	6.46093768
 9	8.00000000	30.45036793	0.14453661	6.45312530
 10	9.00000000	30.59589565	0.13672423	6.44531292
 11	10.00000000	30.74142337	0.12891185	6.43750054
 12	11.00000000	30.88695109	0.12109947	6.42968816
 13	12.00000000	31.03553951	0.11328709	6.42187577
 14	13.00000000	31.18413091	0.10547471	6.41406339
 15	14.00000000	31.33425415	0.09766233	6.40625101
 16	15.00000000	31.48744106	0.08984995	6.39843863
 17	16.00000000	31.64368868	0.08203757	6.39062625
 18	17.00000000	31.86581135	0.07030380	6.37890768
 19	18.00000000	32.08793104	0.05860043	6.36718911
 20	19.00000000	32.31617808	0.05078804	6.35547054
 21	20.00000000	32.54595697	0.03905427	6.34375197
 22	21.00000000	32.78033137	0.02735090	6.33203340
 23	22.00000000	33.02083313	0.01561713	6.31640863
 24	23.00000000	33.26440156	0.00391376	6.30469006
 25	24.00000000	33.52634907	-0.00782001	6.28906530
 26	25.00000000	33.87867808	-0.02344477	6.26953435
 27	26.00000000	34.24326181	-0.03906953	6.24609721
 28	27.00000000	34.62010026	-0.05858529	6.22266006
 29	28.00000000	35.01072526	-0.07421005	6.19531673
 30	29.00000000	35.41666865	-0.09375620	6.17187959
 31	30.00000000	35.84252596	-0.10938096	6.14453626
 32	31.00000000	36.28216982	-0.12889671	6.11719292
 33	32.00000000	36.75245047	-0.15233386	6.08203721
 34	33.00000000	37.26715744	-0.16795862	6.03125674
 35	34.00000000	37.80790567	-0.18750477	5.98047626
 36	35.00000000	38.37316334	-0.20702052	5.92188340
 37	36.00000000	38.96599412	-0.22656667	5.86719674
 38	37.00000000	39.58333433	-0.25000381	5.80469769
 39	38.00000000	40.22977948	-0.27344096	5.74219865
 40	39.00000000	40.89920521	-0.29687810	5.67579341
 41	40.00000000	41.58701003	-0.32031524	5.60548198
 42	41.00000000	42.26409495	-0.33594000	5.53907675
 43	42.00000000	42.94730425	-0.35156476	5.47265631
 44	43.00000000	43.63970757	-0.36718953	5.40625107
 45	44.00000000	44.32444870	-0.38672048	5.33593965
 46	45.00000000	45.00153363	-0.40234524	5.26953441
 47	46.00000000	45.66636086	-0.41797000	5.20703536
 48	47.00000000	46.31586969	-0.43359476	5.14063013
 49	48.00000000	46.91482782	-0.44531333	5.08203727
 50	49.00000000	47.33915329	-0.45312572	5.04297537
 51	50.00000000	47.74969518	-0.46093810	5.00391346
 52	51.00000000	48.14951122	-0.46484429	4.96875775
 53	52.00000000	48.53707254	-0.47265667	4.92969584
 54	53.00000000	48.91237617	-0.47656286	4.89844632
 55	54.00000000	49.27695990	-0.48437524	4.86329061
 56	55.00000000	49.63082075	-0.48828143	4.82813489
 57	56.00000000	49.98774529	-0.49218762	4.79688537
 58	57.00000000	50.38143396	-0.50000000	4.76172966
 59	58.00000000	50.76439977	-0.50390619	4.73048013
 60	59.00000000	51.13511086	-0.50781238	4.69923061
 61	60.00000000	51.49356723	-0.51171857	4.66798109
 62	61.00000000	51.84436440	-0.51562476	4.63673156
 63	62.00000000	52.18443871	-0.51953095	4.60938823
 64	63.00000000	52.51685381	-0.52343714	4.57813871
 65	64.00000000	52.84773707	-0.52734333	4.55079538
 66	65.00000000	53.18781137	-0.53124952	4.52345204
 67	66.00000000	53.52328420	-0.53515571	4.49609351
 68	67.00000000	53.84957194	-0.53906190	4.46875018
 69	68.00000000	54.16973233	-0.54296809	4.44140685
 70	69.00000000	54.48529720	-0.54687428	4.41796970
 71	70.00000000	54.79473472	-0.55078048	4.39062637
 72	71.00000000	55.09957671	-0.55078048	4.36718923
 73	72.00000000	55.37224412	-0.55468667	4.34375209
 74	73.00000000	55.57751656	-0.55468667	4.32422113
 75	74.00000000	55.77971935	-0.55859286	4.30859637
 76	75.00000000	55.97886443	-0.55859286	4.29297161
 77	76.00000000	56.17647171	-0.55859286	4.27344066
 78	77.00000000	56.36948943	-0.55859286	4.25781590
 79	78.00000000	56.56096935	-0.56249905	4.24219114
 80	79.00000000	56.74939156	-0.56249905	4.22656637
 81	80.00000000	56.93780780	-0.56249905	4.21094161
 82	81.00000000	57.12469816	-0.56249905	4.19531685
 83	82.00000000	57.31005073	-0.56640524	4.17969209
 84	83.00000000	57.49387741	-0.56640524	4.16797352
 85	84.00000000	57.67616630	-0.56640524	4.15234876
 86	85.00000000	57.85539746	-0.56640524	4.13672400
 87	86.00000000	58.03309083	-0.57031143	4.12500542
 88	87.00000000	58.21078420	-0.57031143	4.10938066
 89	88.00000000	58.40839744	-0.57031143	4.09375590
 90	89.00000000	58.65349770	-0.57031143	4.07813114
 91	90.00000000	58.89706016	-0.57421762	4.05860019
 92	91.00000000	59.13756490	-0.57421762	4.04297543
 93	92.00000000	59.37653184	-0.57421762	4.02344447
 94	93.00000000	59.61397290	-0.57421762	4.00781971
 95	94.00000000	59.84988213	-0.57812381	3.98828876
 96	95.00000000	60.08425355	-0.57812381	3.97266400
 97	96.00000000	60.35079956	-0.57812381	3.95313305
 98	97.00000000	60.67249179	-0.57812381	3.92969590
 99	98.00000000	60.99265218	-0.57812381	3.90235257
 100	99.00000000	61.31280661	-0.57812381	3.87891543
 101	100.00000000	61.62990332	-0.58203000	3.85547829
 102	101.00000000	61.94546819	-0.58203000	3.83204114
 103	102.00000000	62.25950122	-0.58203000	3.80860400
 104	103.00000000	62.57200241	-0.58203000	3.78907305
 105	104.00000000	62.84620166	-0.58203000	3.76563591
 106	105.00000000	63.06372881	-0.58203000	3.75001115
 107	106.00000000	63.28278184	-0.58203000	3.73438638
 108	107.00000000	63.49877715	-0.58203000	3.71485543
 109	108.00000000	63.71476650	-0.58203000	3.69923067
 110	109.00000000	63.93076181	-0.58203000	3.68360591
 111	110.00000000	64.14369345	-0.58203000	3.66798115
 112	111.00000000	64.35815096	-0.58203000	3.64845020
 113	112.00000000	64.54197764	-0.58203000	3.63673162
 114	113.00000000	64.68903422	-0.58203000	3.62501305
 115	114.00000000	64.83609080	-0.58203000	3.61329448
 116	115.00000000	64.98008966	-0.58203000	3.60157591
 117	116.00000000	65.12561440	-0.57812381	3.58985734
 118	117.00000000	65.27267098	-0.57812381	3.57813877
 119	118.00000000	65.41666985	-0.57812381	3.56642020
 120	119.00000000	65.56219459	-0.57812381	3.55470163
 121	120.00000000	65.68781137	-0.57812381	3.54298306
 122	121.00000000	65.79350829	-0.57812381	3.53126448
 123	122.00000000	65.89920521	-0.57421762	3.52345210
 124	123.00000000	66.00490212	-0.57421762	3.51173353
 125	124.00000000	66.10907316	-0.57421762	3.50392115
 126	125.00000000	66.21630192	-0.57421762	3.49218738
 127	126.00000000	66.32199883	-0.57031143	3.48437500
 128	127.00000000	66.42922759	-0.57031143	3.47265643
 129	128.00000000	66.53952599	-0.57031143	3.46484405
 130	129.00000000	66.65594578	-0.57031143	3.45312548
 131	130.00000000	66.77236557	-0.56640524	3.44140691
 132	131.00000000	66.88879132	-0.56640524	3.42968833
 133	132.00000000	67.00674295	-0.56640524	3.42187595
 134	133.00000000	67.12622643	-0.56640524	3.41015738
 135	134.00000000	67.24570990	-0.56249905	3.39843881
 136	135.00000000	67.36519933	-0.56249905	3.38672024
 137	136.00000000	67.50766039	-0.56249905	3.37500167
 138	137.00000000	67.66544580	-0.55859286	3.35937691
 139	138.00000000	67.82935262	-0.55859286	3.34375215
 140	139.00000000	67.99325943	-0.55468667	3.33203357
 141	140.00000000	68.15717220	-0.55468667	3.31640881
 142	141.00000000	68.32567453	-0.55078048	3.30078405
 143	142.00000000	68.49418283	-0.55078048	3.28515929
 144	143.00000000	68.66728067	-0.54687428	3.26953453
 145	144.00000000	68.88327599	-0.54687428	3.25000358
 146	145.00000000	69.13756132	-0.54296809	3.22266024
 147	146.00000000	69.39644814	-0.53906190	3.19922310
 148	147.00000000	69.65839863	-0.53515571	3.17187977
 149	148.00000000	69.92800236	-0.53515571	3.14844263
 150	149.00000000	70.20373940	-0.53124952	3.12109929
 151	150.00000000	70.48560381	-0.52734333	3.09375596
 152	151.00000000	70.77665329	-0.52343714	3.06641263
 153	152.00000000	71.14123702	-0.51953095	3.03125691
 154	153.00000000	71.55943513	-0.51562476	2.98828882
 155	154.00000000	71.98989391	-0.50781238	2.94532073
 156	155.00000000	72.43566513	-0.50390619	2.90235263
 157	156.00000000	72.89675474	-0.49609381	2.85938454
 158	157.00000000	73.37009907	-0.48828143	2.81251025
 159	158.00000000	73.85722995	-0.48046905	2.76172978
 160	159.00000000	74.35662150	-0.47656286	2.71485549
 161	160.00000000	74.82230663	-0.46875048	2.66798121
 162	161.00000000	75.26501417	-0.46093810	2.62110692
 163	162.00000000	75.71844459	-0.45312572	2.57423264
 164	163.00000000	76.18259788	-0.44531333	2.52735835
 165	164.00000000	76.65287852	-0.43750095	2.47656268
 166	165.00000000	77.12776065	-0.42968857	2.42968839
 167	166.00000000	77.60876417	-0.42187619	2.37890792
 168	167.00000000	78.09283137	-0.41406381	2.32812744
 169	168.00000000	78.54472995	-0.40625143	2.28515935
 170	169.00000000	78.98131013	-0.39843905	2.24219126
 171	170.00000000	79.41330075	-0.39453286	2.19922316
 172	171.00000000	79.83609438	-0.38672048	2.15625507
 173	172.00000000	80.25735617	-0.37890810	2.11719316
 174	173.00000000	80.66942692	-0.37500191	2.07813126
 175	174.00000000	81.07843399	-0.36718953	2.03516316
 176	175.00000000	81.48284554	-0.35937715	1.99610126
 177	176.00000000	81.81219697	-0.35547096	1.96485174
 178	177.00000000	82.10937381	-0.35156476	1.93750840
 179	178.00000000	82.40196109	-0.34765857	1.91016507
 180	179.00000000	82.69454837	-0.34375238	1.87891555
 181	180.00000000	82.98407197	-0.33984619	1.85157222
 182	181.00000000	83.27512145	-0.33594000	1.82422888
 183	182.00000000	83.56464505	-0.32812762	1.79688555
 184	183.00000000	83.85416865	-0.32422143	1.76954222
 185	184.00000000	84.10232663	-0.32031524	1.74610507
 186	185.00000000	84.33517218	-0.31640905	1.72266793
 187	186.00000000	84.56801772	-0.31250286	1.69923079
 188	187.00000000	84.80238914	-0.30859667	1.67579365
 189	188.00000000	85.03676653	-0.30469048	1.65235651
 190	189.00000000	85.27420163	-0.30078429	1.62891936
 191	190.00000000	85.51317453	-0.29687810	1.60548222
 192	191.00000000	85.75214744	-0.29297191	1.58204508
 193	192.00000000	86.06004715	-0.28906572	1.54688936
 194	193.00000000	86.39093041	-0.28125334	1.50782746
 195	194.00000000	86.72028184	-0.27344096	1.47265655
 196	195.00000000	87.05116510	-0.26562858	1.43359464
 197	196.00000000	87.37745285	-0.26172239	1.39843893
 198	197.00000000	87.70220876	-0.25391001	1.35937703
 199	198.00000000	88.02389503	-0.24608243	1.32422131
 200	199.00000000	88.33792806	-0.23827004	1.28906560
 201	200.00000000	88.79901767	-0.23045766	1.23437893
 202	201.00000000	89.29228187	-0.21875429	1.17578608
 203	202.00000000	89.77328539	-0.20702052	1.12109941
 204	203.00000000	90.24050236	-0.19531715	1.06641275
 205	204.00000000	90.69546461	-0.18750477	1.01172608
 206	205.00000000	91.13664031	-0.17577100	0.96094561
 207	206.00000000	91.56402946	-0.16795862	0.91016513
 208	207.00000000	91.97916985	-0.15625525	0.85938466
 209	208.00000000	92.43260026	-0.14844286	0.81251037
 210	209.00000000	92.88296700	-0.14063048	0.76172990
 211	210.00000000	93.32107902	-0.13281810	0.71485561
 212	211.00000000	93.74540448	-0.12108433	0.66798133
 213	212.00000000	94.15747523	-0.11327195	0.62501323
 214	213.00000000	94.55575943	-0.10545957	0.58204514
 215	214.00000000	94.94485259	-0.09764719	0.53907704
 216	215.00000000	95.32322288	-0.08983481	0.50001514
 217	216.00000000	95.58210969	-0.08594382	0.47265661
 218	217.00000000	95.81494927	-0.08202243	0.44529808
 219	218.00000000	96.04013562	-0.07813144	0.42186093
 220	219.00000000	96.26378417	-0.07031906	0.39842379
 221	220.00000000	96.48284316	-0.06639767	0.37498665
 222	221.00000000	96.69577479	-0.06250668	0.35154951
 223	222.00000000	96.90716863	-0.05858529	0.32811236
 224	223.00000000	97.11397290	-0.05469429	0.30859661
 225	224.00000000	97.27022052	-0.05077291	0.29297185
 226	225.00000000	97.41574526	-0.05077291	0.27734709
 227	226.00000000	97.55974412	-0.04688191	0.26172233
 228	227.00000000	97.70220518	-0.04688191	0.24609756
 229	228.00000000	97.84314036	-0.04296052	0.23047280
 230	229.00000000	97.98100591	-0.03906953	0.21873903
 231	230.00000000	98.11887145	-0.03906953	0.20311427
 232	231.00000000	98.25521111	-0.03514814	0.18748951
 233	232.00000000	98.34405780	-0.03514814	0.17967713
 234	233.00000000	98.42830896	-0.03125715	0.17186475
 235	234.00000000	98.51256013	-0.03125715	0.16016138
 236	235.00000000	98.59527946	-0.03125715	0.15234900
 237	236.00000000	98.67647290	-0.02733576	0.14453661
 238	237.00000000	98.75919223	-0.02733576	0.13672423
 239	238.00000000	98.84037971	-0.02344477	0.12499046
 240	239.00000000	98.92156720	-0.02344477	0.11717808
 241	240.00000000	98.99203181	-0.02344477	0.10936570
 242	241.00000000	99.06097054	-0.01952338	0.10155332
 243	242.00000000	99.13143516	-0.01952338	0.09374094
 244	243.00000000	99.20189977	-0.01952338	0.08592856
 245	244.00000000	99.27083254	-0.01563239	0.07811618
 246	245.00000000	99.33976531	-0.01563239	0.07030380
 247	246.00000000	99.41022992	-0.01171100	0.06249142
 248	247.00000000	99.47763681	-0.01171100	0.05467904
 249	248.00000000	99.54350591	-0.01171100	0.04686666
 250	249.00000000	99.60937500	-0.01171100	0.04297566
 251	250.00000000	99.67524409	-0.00782001	0.03516328
 252	251.00000000	99.73958135	-0.00782001	0.02735090
 253	252.00000000	99.80545640	-0.00782001	0.01953852
 254	253.00000000	99.86979365	-0.00389862	0.01561713
 255	254.00000000	99.93413091	-0.00389862	0.00780475
 256	255.00000000	100.00000000	-0.00389862	-0.00000763
END_DATA
