bench/lcms_compat/reference/srgb_to_ISOcoated_v2_grey1c_bas.ICC_Relative.it8
CGATS.17
ORIGINATOR	"icctrans"
#
# Data follows
#
NUMBER_OF_SETS	9261.00000000
NUMBER_OF_FIELDS	5.00000000
BEGIN_DATA_FORMAT
 SAMPLE_ID	IN_RGB_R	IN_RGB_G	IN_RGB_B	OUT_GRAY
END_DATA_FORMAT
BEGIN_DATA
 0	0.00000000	0.00000000	0.00000000	0.00000000
 1	0.00000000	0.00000000	13.00000000	0.00000000
 2	0.00000000	0.00000000	26.00000000	0.00000000
 3	0.00000000	0.00000000	38.00000000	0.00000000
 4	0.00000000	0.00000000	51.00000000	0.00000000
 5	0.00000000	0.00000000	64.00000000	0.00000000
 6	0.00000000	0.00000000	77.00000000	0.00000000
 7	0.00000000	0.00000000	89.00000000	0.00000000
 8	0.00000000	0.00000000	102.00000000	0.00000000
 9	0.00000000	0.00000000	115.00000000	0.00000000
 10	0.00000000	0.00000000	128.00000000	0.00000000
 11	0.00000000	0.00000000	140.00000000	0.00000000
 12	0.00000000	0.00000000	153.00000000	0.00000000
 13	0.00000000	0.00000000	166.00000000	0.00000000
 14	0.00000000	0.00000000	179.00000000	3.35408572
 15	0.00000000	0.00000000	191.00000000	7.19455247
 16	0.00000000	0.00000000	204.00000000	11.31517533
 17	0.00000000	0.00000000	217.00000000	15.49416354
 18	0.00000000	0.00000000	230.00000000	19.68871571
 19	0.00000000	0.00000000	242.00000000	23.57198384
 20	0.00000000	0.00000000	255.00000000	27.78988291
 21	0.00000000	13.00000000	0.00000000	0.00000000
 22	0.00000000	13.00000000	13.00000000	0.00000000
 23	0.00000000	13.00000000	26.00000000	0.00000000
 24	0.00000000	13.00000000	38.00000000	0.00000000
 25	0.00000000	13.00000000	51.00000000	0.00000000
 26	0.00000000	13.00000000	64.00000000	0.00000000
 27	0.00000000	13.00000000	77.00000000	0.00000000
 28	0.00000000	13.00000000	89.00000000	0.00000000
 29	0.00000000	13.00000000	102.00000000	0.00000000
 30	0.00000000	13.00000000	115.00000000	0.00000000
 31	0.00000000	13.00000000	128.00000000	0.00000000
 32	0.00000000	13.00000000	140.00000000	0.00000000
 33	0.00000000	13.00000000	153.00000000	0.00000000
 34	0.00000000	13.00000000	166.00000000	2.08949410
 35	0.00000000	13.00000000	179.00000000	6.01167309
 36	0.00000000	13.00000000	191.00000000	9.61089458
 37	0.00000000	13.00000000	204.00000000	13.57587542
 38	0.00000000	13.00000000	217.00000000	17.58365717
 39	0.00000000	13.00000000	230.00000000	21.63035072
 40	0.00000000	13.00000000	242.00000000	25.39299622
 41	0.00000000	13.00000000	255.00000000	29.50972762
 42	0.00000000	26.00000000	0.00000000	0.00000000
 43	0.00000000	26.00000000	13.00000000	0.00000000
 44	0.00000000	26.00000000	26.00000000	0.00000000
 45	0.00000000	26.00000000	38.00000000	0.00000000
 46	0.00000000	26.00000000	51.00000000	0.00000000
 47	0.00000000	26.00000000	64.00000000	0.00000000
 48	0.00000000	26.00000000	77.00000000	0.00000000
 49	0.00000000	26.00000000	89.00000000	0.00000000
 50	0.00000000	26.00000000	102.00000000	0.00000000
 51	0.00000000	26.00000000	115.00000000	0.00000000
 52	0.00000000	26.00000000	128.00000000	0.00000000
 53	0.00000000	26.00000000	140.00000000	0.00000000
 54	0.00000000	26.00000000	153.00000000	2.76653702
 55	0.00000000	26.00000000	166.00000000	6.28015576
 56	0.00000000	26.00000000	179.00000000	9.83268488
 57	0.00000000	26.00000000	191.00000000	13.19455259
 58	0.00000000	26.00000000	204.00000000	16.91050619
 59	0.00000000	26.00000000	217.00000000	20.70817061
 60	0.00000000	26.00000000	230.00000000	24.55252882
 61	0.00000000	26.00000000	242.00000000	28.15564178
 62	0.00000000	26.00000000	255.00000000	32.10894965
 63	0.00000000	38.00000000	0.00000000	0.00000000
 64	0.00000000	38.00000000	13.00000000	0.00000000
 65	0.00000000	38.00000000	26.00000000	0.00000000
 66	0.00000000	38.00000000	38.00000000	0.00000000
 67	0.00000000	38.00000000	51.00000000	0.00000000
 68	0.00000000	38.00000000	64.00000000	0.00000000
 69	0.00000000	38.00000000	77.00000000	0.00000000
 70	0.00000000	38.00000000	89.00000000	0.00000000
 71	0.00000000	38.00000000	102.00000000	0.00000000
 72	0.00000000	38.00000000	115.00000000	0.34630350
 73	0.00000000	38.00000000	128.00000000	3.01556426
 74	0.00000000	38.00000000	140.00000000	5.63035025
 75	0.00000000	38.00000000	153.00000000	8.54863783
 76	0.00000000	38.00000000	166.00000000	11.64591433
 77	0.00000000	38.00000000	179.00000000	14.87159545
 78	0.00000000	38.00000000	191.00000000	17.96498001
 79	0.00000000	38.00000000	204.00000000	21.39688745
 80	0.00000000	38.00000000	217.00000000	24.92217869
 81	0.00000000	38.00000000	230.00000000	28.54085561
 82	0.00000000	38.00000000	242.00000000	31.94552422
 83	0.00000000	38.00000000	255.00000000	35.66925980
 84	0.00000000	51.00000000	0.00000000	0.00000000
 85	0.00000000	51.00000000	13.00000000	0.03891051
 86	0.00000000	51.00000000	26.00000000	0.40856031
 87	0.00000000	51.00000000	38.00000000	0.96887160
 88	0.00000000	51.00000000	51.00000000	1.82879377
 89	0.00000000	51.00000000	64.00000000	2.88326842
 90	0.00000000	51.00000000	77.00000000	4.21400760
 91	0.00000000	51.00000000	89.00000000	5.63035025
 92	0.00000000	51.00000000	102.00000000	7.36964992
 93	0.00000000	51.00000000	115.00000000	9.31128446
 94	0.00000000	51.00000000	128.00000000	11.50194576
 95	0.00000000	51.00000000	140.00000000	13.67704310
 96	0.00000000	51.00000000	153.00000000	16.21789835
 97	0.00000000	51.00000000	166.00000000	18.92607003
 98	0.00000000	51.00000000	179.00000000	21.77042831
 99	0.00000000	51.00000000	191.00000000	24.52529188
 100	0.00000000	51.00000000	204.00000000	27.63035037
 101	0.00000000	51.00000000	217.00000000	30.83657652
 102	0.00000000	51.00000000	230.00000000	34.15564142
 103	0.00000000	51.00000000	242.00000000	37.26070181
 104	0.00000000	51.00000000	255.00000000	40.69649644
 105	0.00000000	64.00000000	0.00000000	11.45136192
 106	0.00000000	64.00000000	13.00000000	11.64591433
 107	0.00000000	64.00000000	26.00000000	11.94941640
 108	0.00000000	64.00000000	38.00000000	12.38132307
 109	0.00000000	64.00000000	51.00000000	13.01945513
 110	0.00000000	64.00000000	64.00000000	13.85214055
 111	0.00000000	64.00000000	77.00000000	14.90661437
 112	0.00000000	64.00000000	89.00000000	16.05447482
 113	0.00000000	64.00000000	102.00000000	17.49416437
 114	0.00000000	64.00000000	115.00000000	19.13229637
 115	0.00000000	64.00000000	128.00000000	20.96887082
 116	0.00000000	64.00000000	140.00000000	22.80155618
 117	0.00000000	64.00000000	153.00000000	24.98832744
 118	0.00000000	64.00000000	166.00000000	27.34630421
 119	0.00000000	64.00000000	179.00000000	29.84824955
 120	0.00000000	64.00000000	191.00000000	32.28793904
 121	0.00000000	64.00000000	204.00000000	35.05447559
 122	0.00000000	64.00000000	217.00000000	37.91828692
 123	0.00000000	64.00000000	230.00000000	40.88715881
 124	0.00000000	64.00000000	242.00000000	43.69649626
 125	0.00000000	64.00000000	255.00000000	46.84824854
 126	0.00000000	77.00000000	0.00000000	23.16731505
 127	0.00000000	77.00000000	13.00000000	23.32684759
 128	0.00000000	77.00000000	26.00000000	23.57976582
 129	0.00000000	77.00000000	38.00000000	23.94163370
 130	0.00000000	77.00000000	51.00000000	24.45914313
 131	0.00000000	77.00000000	64.00000000	25.14007799
 132	0.00000000	77.00000000	77.00000000	26.01945531
 133	0.00000000	77.00000000	89.00000000	26.98832732
 134	0.00000000	77.00000000	102.00000000	28.17509674
 135	0.00000000	77.00000000	115.00000000	29.57198538
 136	0.00000000	77.00000000	128.00000000	31.12451367
 137	0.00000000	77.00000000	140.00000000	32.71984287
 138	0.00000000	77.00000000	153.00000000	34.60311301
 139	0.00000000	77.00000000	166.00000000	36.61478586
 140	0.00000000	77.00000000	179.00000000	38.78599316
 141	0.00000000	77.00000000	191.00000000	40.91439575
 142	0.00000000	77.00000000	204.00000000	43.33073929
 143	0.00000000	77.00000000	217.00000000	45.88715851
 144	0.00000000	77.00000000	230.00000000	48.58754821
 145	0.00000000	77.00000000	242.00000000	51.22179106
 146	0.00000000	77.00000000	255.00000000	54.24124584
 147	0.00000000	89.00000000	0.00000000	34.11284052
 148	0.00000000	89.00000000	13.00000000	34.24513802
 149	0.00000000	89.00000000	26.00000000	34.46303353
 150	0.00000000	89.00000000	38.00000000	34.75097448
 151	0.00000000	89.00000000	51.00000000	35.20233326
 152	0.00000000	89.00000000	64.00000000	35.78210235
 153	0.00000000	89.00000000	77.00000000	36.50972910
 154	0.00000000	89.00000000	89.00000000	37.32684866
 155	0.00000000	89.00000000	102.00000000	38.35408553
 156	0.00000000	89.00000000	115.00000000	39.53307487
 157	0.00000000	89.00000000	128.00000000	40.87937683
 158	0.00000000	89.00000000	140.00000000	42.24124655
 159	0.00000000	89.00000000	153.00000000	43.86381269
 160	0.00000000	89.00000000	166.00000000	45.63813128
 161	0.00000000	89.00000000	179.00000000	47.57587530
 162	0.00000000	89.00000000	191.00000000	49.50583734
 163	0.00000000	89.00000000	204.00000000	51.75097346
 164	0.00000000	89.00000000	217.00000000	54.18288097
 165	0.00000000	89.00000000	230.00000000	56.76264614
 166	0.00000000	89.00000000	242.00000000	59.27237347
 167	0.00000000	89.00000000	255.00000000	62.12451182
 168	0.00000000	102.00000000	0.00000000	45.87937653
 169	0.00000000	102.00000000	13.00000000	45.99221908
 170	0.00000000	102.00000000	26.00000000	46.17120467
 171	0.00000000	102.00000000	38.00000000	46.41634092
 172	0.00000000	102.00000000	51.00000000	46.79766566
 173	0.00000000	102.00000000	64.00000000	47.30739310
 174	0.00000000	102.00000000	77.00000000	47.95330904
 175	0.00000000	102.00000000	89.00000000	48.64980407
 176	0.00000000	102.00000000	102.00000000	49.55642022
 177	0.00000000	102.00000000	115.00000000	50.59922107
 178	0.00000000	102.00000000	128.00000000	51.80933833
 179	0.00000000	102.00000000	140.00000000	53.04669254
 180	0.00000000	102.00000000	153.00000000	54.57587488
 181	0.00000000	102.00000000	166.00000000	56.23346373
 182	0.00000000	102.00000000	179.00000000	58.04669224
 183	0.00000000	102.00000000	191.00000000	59.87548470
 184	0.00000000	102.00000000	204.00000000	61.96498118
 185	0.00000000	102.00000000	217.00000000	64.20233533
 186	0.00000000	102.00000000	230.00000000	66.53696805
 187	0.00000000	102.00000000	242.00000000	68.79766434
 188	0.00000000	102.00000000	255.00000000	71.33851960
 189	0.00000000	115.00000000	0.00000000	58.19066271
 190	0.00000000	115.00000000	13.00000000	58.29571947
 191	0.00000000	115.00000000	26.00000000	58.45914491
 192	0.00000000	115.00000000	38.00000000	58.70039016
 193	0.00000000	115.00000000	51.00000000	59.05447416
 194	0.00000000	115.00000000	64.00000000	59.52140070
 195	0.00000000	115.00000000	77.00000000	60.11283897
 196	0.00000000	115.00000000	89.00000000	60.76264590
 197	0.00000000	115.00000000	102.00000000	61.59532942
 198	0.00000000	115.00000000	115.00000000	62.56420143
 199	0.00000000	115.00000000	128.00000000	63.66537094
 200	0.00000000	115.00000000	140.00000000	64.79377359
 201	0.00000000	115.00000000	153.00000000	66.14786133
 202	0.00000000	115.00000000	166.00000000	67.62256980
 203	0.00000000	115.00000000	179.00000000	69.23735395
 204	0.00000000	115.00000000	191.00000000	70.82490116
 205	0.00000000	115.00000000	204.00000000	72.66537040
 206	0.00000000	115.00000000	217.00000000	74.63424236
 207	0.00000000	115.00000000	230.00000000	76.70038909
 208	0.00000000	115.00000000	242.00000000	78.69649798
 209	0.00000000	115.00000000	255.00000000	80.98054782
 210	0.00000000	128.00000000	0.00000000	70.92606694
 211	0.00000000	128.00000000	13.00000000	71.01945832
 212	0.00000000	128.00000000	26.00000000	71.15953401
 213	0.00000000	128.00000000	38.00000000	71.35797456
 214	0.00000000	128.00000000	51.00000000	71.66147947
 215	0.00000000	128.00000000	64.00000000	72.06615016
 216	0.00000000	128.00000000	77.00000000	72.56809562
 217	0.00000000	128.00000000	89.00000000	73.13229695
 218	0.00000000	128.00000000	102.00000000	73.85991991
 219	0.00000000	128.00000000	115.00000000	74.69649822
 220	0.00000000	128.00000000	128.00000000	75.64202428
 221	0.00000000	128.00000000	140.00000000	76.61867827
 222	0.00000000	128.00000000	153.00000000	77.78988183
 223	0.00000000	128.00000000	166.00000000	79.07782272
 224	0.00000000	128.00000000	179.00000000	80.49416631
 225	0.00000000	128.00000000	191.00000000	81.90272033
 226	0.00000000	128.00000000	204.00000000	83.53696704
 227	0.00000000	128.00000000	217.00000000	85.29182687
 228	0.00000000	128.00000000	230.00000000	87.15175107
 229	0.00000000	128.00000000	242.00000000	88.98054734
 230	0.00000000	128.00000000	255.00000000	91.07004002
 231	0.00000000	140.00000000	0.00000000	82.45525628
 232	0.00000000	140.00000000	13.00000000	82.53307611
 233	0.00000000	140.00000000	26.00000000	82.65758783
 234	0.00000000	140.00000000	38.00000000	82.83657342
 235	0.00000000	140.00000000	51.00000000	83.10895041
 236	0.00000000	140.00000000	64.00000000	83.46303821
 237	0.00000000	140.00000000	77.00000000	83.91050220
 238	0.00000000	140.00000000	89.00000000	84.40855667
 239	0.00000000	140.00000000	102.00000000	85.05058542
 240	0.00000000	140.00000000	115.00000000	85.79766333
 241	0.00000000	140.00000000	128.00000000	86.64591461
 242	0.00000000	140.00000000	140.00000000	87.53307581
 243	0.00000000	140.00000000	153.00000000	88.59144062
 244	0.00000000	140.00000000	166.00000000	89.76653516
 245	0.00000000	140.00000000	179.00000000	91.05836704
 246	0.00000000	140.00000000	191.00000000	92.35408232
 247	0.00000000	140.00000000	204.00000000	93.87159169
 248	0.00000000	140.00000000	217.00000000	95.49416542
 249	0.00000000	140.00000000	230.00000000	97.24124327
 250	0.00000000	140.00000000	242.00000000	98.96109179
 251	0.00000000	140.00000000	255.00000000	100.92996374
 252	0.00000000	153.00000000	0.00000000	94.98832896
 253	0.00000000	153.00000000	13.00000000	95.05836681
 254	0.00000000	153.00000000	26.00000000	95.17509654
 255	0.00000000	153.00000000	38.00000000	95.33851817
 256	0.00000000	153.00000000	51.00000000	95.58754921
 257	0.00000000	153.00000000	64.00000000	95.91829106
 258	0.00000000	153.00000000	77.00000000	96.33073613
 259	0.00000000	153.00000000	89.00000000	96.78598970
 260	0.00000000	153.00000000	102.00000000	97.37743556
 261	0.00000000	153.00000000	115.00000000	98.06225762
 262	0.00000000	153.00000000	128.00000000	98.85213643
 263	0.00000000	153.00000000	140.00000000	99.67315078
 264	0.00000000	153.00000000	153.00000000	100.65758675
 265	0.00000000	153.00000000	166.00000000	101.76264346
 266	0.00000000	153.00000000	179.00000000	102.98054650
 267	0.00000000	153.00000000	191.00000000	104.21400592
 268	0.00000000	153.00000000	204.00000000	105.65758646
 269	0.00000000	153.00000000	217.00000000	107.22178772
 270	0.00000000	153.00000000	230.00000000	108.91050830
 271	0.00000000	153.00000000	242.00000000	110.57198435
 272	0.00000000	153.00000000	255.00000000	112.48638242
 273	0.00000000	166.00000000	0.00000000	108.07003900
 274	0.00000000	166.00000000	13.00000000	108.14007685
 275	0.00000000	166.00000000	26.00000000	108.24902460
 276	0.00000000	166.00000000	38.00000000	108.40078086
 277	0.00000000	166.00000000	51.00000000	108.63813132
 278	0.00000000	166.00000000	64.00000000	108.95330921
 279	0.00000000	166.00000000	77.00000000	109.34630692
 280	0.00000000	166.00000000	89.00000000	109.78598893
 281	0.00000000	166.00000000	102.00000000	110.35408884
 282	0.00000000	166.00000000	115.00000000	111.02334693
 283	0.00000000	166.00000000	128.00000000	111.78209782
 284	0.00000000	166.00000000	140.00000000	112.57198423
 285	0.00000000	166.00000000	153.00000000	113.53307426
 286	0.00000000	166.00000000	166.00000000	114.59143907
 287	0.00000000	166.00000000	179.00000000	115.75875163
 288	0.00000000	166.00000000	191.00000000	116.93774477
 289	0.00000000	166.00000000	204.00000000	118.32296044
 290	0.00000000	166.00000000	217.00000000	119.81323287
 291	0.00000000	166.00000000	230.00000000	121.40467107
 292	0.00000000	166.00000000	242.00000000	122.97665432
 293	0.00000000	166.00000000	255.00000000	124.76654068
 294	0.00000000	179.00000000	0.00000000	121.90272555
 295	0.00000000	179.00000000	13.00000000	121.96887240
 296	0.00000000	179.00000000	26.00000000	122.07003817
 297	0.00000000	179.00000000	38.00000000	122.21400484
 298	0.00000000	179.00000000	51.00000000	122.43579894
 299	0.00000000	179.00000000	64.00000000	122.73151428
 300	0.00000000	179.00000000	77.00000000	123.10116604
 301	0.00000000	179.00000000	89.00000000	123.51361871
 302	0.00000000	179.00000000	102.00000000	124.04280111
 303	0.00000000	179.00000000	115.00000000	124.65369433
 304	0.00000000	179.00000000	128.00000000	125.35408795
 305	0.00000000	179.00000000	140.00000000	126.08949289
 306	0.00000000	179.00000000	153.00000000	126.96109012
 307	0.00000000	179.00000000	166.00000000	127.94940948
 308	0.00000000	179.00000000	179.00000000	129.00000751
 309	0.00000000	179.00000000	191.00000000	130.07004529
 310	0.00000000	179.00000000	204.00000000	131.30739570
 311	0.00000000	179.00000000	217.00000000	132.64202088
 312	0.00000000	179.00000000	230.00000000	134.08171803
 313	0.00000000	179.00000000	242.00000000	135.48249006
 314	0.00000000	179.00000000	255.00000000	137.09728181
 315	0.00000000	191.00000000	0.00000000	134.64980274
 316	0.00000000	191.00000000	13.00000000	134.70816761
 317	0.00000000	191.00000000	26.00000000	134.79766041
 318	0.00000000	191.00000000	38.00000000	134.92995411
 319	0.00000000	191.00000000	51.00000000	135.12840986
 320	0.00000000	191.00000000	64.00000000	135.38910627
 321	0.00000000	191.00000000	77.00000000	135.71984053
 322	0.00000000	191.00000000	89.00000000	136.09339088
 323	0.00000000	191.00000000	102.00000000	136.56809181
 324	0.00000000	191.00000000	115.00000000	137.12451875
 325	0.00000000	191.00000000	128.00000000	137.75485933
 326	0.00000000	191.00000000	140.00000000	138.41245204
 327	0.00000000	191.00000000	153.00000000	139.21401143
 328	0.00000000	191.00000000	166.00000000	140.10506362
 329	0.00000000	191.00000000	179.00000000	141.07393563
 330	0.00000000	191.00000000	191.00000000	142.06615359
 331	0.00000000	191.00000000	204.00000000	143.21012020
 332	0.00000000	191.00000000	217.00000000	144.45914358
 333	0.00000000	191.00000000	230.00000000	145.80933273
 334	0.00000000	191.00000000	242.00000000	147.12840915
 335	0.00000000	191.00000000	255.00000000	148.65758389
 336	0.00000000	204.00000000	0.00000000	148.38132352
 337	0.00000000	204.00000000	13.00000000	148.43579739
 338	0.00000000	204.00000000	26.00000000	148.52139920
 339	0.00000000	204.00000000	38.00000000	148.64591092
 340	0.00000000	204.00000000	51.00000000	148.83267850
 341	0.00000000	204.00000000	64.00000000	149.08171713
 342	0.00000000	204.00000000	77.00000000	149.39299643
 343	0.00000000	204.00000000	89.00000000	149.74318564
 344	0.00000000	204.00000000	102.00000000	150.19455582
 345	0.00000000	204.00000000	115.00000000	150.71983963
 346	0.00000000	204.00000000	128.00000000	151.32684946
 347	0.00000000	204.00000000	140.00000000	151.95331424
 348	0.00000000	204.00000000	153.00000000	152.71205753
 349	0.00000000	204.00000000	166.00000000	153.56419981
 350	0.00000000	204.00000000	179.00000000	154.50583488
 351	0.00000000	204.00000000	191.00000000	155.45525193
 352	0.00000000	204.00000000	204.00000000	156.57976359
 353	0.00000000	204.00000000	217.00000000	157.78987706
 354	0.00000000	204.00000000	230.00000000	159.09728050
 355	0.00000000	204.00000000	242.00000000	160.39688677
 356	0.00000000	204.00000000	255.00000000	161.89105779
 357	0.00000000	217.00000000	0.00000000	162.75096685
 358	0.00000000	217.00000000	13.00000000	162.80154973
 359	0.00000000	217.00000000	26.00000000	162.88716674
 360	0.00000000	217.00000000	38.00000000	163.00778747
 361	0.00000000	217.00000000	51.00000000	163.18677306
 362	0.00000000	217.00000000	64.00000000	163.42801452
 363	0.00000000	217.00000000	77.00000000	163.73540282
 364	0.00000000	217.00000000	89.00000000	164.07782525
 365	0.00000000	217.00000000	102.00000000	164.50972527
 366	0.00000000	217.00000000	115.00000000	165.01946032
 367	0.00000000	217.00000000	128.00000000	165.60310900
 368	0.00000000	217.00000000	140.00000000	166.21011883
 369	0.00000000	217.00000000	153.00000000	166.94942236
 370	0.00000000	217.00000000	166.00000000	167.77042150
 371	0.00000000	217.00000000	179.00000000	168.66536468
 372	0.00000000	217.00000000	191.00000000	169.57976282
 373	0.00000000	217.00000000	204.00000000	170.64980060
 374	0.00000000	217.00000000	217.00000000	171.80933118
 375	0.00000000	217.00000000	230.00000000	173.05836976
 376	0.00000000	217.00000000	242.00000000	174.29182917
 377	0.00000000	217.00000000	255.00000000	175.70816517
 378	0.00000000	230.00000000	0.00000000	177.62256324
 379	0.00000000	230.00000000	13.00000000	177.67314613
 380	0.00000000	230.00000000	26.00000000	177.75485694
 381	0.00000000	230.00000000	38.00000000	177.87160188
 382	0.00000000	230.00000000	51.00000000	178.04280549
 383	0.00000000	230.00000000	64.00000000	178.26459199
 384	0.00000000	230.00000000	77.00000000	178.54863435
 385	0.00000000	230.00000000	89.00000000	178.86771083
 386	0.00000000	230.00000000	102.00000000	179.27626491
 387	0.00000000	230.00000000	115.00000000	179.75874782
 388	0.00000000	230.00000000	128.00000000	180.29961079
 389	0.00000000	230.00000000	140.00000000	180.86771071
 390	0.00000000	230.00000000	153.00000000	181.55252516
 391	0.00000000	230.00000000	166.00000000	182.32295662
 392	0.00000000	230.00000000	179.00000000	183.16731691
 393	0.00000000	230.00000000	191.00000000	184.01556820
 394	0.00000000	230.00000000	204.00000000	185.00778615
 395	0.00000000	230.00000000	217.00000000	186.08171493
 396	0.00000000	230.00000000	230.00000000	187.23346353
 397	0.00000000	230.00000000	242.00000000	188.37353915
 398	0.00000000	230.00000000	255.00000000	189.68092740
 399	0.00000000	242.00000000	0.00000000	191.33073807
 400	0.00000000	242.00000000	13.00000000	191.37353897
 401	0.00000000	242.00000000	26.00000000	191.44357681
 402	0.00000000	242.00000000	38.00000000	191.54863358
 403	0.00000000	242.00000000	51.00000000	191.70816422
 404	0.00000000	242.00000000	64.00000000	191.91829294
 405	0.00000000	242.00000000	77.00000000	192.18288034
 406	0.00000000	242.00000000	89.00000000	192.47081369
 407	0.00000000	242.00000000	102.00000000	192.84825504
 408	0.00000000	242.00000000	115.00000000	193.28404605
 409	0.00000000	242.00000000	128.00000000	193.78989011
 410	0.00000000	242.00000000	140.00000000	194.31128293
 411	0.00000000	242.00000000	153.00000000	194.94552970
 412	0.00000000	242.00000000	166.00000000	195.65369010
 413	0.00000000	242.00000000	179.00000000	196.43190354
 414	0.00000000	242.00000000	191.00000000	197.21789896
 415	0.00000000	242.00000000	204.00000000	198.14397007
 416	0.00000000	242.00000000	217.00000000	199.14397001
 417	0.00000000	242.00000000	230.00000000	200.23346275
 418	0.00000000	242.00000000	242.00000000	201.31128252
 419	0.00000000	242.00000000	255.00000000	202.56030589
 420	0.00000000	255.00000000	0.00000000	206.21789843
 421	0.00000000	255.00000000	13.00000000	206.26459032
 422	0.00000000	255.00000000	26.00000000	206.33462816
 423	0.00000000	255.00000000	38.00000000	206.43968493
 424	0.00000000	255.00000000	51.00000000	206.59532458
 425	0.00000000	255.00000000	64.00000000	206.79767132
 426	0.00000000	255.00000000	77.00000000	207.06225872
 427	0.00000000	255.00000000	89.00000000	207.35408306
 428	0.00000000	255.00000000	102.00000000	207.72763342
 429	0.00000000	255.00000000	115.00000000	208.16342443
 430	0.00000000	255.00000000	128.00000000	208.66925329
 431	0.00000000	255.00000000	140.00000000	209.19455230
 432	0.00000000	255.00000000	153.00000000	209.83658105
 433	0.00000000	255.00000000	166.00000000	210.54085046
 434	0.00000000	255.00000000	179.00000000	211.32684588
 435	0.00000000	255.00000000	191.00000000	212.12840527
 436	0.00000000	255.00000000	204.00000000	213.05836737
 437	0.00000000	255.00000000	217.00000000	214.07782227
 438	0.00000000	255.00000000	230.00000000	215.15953302
 439	0.00000000	255.00000000	242.00000000	216.24124378
 440	0.00000000	255.00000000	255.00000000	217.48637617
 441	13.00000000	0.00000000	0.00000000	0.00000000
 442	13.00000000	0.00000000	13.00000000	0.00000000
 443	13.00000000	0.00000000	26.00000000	0.00000000
 444	13.00000000	0.00000000	38.00000000	0.00000000
 445	13.00000000	0.00000000	51.00000000	0.00000000
 446	13.00000000	0.00000000	64.00000000	0.00000000
 447	13.00000000	0.00000000	77.00000000	0.00000000
