bench/lcms_compat/reference/srgb_to_USSheetfedCoated.icc_Relative_BPC.it8
CGATS.17
ORIGINATOR	"icctrans"
#
# Data follows
#
NUMBER_OF_SETS	9261.00000000
NUMBER_OF_FIELDS	8.00000000
BEGIN_DATA_FORMAT
 SAMPLE_ID	IN_RGB_R	IN_RGB_G	IN_RGB_B	OUT_CMYK_C	OUT_CMYK_M	OUT_CMYK_Y	OUT_CMYK_K
END_DATA_FORMAT
BEGIN_DATA
 0	0.00000000	0.00000000	0.00000000	91.90050960	83.75524282	84.46326256	83.47295523
 1	0.00000000	0.00000000	13.00000000	97.71267176	89.31716084	72.56733179	76.04791522
 2	0.00000000	0.00000000	26.00000000	100.00000000	95.11253238	63.96887302	67.61577725
 3	0.00000000	0.00000000	38.00000000	100.00000000	95.35362720	63.31273317	59.43846703
 4	0.00000000	0.00000000	51.00000000	100.00000000	94.42130327	59.63378549	50.37918687
 5	0.00000000	0.00000000	64.00000000	100.00000000	93.71480942	56.86122179	41.68459475
 6	0.00000000	0.00000000	77.00000000	100.00000000	93.20210814	54.80887890	32.55512416
 7	0.00000000	0.00000000	89.00000000	100.00000000	92.96101332	52.68024802	25.31777024
 8	0.00000000	0.00000000	102.00000000	100.00000000	92.34149456	49.13710356	18.43747646
 9	0.00000000	0.00000000	115.00000000	100.00000000	91.37865305	43.01823378	12.02563494
 10	0.00000000	0.00000000	128.00000000	100.00000000	90.68894386	32.75043964	7.16868863
 11	0.00000000	0.00000000	140.00000000	100.00000000	90.33493400	23.15251380	3.73083092
 12	0.00000000	0.00000000	153.00000000	100.00000000	89.19203281	11.16960421	1.38551919
 13	0.00000000	0.00000000	166.00000000	100.00000000	87.24803329	2.52384227	0.10376135
 14	0.00000000	0.00000000	179.00000000	98.16281199	83.23796391	0.00000000	0.03814755
 15	0.00000000	0.00000000	191.00000000	94.76615787	80.15716672	0.00000000	0.00000000
 16	0.00000000	0.00000000	204.00000000	93.31960082	77.70351768	0.00000000	0.00000000
 17	0.00000000	0.00000000	217.00000000	92.60700345	74.89738464	0.00000000	0.00000000
 18	0.00000000	0.00000000	230.00000000	91.18180871	73.24330807	0.00000000	0.00000000
 19	0.00000000	0.00000000	242.00000000	91.14518762	71.00633383	0.00000000	0.00000000
 20	0.00000000	0.00000000	255.00000000	89.99160528	69.67116594	0.00000000	0.00000000
 21	0.00000000	13.00000000	0.00000000	90.54398537	69.74746585	90.65690041	77.79049277
 22	0.00000000	13.00000000	13.00000000	96.22491598	76.61249638	79.66735363	75.91515779
 23	0.00000000	13.00000000	26.00000000	100.00000000	85.74960232	66.97184443	66.94590449
 24	0.00000000	13.00000000	38.00000000	100.00000000	90.31814933	62.32089996	58.47104788
 25	0.00000000	13.00000000	51.00000000	100.00000000	91.70519710	60.37232280	48.74952435
 26	0.00000000	13.00000000	64.00000000	100.00000000	92.30487347	58.22384953	39.13023472
 27	0.00000000	13.00000000	77.00000000	100.00000000	92.26062298	55.97314239	30.82017303
 28	0.00000000	13.00000000	89.00000000	100.00000000	91.72655940	52.67567039	23.05180430
 29	0.00000000	13.00000000	102.00000000	100.00000000	91.25810862	47.66002893	16.06317163
 30	0.00000000	13.00000000	115.00000000	100.00000000	91.01396203	40.67902565	10.69047078
 31	0.00000000	13.00000000	128.00000000	100.00000000	90.17776847	31.21232986	6.44083321
 32	0.00000000	13.00000000	140.00000000	100.00000000	89.29579854	21.24666274	3.35698500
 33	0.00000000	13.00000000	153.00000000	100.00000000	88.92652988	10.20675972	0.86671244
 34	0.00000000	13.00000000	166.00000000	100.00000000	85.77401638	0.21515221	0.17853056
 35	0.00000000	13.00000000	179.00000000	96.96040154	81.82650208	0.00000000	0.00000000
 36	0.00000000	13.00000000	191.00000000	94.69748735	79.19279933	0.00000000	0.00000000
 37	0.00000000	13.00000000	204.00000000	93.50118041	76.41108036	0.00000000	0.00000000
 38	0.00000000	13.00000000	217.00000000	92.33539104	74.44266677	0.00000000	0.00000000
 39	0.00000000	13.00000000	230.00000000	91.20927453	72.53986597	0.00000000	0.00000000
 40	0.00000000	13.00000000	242.00000000	90.39902091	71.24894857	0.00000000	0.00000000
 41	0.00000000	13.00000000	255.00000000	89.35073018	69.32783723	0.00000000	0.00000000
 42	0.00000000	26.00000000	0.00000000	91.11314416	62.09353805	96.05249166	70.84305882
 43	0.00000000	26.00000000	13.00000000	94.44724321	63.84984851	90.28152823	71.37407660
 44	0.00000000	26.00000000	26.00000000	98.73502851	70.44937611	75.98382831	67.00999737
 45	0.00000000	26.00000000	38.00000000	100.00000000	79.29350734	64.14282322	58.21316838
 46	0.00000000	26.00000000	51.00000000	100.00000000	86.17227674	59.97406244	46.37521803
 47	0.00000000	26.00000000	64.00000000	100.00000000	88.91279697	57.99801350	36.31494641
 48	0.00000000	26.00000000	77.00000000	100.00000000	89.39650655	55.39025068	27.81109214
 49	0.00000000	26.00000000	89.00000000	100.00000000	89.88784552	51.49767399	21.02845758
 50	0.00000000	26.00000000	102.00000000	100.00000000	89.35225606	44.97291446	14.79209512
 51	0.00000000	26.00000000	115.00000000	100.00000000	89.01960850	36.57282293	9.54451784
 52	0.00000000	26.00000000	128.00000000	100.00000000	88.34058046	27.66918540	5.32539859
 53	0.00000000	26.00000000	140.00000000	100.00000000	87.68901825	18.04989725	2.49790195
 54	0.00000000	26.00000000	153.00000000	100.00000000	87.04814315	5.49935140	0.51728087
 55	0.00000000	26.00000000	166.00000000	100.00000000	85.00648737	0.00000000	0.00000000
 56	0.00000000	26.00000000	179.00000000	97.85763621	80.54474592	0.00000000	0.00000000
 57	0.00000000	26.00000000	191.00000000	94.48539019	77.74319053	0.00000000	0.00000000
 58	0.00000000	26.00000000	204.00000000	92.81758070	75.71069002	0.00000000	0.00000000
 59	0.00000000	26.00000000	217.00000000	92.30639935	72.93660045	0.00000000	0.00000000
 60	0.00000000	26.00000000	230.00000000	90.93003869	71.42748237	0.00000000	0.00000000
 61	0.00000000	26.00000000	242.00000000	90.18082023	69.85732913	0.00000000	0.00000000
 62	0.00000000	26.00000000	255.00000000	89.06691074	68.69611740	0.00000000	0.00000000
 63	0.00000000	38.00000000	0.00000000	91.75402522	56.71778321	100.00000000	63.35393190
 64	0.00000000	38.00000000	13.00000000	94.51133013	56.29968643	98.55496883	63.44548464
 65	0.00000000	38.00000000	26.00000000	96.15014791	58.07278752	85.78011990	61.99740767
 66	0.00000000	38.00000000	38.00000000	99.35759306	64.96070623	71.18486166	56.43548965
 67	0.00000000	38.00000000	51.00000000	100.00000000	74.52201247	59.81383920	46.48813605
 68	0.00000000	38.00000000	64.00000000	100.00000000	81.49233460	53.87960672	35.99450588
 69	0.00000000	38.00000000	77.00000000	100.00000000	85.10414362	50.95902681	26.53086185
 70	0.00000000	38.00000000	89.00000000	100.00000000	86.15701795	46.92912102	19.31792200
 71	0.00000000	38.00000000	102.00000000	100.00000000	86.64835691	40.32348990	13.27077150
 72	0.00000000	38.00000000	115.00000000	100.00000000	86.14786267	31.80285394	7.87823275
 73	0.00000000	38.00000000	128.00000000	100.00000000	86.60868406	22.57877439	3.51720452
 74	0.00000000	38.00000000	140.00000000	100.00000000	85.70992351	13.11360300	1.27565423
 75	0.00000000	38.00000000	153.00000000	100.00000000	84.23438072	3.52330804	0.31891356
 76	0.00000000	38.00000000	166.00000000	98.86015058	81.41145706	0.00000000	0.02136263
 77	0.00000000	38.00000000	179.00000000	94.88212466	78.24826241	0.00000000	0.00000000
 78	0.00000000	38.00000000	191.00000000	93.57442856	76.11047626	0.00000000	0.00000000
 79	0.00000000	38.00000000	204.00000000	92.29876995	73.86739850	0.00000000	0.00000000
 80	0.00000000	38.00000000	217.00000000	91.07804894	72.26215005	0.00000000	0.00000000
 81	0.00000000	38.00000000	230.00000000	90.26016593	70.30746937	0.00000000	0.00000000
 82	0.00000000	38.00000000	242.00000000	89.10200596	68.95552278	0.00000000	0.00000000
 83	0.00000000	38.00000000	255.00000000	88.82886767	67.22056866	0.00000000	0.00000000
 84	0.00000000	51.00000000	0.00000000	92.04089642	50.95139742	100.00000000	54.29922938
 85	0.00000000	51.00000000	13.00000000	94.62882280	50.22659898	100.00000000	53.94216776
 86	0.00000000	51.00000000	26.00000000	95.80376744	50.43564439	96.28595114	53.29365730
 87	0.00000000	51.00000000	38.00000000	96.13183737	52.89997458	81.93484545	51.33134723
 88	0.00000000	51.00000000	51.00000000	98.43137264	59.82146859	67.07561016	45.15602291
 89	0.00000000	51.00000000	64.00000000	100.00000000	67.26481915	55.73205352	36.34851575
 90	0.00000000	51.00000000	77.00000000	100.00000000	74.42283034	46.70786560	26.28061473
 91	0.00000000	51.00000000	89.00000000	100.00000000	78.30166817	40.84687531	18.67093891
 92	0.00000000	51.00000000	102.00000000	100.00000000	80.31281233	34.44113731	12.06225678
 93	0.00000000	51.00000000	115.00000000	100.00000000	81.55489564	27.08171308	6.57358691
 94	0.00000000	51.00000000	128.00000000	100.00000000	81.82192445	18.48630458	2.75272764
 95	0.00000000	51.00000000	140.00000000	100.00000000	81.82039857	9.36293602	0.73701078
 96	0.00000000	51.00000000	153.00000000	100.00000000	80.17089963	1.24361031	0.08697642
 97	0.00000000	51.00000000	166.00000000	98.40695858	77.44868994	0.00000000	0.00000000
 98	0.00000000	51.00000000	179.00000000	94.34958696	74.99961853	0.00000000	0.00000000
 99	0.00000000	51.00000000	191.00000000	92.55054593	73.52254391	0.00000000	0.00000000
 100	0.00000000	51.00000000	204.00000000	90.79728127	71.46715522	0.00000000	0.00000000
 101	0.00000000	51.00000000	217.00000000	89.42397237	70.30899525	0.00000000	0.00000000
 102	0.00000000	51.00000000	230.00000000	88.83344531	68.69611740	0.00000000	0.00000000
 103	0.00000000	51.00000000	242.00000000	87.73785233	67.56084561	0.00000000	0.00000000
 104	0.00000000	51.00000000	255.00000000	87.31670380	66.23636484	0.00000000	0.00000000
 105	0.00000000	64.00000000	0.00000000	93.02662611	45.02479732	100.00000000	44.04821992
 106	0.00000000	64.00000000	13.00000000	94.12985444	45.00343204	100.00000000	43.80865097
 107	0.00000000	64.00000000	26.00000000	94.85771060	45.29335499	100.00000000	43.86053383
 108	0.00000000	64.00000000	38.00000000	95.68780065	45.68093419	92.18127728	43.22423041
 109	0.00000000	64.00000000	51.00000000	95.99603415	49.14015532	77.08857656	40.82551301
 110	0.00000000	64.00000000	64.00000000	97.56160975	54.41977382	63.52331042	35.52605510
 111	0.00000000	64.00000000	77.00000000	99.22941923	60.75837612	51.72350407	28.21240425
 112	0.00000000	64.00000000	89.00000000	100.00000000	66.03494287	42.11184978	20.85755765
 113	0.00000000	64.00000000	102.00000000	100.00000000	70.67368627	32.90150166	13.54696006
 114	0.00000000	64.00000000	115.00000000	100.00000000	73.60799313	25.13466179	7.24650919
 115	0.00000000	64.00000000	128.00000000	100.00000000	75.60387850	15.86327851	2.56198980
 116	0.00000000	64.00000000	140.00000000	100.00000000	75.84038973	7.42198825	0.45471885
 117	0.00000000	64.00000000	153.00000000	100.00000000	74.75394607	0.00000000	0.00000000
 118	0.00000000	64.00000000	166.00000000	95.87853551	72.54596949	0.00000000	0.00000000
 119	0.00000000	64.00000000	179.00000000	92.84962416	70.43411732	0.00000000	0.00000000
 120	0.00000000	64.00000000	191.00000000	91.07041955	69.21949983	0.00000000	0.00000000
 121	0.00000000	64.00000000	204.00000000	89.88479376	67.73326993	0.00000000	0.00000000
 122	0.00000000	64.00000000	217.00000000	88.74799609	66.89860225	0.00000000	0.00000000
 123	0.00000000	64.00000000	230.00000000	87.47234344	66.02578759	0.00000000	0.00000000
 124	0.00000000	64.00000000	242.00000000	87.08171248	65.01563787	0.00000000	0.00000000
 125	0.00000000	64.00000000	255.00000000	86.55070066	63.90478611	0.00000000	0.00000000
 126	0.00000000	77.00000000	0.00000000	92.72297025	40.02594054	100.00000000	34.81193185
 127	0.00000000	77.00000000	13.00000000	93.06172132	39.97406065	100.00000000	34.57084000
 128	0.00000000	77.00000000	26.00000000	94.16189790	40.14191031	100.00000000	34.22140777
 129	0.00000000	77.00000000	38.00000000	94.34653521	40.39063156	98.71214032	34.26260650
 130	0.00000000	77.00000000	51.00000000	94.18783784	41.71206355	86.52322888	33.60646963
 131	0.00000000	77.00000000	64.00000000	94.68375444	44.28778589	72.31860757	31.28099442
 132	0.00000000	77.00000000	77.00000000	95.81292272	48.95857275	59.59258676	26.98252797
 133	0.00000000	77.00000000	89.00000000	96.48737311	53.23414803	48.84107709	21.82497829
 134	0.00000000	77.00000000	102.00000000	97.36629128	57.98733234	37.51277924	15.37498981
 135	0.00000000	77.00000000	115.00000000	98.46494198	62.01419234	27.06950605	8.97993445
 136	0.00000000	77.00000000	128.00000000	99.29960966	65.16060233	17.99343824	3.97344939
 137	0.00000000	77.00000000	140.00000000	99.63988662	66.74601436	8.84565488	0.96131843
 138	0.00000000	77.00000000	153.00000000	98.00717235	67.11223125	0.00000000	0.00000000
 139	0.00000000	77.00000000	166.00000000	93.86434555	66.17532372	0.00000000	0.00000000
 140	0.00000000	77.00000000	179.00000000	91.36034250	65.22621512	0.00000000	0.00000000
 141	0.00000000	77.00000000	191.00000000	89.90920782	64.42664266	0.00000000	0.00000000
 142	0.00000000	77.00000000	204.00000000	88.17883730	63.78576159	0.00000000	0.00000000
 143	0.00000000	77.00000000	217.00000000	87.05729842	63.29594851	0.00000000	0.00000000
 144	0.00000000	77.00000000	230.00000000	85.87319851	62.85954118	0.00000000	0.00000000
 145	0.00000000	77.00000000	242.00000000	85.47798991	62.06454635	0.00000000	0.00000000
 146	0.00000000	77.00000000	255.00000000	84.97902155	61.43129468	0.00000000	0.00000000
 147	0.00000000	89.00000000	0.00000000	91.14976525	34.83939767	100.00000000	26.17227435
 148	0.00000000	89.00000000	13.00000000	91.31304026	34.96604860	100.00000000	26.12039447
 149	0.00000000	89.00000000	26.00000000	92.15381145	35.25902331	100.00000000	25.69772005
 150	0.00000000	89.00000000	38.00000000	92.82826185	35.29259264	100.00000000	25.48103929
 151	0.00000000	89.00000000	51.00000000	92.65430570	35.83428562	91.90050960	25.51766336
 152	0.00000000	89.00000000	64.00000000	92.65125394	37.09773421	79.41557765	24.65552688
 153	0.00000000	89.00000000	77.00000000	92.44526029	39.72075880	66.94743037	23.04875255
 154	0.00000000	89.00000000	89.00000000	93.15327406	42.90531874	55.56114912	19.79552954
 155	0.00000000	89.00000000	102.00000000	93.65682602	46.82383537	44.25269067	15.90447873
 156	0.00000000	89.00000000	115.00000000	94.56015825	51.11009479	32.89844990	10.69810018
 157	0.00000000	89.00000000	128.00000000	95.48485279	54.69596386	22.90837020	5.62294945
 158	0.00000000	89.00000000	140.00000000	95.77324986	57.35408664	14.47623372	2.16983296
 159	0.00000000	89.00000000	153.00000000	95.91668844	58.47104788	3.59502546	0.30060273
 160	0.00000000	89.00000000	166.00000000	93.18837523	58.76249075	0.00000000	0.00000000
 161	0.00000000	89.00000000	179.00000000	90.12894034	59.03105140	0.00000000	0.00000000
 162	0.00000000	89.00000000	191.00000000	87.80499101	59.00053382	0.00000000	0.00000000
 163	0.00000000	89.00000000	204.00000000	86.41946912	59.22026634	0.00000000	0.00000000
 164	0.00000000	89.00000000	217.00000000	84.95765328	59.11955237	0.00000000	0.00000000
 165	0.00000000	89.00000000	230.00000000	83.99938941	59.14396644	0.00000000	0.00000000
 166	0.00000000	89.00000000	242.00000000	83.84374976	58.76554251	0.00000000	0.00000000
 167	0.00000000	89.00000000	255.00000000	83.22575688	58.59311819	0.00000000	0.00000000
 168	0.00000000	102.00000000	0.00000000	89.86648321	29.16151583	100.00000000	18.80979687
 169	0.00000000	102.00000000	13.00000000	90.26474357	29.24849391	100.00000000	18.64499897
 170	0.00000000	102.00000000	26.00000000	90.34103751	29.39192653	100.00000000	18.39780211
 171	0.00000000	102.00000000	38.00000000	90.77744484	29.75356579	100.00000000	18.11703742
 172	0.00000000	102.00000000	51.00000000	90.71030617	30.41275740	97.07026482	18.33066344
 173	0.00000000	102.00000000	64.00000000	90.86900353	30.79728484	85.94644070	18.12924445
 174	0.00000000	102.00000000	77.00000000	90.45090675	32.15381205	74.16952848	17.50667542
 175	0.00000000	102.00000000	89.00000000	90.59739113	33.47981870	63.46989870	16.21576250
 176	0.00000000	102.00000000	102.00000000	90.27695060	36.65522337	51.45189762	13.98489326
 177	0.00000000	102.00000000	115.00000000	90.77286720	39.80621099	40.80720246	10.83390564
 178	0.00000000	102.00000000	128.00000000	91.25200510	43.47905815	29.55825031	6.91538900
 179	0.00000000	102.00000000	140.00000000	91.55565500	46.41947150	20.48065960	3.46990153
 180	0.00000000	102.00000000	153.00000000	91.54955149	48.67170155	12.03784272	0.82246130
 181	0.00000000	102.00000000	166.00000000	91.19248986	49.31105375	1.31075000	0.06713970
 182	0.00000000	102.00000000	179.00000000	88.49012256	50.76829195	0.00000000	0.00000000
 183	0.00000000	102.00000000	191.00000000	85.65651774	52.30487585	0.00000000	0.00000000
 184	0.00000000	102.00000000	204.00000000	84.23743248	52.92286277	0.00000000	0.00000000
 185	0.00000000	102.00000000	217.00000000	82.94498920	53.79415751	0.00000000	0.00000000
 186	0.00000000	102.00000000	230.00000000	81.89059496	54.43198085	0.00000000	0.00000000
 187	0.00000000	102.00000000	242.00000000	81.55031800	54.56168652	0.00000000	0.00000000
 188	0.00000000	102.00000000	255.00000000	81.27717972	54.39383388	0.00000000	0.00000000
 189	0.00000000	115.00000000	0.00000000	87.41283417	23.66521657	100.00000000	12.60090023
 190	0.00000000	115.00000000	13.00000000	87.50438690	23.73235673	100.00000000	12.48798370
 191	0.00000000	115.00000000	26.00000000	87.59288788	23.83611798	100.00000000	12.33997121
 192	0.00000000	115.00000000	38.00000000	88.23987246	24.04058874	100.00000000	11.98596135
 193	0.00000000	115.00000000	51.00000000	88.94178867	24.20386076	100.00000000	11.79980189
 194	0.00000000	115.00000000	64.00000000	88.92958164	24.56092238	90.95597863	11.91424429
 195	0.00000000	115.00000000	77.00000000	88.04455400	25.47035813	79.99694943	11.89135611
 196	0.00000000	115.00000000	89.00000000	87.72106767	26.79484189	69.62844133	11.38170436
 197	0.00000000	115.00000000	102.00000000	87.57610321	28.14221382	58.34439397	10.36087573
 198	0.00000000	115.00000000	115.00000000	87.40520477	30.29373586	47.92553484	8.85633603
 199	0.00000000	115.00000000	128.00000000	87.38384247	32.77790546	37.31441200	6.56137913
 200	0.00000000	115.00000000	140.00000000	87.40673065	35.85259914	27.52422392	4.03143354
 201	0.00000000	115.00000000	153.00000000	87.49217987	38.06057870	18.18417609	1.68917365
 202	0.00000000	115.00000000	166.00000000	87.23582625	39.85198736	9.05012563	0.14496071
 203	0.00000000	115.00000000	179.00000000	86.44388318	40.52033126	0.00000000	0.00000000
 204	0.00000000	115.00000000	191.00000000	84.01312232	42.63980985	0.00000000	0.00000000
 205	0.00000000	115.00000000	204.00000000	81.82192445	45.26588917	0.00000000	0.00000000
 206	0.00000000	115.00000000	217.00000000	80.33875227	46.97337449	0.00000000	0.00000000
 207	0.00000000	115.00000000	230.00000000	79.63988781	48.28869998	0.00000000	0.00000000
 208	0.00000000	115.00000000	242.00000000	78.59922051	49.17677641	0.00000000	0.00000000
 209	0.00000000	115.00000000	255.00000000	78.36881280	50.40817857	0.00000000	0.00000000
 210	0.00000000	128.00000000	0.00000000	85.04921198	17.79049337	100.00000000	7.12291151
 211	0.00000000	128.00000000	13.00000000	85.13008356	17.87136644	100.00000000	7.05882385
 212	0.00000000	128.00000000	26.00000000	85.30708551	17.98123121	100.00000000	6.94285482
 213	0.00000000	128.00000000	38.00000000	85.48561931	18.14145148	100.00000000	6.83299005
 214	0.00000000	128.00000000	51.00000000	86.31570935	18.37491393	100.00000000	6.45609200
 215	0.00000000	128.00000000	64.00000000	86.36453748	18.68467182	94.54642534	6.45456612
 216	0.00000000	128.00000000	77.00000000	85.75265408	19.31792200	84.29083824	6.68497756
 217	0.00000000	128.00000000	89.00000000	85.71144938	19.88708377	74.94773865	6.47135153
 218	0.00000000	128.00000000	102.00000000	84.96070504	21.25276625	64.73487616	6.23636208
 219	0.00000000	128.00000000	115.00000000	84.24963951	22.29495645	54.37704921	5.68703748
 220	0.00000000	128.00000000	128.00000000	83.84069800	24.23132658	43.57213676	4.62806150
 221	0.00000000	128.00000000	140.00000000	83.57061148	25.90982020	34.40604210	3.27916369
 222	0.00000000	128.00000000	153.00000000	83.53551626	27.99572647	24.86915439	1.86312664
 223	0.00000000	128.00000000	166.00000000	83.06096196	30.21896780	15.87701291	0.57068742
 224	0.00000000	128.00000000	179.00000000	82.46280551	30.87357879	6.56290501	0.00610361
 225	0.00000000	128.00000000	191.00000000	81.62661195	31.83337152	0.00000000	0.00000000
 226	0.00000000	128.00000000	204.00000000	79.07987833	34.78751779	0.00000000	0.00000000
 227	0.00000000	128.00000000	217.00000000	77.13435292	38.00869882	0.00000000	0.00000000
 228	0.00000000	128.00000000	230.00000000	76.06012225	40.27618766	0.00000000	0.00000000
 229	0.00000000	128.00000000	242.00000000	74.90196228	41.81887507	0.00000000	0.00000000
 230	0.00000000	128.00000000	255.00000000	74.82414246	43.71404648	0.00000000	0.00000000
 231	0.00000000	140.00000000	0.00000000	82.75578022	12.17059568	100.00000000	3.16777304
 232	0.00000000	140.00000000	13.00000000	82.86869526	12.25146875	100.00000000	3.11589222
 233	0.00000000	140.00000000	26.00000000	83.00297260	12.37506643	100.00000000	3.03807128
 234	0.00000000	140.00000000	38.00000000	83.24406743	12.49256134	100.00000000	2.89005879
 235	0.00000000	140.00000000	51.00000000	83.43480825	12.69703209	100.00000000	2.64591444
 236	0.00000000	140.00000000	64.00000000	83.65758657	12.93202043	96.82917595	2.69169156
 237	0.00000000	140.00000000	77.00000000	83.38597417	13.38216215	87.46318817	2.87479982
 238	0.00000000	140.00000000	89.00000000	82.98466206	14.22140896	78.91813517	2.89311055
 239	0.00000000	140.00000000	102.00000000	82.36820102	14.74631876	69.05165315	2.80613415
 240	0.00000000	140.00000000	115.00000000	82.01266527	15.90600461	59.38811302	2.73594260
 241	0.00000000	140.00000000	128.00000000	81.04829192	17.23201275	49.09742773	2.41702907
 242	0.00000000	140.00000000	140.00000000	81.04829192	18.31387877	40.03204405	1.77767612
 243	0.00000000	140.00000000	153.00000000	80.07476926	20.02288848	30.67978919	1.03303576
 244	0.00000000	140.00000000	166.00000000	79.60174084	21.36110514	21.62355930	0.34637980
 245	0.00000000	140.00000000	179.00000000	79.47966456	22.51163572	13.17463964	0.00000000
 246	0.00000000	140.00000000	191.00000000	78.95170450	23.67589772	5.39253838	0.00000000
 247	0.00000000	140.00000000	204.00000000	77.71114707	25.19722283	0.00000000	0.00000000
 248	0.00000000	140.00000000	217.00000000	75.24376512	28.77393663	0.00000000	0.00000000
 249	0.00000000	140.00000000	230.00000000	72.87861705	32.06835985	0.00000000	0.00000000
 250	0.00000000	140.00000000	242.00000000	71.25352621	34.23208892	0.00000000	0.00000000
 251	0.00000000	140.00000000	255.00000000	70.59891820	35.82360446	0.00000000	0.00000000
 252	0.00000000	153.00000000	0.00000000	79.60937023	5.76943606	100.00000000	0.69733732
 253	0.00000000	153.00000000	13.00000000	79.72533703	5.81368729	100.00000000	0.66681928
 254	0.00000000	153.00000000	26.00000000	79.70244884	5.95864803	100.00000000	0.66071567
 255	0.00000000	153.00000000	38.00000000	79.90081906	6.22720681	100.00000000	0.61036088
 256	0.00000000	153.00000000	51.00000000	80.26855588	6.37064129	100.00000000	0.53559169
 257	0.00000000	153.00000000	64.00000000	81.38856888	6.01052865	98.80216718	0.41962313
 258	0.00000000	153.00000000	77.00000000	81.20546341	6.86808601	90.69657326	0.52033267
 259	0.00000000	153.00000000	89.00000000	80.28839827	7.45250657	82.13931322	0.61646448
 260	0.00000000	153.00000000	102.00000000	79.87639904	8.53284523	73.11055064	0.68665599
 261	0.00000000	153.00000000	115.00000000	79.21416163	9.19203460	63.80254626	0.50202184
 262	0.00000000	153.00000000	128.00000000	78.46036553	10.20370796	54.76005077	0.57831695
 263	0.00000000	153.00000000	140.00000000	78.12771797	11.03379875	45.76333165	0.40131230
 264	0.00000000	153.00000000	153.00000000	76.96650624	12.72602379	36.24323010	0.15411612
 265	0.00000000	153.00000000	166.00000000	76.56672001	13.16701025	27.33501196	0.09613184
 266	0.00000000	153.00000000	179.00000000	75.93652010	14.41825032	18.75333786	0.00000000
 267	0.00000000	153.00000000	191.00000000	74.58304763	15.76256901	11.61058992	0.00000000
 268	0.00000000	153.00000000	204.00000000	74.24277067	16.16235673	3.53856720	0.00000000
 269	0.00000000	153.00000000	217.00000000	72.64209986	17.89578050	0.00000000	0.00000000
