bench/lcms_compat/reference/sRGB_v4_ICC_preference.icc_to_srgb_Relative_BPC.it8
CGATS.17
ORIGINATOR	"icctrans"
#
# Data follows
#
NUMBER_OF_SETS	9261.00000000
NUMBER_OF_FIELDS	7.00000000
BEGIN_DATA_FORMAT
 SAMPLE_ID	IN_RGB_R	IN_RGB_G	IN_RGB_B	OUT_RGB_R	OUT_RGB_G	OUT_RGB_B
END_DATA_FORMAT
BEGIN_DATA
 0	0.00000000	0.00000000	0.00000000	0.05491780	-0.01922670	0.02580279
 1	0.00000000	0.00000000	13.00000000	0.01021768	0.01418164	12.96366083
 2	0.00000000	0.00000000	26.00000000	-0.07267143	0.06093829	25.99950828
 3	0.00000000	0.00000000	38.00000000	-0.00324947	0.00423214	37.99549118
 4	0.00000000	0.00000000	51.00000000	-0.05186453	0.02288888	51.01233490
 5	0.00000000	0.00000000	64.00000000	-0.00744648	-0.00126952	63.99216101
 6	0.00000000	0.00000000	77.00000000	0.09257325	-0.02641856	76.99247181
 7	0.00000000	0.00000000	89.00000000	0.09480719	-0.01259716	88.99864957
 8	0.00000000	0.00000000	102.00000000	0.09061622	-0.04118444	101.99604973
 9	0.00000000	0.00000000	115.00000000	0.12769203	-0.06055787	114.99428585
 10	0.00000000	0.00000000	128.00000000	0.01106672	0.01668812	127.99654216
 11	0.00000000	0.00000000	140.00000000	0.08719086	-0.00641757	139.99847174
 12	0.00000000	0.00000000	153.00000000	0.04131135	0.02178735	152.99933732
 13	0.00000000	0.00000000	166.00000000	0.03914614	0.00772683	165.99986851
 14	0.00000000	0.00000000	179.00000000	0.10865782	-0.04078870	178.99710149
 15	0.00000000	0.00000000	191.00000000	0.04094780	0.01992045	191.00486755
 16	0.00000000	0.00000000	204.00000000	0.06556117	0.02363532	204.00225252
 17	0.00000000	0.00000000	217.00000000	0.11797814	-0.01972086	217.00086862
 18	0.00000000	0.00000000	230.00000000	0.22563339	-0.03517579	229.99545693
 19	0.00000000	0.00000000	242.00000000	0.11075479	-0.01550894	241.99791849
 20	0.00000000	0.00000000	255.00000000	0.29387469	-0.10625836	255.00024319
 21	0.00000000	13.00000000	0.00000000	0.06491511	12.93379158	0.00700695
 22	0.00000000	13.00000000	13.00000000	0.03756657	12.96196042	12.94478534
 23	0.00000000	13.00000000	26.00000000	0.08669948	12.96383752	25.99631835
 24	0.00000000	13.00000000	38.00000000	0.01147363	12.95372246	37.98725702
 25	0.00000000	13.00000000	51.00000000	-0.02902021	12.97048621	51.00593604
 26	0.00000000	13.00000000	64.00000000	-0.01867376	12.95456316	64.00371999
 27	0.00000000	13.00000000	77.00000000	0.06582443	12.92850986	77.00330883
 28	0.00000000	13.00000000	89.00000000	0.10962931	12.94065496	88.99299547
 29	0.00000000	13.00000000	102.00000000	0.00719010	13.00857441	102.00336814
 30	0.00000000	13.00000000	115.00000000	0.03894522	12.98208414	114.99756888
 31	0.00000000	13.00000000	128.00000000	0.00320414	12.97466313	127.99888283
 32	0.00000000	13.00000000	140.00000000	0.13071402	12.94723336	139.99590307
 33	0.00000000	13.00000000	153.00000000	0.03991523	12.97834609	153.00486982
 34	0.00000000	13.00000000	166.00000000	0.06301376	12.96031130	165.99812061
 35	0.00000000	13.00000000	179.00000000	0.01296630	13.00345514	178.99658471
 36	0.00000000	13.00000000	191.00000000	0.07246385	12.96146454	190.99783033
 37	0.00000000	13.00000000	204.00000000	0.07976819	12.96688780	203.99874151
 38	0.00000000	13.00000000	217.00000000	0.20203734	12.93053325	216.99770719
 39	0.00000000	13.00000000	230.00000000	0.17909514	12.91834256	229.99650568
 40	0.00000000	13.00000000	242.00000000	0.12891794	12.94074900	242.00003117
 41	0.00000000	13.00000000	255.00000000	0.26039198	12.94625206	254.99366194
 42	0.00000000	26.00000000	0.00000000	-0.08408040	26.03742454	0.01893541
 43	0.00000000	26.00000000	13.00000000	0.12151720	25.98208621	12.96398096
 44	0.00000000	26.00000000	26.00000000	0.02898906	26.00245312	26.00316748
 45	0.00000000	26.00000000	38.00000000	0.01253144	26.02509990	37.99924918
 46	0.00000000	26.00000000	51.00000000	0.10036240	25.98359283	50.99606797
 47	0.00000000	26.00000000	64.00000000	0.00311716	26.02480732	63.99485126
 48	0.00000000	26.00000000	77.00000000	-0.06398910	26.03335116	76.99348256
 49	0.00000000	26.00000000	89.00000000	0.03197189	25.99129692	88.99829999
 50	0.00000000	26.00000000	102.00000000	-0.04290663	26.03014033	101.99434742
 51	0.00000000	26.00000000	115.00000000	-0.00764993	26.01676695	114.99318391
 52	0.00000000	26.00000000	128.00000000	0.08455833	25.98887645	128.00306261
 53	0.00000000	26.00000000	140.00000000	0.03933607	25.99840254	139.99740779
 54	0.00000000	26.00000000	153.00000000	0.17801806	25.98335914	152.99468637
 55	0.00000000	26.00000000	166.00000000	0.15618504	25.98033451	165.99997491
 56	0.00000000	26.00000000	179.00000000	0.08838525	26.00649420	179.00102288
 57	0.00000000	26.00000000	191.00000000	0.14313396	25.98174423	190.99723756
 58	0.00000000	26.00000000	204.00000000	0.15526342	25.98564852	203.99874151
 59	0.00000000	26.00000000	217.00000000	0.09122476	25.99222597	217.00114220
 60	0.00000000	26.00000000	230.00000000	0.09017187	26.02245905	229.99524415
 61	0.00000000	26.00000000	242.00000000	0.25194634	25.96450835	241.99086607
 62	0.00000000	26.00000000	255.00000000	0.10623587	25.99369649	254.99656498
 63	0.00000000	38.00000000	0.00000000	0.08947528	37.98821077	-0.02283960
 64	0.00000000	38.00000000	13.00000000	0.01919939	37.99628913	12.96763636
 65	0.00000000	38.00000000	26.00000000	-0.07990930	38.01536031	26.00648470
 66	0.00000000	38.00000000	38.00000000	-0.00100852	37.99519859	38.00181784
 67	0.00000000	38.00000000	51.00000000	-0.01655940	37.99817003	50.99614017
 68	0.00000000	38.00000000	64.00000000	-0.01086453	37.99424864	63.99393171
 69	0.00000000	38.00000000	77.00000000	0.07228757	37.98619308	77.00089216
 70	0.00000000	38.00000000	89.00000000	-0.07414843	38.00646119	89.00076225
 71	0.00000000	38.00000000	102.00000000	0.10984189	37.97993481	101.99498579
 72	0.00000000	38.00000000	115.00000000	0.13095868	37.97252901	115.00002354
 73	0.00000000	38.00000000	128.00000000	-0.00808796	37.99959496	128.00002277
 74	0.00000000	38.00000000	140.00000000	0.09412410	37.99404725	139.99683022
 75	0.00000000	38.00000000	153.00000000	0.08608339	37.99987614	152.99609989
 76	0.00000000	38.00000000	166.00000000	0.07746008	37.99424864	166.00002050
 77	0.00000000	38.00000000	179.00000000	0.13040042	37.97955863	178.99986774
 78	0.00000000	38.00000000	191.00000000	-0.00274113	38.00144166	191.00471556
 79	0.00000000	38.00000000	204.00000000	0.07716020	37.99648292	203.99837673
 80	0.00000000	38.00000000	217.00000000	0.16611904	37.98370041	216.99504733
 81	0.00000000	38.00000000	230.00000000	0.24894369	37.97738135	229.99524415
 82	0.00000000	38.00000000	242.00000000	0.13683714	37.98896693	242.00114071
 83	0.00000000	38.00000000	255.00000000	0.11913924	37.97475189	254.99645859
 84	0.00000000	51.00000000	0.00000000	0.04462276	50.99879622	0.02376635
 85	0.00000000	51.00000000	13.00000000	0.01013767	51.00817412	12.96432104
 86	0.00000000	51.00000000	26.00000000	0.05063662	51.00833751	26.00649040
 87	0.00000000	51.00000000	38.00000000	-0.01860307	51.00380816	37.99798764
 88	0.00000000	51.00000000	51.00000000	0.09563246	50.99492423	51.01459958
 89	0.00000000	51.00000000	64.00000000	0.13020141	50.99019729	63.99188742
 90	0.00000000	51.00000000	77.00000000	0.02452080	50.99608317	77.00627267
 91	0.00000000	51.00000000	89.00000000	0.09436222	50.99853784	88.99443179
 92	0.00000000	51.00000000	102.00000000	0.03760925	50.99499643	102.00536683
 93	0.00000000	51.00000000	115.00000000	0.01199663	51.00977764	114.99443024
 94	0.00000000	51.00000000	128.00000000	-0.01369317	51.00834131	127.99669415
 95	0.00000000	51.00000000	140.00000000	0.09029694	51.00273281	139.99344081
 96	0.00000000	51.00000000	153.00000000	-0.01051067	51.00947365	153.00126761
 97	0.00000000	51.00000000	166.00000000	0.04248523	51.00657821	166.00043088
 98	0.00000000	51.00000000	179.00000000	0.00842665	51.01758242	178.99462402
 99	0.00000000	51.00000000	191.00000000	0.15867772	50.99802867	191.00287646
 100	0.00000000	51.00000000	204.00000000	0.07089450	51.00943565	203.99913669
 101	0.00000000	51.00000000	217.00000000	0.19420758	50.99711671	216.99504733
 102	0.00000000	51.00000000	230.00000000	0.17214075	50.99284574	229.99834478
 103	0.00000000	51.00000000	242.00000000	0.26765701	50.98426960	241.99708253
 104	0.00000000	51.00000000	255.00000000	0.20315681	51.00441992	254.99308437
 105	0.00000000	64.00000000	0.00000000	-0.10026067	64.01283190	0.01180578
 106	0.00000000	64.00000000	13.00000000	0.10351599	63.98914397	12.95967864
 107	0.00000000	64.00000000	26.00000000	0.01046626	63.99756432	26.00465320
 108	0.00000000	64.00000000	38.00000000	0.00669803	64.00500432	37.99305171
 109	0.00000000	64.00000000	51.00000000	-0.03560429	64.00821894	51.01407900
 110	0.00000000	64.00000000	64.00000000	0.00048768	64.00553629	63.98915917
 111	0.00000000	64.00000000	77.00000000	0.07766401	63.99941102	77.00407639
 112	0.00000000	64.00000000	89.00000000	-0.06164843	64.01055962	88.99475098
 113	0.00000000	64.00000000	102.00000000	0.07300989	63.99815708	102.00390011
 114	0.00000000	64.00000000	115.00000000	0.07404096	63.99324015	115.00339016
 115	0.00000000	64.00000000	128.00000000	0.09189575	63.98964554	127.99449027
 116	0.00000000	64.00000000	140.00000000	0.05285993	63.99230540	139.99407917
 117	0.00000000	64.00000000	153.00000000	0.14065595	63.99035990	153.00553858
 118	0.00000000	64.00000000	166.00000000	0.14777676	63.98575455	165.99644870
 119	0.00000000	64.00000000	179.00000000	0.12872983	63.99720713	178.99486721
 120	0.00000000	64.00000000	191.00000000	0.12172946	63.98826241	191.00410759
 121	0.00000000	64.00000000	204.00000000	0.16391158	63.99170503	204.00079340
 122	0.00000000	64.00000000	217.00000000	0.26899347	63.98279831	217.00118780
 123	0.00000000	64.00000000	230.00000000	0.25490077	63.99516284	229.99544173
 124	0.00000000	64.00000000	242.00000000	0.17156369	64.00146291	241.99889123
 125	0.00000000	64.00000000	255.00000000	0.15014802	63.99463087	254.99200523
 126	0.00000000	77.00000000	0.00000000	-0.02380633	77.00138614	0.00571514
 127	0.00000000	77.00000000	13.00000000	0.11260266	76.99697077	12.95568315
 128	0.00000000	77.00000000	26.00000000	-0.00282417	77.00280726	25.98666687
 129	0.00000000	77.00000000	38.00000000	0.07562338	76.99390054	37.98701763
 130	0.00000000	77.00000000	51.00000000	0.03808107	76.99617282	51.01128995
 131	0.00000000	77.00000000	64.00000000	0.04830117	76.99567884	64.00276244
 132	0.00000000	77.00000000	77.00000000	-0.02419561	76.99811071	76.99868068
 133	0.00000000	77.00000000	89.00000000	0.03365658	77.00160652	88.99307147
 134	0.00000000	77.00000000	102.00000000	0.00022373	76.99808791	101.99877039
 135	0.00000000	77.00000000	115.00000000	0.10859497	77.00027660	115.00031233
 136	0.00000000	77.00000000	128.00000000	0.09853990	76.99883267	127.99835086
 137	0.00000000	77.00000000	140.00000000	0.02438532	77.00210810	139.99862373
 138	0.00000000	77.00000000	153.00000000	0.11569108	76.99804991	153.00084203
 139	0.00000000	77.00000000	166.00000000	0.10198717	76.99522287	165.99617511
 140	0.00000000	77.00000000	179.00000000	0.17482985	76.98662013	178.99694949
 141	0.00000000	77.00000000	191.00000000	0.10818227	76.99698597	190.99901587
 142	0.00000000	77.00000000	204.00000000	0.12168113	76.99942544	204.00352925
 143	0.00000000	77.00000000	217.00000000	0.09180723	76.99752554	216.99167311
 144	0.00000000	77.00000000	230.00000000	0.06114360	76.99774593	230.00085264
 145	0.00000000	77.00000000	242.00000000	0.20801423	76.99224383	242.00147510
 146	0.00000000	77.00000000	255.00000000	0.12620288	76.99962303	254.99452829
 147	0.00000000	89.00000000	0.00000000	-0.07446760	89.00581598	-0.02005809
 148	0.00000000	89.00000000	13.00000000	0.03578021	89.00149181	12.97613081
 149	0.00000000	89.00000000	26.00000000	0.03197068	88.99640009	26.01607919
 150	0.00000000	89.00000000	38.00000000	0.02827245	88.99986550	37.97675818
 151	0.00000000	89.00000000	51.00000000	0.02520587	89.00454685	51.00199565
 152	0.00000000	89.00000000	64.00000000	-0.00329956	89.00268495	63.99939582
 153	0.00000000	89.00000000	77.00000000	-0.06431047	89.00411367	76.99632481
 154	0.00000000	89.00000000	89.00000000	-0.06271563	89.00717631	89.00153741
 155	0.00000000	89.00000000	102.00000000	0.12520710	88.99699286	101.99606493
 156	0.00000000	89.00000000	115.00000000	0.14482675	88.99391502	114.99979556
 157	0.00000000	89.00000000	128.00000000	0.08959426	88.99095878	127.99999237
 158	0.00000000	89.00000000	140.00000000	0.01165337	88.99357304	140.00003725
 159	0.00000000	89.00000000	153.00000000	0.13164561	88.98984924	153.00014287
 160	0.00000000	89.00000000	166.00000000	0.05812624	89.00220618	166.00328833
 161	0.00000000	89.00000000	179.00000000	0.12952819	88.99386182	178.99773985
 162	0.00000000	89.00000000	191.00000000	0.15361409	88.98908168	191.00205570
 163	0.00000000	89.00000000	204.00000000	0.17371843	88.99115637	203.99983585
 164	0.00000000	89.00000000	217.00000000	0.02560836	89.00349051	216.99652165
 165	0.00000000	89.00000000	230.00000000	0.08223653	89.00132462	229.99981910
 166	0.00000000	89.00000000	242.00000000	0.12628729	88.99961472	241.99653536
 167	0.00000000	89.00000000	255.00000000	0.10955680	88.99159715	254.99615461
 168	0.00000000	102.00000000	0.00000000	-0.03417556	102.00403690	-0.03380032
 169	0.00000000	102.00000000	13.00000000	-0.01644277	101.99817002	12.97699906
 170	0.00000000	102.00000000	26.00000000	0.02354912	101.99883878	26.01577710
 171	0.00000000	102.00000000	38.00000000	0.06337184	102.00418130	37.97643140
 172	0.00000000	102.00000000	51.00000000	0.04388195	102.00571641	50.99744350
 173	0.00000000	102.00000000	64.00000000	0.01875797	102.00345173	63.99886385
 174	0.00000000	102.00000000	77.00000000	-0.04710135	102.00445488	76.99806511
 175	0.00000000	102.00000000	89.00000000	0.06612751	101.99621692	89.00072426
 176	0.00000000	102.00000000	102.00000000	-0.05048074	102.00390771	101.99737966
 177	0.00000000	102.00000000	115.00000000	0.00844938	102.00002432	114.99537259
 178	0.00000000	102.00000000	128.00000000	0.10049293	101.99697688	128.00364017
 179	0.00000000	102.00000000	140.00000000	0.09471382	101.99852720	139.99971807
 180	0.00000000	102.00000000	153.00000000	0.00911929	101.99983433	152.99404800
 181	0.00000000	102.00000000	166.00000000	0.15767894	101.99430943	166.00143403
 182	0.00000000	102.00000000	179.00000000	0.11377574	101.99865639	179.00064290
 183	0.00000000	102.00000000	191.00000000	0.15553364	101.99465901	191.00359082
 184	0.00000000	102.00000000	204.00000000	0.15686979	101.99311629	203.99752557
 185	0.00000000	102.00000000	217.00000000	0.15350220	101.99352667	216.99764639
 186	0.00000000	102.00000000	230.00000000	0.05263348	102.00300336	229.99390662
 187	0.00000000	102.00000000	242.00000000	0.15923081	101.99973553	241.99335873
 188	0.00000000	102.00000000	255.00000000	0.12478584	101.99690089	254.99604821
 189	0.00000000	115.00000000	0.00000000	-0.05617741	115.00090510	0.01000114
 190	0.00000000	115.00000000	13.00000000	0.05448219	115.00118628	12.96442458
 191	0.00000000	115.00000000	26.00000000	-0.01794242	115.00536606	26.00554045
 192	0.00000000	115.00000000	38.00000000	0.05804502	114.99757648	37.99875520
 193	0.00000000	115.00000000	51.00000000	0.03425262	114.99880761	50.99446066
 194	0.00000000	115.00000000	64.00000000	0.04703283	114.99879241	63.98984313
 195	0.00000000	115.00000000	77.00000000	0.13530253	114.99367788	76.99057952
 196	0.00000000	115.00000000	89.00000000	-0.03323721	115.00255421	88.99550334
 197	0.00000000	115.00000000	102.00000000	0.08676719	114.99491662	102.00476646
 198	0.00000000	115.00000000	115.00000000	0.15030460	114.99371588	114.99786526
 199	0.00000000	115.00000000	128.00000000	0.02629077	114.99975756	127.99423188
 200	0.00000000	115.00000000	140.00000000	-0.00228303	115.00358015	140.00052363
 201	0.00000000	115.00000000	153.00000000	0.05272904	115.00256941	153.00479382
 202	0.00000000	115.00000000	166.00000000	0.09639801	115.00036553	166.00196600
 203	0.00000000	115.00000000	179.00000000	0.11590977	114.99397427	178.99596155
 204	0.00000000	115.00000000	191.00000000	0.09173533	114.99936998	191.00131094
 205	0.00000000	115.00000000	204.00000000	0.13703546	115.00153586	203.99948627
 206	0.00000000	115.00000000	217.00000000	0.19525261	114.99753848	217.00097501
 207	0.00000000	115.00000000	230.00000000	0.07381015	114.99997795	229.99463618
 208	0.00000000	115.00000000	242.00000000	0.17821329	114.99748528	241.99686974
 209	0.00000000	115.00000000	255.00000000	0.17818592	114.99325991	254.99785691
 210	0.00000000	128.00000000	0.00000000	0.07759843	127.99897403	0.03207636
 211	0.00000000	128.00000000	13.00000000	0.02302249	127.99985558	12.94906866
 212	0.00000000	128.00000000	26.00000000	-0.07604218	128.00345778	25.99645134
 213	0.00000000	128.00000000	38.00000000	0.01253333	127.99936920	37.99125820
 214	0.00000000	128.00000000	51.00000000	-0.02176299	128.00177068	50.99559300
 215	0.00000000	128.00000000	64.00000000	0.03743997	127.99807727	63.98662850
 216	0.00000000	128.00000000	77.00000000	0.05147487	127.99784929	77.00530753
 217	0.00000000	128.00000000	89.00000000	-0.04982602	128.00230265	88.99798840
 218	0.00000000	128.00000000	102.00000000	0.07139974	127.99669415	101.99957594
 219	0.00000000	128.00000000	115.00000000	0.01465532	128.00563127	115.00195384
 220	0.00000000	128.00000000	128.00000000	0.01996315	128.00202906	127.99836606
 221	0.00000000	128.00000000	140.00000000	0.11749066	127.99980998	139.99508232
 222	0.00000000	128.00000000	153.00000000	0.02510436	128.00085872	152.99945891
 223	0.00000000	128.00000000	166.00000000	0.10791313	127.99929321	165.99693507
 224	0.00000000	128.00000000	179.00000000	0.12733452	127.99629897	178.99611354
 225	0.00000000	128.00000000	191.00000000	0.02041889	128.00143629	191.00415319
 226	0.00000000	128.00000000	204.00000000	0.08052260	128.00195307	204.00384843
 227	0.00000000	128.00000000	217.00000000	0.20652160	128.00029635	216.99737281
 228	0.00000000	128.00000000	230.00000000	0.23167433	127.99629897	229.99933273
 229	0.00000000	128.00000000	242.00000000	0.21284448	127.99923241	241.99723452
 230	0.00000000	128.00000000	255.00000000	0.14411123	127.99614698	254.99639779
 231	0.00000000	140.00000000	0.00000000	0.10844914	139.99518871	-0.00762358
 232	0.00000000	140.00000000	13.00000000	0.02943293	140.00180036	13.00253559
 233	0.00000000	140.00000000	26.00000000	-0.09263097	140.00397384	26.01707283
 234	0.00000000	140.00000000	38.00000000	0.05405748	139.99991566	37.98019700
 235	0.00000000	140.00000000	51.00000000	0.00036550	140.00101000	51.00783594
 236	0.00000000	140.00000000	64.00000000	-0.01195060	139.99971807	64.00025457
 237	0.00000000	140.00000000	77.00000000	0.05926316	139.99742299	77.00340003
 238	0.00000000	140.00000000	89.00000000	0.15406417	139.99727100	88.99516895
 239	0.00000000	140.00000000	102.00000000	0.11901927	139.99424636	101.99884638
 240	0.00000000	140.00000000	115.00000000	0.03302808	140.00116199	114.99353349
 241	0.00000000	140.00000000	128.00000000	0.05428576	140.00134438	127.99582779
 242	0.00000000	140.00000000	140.00000000	0.11379687	139.99707341	139.99578148
 243	0.00000000	140.00000000	153.00000000	0.03305865	140.00070602	153.00255954
 244	0.00000000	140.00000000	166.00000000	0.10348719	139.99952048	165.99875897
 245	0.00000000	140.00000000	179.00000000	0.12353712	139.99654144	179.00184363
 246	0.00000000	140.00000000	191.00000000	0.04154034	139.99921650	190.99696398
 247	0.00000000	140.00000000	204.00000000	0.02402546	139.99950528	204.00108218
 248	0.00000000	140.00000000	217.00000000	0.18928289	139.99839574	216.99644566
 249	0.00000000	140.00000000	230.00000000	0.22735137	139.99304563	229.99522895
 250	0.00000000	140.00000000	242.00000000	0.16358783	139.99550790	241.99361712
 251	0.00000000	140.00000000	255.00000000	0.25289395	139.99810696	254.99533385
 252	0.00000000	153.00000000	0.00000000	-0.03719751	153.00415546	-0.00356516
 253	0.00000000	153.00000000	13.00000000	-0.00480352	152.99967170	12.94561654
 254	0.00000000	153.00000000	26.00000000	0.09446896	152.99801499	25.98737553
 255	0.00000000	153.00000000	38.00000000	-0.06886115	153.00774246	37.98628047
 256	0.00000000	153.00000000	51.00000000	0.12610043	152.99880534	51.01088338
 257	0.00000000	153.00000000	64.00000000	0.05908722	153.00439864	63.98817122
 258	0.00000000	153.00000000	77.00000000	-0.01245834	153.00245315	76.99792832
 259	0.00000000	153.00000000	89.00000000	0.07209344	153.00075084	89.00008589
 260	0.00000000	153.00000000	102.00000000	-0.02007519	153.00407946	101.99826121
 261	0.00000000	153.00000000	115.00000000	-0.01120453	153.00135881	114.99626175
 262	0.00000000	153.00000000	128.00000000	0.15147559	152.99824297	127.99707413
 263	0.00000000	153.00000000	140.00000000	0.06909813	152.99918532	139.99430716
 264	0.00000000	153.00000000	153.00000000	0.08765331	153.00274193	152.99982369
 265	0.00000000	153.00000000	166.00000000	0.03023381	153.00199717	166.00147963
 266	0.00000000	153.00000000	179.00000000	-0.01116398	153.00427705	179.00236040
 267	0.00000000	153.00000000	191.00000000	0.16061513	152.99736142	190.99843830
 268	0.00000000	153.00000000	204.00000000	0.07546207	153.00110042	204.00324047
 269	0.00000000	153.00000000	217.00000000	0.20913267	152.99705744	216.99281305
 270	0.00000000	153.00000000	230.00000000	0.24876869	152.99471676	229.99492496
 271	0.00000000	153.00000000	242.00000000	0.25114981	152.99465597	242.00073034
 272	0.00000000	153.00000000	255.00000000	0.20929575	152.99708784	254.99043971
 273	0.00000000	166.00000000	0.00000000	0.07043638	165.99856138	-0.01470003
 274	0.00000000	166.00000000	13.00000000	0.04857292	166.00289315	12.98277665
 275	0.00000000	166.00000000	26.00000000	-0.08228816	166.00420028	26.01107296
 276	0.00000000	166.00000000	38.00000000	0.07299617	165.99786222	37.97730915
 277	0.00000000	166.00000000	51.00000000	0.01295539	166.00260437	50.99900521
 278	0.00000000	166.00000000	64.00000000	-0.02104871	166.00032449	63.99909943
 279	0.00000000	166.00000000	77.00000000	0.13908738	165.99690467	76.99421972
 280	0.00000000	166.00000000	89.00000000	0.07340721	166.00062847	89.00470644
 281	0.00000000	166.00000000	102.00000000	0.04562424	166.00488424	101.99791163
 282	0.00000000	166.00000000	115.00000000	0.02856499	166.00486904	115.00010714
 283	0.00000000	166.00000000	128.00000000	0.00344541	166.00362271	128.00040275
 284	0.00000000	166.00000000	140.00000000	0.07901192	166.00137323	140.00278831
 285	0.00000000	166.00000000	153.00000000	0.06476491	166.00378990	153.00047725
 286	0.00000000	166.00000000	166.00000000	0.02944924	166.00033969	165.99778622
 287	0.00000000	166.00000000	179.00000000	0.01805065	166.00385070	178.99957895
 288	0.00000000	166.00000000	191.00000000	0.02605342	165.99991411	191.00150853
 289	0.00000000	166.00000000	204.00000000	0.04391660	166.00102365	204.00112778
 290	0.00000000	166.00000000	217.00000000	0.19058438	165.99763423	217.00100541
 291	0.00000000	166.00000000	230.00000000	0.16813237	165.99635750	229.99845117
 292	0.00000000	166.00000000	242.00000000	0.18053670	166.00011170	241.99940801
 293	0.00000000	166.00000000	255.00000000	0.18095257	166.00208759	254.99843448
 294	0.00000000	179.00000000	0.00000000	0.04858537	179.00342435	-0.05363966
 295	0.00000000	179.00000000	13.00000000	-0.00069321	179.00552183	12.95138748
 296	0.00000000	179.00000000	26.00000000	0.15396397	178.99811983	26.00409843
 297	0.00000000	179.00000000	38.00000000	0.01214086	179.00251240	37.99332149
 298	0.00000000	179.00000000	51.00000000	-0.05088621	179.00207162	50.99809326
 299	0.00000000	179.00000000	64.00000000	-0.00958931	179.00052130	63.99156824
 300	0.00000000	179.00000000	77.00000000	0.07327015	178.99863660	76.99599802
 301	0.00000000	179.00000000	89.00000000	0.03967328	179.00167644	88.99876356
 302	0.00000000	179.00000000	102.00000000	0.09158770	179.00132686	101.99418023
 303	0.00000000	179.00000000	115.00000000	0.06867541	178.99717748	114.99635294
 304	0.00000000	179.00000000	128.00000000	-0.04388152	179.00640339	128.00243944
 305	0.00000000	179.00000000	140.00000000	0.14284562	178.99985254	139.99628305
 306	0.00000000	179.00000000	153.00000000	0.09361328	178.99927497	152.99955010
 307	0.00000000	179.00000000	166.00000000	-0.00752696	179.00208682	165.99904776
 308	0.00000000	179.00000000	179.00000000	0.02962761	178.99918377	178.99526238
