bench/lcms_compat/reference/srgb_to_USSheetfedCoated.icc_Relative.it8
CGATS.17
ORIGINATOR	"icctrans"
#
# Data follows
#
NUMBER_OF_SETS	9261.00000000
NUMBER_OF_FIELDS	8.00000000
BEGIN_DATA_FORMAT
 SAMPLE_ID	IN_RGB_R	IN_RGB_G	IN_RGB_B	OUT_CMYK_C	OUT_CMYK_M	OUT_CMYK_Y	OUT_CMYK_K
END_DATA_FORMAT
BEGIN_DATA
 0	0.00000000	0.00000000	0.00000000	94.38468218	85.17128229	84.09246802	84.87678170
 1	0.00000000	0.00000000	13.00000000	96.23559713	87.77752519	77.44563818	81.18257523
 2	0.00000000	0.00000000	26.00000000	98.99747968	91.60754085	71.28709555	76.01892352
 3	0.00000000	0.00000000	38.00000000	100.00000000	95.10948062	65.64583778	70.55771947
 4	0.00000000	0.00000000	51.00000000	100.00000000	95.49095631	63.34477663	64.69672918
 5	0.00000000	0.00000000	64.00000000	100.00000000	94.14053559	60.06561518	60.43946147
 6	0.00000000	0.00000000	77.00000000	100.00000000	93.69039536	54.97520566	54.08712626
 7	0.00000000	0.00000000	89.00000000	100.00000000	94.12375093	51.80590749	44.66926157
 8	0.00000000	0.00000000	102.00000000	100.00000000	93.59273911	50.27390122	31.83184564
 9	0.00000000	0.00000000	115.00000000	100.00000000	92.65888333	48.80598187	22.93736190
 10	0.00000000	0.00000000	128.00000000	100.00000000	91.13145471	42.50858426	14.87601995
 11	0.00000000	0.00000000	140.00000000	100.00000000	90.61417580	34.78599191	9.88937244
 12	0.00000000	0.00000000	153.00000000	100.00000000	89.54604268	23.21965396	4.51514460
 13	0.00000000	0.00000000	166.00000000	100.00000000	87.53948212	12.98390180	1.57320518
 14	0.00000000	0.00000000	179.00000000	100.00000000	85.81674099	2.12558173	0.43183034
 15	0.00000000	0.00000000	191.00000000	100.00000000	82.71610737	0.00000000	0.00000000
 16	0.00000000	0.00000000	204.00000000	96.25085592	78.62363458	0.00000000	0.00000000
 17	0.00000000	0.00000000	217.00000000	94.61508989	75.86938143	0.00000000	0.00000000
 18	0.00000000	0.00000000	230.00000000	93.32570434	73.81551862	0.00000000	0.00000000
 19	0.00000000	0.00000000	242.00000000	92.58869290	72.33081460	0.00000000	0.00000000
 20	0.00000000	0.00000000	255.00000000	91.75402522	70.59891820	0.00000000	0.00000000
 21	0.00000000	13.00000000	0.00000000	92.54291654	73.81551862	88.52369189	80.49439192
 22	0.00000000	13.00000000	13.00000000	97.74318933	79.71465588	81.72884583	80.63172102
 23	0.00000000	13.00000000	26.00000000	100.00000000	87.08018661	72.50477076	75.21019578
 24	0.00000000	13.00000000	38.00000000	100.00000000	91.32677317	65.46273232	69.64522600
 25	0.00000000	13.00000000	51.00000000	100.00000000	93.03425550	62.31021881	64.26795125
 26	0.00000000	13.00000000	64.00000000	100.00000000	92.65430570	59.80620980	59.72686410
 27	0.00000000	13.00000000	77.00000000	100.00000000	92.70923734	54.72495556	50.31509995
 28	0.00000000	13.00000000	89.00000000	100.00000000	92.75348783	52.52612829	39.35454190
 29	0.00000000	13.00000000	102.00000000	100.00000000	92.24383831	50.88120699	29.61623669
 30	0.00000000	13.00000000	115.00000000	100.00000000	91.34966135	47.32432961	20.02899200
 31	0.00000000	13.00000000	128.00000000	100.00000000	90.54245949	41.17036760	13.51186335
 32	0.00000000	13.00000000	140.00000000	100.00000000	89.56130147	32.28198588	7.93621764
 33	0.00000000	13.00000000	153.00000000	100.00000000	88.73578906	22.26749063	3.72930504
 34	0.00000000	13.00000000	166.00000000	100.00000000	86.99626327	10.19607857	1.40230414
 35	0.00000000	13.00000000	179.00000000	100.00000000	84.84168649	0.00000000	0.27008469
 36	0.00000000	13.00000000	191.00000000	98.63584638	81.26192093	0.00000000	0.00000000
 37	0.00000000	13.00000000	204.00000000	95.74883580	77.77065635	0.00000000	0.00000000
 38	0.00000000	13.00000000	217.00000000	94.19546723	75.55504441	0.00000000	0.00000000
 39	0.00000000	13.00000000	230.00000000	92.89845228	73.57747555	0.00000000	0.00000000
 40	0.00000000	13.00000000	242.00000000	92.38880277	71.66857123	0.00000000	0.00000000
 41	0.00000000	13.00000000	255.00000000	91.72655940	69.69863176	0.00000000	0.00000000
 42	0.00000000	26.00000000	0.00000000	91.20164514	65.20332694	93.15785170	74.25650358
 43	0.00000000	26.00000000	13.00000000	96.56671882	67.38536954	90.93614221	76.44312382
 44	0.00000000	26.00000000	26.00000000	100.00000000	75.12168884	78.09109688	73.52559566
 45	0.00000000	26.00000000	38.00000000	100.00000000	83.55230093	67.71801114	67.83398390
 46	0.00000000	26.00000000	51.00000000	100.00000000	88.37414980	61.80361509	62.57419586
 47	0.00000000	26.00000000	64.00000000	100.00000000	89.86953497	59.33012962	55.89990020
 48	0.00000000	26.00000000	77.00000000	100.00000000	90.74082375	55.91973662	43.69726181
 49	0.00000000	26.00000000	89.00000000	100.00000000	90.91935754	53.80026102	34.03372169
 50	0.00000000	26.00000000	102.00000000	100.00000000	90.60044289	50.29831529	24.93476719
 51	0.00000000	26.00000000	115.00000000	100.00000000	90.15640616	45.83352506	17.76302755
 52	0.00000000	26.00000000	128.00000000	100.00000000	88.87922764	36.42328382	11.10093817
 53	0.00000000	26.00000000	140.00000000	100.00000000	88.19409609	28.97382975	6.54459447
 54	0.00000000	26.00000000	153.00000000	100.00000000	87.51201630	17.83474535	2.95719840
 55	0.00000000	26.00000000	166.00000000	100.00000000	85.90981960	7.11833388	0.59510185
 56	0.00000000	26.00000000	179.00000000	100.00000000	82.37125278	0.00000000	0.14496071
 57	0.00000000	26.00000000	191.00000000	96.37293220	79.68719006	0.00000000	0.00000000
 58	0.00000000	26.00000000	204.00000000	95.31700611	76.55603886	0.00000000	0.00000000
 59	0.00000000	26.00000000	217.00000000	93.27687621	74.67765212	0.00000000	0.00000000
 60	0.00000000	26.00000000	230.00000000	92.43610501	72.79011011	0.00000000	0.00000000
 61	0.00000000	26.00000000	242.00000000	92.33233929	70.58213353	0.00000000	0.00000000
 62	0.00000000	26.00000000	255.00000000	90.66147804	69.94277835	0.00000000	0.00000000
 63	0.00000000	38.00000000	0.00000000	91.80590510	59.97558832	98.16433787	67.94689894
 64	0.00000000	38.00000000	13.00000000	95.72594762	59.95116830	96.84138298	69.24238801
 65	0.00000000	38.00000000	26.00000000	100.00000000	61.33669019	92.09582806	69.99618411
 66	0.00000000	38.00000000	38.00000000	100.00000000	69.26527619	75.20409226	65.28419852
 67	0.00000000	38.00000000	51.00000000	100.00000000	78.27877998	61.52284741	58.04532170
 68	0.00000000	38.00000000	64.00000000	100.00000000	84.07568336	57.79354572	48.60761464
 69	0.00000000	38.00000000	77.00000000	100.00000000	86.90317869	55.19188046	38.16281259
 70	0.00000000	38.00000000	89.00000000	100.00000000	87.52422333	51.58007145	28.78004014
 71	0.00000000	38.00000000	102.00000000	100.00000000	87.55321503	47.12138474	21.04676962
 72	0.00000000	38.00000000	115.00000000	100.00000000	87.32280731	40.16022086	14.17563111
 73	0.00000000	38.00000000	128.00000000	100.00000000	86.83604002	32.30029643	8.95704553
 74	0.00000000	38.00000000	140.00000000	100.00000000	86.00137234	24.20080900	4.90882732
 75	0.00000000	38.00000000	153.00000000	100.00000000	85.36812663	13.23109716	1.79751273
 76	0.00000000	38.00000000	166.00000000	100.00000000	84.15655494	0.86518656	0.23346303
 77	0.00000000	38.00000000	179.00000000	100.00000000	81.01777434	0.00000000	0.00000000
 78	0.00000000	38.00000000	191.00000000	96.60181403	77.31746435	0.00000000	0.00000000
 79	0.00000000	38.00000000	204.00000000	94.40299273	75.04539490	0.00000000	0.00000000
 80	0.00000000	38.00000000	217.00000000	93.25856566	72.68482447	0.00000000	0.00000000
 81	0.00000000	38.00000000	230.00000000	92.25757122	70.98649740	0.00000000	0.00000000
 82	0.00000000	38.00000000	242.00000000	91.09330773	69.97939944	0.00000000	0.00000000
 83	0.00000000	38.00000000	255.00000000	90.11062980	68.33142638	0.00000000	0.00000000
 84	0.00000000	51.00000000	0.00000000	92.12939739	54.78751659	100.00000000	60.42267680
 85	0.00000000	51.00000000	13.00000000	94.72037554	54.25955653	100.00000000	60.50965190
 86	0.00000000	51.00000000	26.00000000	100.00000000	52.77943015	100.00000000	60.34637690
 87	0.00000000	51.00000000	38.00000000	100.00000000	53.11207771	90.79422951	59.19890404
 88	0.00000000	51.00000000	51.00000000	100.00000000	61.66170835	70.74387670	52.88013816
 89	0.00000000	51.00000000	64.00000000	100.00000000	71.00633383	57.25032687	43.46532524
 90	0.00000000	51.00000000	77.00000000	100.00000000	77.82101035	51.02922320	33.36537778
 91	0.00000000	51.00000000	89.00000000	100.00000000	80.80109954	46.89249992	25.37270188
 92	0.00000000	51.00000000	102.00000000	100.00000000	82.20340014	41.31685495	17.96444654
 93	0.00000000	51.00000000	115.00000000	100.00000000	82.54825473	34.02609229	11.25505492
 94	0.00000000	51.00000000	128.00000000	100.00000000	82.52078891	25.90676844	6.21194765
 95	0.00000000	51.00000000	140.00000000	100.00000000	82.31479526	17.84695238	2.76035704
 96	0.00000000	51.00000000	153.00000000	100.00000000	81.85397387	7.40978122	0.97352564
 97	0.00000000	51.00000000	166.00000000	100.00000000	79.70855236	0.00000000	0.07782101
 98	0.00000000	51.00000000	179.00000000	96.70252800	76.76051259	0.00000000	0.00000000
 99	0.00000000	51.00000000	191.00000000	94.67612505	74.95384216	0.00000000	0.00000000
 100	0.00000000	51.00000000	204.00000000	93.13496351	72.83436060	0.00000000	0.00000000
 101	0.00000000	51.00000000	217.00000000	92.07446575	71.02617025	0.00000000	0.00000000
 102	0.00000000	51.00000000	230.00000000	90.68589211	69.33699846	0.00000000	0.00000000
 103	0.00000000	51.00000000	242.00000000	90.11673331	67.70732999	0.00000000	0.00000000
 104	0.00000000	51.00000000	255.00000000	89.03791904	66.80704951	0.00000000	0.00000000
 105	0.00000000	64.00000000	0.00000000	92.75043607	47.57457972	100.00000000	48.65186512
 106	0.00000000	64.00000000	13.00000000	95.14610767	47.05729783	100.00000000	48.73121381
 107	0.00000000	64.00000000	26.00000000	100.00000000	45.78164220	100.00000000	48.40466976
 108	0.00000000	64.00000000	38.00000000	100.00000000	45.92507780	100.00000000	47.90112078
 109	0.00000000	64.00000000	51.00000000	100.00000000	48.89143109	82.77409077	46.08224630
 110	0.00000000	64.00000000	64.00000000	100.00000000	56.01739287	65.79537392	39.94048834
 111	0.00000000	64.00000000	77.00000000	100.00000000	63.40276003	53.18837166	31.41527474
 112	0.00000000	64.00000000	89.00000000	100.00000000	69.27443147	44.13519502	23.39208126
 113	0.00000000	64.00000000	102.00000000	100.00000000	73.05256724	36.95735037	15.81902802
 114	0.00000000	64.00000000	115.00000000	100.00000000	75.97008944	29.61623669	9.39955786
 115	0.00000000	64.00000000	128.00000000	100.00000000	76.63538456	21.95925862	4.66620885
 116	0.00000000	64.00000000	140.00000000	100.00000000	76.84138417	13.41267973	1.83260851
 117	0.00000000	64.00000000	153.00000000	100.00000000	76.33325458	2.95109488	0.39063096
 118	0.00000000	64.00000000	166.00000000	98.29709530	74.68222976	0.00000000	0.00000000
 119	0.00000000	64.00000000	179.00000000	95.94262838	72.39184976	0.00000000	0.00000000
 120	0.00000000	64.00000000	191.00000000	93.44624877	70.97429037	0.00000000	0.00000000
 121	0.00000000	64.00000000	204.00000000	91.68383479	69.19050813	0.00000000	0.00000000
 122	0.00000000	64.00000000	217.00000000	90.42343497	67.82940626	0.00000000	0.00000000
 123	0.00000000	64.00000000	230.00000000	89.46059346	66.69566035	0.00000000	0.00000000
 124	0.00000000	64.00000000	242.00000000	88.84870410	65.38490653	0.00000000	0.00000000
 125	0.00000000	64.00000000	255.00000000	87.66155243	64.56092000	0.00000000	0.00000000
 126	0.00000000	77.00000000	0.00000000	94.29464936	41.51064456	100.00000000	38.20248842
 127	0.00000000	77.00000000	13.00000000	96.12115622	41.18562639	100.00000000	38.00717294
 128	0.00000000	77.00000000	26.00000000	98.37186337	40.43183029	100.00000000	37.77065575
 129	0.00000000	77.00000000	38.00000000	99.95422363	41.16731584	100.00000000	37.23048866
 130	0.00000000	77.00000000	51.00000000	100.00000000	41.79140925	92.78095961	36.77271605
 131	0.00000000	77.00000000	64.00000000	100.00000000	44.59143877	76.28442645	34.72037911
 132	0.00000000	77.00000000	77.00000000	100.00000000	50.09841919	61.67544127	29.76577282
 133	0.00000000	77.00000000	89.00000000	100.00000000	55.35668135	50.52719712	23.89562875
 134	0.00000000	77.00000000	102.00000000	100.00000000	61.37941480	38.34897280	16.59418643
 135	0.00000000	77.00000000	115.00000000	100.00000000	65.20180106	29.17830050	10.17471552
 136	0.00000000	77.00000000	128.00000000	100.00000000	68.07507277	20.26245445	4.53803316
 137	0.00000000	77.00000000	140.00000000	100.00000000	68.99519563	12.12939620	1.30006867
 138	0.00000000	77.00000000	153.00000000	100.00000000	69.14320588	0.68818191	0.00000000
 139	0.00000000	77.00000000	166.00000000	97.11299539	67.75615811	0.00000000	0.00000000
 140	0.00000000	77.00000000	179.00000000	93.80331039	67.00999737	0.00000000	0.00000000
 141	0.00000000	77.00000000	191.00000000	92.21484661	65.64736366	0.00000000	0.00000000
 142	0.00000000	77.00000000	204.00000000	90.32883048	65.25520682	0.00000000	0.00000000
 143	0.00000000	77.00000000	217.00000000	88.85022998	64.10009861	0.00000000	0.00000000
 144	0.00000000	77.00000000	230.00000000	87.58220673	63.52636218	0.00000000	0.00000000
 145	0.00000000	77.00000000	242.00000000	86.94743514	63.12199831	0.00000000	0.00000000
 146	0.00000000	77.00000000	255.00000000	86.34927869	62.00198531	0.00000000	0.00000000
 147	0.00000000	89.00000000	0.00000000	95.60082555	35.05454957	100.00000000	28.43824029
 148	0.00000000	89.00000000	13.00000000	95.89226842	34.97520387	100.00000000	28.40619385
 149	0.00000000	89.00000000	26.00000000	96.16693258	35.33531725	100.00000000	28.18341255
 150	0.00000000	89.00000000	38.00000000	96.32562995	36.00518703	100.00000000	27.75616050
 151	0.00000000	89.00000000	51.00000000	97.73098230	36.12115681	98.48783016	27.58373320
 152	0.00000000	89.00000000	64.00000000	97.39680886	37.40291595	84.41138268	27.12291181
 153	0.00000000	89.00000000	77.00000000	97.59517908	39.92217779	70.09231448	25.08583069
 154	0.00000000	89.00000000	89.00000000	97.73555994	43.61333549	57.45174289	21.77309841
 155	0.00000000	89.00000000	102.00000000	98.06973338	48.34363461	45.33913136	17.09468216
 156	0.00000000	89.00000000	115.00000000	98.87846112	52.94423103	33.46455991	11.51903570
 157	0.00000000	89.00000000	128.00000000	99.34538603	56.72388673	23.37987274	5.99221773
 158	0.00000000	89.00000000	140.00000000	100.00000000	59.89471078	13.55306357	1.91195551
 159	0.00000000	89.00000000	153.00000000	99.78179336	60.82856655	3.58281843	0.18463416
 160	0.00000000	89.00000000	166.00000000	96.31342292	60.84992886	0.00000000	0.00000000
 161	0.00000000	89.00000000	179.00000000	92.64362454	60.41046977	0.00000000	0.00000000
 162	0.00000000	89.00000000	191.00000000	90.35171866	60.32501459	0.00000000	0.00000000
 163	0.00000000	89.00000000	204.00000000	88.70069385	60.10071039	0.00000000	0.00000000
 164	0.00000000	89.00000000	217.00000000	87.01762557	60.07477045	0.00000000	0.00000000
 165	0.00000000	89.00000000	230.00000000	85.86709499	59.82604623	0.00000000	0.00000000
 166	0.00000000	89.00000000	242.00000000	85.40474772	59.62005258	0.00000000	0.00000000
 167	0.00000000	89.00000000	255.00000000	84.30762291	59.16838050	0.00000000	0.00000000
 168	0.00000000	102.00000000	0.00000000	93.08308363	29.58571613	100.00000000	20.40436417
 169	0.00000000	102.00000000	13.00000000	93.11054945	29.76882458	100.00000000	20.36621720
 170	0.00000000	102.00000000	26.00000000	93.23872924	30.04959226	100.00000000	20.23651451
 171	0.00000000	102.00000000	38.00000000	93.87655258	30.31814992	100.00000000	19.81841773
 172	0.00000000	102.00000000	51.00000000	94.77073550	30.58671057	100.00000000	19.37590539
 173	0.00000000	102.00000000	64.00000000	94.72342730	31.04142845	90.85374475	19.51323748
 174	0.00000000	102.00000000	77.00000000	94.45182085	32.38422275	77.56771445	18.92271340
 175	0.00000000	102.00000000	89.00000000	94.14969087	34.24124420	65.58022499	17.61043668
 176	0.00000000	102.00000000	102.00000000	94.23514009	37.22285926	53.18837166	15.19646049
 177	0.00000000	102.00000000	115.00000000	94.32516694	40.99336267	41.55794680	11.69756651
 178	0.00000000	102.00000000	128.00000000	94.72190142	44.84168887	30.43259382	7.57457837
 179	0.00000000	102.00000000	140.00000000	94.93858218	47.75921404	21.23140246	3.86663601
 180	0.00000000	102.00000000	153.00000000	95.55810094	50.45090318	11.03990227	0.67139696
 181	0.00000000	102.00000000	166.00000000	94.71732378	51.06279254	0.36163882	0.05340658
 182	0.00000000	102.00000000	179.00000000	91.00785851	52.35217810	0.00000000	0.00000000
 183	0.00000000	102.00000000	191.00000000	88.24597597	53.18074226	0.00000000	0.00000000
 184	0.00000000	102.00000000	204.00000000	86.18143201	54.27481532	0.00000000	0.00000000
 185	0.00000000	102.00000000	217.00000000	85.09804010	54.47165370	0.00000000	0.00000000
 186	0.00000000	102.00000000	230.00000000	83.69268179	54.88975644	0.00000000	0.00000000
 187	0.00000000	102.00000000	242.00000000	83.19676518	55.10948300	0.00000000	0.00000000
 188	0.00000000	102.00000000	255.00000000	82.30258822	55.37194014	0.00000000	0.00000000
 189	0.00000000	115.00000000	0.00000000	90.47684669	23.84985089	100.00000000	13.72854263
 190	0.00000000	115.00000000	13.00000000	90.58518410	23.96124154	100.00000000	13.65835071
 191	0.00000000	115.00000000	26.00000000	90.71793556	24.09857363	100.00000000	13.52101862
 192	0.00000000	115.00000000	38.00000000	91.02311730	24.27863032	100.00000000	13.21583837
 193	0.00000000	115.00000000	51.00000000	91.60754085	24.86610264	100.00000000	12.78706044
 194	0.00000000	115.00000000	64.00000000	92.22247601	25.12245476	95.99603415	12.70618737
 195	0.00000000	115.00000000	77.00000000	92.11108685	25.53597391	83.73388052	12.65735924
 196	0.00000000	115.00000000	89.00000000	91.05516076	27.00846791	72.35217690	12.36896291
 197	0.00000000	115.00000000	102.00000000	90.96818566	28.59082818	60.38147807	11.32677197
 198	0.00000000	115.00000000	115.00000000	90.69657326	30.75608313	49.07453954	9.61470976
 199	0.00000000	115.00000000	128.00000000	90.71946144	33.51033926	38.08346689	7.18699917
 200	0.00000000	115.00000000	140.00000000	90.67673683	36.49195135	28.32532227	4.55939583
 201	0.00000000	115.00000000	153.00000000	90.61112404	38.94254863	18.42526942	1.95315480
 202	0.00000000	115.00000000	166.00000000	90.59586525	41.26039445	8.74494538	0.00000000
 203	0.00000000	115.00000000	179.00000000	89.40108418	41.72121882	0.00000000	0.00000000
 204	0.00000000	115.00000000	191.00000000	86.66971922	43.86663735	0.00000000	0.00000000
 205	0.00000000	115.00000000	204.00000000	83.97039771	46.18753195	0.00000000	0.00000000
 206	0.00000000	115.00000000	217.00000000	81.92111254	47.70427942	0.00000000	0.00000000
 207	0.00000000	115.00000000	230.00000000	81.52590394	48.98909032	0.00000000	0.00000000
 208	0.00000000	115.00000000	242.00000000	80.61493635	50.01602173	0.00000000	0.00000000
 209	0.00000000	115.00000000	255.00000000	80.10070920	50.72404146	0.00000000	0.00000000
 210	0.00000000	128.00000000	0.00000000	87.65239716	17.83779711	100.00000000	7.88586289
 211	0.00000000	128.00000000	13.00000000	87.65239716	17.95986891	100.00000000	7.85229281
 212	0.00000000	128.00000000	26.00000000	87.73785233	18.15976202	100.00000000	7.78515264
 213	0.00000000	128.00000000	38.00000000	88.06896806	18.31540465	100.00000000	7.54406080
 214	0.00000000	128.00000000	51.00000000	88.85633349	18.58701408	100.00000000	7.13511854
 215	0.00000000	128.00000000	64.00000000	89.17982578	18.95780861	98.77622724	6.89250007
 216	0.00000000	128.00000000	77.00000000	88.87617588	19.63836104	88.36194277	7.12748915
 217	0.00000000	128.00000000	89.00000000	88.74494433	20.09918392	77.88204551	7.01609850
 218	0.00000000	128.00000000	102.00000000	87.91332841	21.39620036	66.92301631	6.68955520
 219	0.00000000	128.00000000	115.00000000	87.07866073	22.86259234	55.96551299	6.20279238
 220	0.00000000	128.00000000	128.00000000	87.23430037	24.35645014	44.89967227	4.91798259
 221	0.00000000	128.00000000	140.00000000	86.88334227	26.25467181	35.24070978	3.63012142
 222	0.00000000	128.00000000	153.00000000	86.07461452	28.87769938	25.30556321	2.11490039
 223	0.00000000	128.00000000	166.00000000	85.75875759	30.71793616	16.06469899	0.57679103
 224	0.00000000	128.00000000	179.00000000	85.42153239	31.74792230	6.46219552	0.00000000
 225	0.00000000	128.00000000	191.00000000	84.08026099	32.71992207	0.00000000	0.00000000
 226	0.00000000	128.00000000	204.00000000	81.47707582	36.15777791	0.00000000	0.00000000
 227	0.00000000	128.00000000	217.00000000	79.49492931	38.88456523	0.00000000	0.00000000
 228	0.00000000	128.00000000	230.00000000	77.70809531	41.48775339	0.00000000	0.00000000
 229	0.00000000	128.00000000	242.00000000	77.29915380	42.96025038	0.00000000	0.00000000
 230	0.00000000	128.00000000	255.00000000	76.71625614	44.40222681	0.00000000	0.00000000
 231	0.00000000	140.00000000	0.00000000	84.28626060	12.53376007	100.00000000	3.73235680
 232	0.00000000	140.00000000	13.00000000	84.42053795	12.62073666	100.00000000	3.66216525
 233	0.00000000	140.00000000	26.00000000	84.41138268	12.72449791	100.00000000	3.59655134
 234	0.00000000	140.00000000	38.00000000	85.30403376	12.67109215	100.00000000	3.33867408
 235	0.00000000	140.00000000	51.00000000	85.68245769	12.72907555	100.00000000	3.05638202
 236	0.00000000	140.00000000	64.00000000	86.33096814	12.96101362	100.00000000	2.88548097
 237	0.00000000	140.00000000	77.00000000	85.99526882	13.32875490	91.32829905	2.99839787
 238	0.00000000	140.00000000	89.00000000	85.71602702	14.23971951	81.53200746	2.98161283
 239	0.00000000	140.00000000	102.00000000	85.18959284	14.83634710	71.10551596	3.02738994
 240	0.00000000	140.00000000	115.00000000	84.40222740	16.02197289	61.11848354	2.98619065
 241	0.00000000	140.00000000	128.00000000	84.05737281	17.07942337	50.76524019	2.56351568
 242	0.00000000	140.00000000	140.00000000	83.31120610	18.58548820	41.05744958	2.05233842
 243	0.00000000	140.00000000	153.00000000	82.24460483	20.34790516	31.04142845	1.19935917
 244	0.00000000	140.00000000	166.00000000	81.99435472	21.73952907	21.87838554	0.44098576
 245	0.00000000	140.00000000	179.00000000	81.53658509	22.98771590	12.69855797	0.03509575
 246	0.00000000	140.00000000	191.00000000	80.87128997	23.75677079	5.13923876	0.00000000
 247	0.00000000	140.00000000	204.00000000	79.94659543	25.63363016	0.00000000	0.00000000
 248	0.00000000	140.00000000	217.00000000	77.26863623	29.80544865	0.00000000	0.00000000
 249	0.00000000	140.00000000	230.00000000	74.79514480	32.88929462	0.00000000	0.00000000
 250	0.00000000	140.00000000	242.00000000	72.84046412	35.03013551	0.00000000	0.00000000
 251	0.00000000	140.00000000	255.00000000	72.70466089	36.68726683	0.00000000	0.00000000
 252	0.00000000	153.00000000	0.00000000	81.93179369	5.69466688	100.00000000	0.93690399
 253	0.00000000	153.00000000	13.00000000	81.83871508	5.75112551	100.00000000	0.90638595
 254	0.00000000	153.00000000	26.00000000	81.93179369	5.79232462	100.00000000	0.80262460
 255	0.00000000	153.00000000	38.00000000	81.94705248	6.09597936	100.00000000	0.73395898
 256	0.00000000	153.00000000	51.00000000	82.18966722	6.62699342	100.00000000	0.60273139
 257	0.00000000	153.00000000	64.00000000	82.68864155	6.79789409	100.00000000	0.52033267
 258	0.00000000	153.00000000	77.00000000	83.49279165	6.84824884	94.30990815	0.50507365
 259	0.00000000	153.00000000	89.00000000	83.02434087	7.41130710	85.34828424	0.64698253
 260	0.00000000	153.00000000	102.00000000	82.09201097	8.46875682	75.76562166	0.79804687
 261	0.00000000	153.00000000	115.00000000	81.52895570	9.25154462	65.61074257	0.61799041
 262	0.00000000	153.00000000	128.00000000	80.87128997	10.28610691	56.23865128	0.66376748
 263	0.00000000	153.00000000	140.00000000	80.21667600	11.12382710	46.95200920	0.57831695
 264	0.00000000	153.00000000	153.00000000	79.63073254	12.67414391	37.17097640	0.20294499
 265	0.00000000	153.00000000	166.00000000	78.55039239	13.48897517	27.68291831	0.09918364
 266	0.00000000	153.00000000	179.00000000	77.86983848	14.75394815	19.15617585	0.00000000
 267	0.00000000	153.00000000	191.00000000	77.11299062	15.81902802	11.29320189	0.00000000
 268	0.00000000	153.00000000	204.00000000	76.37598515	16.39429331	3.51567864	0.00000000
 269	0.00000000	153.00000000	217.00000000	74.63797927	18.17196906	0.00000000	0.00000000
