bench/lcms_compat/reference/srgb_to_RISO_MZ770_Black.icc_Perceptual.it8
CGATS.17
ORIGINATOR	"icctrans"
#
# Data follows
#
NUMBER_OF_SETS	9261.00000000
NUMBER_OF_FIELDS	5.00000000
BEGIN_DATA_FORMAT
 SAMPLE_ID	IN_RGB_R	IN_RGB_G	IN_RGB_B	OUT_GRAY
END_DATA_FORMAT
BEGIN_DATA
 0	0.00000000	0.00000000	0.00000000	0.00000000
 1	0.00000000	0.00000000	13.00000000	0.25680934
 2	0.00000000	0.00000000	26.00000000	0.64980545
 3	0.00000000	0.00000000	38.00000000	1.22568099
 4	0.00000000	0.00000000	51.00000000	2.08949410
 5	0.00000000	0.00000000	64.00000000	3.23735408
 6	0.00000000	0.00000000	77.00000000	4.68482514
 7	0.00000000	0.00000000	89.00000000	6.30739317
 8	0.00000000	0.00000000	102.00000000	8.39688728
 9	0.00000000	0.00000000	115.00000000	10.75097306
 10	0.00000000	0.00000000	128.00000000	13.08560293
 11	0.00000000	0.00000000	140.00000000	15.24902729
 12	0.00000000	0.00000000	153.00000000	17.64202394
 13	0.00000000	0.00000000	166.00000000	19.99610972
 14	0.00000000	0.00000000	179.00000000	22.33852062
 15	0.00000000	0.00000000	191.00000000	24.62645955
 16	0.00000000	0.00000000	204.00000000	27.07782011
 17	0.00000000	0.00000000	217.00000000	29.49416365
 18	0.00000000	0.00000000	230.00000000	32.19066046
 19	0.00000000	0.00000000	242.00000000	34.81323034
 20	0.00000000	0.00000000	255.00000000	37.63034977
 21	0.00000000	13.00000000	0.00000000	3.00778204
 22	0.00000000	13.00000000	13.00000000	3.26070051
 23	0.00000000	13.00000000	26.00000000	3.66147854
 24	0.00000000	13.00000000	38.00000000	4.22957204
 25	0.00000000	13.00000000	51.00000000	5.09727638
 26	0.00000000	13.00000000	64.00000000	6.24513636
 27	0.00000000	13.00000000	77.00000000	7.69649793
 28	0.00000000	13.00000000	89.00000000	9.31906644
 29	0.00000000	13.00000000	102.00000000	11.25680951
 30	0.00000000	13.00000000	115.00000000	13.23735444
 31	0.00000000	13.00000000	128.00000000	15.30350212
 32	0.00000000	13.00000000	140.00000000	17.29182903
 33	0.00000000	13.00000000	153.00000000	19.45136145
 34	0.00000000	13.00000000	166.00000000	21.61867775
 35	0.00000000	13.00000000	179.00000000	23.91439676
 36	0.00000000	13.00000000	191.00000000	26.06225621
 37	0.00000000	13.00000000	204.00000000	28.38132307
 38	0.00000000	13.00000000	217.00000000	30.75486381
 39	0.00000000	13.00000000	230.00000000	33.50972928
 40	0.00000000	13.00000000	242.00000000	36.03502057
 41	0.00000000	13.00000000	255.00000000	38.75875622
 42	0.00000000	26.00000000	0.00000000	7.71984436
 43	0.00000000	26.00000000	13.00000000	7.97276258
 44	0.00000000	26.00000000	26.00000000	8.37354133
 45	0.00000000	26.00000000	38.00000000	8.94552559
 46	0.00000000	26.00000000	51.00000000	9.80155600
 47	0.00000000	26.00000000	64.00000000	10.86381370
 48	0.00000000	26.00000000	77.00000000	12.10505795
 49	0.00000000	26.00000000	89.00000000	13.38521400
 50	0.00000000	26.00000000	102.00000000	14.91828829
 51	0.00000000	26.00000000	115.00000000	16.62256904
 52	0.00000000	26.00000000	128.00000000	18.40466961
 53	0.00000000	26.00000000	140.00000000	20.10895036
 54	0.00000000	26.00000000	153.00000000	22.00000059
 55	0.00000000	26.00000000	166.00000000	24.07782029
 56	0.00000000	26.00000000	179.00000000	26.19066082
 57	0.00000000	26.00000000	191.00000000	28.15953277
 58	0.00000000	26.00000000	204.00000000	30.30739222
 59	0.00000000	26.00000000	217.00000000	32.88326830
 60	0.00000000	26.00000000	230.00000000	35.47470644
 61	0.00000000	26.00000000	242.00000000	37.87159503
 62	0.00000000	26.00000000	255.00000000	40.51751085
 63	0.00000000	38.00000000	0.00000000	13.72373499
 64	0.00000000	38.00000000	13.00000000	13.91050542
 65	0.00000000	38.00000000	26.00000000	14.20233451
 66	0.00000000	38.00000000	38.00000000	14.61867722
 67	0.00000000	38.00000000	51.00000000	15.25291828
 68	0.00000000	38.00000000	64.00000000	16.05836581
 69	0.00000000	38.00000000	77.00000000	17.02723783
 70	0.00000000	38.00000000	89.00000000	18.06225669
 71	0.00000000	38.00000000	102.00000000	19.30739287
 72	0.00000000	38.00000000	115.00000000	20.67315169
 73	0.00000000	38.00000000	128.00000000	22.14396916
 74	0.00000000	38.00000000	140.00000000	23.69260646
 75	0.00000000	38.00000000	153.00000000	25.44747010
 76	0.00000000	38.00000000	166.00000000	27.26459149
 77	0.00000000	38.00000000	179.00000000	29.14007775
 78	0.00000000	38.00000000	191.00000000	31.01167303
 79	0.00000000	38.00000000	204.00000000	33.35019484
 80	0.00000000	38.00000000	217.00000000	35.72373368
 81	0.00000000	38.00000000	230.00000000	38.12062226
 82	0.00000000	38.00000000	242.00000000	40.36964938
 83	0.00000000	38.00000000	255.00000000	43.59922148
 84	0.00000000	51.00000000	0.00000000	20.35797760
 85	0.00000000	51.00000000	13.00000000	20.49805518
 86	0.00000000	51.00000000	26.00000000	20.71206160
 87	0.00000000	51.00000000	38.00000000	21.01945560
 88	0.00000000	51.00000000	51.00000000	21.47470728
 89	0.00000000	51.00000000	64.00000000	22.06614744
 90	0.00000000	51.00000000	77.00000000	22.84435708
 91	0.00000000	51.00000000	89.00000000	23.69260646
 92	0.00000000	51.00000000	102.00000000	24.73540921
 93	0.00000000	51.00000000	115.00000000	25.89883268
 94	0.00000000	51.00000000	128.00000000	27.17898779
 95	0.00000000	51.00000000	140.00000000	28.44746992
 96	0.00000000	51.00000000	153.00000000	29.91050541
 97	0.00000000	51.00000000	166.00000000	31.66926004
 98	0.00000000	51.00000000	179.00000000	33.59922208
 99	0.00000000	51.00000000	191.00000000	35.45136049
 100	0.00000000	51.00000000	204.00000000	37.51751103
 101	0.00000000	51.00000000	217.00000000	39.63424064
 102	0.00000000	51.00000000	230.00000000	42.28404745
 103	0.00000000	51.00000000	242.00000000	44.98832814
 104	0.00000000	51.00000000	255.00000000	47.94941805
 105	0.00000000	64.00000000	0.00000000	27.15175085
 106	0.00000000	64.00000000	13.00000000	27.26070050
 107	0.00000000	64.00000000	26.00000000	27.43579701
 108	0.00000000	64.00000000	38.00000000	27.68871523
 109	0.00000000	64.00000000	51.00000000	28.06225609
 110	0.00000000	64.00000000	64.00000000	28.54863759
 111	0.00000000	64.00000000	77.00000000	29.15175073
 112	0.00000000	64.00000000	89.00000000	29.81322873
 113	0.00000000	64.00000000	102.00000000	30.68871506
 114	0.00000000	64.00000000	115.00000000	31.80933762
 115	0.00000000	64.00000000	128.00000000	33.05447571
 116	0.00000000	64.00000000	140.00000000	34.30739388
 117	0.00000000	64.00000000	153.00000000	35.77042937
 118	0.00000000	64.00000000	166.00000000	37.33073965
 119	0.00000000	64.00000000	179.00000000	38.98443751
 120	0.00000000	64.00000000	191.00000000	40.67315049
 121	0.00000000	64.00000000	204.00000000	43.06614809
 122	0.00000000	64.00000000	217.00000000	45.54863848
 123	0.00000000	64.00000000	230.00000000	48.10505770
 124	0.00000000	64.00000000	242.00000000	50.52918322
 125	0.00000000	64.00000000	255.00000000	53.21400896
 126	0.00000000	77.00000000	0.00000000	34.54863913
 127	0.00000000	77.00000000	13.00000000	34.65758689
 128	0.00000000	77.00000000	26.00000000	34.81712133
 129	0.00000000	77.00000000	38.00000000	35.05447559
 130	0.00000000	77.00000000	51.00000000	35.40855959
 131	0.00000000	77.00000000	64.00000000	35.87159514
 132	0.00000000	77.00000000	77.00000000	36.45136043
 133	0.00000000	77.00000000	89.00000000	37.08560340
 134	0.00000000	77.00000000	102.00000000	37.88326800
 135	0.00000000	77.00000000	115.00000000	38.79766613
 136	0.00000000	77.00000000	128.00000000	39.82101202
 137	0.00000000	77.00000000	140.00000000	41.04669325
 138	0.00000000	77.00000000	153.00000000	42.67315038
 139	0.00000000	77.00000000	166.00000000	44.42801401
 140	0.00000000	77.00000000	179.00000000	46.30350217
 141	0.00000000	77.00000000	191.00000000	48.13618563
 142	0.00000000	77.00000000	204.00000000	50.22179112
 143	0.00000000	77.00000000	217.00000000	52.39688560
 144	0.00000000	77.00000000	230.00000000	54.89493996
 145	0.00000000	77.00000000	242.00000000	57.49416389
 146	0.00000000	77.00000000	255.00000000	60.38910694
 147	0.00000000	89.00000000	0.00000000	42.24902853
 148	0.00000000	89.00000000	13.00000000	42.36964926
 149	0.00000000	89.00000000	26.00000000	42.54863866
 150	0.00000000	89.00000000	38.00000000	42.80544788
 151	0.00000000	89.00000000	51.00000000	43.19455080
 152	0.00000000	89.00000000	64.00000000	43.70428205
 153	0.00000000	89.00000000	77.00000000	44.33852121
 154	0.00000000	89.00000000	89.00000000	45.04280202
 155	0.00000000	89.00000000	102.00000000	45.92995942
 156	0.00000000	89.00000000	115.00000000	46.94941811
 157	0.00000000	89.00000000	128.00000000	48.10116671
 158	0.00000000	89.00000000	140.00000000	49.28015605
 159	0.00000000	89.00000000	153.00000000	50.67314990
 160	0.00000000	89.00000000	166.00000000	52.18677208
 161	0.00000000	89.00000000	179.00000000	53.88326705
 162	0.00000000	89.00000000	191.00000000	55.80544710
 163	0.00000000	89.00000000	204.00000000	58.01167332
 164	0.00000000	89.00000000	217.00000000	60.33073828
 165	0.00000000	89.00000000	230.00000000	62.75486380
 166	0.00000000	89.00000000	242.00000000	65.08560553
 167	0.00000000	89.00000000	255.00000000	67.70038962
 168	0.00000000	102.00000000	0.00000000	52.39299461
 169	0.00000000	102.00000000	13.00000000	52.49027319
 170	0.00000000	102.00000000	26.00000000	52.63813086
 171	0.00000000	102.00000000	38.00000000	52.85213917
 172	0.00000000	102.00000000	51.00000000	53.17899004
 173	0.00000000	102.00000000	64.00000000	53.61867584
 174	0.00000000	102.00000000	77.00000000	54.25291881
 175	0.00000000	102.00000000	89.00000000	54.95719962
 176	0.00000000	102.00000000	102.00000000	55.85602999
 177	0.00000000	102.00000000	115.00000000	56.89104885
 178	0.00000000	102.00000000	128.00000000	58.06225620
 179	0.00000000	102.00000000	140.00000000	59.26848248
 180	0.00000000	102.00000000	153.00000000	60.70039004
 181	0.00000000	102.00000000	166.00000000	62.26848230
 182	0.00000000	102.00000000	179.00000000	63.96108627
 183	0.00000000	102.00000000	191.00000000	65.63035190
 184	0.00000000	102.00000000	204.00000000	67.55642295
 185	0.00000000	102.00000000	217.00000000	69.60311472
 186	0.00000000	102.00000000	230.00000000	71.81322813
 187	0.00000000	102.00000000	242.00000000	73.94552171
 188	0.00000000	102.00000000	255.00000000	76.35408327
 189	0.00000000	115.00000000	0.00000000	64.08949658
 190	0.00000000	115.00000000	13.00000000	64.18677136
 191	0.00000000	115.00000000	26.00000000	64.33852002
 192	0.00000000	115.00000000	38.00000000	64.55642313
 193	0.00000000	115.00000000	51.00000000	64.87937540
 194	0.00000000	115.00000000	64.00000000	65.31517401
 195	0.00000000	115.00000000	77.00000000	65.85213840
 196	0.00000000	115.00000000	89.00000000	66.45135865
 197	0.00000000	115.00000000	102.00000000	67.21789911
 198	0.00000000	115.00000000	115.00000000	68.10506031
 199	0.00000000	115.00000000	128.00000000	69.10895124
 200	0.00000000	115.00000000	140.00000000	70.16731605
 201	0.00000000	115.00000000	153.00000000	71.43968537
 202	0.00000000	115.00000000	166.00000000	72.84046501
 203	0.00000000	115.00000000	179.00000000	74.35797438
 204	0.00000000	115.00000000	191.00000000	75.86770177
 205	0.00000000	115.00000000	204.00000000	77.61478722
 206	0.00000000	115.00000000	217.00000000	79.46692944
 207	0.00000000	115.00000000	230.00000000	81.42412081
 208	0.00000000	115.00000000	242.00000000	83.32684591
 209	0.00000000	115.00000000	255.00000000	85.47860205
 210	0.00000000	128.00000000	0.00000000	75.95720217
 211	0.00000000	128.00000000	13.00000000	76.05058596
 212	0.00000000	128.00000000	26.00000000	76.18287966
 213	0.00000000	128.00000000	38.00000000	76.37353823
 214	0.00000000	128.00000000	51.00000000	76.66147918
 215	0.00000000	128.00000000	64.00000000	77.04669490
 216	0.00000000	128.00000000	77.00000000	77.52529442
 217	0.00000000	128.00000000	89.00000000	78.05836782
 218	0.00000000	128.00000000	102.00000000	78.73929888
 219	0.00000000	128.00000000	115.00000000	79.52529430
 220	0.00000000	128.00000000	128.00000000	80.42412087
 221	0.00000000	128.00000000	140.00000000	81.35408297
 222	0.00000000	128.00000000	153.00000000	82.46692926
 223	0.00000000	128.00000000	166.00000000	83.68871570
 224	0.00000000	128.00000000	179.00000000	85.02334848
 225	0.00000000	128.00000000	191.00000000	86.89882904
 226	0.00000000	128.00000000	204.00000000	89.71595228
 227	0.00000000	128.00000000	217.00000000	92.73151606
 228	0.00000000	128.00000000	230.00000000	95.92996404
 229	0.00000000	128.00000000	242.00000000	99.03891161
 230	0.00000000	128.00000000	255.00000000	102.57198483
 231	0.00000000	140.00000000	0.00000000	87.84824610
 232	0.00000000	140.00000000	13.00000000	87.98832938
 233	0.00000000	140.00000000	26.00000000	88.19844291
 234	0.00000000	140.00000000	38.00000000	88.51362079
 235	0.00000000	140.00000000	51.00000000	88.98054734
 236	0.00000000	140.00000000	64.00000000	89.59144056
 237	0.00000000	140.00000000	77.00000000	90.36575541
 238	0.00000000	140.00000000	89.00000000	91.22957066
 239	0.00000000	140.00000000	102.00000000	92.33073637
 240	0.00000000	140.00000000	115.00000000	93.59922230
 241	0.00000000	140.00000000	128.00000000	95.05836681
 242	0.00000000	140.00000000	140.00000000	96.57198519
 243	0.00000000	140.00000000	153.00000000	98.38132650
 244	0.00000000	140.00000000	166.00000000	100.37354439
 245	0.00000000	140.00000000	179.00000000	102.55642086
 246	0.00000000	140.00000000	191.00000000	104.73151535
 247	0.00000000	140.00000000	204.00000000	107.27237061
 248	0.00000000	140.00000000	217.00000000	109.97665510
 249	0.00000000	140.00000000	230.00000000	112.85992518
 250	0.00000000	140.00000000	242.00000000	115.64980388
 251	0.00000000	140.00000000	255.00000000	118.05447444
 252	0.00000000	153.00000000	0.00000000	109.14007679
 253	0.00000000	153.00000000	13.00000000	109.26458851
 254	0.00000000	153.00000000	26.00000000	109.44747269
 255	0.00000000	153.00000000	38.00000000	109.71595109
 256	0.00000000	153.00000000	51.00000000	110.12451276
 257	0.00000000	153.00000000	64.00000000	110.66536814
 258	0.00000000	153.00000000	77.00000000	111.35019779
 259	0.00000000	153.00000000	89.00000000	112.10894868
 260	0.00000000	153.00000000	102.00000000	113.08171168
 261	0.00000000	153.00000000	115.00000000	114.20622334
 262	0.00000000	153.00000000	128.00000000	115.49805522
 263	0.00000000	153.00000000	140.00000000	116.51751012
 264	0.00000000	153.00000000	153.00000000	117.72373259
 265	0.00000000	153.00000000	166.00000000	119.05058339
 266	0.00000000	153.00000000	179.00000000	120.51361889
 267	0.00000000	153.00000000	191.00000000	121.96887240
 268	0.00000000	153.00000000	204.00000000	123.66536736
 269	0.00000000	153.00000000	217.00000000	125.48638165
 270	0.00000000	153.00000000	230.00000000	127.42801666
 271	0.00000000	153.00000000	242.00000000	129.33463275
 272	0.00000000	153.00000000	255.00000000	131.50194526
 273	0.00000000	166.00000000	0.00000000	126.46692663
 274	0.00000000	166.00000000	13.00000000	126.54474646
 275	0.00000000	166.00000000	26.00000000	126.66925818
 276	0.00000000	166.00000000	38.00000000	126.84825137
 277	0.00000000	166.00000000	51.00000000	127.11672977
 278	0.00000000	166.00000000	64.00000000	127.47859955
 279	0.00000000	166.00000000	77.00000000	127.93773651
 280	0.00000000	166.00000000	89.00000000	128.44358057
 281	0.00000000	166.00000000	102.00000000	129.08950031
 282	0.00000000	166.00000000	115.00000000	129.83657062
 283	0.00000000	166.00000000	128.00000000	130.70038587
 284	0.00000000	166.00000000	140.00000000	131.59532905
 285	0.00000000	166.00000000	153.00000000	132.67314881
 286	0.00000000	166.00000000	166.00000000	133.86380732
 287	0.00000000	166.00000000	179.00000000	135.17121077
 288	0.00000000	166.00000000	191.00000000	136.47859901
 289	0.00000000	166.00000000	204.00000000	138.00389796
 290	0.00000000	166.00000000	217.00000000	139.28015828
 291	0.00000000	166.00000000	230.00000000	140.63812941
 292	0.00000000	166.00000000	242.00000000	141.97666079
 293	0.00000000	166.00000000	255.00000000	143.50194454
 294	0.00000000	179.00000000	0.00000000	141.06226265
 295	0.00000000	179.00000000	13.00000000	141.11673653
 296	0.00000000	179.00000000	26.00000000	141.20233834
 297	0.00000000	179.00000000	38.00000000	141.33074105
 298	0.00000000	179.00000000	51.00000000	141.51750863
 299	0.00000000	179.00000000	64.00000000	141.76653206
 300	0.00000000	179.00000000	77.00000000	142.08560854
 301	0.00000000	179.00000000	89.00000000	142.43190676
 302	0.00000000	179.00000000	102.00000000	142.88715273
 303	0.00000000	179.00000000	115.00000000	143.40856075
 304	0.00000000	179.00000000	128.00000000	144.01167959
 305	0.00000000	179.00000000	140.00000000	144.63034719
 306	0.00000000	179.00000000	153.00000000	145.38521469
 307	0.00000000	179.00000000	166.00000000	146.21790200
 308	0.00000000	179.00000000	179.00000000	147.13230014
 309	0.00000000	179.00000000	191.00000000	148.04669827
 310	0.00000000	179.00000000	204.00000000	149.12062705
 311	0.00000000	179.00000000	217.00000000	150.27626663
 312	0.00000000	179.00000000	230.00000000	151.50972605
 313	0.00000000	179.00000000	242.00000000	152.72762150
 314	0.00000000	179.00000000	255.00000000	154.11673576
 315	0.00000000	191.00000000	0.00000000	152.00778812
 316	0.00000000	191.00000000	13.00000000	152.05448002
 317	0.00000000	191.00000000	26.00000000	152.13619083
 318	0.00000000	191.00000000	38.00000000	152.24902958
 319	0.00000000	191.00000000	51.00000000	152.42023319
 320	0.00000000	191.00000000	64.00000000	152.64201969
 321	0.00000000	191.00000000	77.00000000	152.93775022
 322	0.00000000	191.00000000	89.00000000	153.25292051
 323	0.00000000	191.00000000	102.00000000	153.66147459
 324	0.00000000	191.00000000	115.00000000	154.14008170
 325	0.00000000	191.00000000	128.00000000	154.68482047
 326	0.00000000	191.00000000	140.00000000	155.25292039
 327	0.00000000	191.00000000	153.00000000	155.87158799
 328	0.00000000	191.00000000	166.00000000	156.53696269
 329	0.00000000	191.00000000	179.00000000	157.26848423
 330	0.00000000	191.00000000	191.00000000	158.00778776
 331	0.00000000	191.00000000	204.00000000	158.86769682
 332	0.00000000	191.00000000	217.00000000	159.79376793
 333	0.00000000	191.00000000	230.00000000	160.78987688
 334	0.00000000	191.00000000	242.00000000	161.76653087
 335	0.00000000	191.00000000	255.00000000	162.89105773
 336	0.00000000	204.00000000	0.00000000	162.68871099
 337	0.00000000	204.00000000	13.00000000	162.72762090
 338	0.00000000	204.00000000	26.00000000	162.78987676
 339	0.00000000	204.00000000	38.00000000	162.87938476
 340	0.00000000	204.00000000	51.00000000	163.01556945
 341	0.00000000	204.00000000	64.00000000	163.19455504
 342	0.00000000	204.00000000	77.00000000	163.42412353
 343	0.00000000	204.00000000	89.00000000	163.68481994
 344	0.00000000	204.00000000	102.00000000	164.00778741
 345	0.00000000	204.00000000	115.00000000	164.38132256
 346	0.00000000	204.00000000	128.00000000	164.82100457
 347	0.00000000	204.00000000	140.00000000	165.27237475
 348	0.00000000	204.00000000	153.00000000	165.82100451
 349	0.00000000	204.00000000	166.00000000	166.43190533
 350	0.00000000	204.00000000	179.00000000	167.09338903
 351	0.00000000	204.00000000	191.00000000	167.76653051
 352	0.00000000	204.00000000	204.00000000	168.55641693
 353	0.00000000	204.00000000	217.00000000	169.40466821
 354	0.00000000	204.00000000	230.00000000	170.31517535
 355	0.00000000	204.00000000	242.00000000	171.12062573
 356	0.00000000	204.00000000	255.00000000	171.99611396
 357	0.00000000	217.00000000	0.00000000	172.49805182
 358	0.00000000	217.00000000	13.00000000	172.52917975
 359	0.00000000	217.00000000	26.00000000	172.57976264
 360	0.00000000	217.00000000	38.00000000	172.64980048
 361	0.00000000	217.00000000	51.00000000	172.75874823
 362	0.00000000	217.00000000	64.00000000	172.89883912
 363	0.00000000	217.00000000	77.00000000	173.07393372
 364	0.00000000	217.00000000	89.00000000	173.27237427
 365	0.00000000	217.00000000	102.00000000	173.52528870
 366	0.00000000	217.00000000	115.00000000	173.81711304
 367	0.00000000	217.00000000	128.00000000	174.15564448
 368	0.00000000	217.00000000	140.00000000	174.51361567
 369	0.00000000	217.00000000	153.00000000	174.93385792
 370	0.00000000	217.00000000	166.00000000	175.40855885
 371	0.00000000	217.00000000	179.00000000	175.92996687
 372	0.00000000	217.00000000	191.00000000	176.45135969
 373	0.00000000	217.00000000	204.00000000	177.06615150
 374	0.00000000	217.00000000	217.00000000	177.73151100
 375	0.00000000	217.00000000	230.00000000	178.44357759
 376	0.00000000	217.00000000	242.00000000	179.14008021
 377	0.00000000	217.00000000	255.00000000	179.94942158
 378	0.00000000	230.00000000	0.00000000	181.03502333
 379	0.00000000	230.00000000	13.00000000	181.06226027
 380	0.00000000	230.00000000	26.00000000	181.10506117
 381	0.00000000	230.00000000	38.00000000	181.17120802
 382	0.00000000	230.00000000	51.00000000	181.26848280
 383	0.00000000	230.00000000	64.00000000	181.39688551
 384	0.00000000	230.00000000	77.00000000	181.56030715
 385	0.00000000	230.00000000	89.00000000	181.74318373
 386	0.00000000	230.00000000	102.00000000	181.97276741
 387	0.00000000	230.00000000	115.00000000	182.24124581
 388	0.00000000	230.00000000	128.00000000	182.55641609
 389	0.00000000	230.00000000	140.00000000	182.87938356
 390	0.00000000	230.00000000	153.00000000	183.27237368
 391	0.00000000	230.00000000	166.00000000	183.70427370
 392	0.00000000	230.00000000	179.00000000	184.18677181
 393	0.00000000	230.00000000	191.00000000	184.67314571
 394	0.00000000	230.00000000	204.00000000	185.24124563
 395	0.00000000	230.00000000	217.00000000	185.86381942
 396	0.00000000	230.00000000	230.00000000	186.52139693
 397	0.00000000	230.00000000	242.00000000	187.17509866
 398	0.00000000	230.00000000	255.00000000	187.92996615
 399	0.00000000	242.00000000	0.00000000	188.87938321
 400	0.00000000	242.00000000	13.00000000	188.91051114
 401	0.00000000	242.00000000	26.00000000	188.94942105
 402	0.00000000	242.00000000	38.00000000	189.01167691
 403	0.00000000	242.00000000	51.00000000	189.10116971
 404	0.00000000	242.00000000	64.00000000	189.21789944
 405	0.00000000	242.00000000	77.00000000	189.37353909
 406	0.00000000	242.00000000	89.00000000	189.54085171
 407	0.00000000	242.00000000	102.00000000	189.75876242
 408	0.00000000	242.00000000	115.00000000	190.01167685
 409	0.00000000	242.00000000	128.00000000	190.30350119
 410	0.00000000	242.00000000	140.00000000	190.60699850
 411	0.00000000	242.00000000	153.00000000	190.97276688
 412	0.00000000	242.00000000	166.00000000	191.38132095
 413	0.00000000	242.00000000	179.00000000	191.82880014
 414	0.00000000	242.00000000	191.00000000	192.28015512
 415	0.00000000	242.00000000	204.00000000	192.80934513
 416	0.00000000	242.00000000	217.00000000	193.38521183
 417	0.00000000	242.00000000	230.00000000	194.00389463
 418	0.00000000	242.00000000	242.00000000	194.61088926
 419	0.00000000	242.00000000	255.00000000	195.31128287
 420	0.00000000	255.00000000	0.00000000	197.59921610
 421	0.00000000	255.00000000	13.00000000	197.63034403
 422	0.00000000	255.00000000	26.00000000	197.68481791
 423	0.00000000	255.00000000	38.00000000	197.76654392
 424	0.00000000	255.00000000	51.00000000	197.88327366
 425	0.00000000	255.00000000	64.00000000	198.03502232
 426	0.00000000	255.00000000	77.00000000	198.23346287
 427	0.00000000	255.00000000	89.00000000	198.45914036
 428	0.00000000	255.00000000	102.00000000	198.73541594
 429	0.00000000	255.00000000	115.00000000	199.06615019
 430	0.00000000	255.00000000	128.00000000	199.44357634
 431	0.00000000	255.00000000	140.00000000	199.84047264
 432	0.00000000	255.00000000	153.00000000	200.31906456
 433	0.00000000	255.00000000	166.00000000	200.84825456
 434	0.00000000	255.00000000	179.00000000	201.43190324
 435	0.00000000	255.00000000	191.00000000	202.01945812
 436	0.00000000	255.00000000	204.00000000	202.71206975
 437	0.00000000	255.00000000	217.00000000	203.46303105
 438	0.00000000	255.00000000	230.00000000	204.26848143
 439	0.00000000	255.00000000	242.00000000	205.06225884
 440	0.00000000	255.00000000	255.00000000	205.98054796
 441	13.00000000	0.00000000	0.00000000	0.93385214
 442	13.00000000	0.00000000	13.00000000	1.18677049
 443	13.00000000	0.00000000	26.00000000	1.58754864
 444	13.00000000	0.00000000	38.00000000	2.15953313
 445	13.00000000	0.00000000	51.00000000	3.02334624
