bench/lcms_compat/reference/sRGB_v4_ICC_preference.icc_to_srgb_Relative.it8
CGATS.17
ORIGINATOR	"icctrans"
#
# Data follows
#
NUMBER_OF_SETS	9261.00000000
NUMBER_OF_FIELDS	7.00000000
BEGIN_DATA_FORMAT
 SAMPLE_ID	IN_RGB_R	IN_RGB_G	IN_RGB_B	OUT_RGB_R	OUT_RGB_G	OUT_RGB_B
END_DATA_FORMAT
BEGIN_DATA
 0	0.00000000	0.00000000	0.00000000	29.32999916	29.29790039	29.31739904
 1	0.00000000	0.00000000	13.00000000	29.31065060	29.31236811	34.57402937
 2	0.00000000	0.00000000	26.00000000	29.27474253	29.33260392	41.53806388
 3	0.00000000	0.00000000	38.00000000	29.30481981	29.30806104	49.77994323
 4	0.00000000	0.00000000	51.00000000	29.28376134	29.31613751	60.01169600
 5	0.00000000	0.00000000	64.00000000	29.30300351	29.30567857	71.05839103
 6	0.00000000	0.00000000	77.00000000	29.34628509	29.29478455	82.65727624
 7	0.00000000	0.00000000	89.00000000	29.34725404	29.30077113	93.68252143
 8	0.00000000	0.00000000	102.00000000	29.34544344	29.28838950	105.84928617
 9	0.00000000	0.00000000	115.00000000	29.36147287	29.27999385	118.18616018
 10	0.00000000	0.00000000	128.00000000	29.31102678	29.31345105	130.64846545
 11	0.00000000	0.00000000	140.00000000	29.34396721	29.30344619	142.23208308
 12	0.00000000	0.00000000	153.00000000	29.32411518	29.31566063	154.84565824
 13	0.00000000	0.00000000	166.00000000	29.32316713	29.30957526	167.51189858
 14	0.00000000	0.00000000	179.00000000	29.35325202	29.28855669	180.21636486
 15	0.00000000	0.00000000	191.00000000	29.32394419	29.31486078	191.98307186
 16	0.00000000	0.00000000	204.00000000	29.33460262	29.31646049	204.74532545
 17	0.00000000	0.00000000	217.00000000	29.35727980	29.29768570	217.53075778
 18	0.00000000	0.00000000	230.00000000	29.40378170	29.29099236	230.33034056
 19	0.00000000	0.00000000	242.00000000	29.35410887	29.29952290	242.16614306
 20	0.00000000	0.00000000	255.00000000	29.43320923	29.26018741	255.00024319
 21	0.00000000	13.00000000	0.00000000	29.33432523	34.56109107	29.30926178
 22	0.00000000	13.00000000	13.00000000	29.32249077	34.57329221	34.56584841
 23	0.00000000	13.00000000	26.00000000	29.34374683	34.57410537	41.53607279
 24	0.00000000	13.00000000	38.00000000	29.31119587	34.56972040	49.77383696
 25	0.00000000	13.00000000	51.00000000	29.29365981	34.57698561	60.00642568
 26	0.00000000	13.00000000	64.00000000	29.29814167	34.57008518	71.06850609
 27	0.00000000	13.00000000	77.00000000	29.33471851	34.55880359	82.66710252
 28	0.00000000	13.00000000	89.00000000	29.35366809	34.56405871	93.67728531
 29	0.00000000	13.00000000	102.00000000	29.30934157	34.59351473	105.85618660
 30	0.00000000	13.00000000	115.00000000	29.32308733	34.58201654	118.18930641
 31	0.00000000	13.00000000	128.00000000	29.30761836	34.57879812	130.65073013
 32	0.00000000	13.00000000	140.00000000	29.36278570	34.56690855	142.22960562
 33	0.00000000	13.00000000	153.00000000	29.32351671	34.58039023	154.85102355
 34	0.00000000	13.00000000	166.00000000	29.33350638	34.57257405	167.51019627
 35	0.00000000	13.00000000	179.00000000	29.31183614	34.59129184	180.21586329
 36	0.00000000	13.00000000	191.00000000	29.33760826	34.57307182	191.97618663
 37	0.00000000	13.00000000	204.00000000	29.34074499	34.57542770	204.74187523
 38	0.00000000	13.00000000	217.00000000	29.39358685	34.55967754	217.52765715
 39	0.00000000	13.00000000	230.00000000	29.38368078	34.55440722	230.33137411
 40	0.00000000	13.00000000	242.00000000	29.36204664	34.56409670	242.16822535
 41	0.00000000	13.00000000	255.00000000	29.41878330	34.56647918	254.99375314
 42	0.00000000	26.00000000	0.00000000	29.26979709	41.56172521	29.31442570
 43	0.00000000	26.00000000	13.00000000	29.35880162	41.52719267	34.57416616
 44	0.00000000	26.00000000	26.00000000	29.31878027	41.53989919	41.54034376
 45	0.00000000	26.00000000	38.00000000	29.31165185	41.55403443	49.78273228
 46	0.00000000	26.00000000	51.00000000	29.34965741	41.52813502	59.99829791
 47	0.00000000	26.00000000	64.00000000	29.30757277	41.55384824	71.06074691
 48	0.00000000	26.00000000	77.00000000	29.27850813	41.55918315	82.65818819
 49	0.00000000	26.00000000	89.00000000	29.32007030	41.53294176	93.68220225
 50	0.00000000	26.00000000	102.00000000	29.28764474	41.55717686	105.84767506
 51	0.00000000	26.00000000	115.00000000	29.30291042	41.54883251	118.18511903
 52	0.00000000	26.00000000	128.00000000	29.34281208	41.53143324	130.65474272
 53	0.00000000	26.00000000	140.00000000	29.32325643	41.53737232	142.23104954
 54	0.00000000	26.00000000	153.00000000	29.38321151	41.52799062	154.84114408
 55	0.00000000	26.00000000	166.00000000	29.37380321	41.52609833	167.51198977
 56	0.00000000	26.00000000	179.00000000	29.34446689	41.54242605	180.22021025
 57	0.00000000	26.00000000	191.00000000	29.36814532	41.52698368	191.97557867
 58	0.00000000	26.00000000	204.00000000	29.37338144	41.52941935	204.74187523
 59	0.00000000	26.00000000	217.00000000	29.34571702	41.53351933	217.53103137
 60	0.00000000	26.00000000	230.00000000	29.34524775	41.55238152	230.33012778
 61	0.00000000	26.00000000	242.00000000	29.41516399	41.51623026	242.15918183
 62	0.00000000	26.00000000	255.00000000	29.35220517	41.53443508	254.99661058
 63	0.00000000	38.00000000	0.00000000	29.34494946	49.77454372	29.29633677
 64	0.00000000	38.00000000	13.00000000	29.31454159	49.78053600	34.57575068
 65	0.00000000	38.00000000	26.00000000	29.27160390	49.79469024	41.54241465
 66	0.00000000	38.00000000	38.00000000	29.30578876	49.77972664	49.78464358
 67	0.00000000	38.00000000	51.00000000	29.29905552	49.78193052	59.99835491
 68	0.00000000	38.00000000	64.00000000	29.30152349	49.77902368	71.05994135
 69	0.00000000	38.00000000	77.00000000	29.33751136	49.77304660	82.66491383
 70	0.00000000	38.00000000	89.00000000	29.27410036	49.78808619	93.68448973
 71	0.00000000	38.00000000	102.00000000	29.35375739	49.76840705	105.84829062
 72	0.00000000	38.00000000	115.00000000	29.36288830	49.76290874	118.19163948
 73	0.00000000	38.00000000	128.00000000	29.30273183	49.78299066	130.65182447
 74	0.00000000	38.00000000	140.00000000	29.34695955	49.77887169	142.23048717
 75	0.00000000	38.00000000	153.00000000	29.34348274	49.78319965	154.84249681
 76	0.00000000	38.00000000	166.00000000	29.33975134	49.77902368	167.51203537
 77	0.00000000	38.00000000	179.00000000	29.36262801	49.76812206	180.21907032
 78	0.00000000	38.00000000	191.00000000	29.30505350	49.78435859	191.98291987
 79	0.00000000	38.00000000	204.00000000	29.33961075	49.78068039	204.74151045
 80	0.00000000	38.00000000	217.00000000	29.37807798	49.77119610	217.52502769
 81	0.00000000	38.00000000	230.00000000	29.41385306	49.76650715	230.33012778
 82	0.00000000	38.00000000	242.00000000	29.36539616	49.77511369	242.16931969
 83	0.00000000	38.00000000	255.00000000	29.35774148	49.76456545	254.99650419
 84	0.00000000	51.00000000	0.00000000	29.32554200	60.00054359	29.31651749
 85	0.00000000	51.00000000	13.00000000	29.31061640	60.00826858	34.57431436
 86	0.00000000	51.00000000	26.00000000	29.32814486	60.00840157	41.54241845
 87	0.00000000	51.00000000	38.00000000	29.29817017	60.00467397	49.78179753
 88	0.00000000	51.00000000	51.00000000	29.34761692	59.99735557	60.01355790
 89	0.00000000	51.00000000	64.00000000	29.36255582	59.99346077	71.05815545
 90	0.00000000	51.00000000	77.00000000	29.31684427	59.99830931	82.66980037
 91	0.00000000	51.00000000	89.00000000	29.34705645	60.00033081	93.67862284
 92	0.00000000	51.00000000	102.00000000	29.32251357	59.99741256	105.85807890
 93	0.00000000	51.00000000	115.00000000	29.31142766	60.00958711	118.18629697
 94	0.00000000	51.00000000	128.00000000	29.30028666	60.00840537	130.64861745
 95	0.00000000	51.00000000	140.00000000	29.34530664	60.00378862	142.22720414
 96	0.00000000	51.00000000	153.00000000	29.30166598	60.00933632	154.84752774
 97	0.00000000	51.00000000	166.00000000	29.32462245	60.00695005	167.51244575
 98	0.00000000	51.00000000	179.00000000	29.30987734	60.01602016	180.21393299
 99	0.00000000	51.00000000	191.00000000	29.37484436	59.99991283	191.98111117
 100	0.00000000	51.00000000	204.00000000	29.33689769	60.00930592	204.74225521
 101	0.00000000	51.00000000	217.00000000	29.39021073	59.99915667	217.52502769
 102	0.00000000	51.00000000	230.00000000	29.38067324	59.99564566	230.33318281
 103	0.00000000	51.00000000	242.00000000	29.42192953	59.98858184	242.16532230
 104	0.00000000	51.00000000	255.00000000	29.39406943	60.00517935	254.99316037
 105	0.00000000	64.00000000	0.00000000	29.26278647	71.07647046	29.31133837
 106	0.00000000	64.00000000	13.00000000	29.35102154	71.05575398	34.57230046
 107	0.00000000	64.00000000	26.00000000	29.31076650	71.06311798	41.54127091
 108	0.00000000	64.00000000	38.00000000	29.30912878	71.06963083	49.77813452
 109	0.00000000	64.00000000	51.00000000	29.29080807	71.07244268	60.01312852
 110	0.00000000	64.00000000	64.00000000	29.30643663	71.07009441	71.05576918
 111	0.00000000	64.00000000	77.00000000	29.33983874	71.06473669	82.66780928
 112	0.00000000	64.00000000	89.00000000	29.27952457	71.07448697	93.67891163
 113	0.00000000	64.00000000	102.00000000	29.33783434	71.06363475	105.85669577
 114	0.00000000	64.00000000	115.00000000	29.33826562	71.05934098	118.19485411
 115	0.00000000	64.00000000	128.00000000	29.34599441	71.05619475	130.64650476
 116	0.00000000	64.00000000	140.00000000	29.32911001	71.05852023	142.22782731
 117	0.00000000	64.00000000	153.00000000	29.36706807	71.05681792	154.85169232
 118	0.00000000	64.00000000	166.00000000	29.37014211	71.05279014	167.50856996
 119	0.00000000	64.00000000	179.00000000	29.36193265	71.06280640	180.21419138
 120	0.00000000	64.00000000	191.00000000	29.35888331	71.05498642	191.98232710
 121	0.00000000	64.00000000	204.00000000	29.37713753	71.05799586	204.74388152
 122	0.00000000	64.00000000	217.00000000	29.42249380	71.05020627	217.53107697
 123	0.00000000	64.00000000	230.00000000	29.41637993	71.06102049	230.33034056
 124	0.00000000	64.00000000	242.00000000	29.38044146	71.06653020	242.16711581
 125	0.00000000	64.00000000	255.00000000	29.37117185	71.06055692	254.99211162
 126	0.00000000	77.00000000	0.00000000	29.29591499	82.66536221	29.30870131
 127	0.00000000	77.00000000	13.00000000	29.35494293	82.66135722	34.57057156
 128	0.00000000	77.00000000	26.00000000	29.30500790	82.66665414	41.53005011
 129	0.00000000	77.00000000	38.00000000	29.33895148	82.65856817	49.77366216
 130	0.00000000	77.00000000	51.00000000	29.32271115	82.66063526	60.01082964
 131	0.00000000	77.00000000	64.00000000	29.32713412	82.66018689	71.06766254
 132	0.00000000	77.00000000	77.00000000	29.29575160	82.66239077	82.66291514
 133	0.00000000	77.00000000	89.00000000	29.32080556	82.66555980	93.67735371
 134	0.00000000	77.00000000	102.00000000	29.30633403	82.66236797	105.85185483
 135	0.00000000	77.00000000	115.00000000	29.35321402	82.66435906	118.19192067
 136	0.00000000	77.00000000	128.00000000	29.34886895	82.66304433	130.65021336
 137	0.00000000	77.00000000	140.00000000	29.31676827	82.66602337	142.23221987
 138	0.00000000	77.00000000	153.00000000	29.35629185	82.66232997	154.84711736
 139	0.00000000	77.00000000	166.00000000	29.35034327	82.65976891	167.50829637
 140	0.00000000	77.00000000	179.00000000	29.38183788	82.65196413	180.21621287
 141	0.00000000	77.00000000	191.00000000	29.35306203	82.66136482	191.97732657
 142	0.00000000	77.00000000	204.00000000	29.35885862	82.66359150	204.74658698
 143	0.00000000	77.00000000	217.00000000	29.34597161	82.66185880	217.52169907
 144	0.00000000	77.00000000	230.00000000	29.33273882	82.66205639	230.33566028
 145	0.00000000	77.00000000	242.00000000	29.39618591	82.65706345	242.16965407
 146	0.00000000	77.00000000	255.00000000	29.36080221	82.66376629	254.99460429
 147	0.00000000	89.00000000	0.00000000	29.27395407	93.68918628	29.29753941
 148	0.00000000	89.00000000	13.00000000	29.32172321	93.68516609	34.57943268
 149	0.00000000	89.00000000	26.00000000	29.32006270	93.68044674	41.54840313
 150	0.00000000	89.00000000	38.00000000	29.31845728	93.68366137	49.76604737
 151	0.00000000	89.00000000	51.00000000	29.31714635	93.68800074	60.00318065
 152	0.00000000	89.00000000	64.00000000	29.30480652	93.68626803	71.06472149
 153	0.00000000	89.00000000	77.00000000	29.27836943	93.68759796	82.66077206
 154	0.00000000	89.00000000	89.00000000	29.27906290	93.69044021	93.68520409
 155	0.00000000	89.00000000	102.00000000	29.36038803	93.68099391	105.84930897
 156	0.00000000	89.00000000	115.00000000	29.36888248	93.67812887	118.19141909
 157	0.00000000	89.00000000	128.00000000	29.34498176	93.67539302	130.65179408
 158	0.00000000	89.00000000	140.00000000	29.31128517	93.67781729	142.23358780
 159	0.00000000	89.00000000	153.00000000	29.36320368	93.67435947	154.84643340
 160	0.00000000	89.00000000	166.00000000	29.33138799	93.68582726	167.51522720
 161	0.00000000	89.00000000	179.00000000	29.36225943	93.67808327	180.21698803
 162	0.00000000	89.00000000	191.00000000	29.37266707	93.67365271	191.98032081
 163	0.00000000	89.00000000	204.00000000	29.38136101	93.67557541	204.74295437
 164	0.00000000	89.00000000	217.00000000	29.31733634	93.68701279	217.52648681
 165	0.00000000	89.00000000	230.00000000	29.34182983	93.68500650	230.33465713
 166	0.00000000	89.00000000	242.00000000	29.36086871	93.68341818	242.16477513
 167	0.00000000	89.00000000	255.00000000	29.35359210	93.67598578	254.99621540
 168	0.00000000	102.00000000	0.00000000	29.29143693	105.85681736	29.29158892
 169	0.00000000	102.00000000	13.00000000	29.29910872	105.85129246	34.57981266
 170	0.00000000	102.00000000	26.00000000	29.31642439	105.85191563	41.54821314
 171	0.00000000	102.00000000	38.00000000	29.33366977	105.85696176	49.76580799
 172	0.00000000	102.00000000	51.00000000	29.32523422	105.85840568	59.99943025
 173	0.00000000	102.00000000	64.00000000	29.31434210	105.85627779	71.06425032
 174	0.00000000	102.00000000	77.00000000	29.28581133	105.85722014	82.66234517
 175	0.00000000	102.00000000	89.00000000	29.33485530	105.84944576	93.68445173
 176	0.00000000	102.00000000	102.00000000	29.28435031	105.85670337	105.85054010
 177	0.00000000	102.00000000	115.00000000	29.30989824	105.85303277	118.18720892
 178	0.00000000	102.00000000	128.00000000	29.34972011	105.85016012	130.65530509
 179	0.00000000	102.00000000	140.00000000	29.34723314	105.85162684	142.23329902
 180	0.00000000	102.00000000	153.00000000	29.31016423	105.85285798	154.84050572
 181	0.00000000	102.00000000	166.00000000	29.37443018	105.84763706	167.51343369
 182	0.00000000	102.00000000	179.00000000	29.35547490	105.85174084	180.21983027
 183	0.00000000	102.00000000	191.00000000	29.37347263	105.84797904	191.98182553
 184	0.00000000	102.00000000	204.00000000	29.37410150	105.84651992	204.74067450
 185	0.00000000	102.00000000	217.00000000	29.37263478	105.84690750	217.52758116
 186	0.00000000	102.00000000	230.00000000	29.32904162	105.85584462	230.32880545
 187	0.00000000	102.00000000	242.00000000	29.37512934	105.85275918	242.16165930
 188	0.00000000	102.00000000	255.00000000	29.36022084	105.85009173	254.99607861
 189	0.00000000	115.00000000	0.00000000	29.28190324	118.19248304	29.31055941
 190	0.00000000	115.00000000	13.00000000	29.32982057	118.19275662	34.57435995
 191	0.00000000	115.00000000	26.00000000	29.29845326	118.19673881	41.54182568
 192	0.00000000	115.00000000	38.00000000	29.33136519	118.18930641	49.78236750
 193	0.00000000	115.00000000	51.00000000	29.32106014	118.19048434	59.99697559
 194	0.00000000	115.00000000	64.00000000	29.32659075	118.19046915	71.05636954
 195	0.00000000	115.00000000	77.00000000	29.36474640	118.18559021	82.65555874
 196	0.00000000	115.00000000	89.00000000	29.29182451	118.19405615	93.67960319
 197	0.00000000	115.00000000	102.00000000	29.34377532	118.18677574	105.85750893
 198	0.00000000	115.00000000	115.00000000	29.37124215	118.18562061	118.18957999
 199	0.00000000	115.00000000	128.00000000	29.31760233	118.19139630	130.64624637
 200	0.00000000	115.00000000	140.00000000	29.30524349	118.19503650	142.23405898
 201	0.00000000	115.00000000	153.00000000	29.32904731	118.19407135	154.85096276
 202	0.00000000	115.00000000	166.00000000	29.34793420	118.19197387	167.51393527
 203	0.00000000	115.00000000	179.00000000	29.35635645	118.18587899	180.21525532
 204	0.00000000	115.00000000	191.00000000	29.34589941	118.19101632	191.97957605
 205	0.00000000	115.00000000	204.00000000	29.36554056	118.19308341	204.74260479
 206	0.00000000	115.00000000	217.00000000	29.39063631	118.18926841	217.53086418
 207	0.00000000	115.00000000	230.00000000	29.33817632	118.19160149	230.32955021
 208	0.00000000	115.00000000	242.00000000	29.38326091	118.18921521	242.16510952
 209	0.00000000	115.00000000	255.00000000	29.38329320	118.18518743	254.99788731
 210	0.00000000	128.00000000	0.00000000	29.33980644	130.65080613	29.32011209
 211	0.00000000	128.00000000	13.00000000	29.31618880	130.65165728	34.56770651
 212	0.00000000	128.00000000	26.00000000	29.27326251	130.65512270	41.53615259
 213	0.00000000	128.00000000	38.00000000	29.31162905	130.65120131	49.77680460
 214	0.00000000	128.00000000	51.00000000	29.29678515	130.65349638	59.99790654
 215	0.00000000	128.00000000	64.00000000	29.32243187	130.64993978	71.05355009
 216	0.00000000	128.00000000	77.00000000	29.32851344	130.64972699	82.66891882
 217	0.00000000	128.00000000	89.00000000	29.28462770	130.65401316	93.68191347
 218	0.00000000	128.00000000	102.00000000	29.33714088	130.64861745	105.85261479
 219	0.00000000	128.00000000	115.00000000	29.31258280	130.65722018	118.19348618
 220	0.00000000	128.00000000	128.00000000	29.31488547	130.65375477	130.65022856
 221	0.00000000	128.00000000	140.00000000	29.35708031	130.65161169	142.22880006
 222	0.00000000	128.00000000	153.00000000	29.31705896	130.65263003	154.84577984
 223	0.00000000	128.00000000	166.00000000	29.35291763	130.65112531	167.50904113
 224	0.00000000	128.00000000	179.00000000	29.36132848	130.64823747	180.21540731
 225	0.00000000	128.00000000	191.00000000	29.31509826	130.65317720	191.98237270
 226	0.00000000	128.00000000	204.00000000	29.34107937	130.65367877	204.74689096
 227	0.00000000	128.00000000	217.00000000	29.39551335	130.65208286	217.52730757
 228	0.00000000	128.00000000	230.00000000	29.40640926	130.64823747	230.33415556
 229	0.00000000	128.00000000	242.00000000	29.39823020	130.65106452	242.16547430
 230	0.00000000	128.00000000	255.00000000	29.36858419	130.64808547	254.99644339
 231	0.00000000	140.00000000	0.00000000	29.35313612	142.22890645	29.30292562
 232	0.00000000	140.00000000	13.00000000	29.31898355	142.23530531	34.59088907
 233	0.00000000	140.00000000	26.00000000	29.26608469	142.23741800	41.54902250
 234	0.00000000	140.00000000	38.00000000	29.32962298	142.23348141	49.76860084
 235	0.00000000	140.00000000	51.00000000	29.30640243	142.23453015	60.00799119
 236	0.00000000	140.00000000	64.00000000	29.30103902	142.23328382	71.06547385
 237	0.00000000	140.00000000	77.00000000	29.33188006	142.23106474	82.66718611
 238	0.00000000	140.00000000	89.00000000	29.37286086	142.23092794	93.67929921
 239	0.00000000	140.00000000	102.00000000	29.35771678	142.22799450	105.85193083
 240	0.00000000	140.00000000	115.00000000	29.32052627	142.23468214	118.18544582
 241	0.00000000	140.00000000	128.00000000	29.32975408	142.23486453	130.64778149
 242	0.00000000	140.00000000	140.00000000	29.35544450	142.23073035	142.22948402
 243	0.00000000	140.00000000	153.00000000	29.32051867	142.23425657	154.84877408
 244	0.00000000	140.00000000	166.00000000	29.35098924	142.23310143	167.51081944
 245	0.00000000	140.00000000	179.00000000	29.35968887	142.23021358	180.22101581
 246	0.00000000	140.00000000	191.00000000	29.32418738	142.23279744	191.97532028
 247	0.00000000	140.00000000	204.00000000	29.31662578	142.23308623	204.74417031
 248	0.00000000	140.00000000	217.00000000	29.38810755	142.23199189	217.52639562
 249	0.00000000	140.00000000	230.00000000	29.40451317	142.22682416	230.33011258
 250	0.00000000	140.00000000	242.00000000	29.37697984	142.22922564	242.16190249
 251	0.00000000	140.00000000	255.00000000	29.41556487	142.23171830	254.99539465
 252	0.00000000	153.00000000	0.00000000	29.29011650	154.85032439	29.30468112
 253	0.00000000	153.00000000	13.00000000	29.30415105	154.84597743	34.56621319
 254	0.00000000	153.00000000	26.00000000	29.34709825	154.84436631	41.53049469
 255	0.00000000	153.00000000	38.00000000	29.27638974	154.85382020	49.77310739
 256	0.00000000	153.00000000	51.00000000	29.36078701	154.84512627	60.01049906
 257	0.00000000	153.00000000	64.00000000	29.33180977	154.85056758	71.05491042
 258	0.00000000	153.00000000	77.00000000	29.30082623	154.84868288	82.66222358
 259	0.00000000	153.00000000	89.00000000	29.33741827	154.84702617	93.68386656
 260	0.00000000	153.00000000	102.00000000	29.29753181	154.85026360	105.85136846
 261	0.00000000	153.00000000	115.00000000	29.30138480	154.84761894	118.18804488
 262	0.00000000	153.00000000	128.00000000	29.37170763	154.84459430	130.64898223
 263	0.00000000	153.00000000	140.00000000	29.33612633	154.84550625	142.22805530
 264	0.00000000	153.00000000	153.00000000	29.34415530	154.84897166	154.84612942
 265	0.00000000	153.00000000	166.00000000	29.31931794	154.84824210	167.51346409
 266	0.00000000	153.00000000	179.00000000	29.30140760	154.85044599	180.22151738
 267	0.00000000	153.00000000	191.00000000	29.37572781	154.84372795	191.97677940
 268	0.00000000	153.00000000	204.00000000	29.33888309	154.84736055	204.74629819
 269	0.00000000	153.00000000	217.00000000	29.39664379	154.84343916	217.52282381
 270	0.00000000	153.00000000	230.00000000	29.41376187	154.84114408	230.32982379
 271	0.00000000	153.00000000	242.00000000	29.41480301	154.84109849	242.16892451
 272	0.00000000	153.00000000	255.00000000	29.39670458	154.84346956	254.99054611
 273	0.00000000	166.00000000	0.00000000	29.33666021	167.51062185	29.29986108
 274	0.00000000	166.00000000	13.00000000	29.32727661	167.51484722	34.58231673
 275	0.00000000	166.00000000	26.00000000	29.27051146	167.51612395	41.54527210
 276	0.00000000	166.00000000	38.00000000	29.33786094	167.50993788	49.76645395
 277	0.00000000	166.00000000	51.00000000	29.31180194	167.51455843	60.00071459
 278	0.00000000	166.00000000	64.00000000	29.29711003	167.51233935	71.06446311
 279	0.00000000	166.00000000	77.00000000	29.36642401	167.50899553	82.65885696
 280	0.00000000	166.00000000	89.00000000	29.33800723	167.51262814	93.68814513
 281	0.00000000	166.00000000	102.00000000	29.32592388	167.51679271	105.85104167
 282	0.00000000	166.00000000	115.00000000	29.31856558	167.51677752	118.19172308
 283	0.00000000	166.00000000	128.00000000	29.30769626	167.51556158	130.65218925
 284	0.00000000	166.00000000	140.00000000	29.34042580	167.51335770	142.23626286
 285	0.00000000	166.00000000	153.00000000	29.33428343	167.51572877	154.84675258
 286	0.00000000	166.00000000	166.00000000	29.31897026	167.51235455	167.50986189
 287	0.00000000	166.00000000	179.00000000	29.31404002	167.51577437	180.21879673
 288	0.00000000	166.00000000	191.00000000	29.31750733	167.51194417	191.97978884
 289	0.00000000	166.00000000	204.00000000	29.32521522	167.51302332	204.74420071
 290	0.00000000	166.00000000	217.00000000	29.38866612	167.50970989	217.53089458
 291	0.00000000	166.00000000	230.00000000	29.37900703	167.50846356	230.33330441
 292	0.00000000	166.00000000	242.00000000	29.38425835	167.51214176	242.16761738
 293	0.00000000	166.00000000	255.00000000	29.38451674	167.51405686	254.99844968
 294	0.00000000	179.00000000	0.00000000	29.32725951	180.22255093	29.28299189
 295	0.00000000	179.00000000	13.00000000	29.30597305	180.22460282	34.56871346
 296	0.00000000	179.00000000	26.00000000	29.37279627	180.21736801	41.54092513
 297	0.00000000	179.00000000	38.00000000	29.31152456	180.22166938	49.77833971
 298	0.00000000	179.00000000	51.00000000	29.28419642	180.22122860	59.99996983
 299	0.00000000	179.00000000	64.00000000	29.30207256	180.21970868	71.05787426
 300	0.00000000	179.00000000	77.00000000	29.33797874	180.21786958	82.66047567
 301	0.00000000	179.00000000	89.00000000	29.32342552	180.22084862	93.68263543
 302	0.00000000	179.00000000	102.00000000	29.34584241	180.22049904	105.84753066
 303	0.00000000	179.00000000	115.00000000	29.33595724	180.21644086	118.18813607
 304	0.00000000	179.00000000	128.00000000	29.28721156	180.22546917	130.65414995
 305	0.00000000	179.00000000	140.00000000	29.36806932	180.21905512	142.22997040
