bench/lcms_compat/reference/sRGB_v4_ICC_preference.icc_to_srgb_Perceptual.it8
CGATS.17
ORIGINATOR	"icctrans"
#
# Data follows
#
NUMBER_OF_SETS	9261.00000000
NUMBER_OF_FIELDS	7.00000000
BEGIN_DATA_FORMAT
 SAMPLE_ID	IN_RGB_R	IN_RGB_G	IN_RGB_B	OUT_RGB_R	OUT_RGB_G	OUT_RGB_B
END_DATA_FORMAT
BEGIN_DATA
 0	0.00000000	0.00000000	0.00000000	-0.20312153	-0.05908245	-0.12099664
 1	0.00000000	0.00000000	13.00000000	1.63674020	-2.54611513	16.55839048
 2	0.00000000	0.00000000	26.00000000	3.03607651	-4.14315518	28.15586977
 3	0.00000000	0.00000000	38.00000000	2.49456686	-4.97035939	38.42424497
 4	0.00000000	0.00000000	51.00000000	-0.13001283	-4.81782085	49.69928496
 5	0.00000000	0.00000000	64.00000000	-4.67073787	-2.76327965	61.35985605
 6	0.00000000	0.00000000	77.00000000	-10.69519965	-2.22837309	71.78415209
 7	0.00000000	0.00000000	89.00000000	-17.62010101	-1.69354312	81.87324911
 8	0.00000000	0.00000000	102.00000000	-24.86652117	-1.03766863	92.84030423
 9	0.00000000	0.00000000	115.00000000	-31.33379124	-0.63370494	103.75246748
 10	0.00000000	0.00000000	128.00000000	-40.06080575	-0.34438665	114.71883103
 11	0.00000000	0.00000000	140.00000000	-46.30297780	-0.41790891	122.29853511
 12	0.00000000	0.00000000	153.00000000	-53.06679346	-0.43674735	129.72996354
 13	0.00000000	0.00000000	166.00000000	-60.32125778	-0.19518117	136.86429352
 14	0.00000000	0.00000000	179.00000000	-68.62269133	0.40290921	144.06536311
 15	0.00000000	0.00000000	191.00000000	-77.51876637	1.25679040	150.88657469
 16	0.00000000	0.00000000	204.00000000	-89.39646542	2.06742584	158.20302129
 17	0.00000000	0.00000000	217.00000000	-107.13531196	2.90150697	166.32508546
 18	0.00000000	0.00000000	230.00000000	-125.74958593	4.45692524	175.03154308
 19	0.00000000	0.00000000	242.00000000	-145.98737597	6.92394429	183.92227560
 20	0.00000000	0.00000000	255.00000000	-183.12054902	10.98675800	195.56816429
 21	0.00000000	13.00000000	0.00000000	-11.89260185	7.08634045	-10.30792253
 22	0.00000000	13.00000000	13.00000000	-8.13132998	11.20004341	14.46426490
 23	0.00000000	13.00000000	26.00000000	-5.19759575	10.47978636	27.79485304
 24	0.00000000	13.00000000	38.00000000	-4.81007259	10.20532804	38.79193224
 25	0.00000000	13.00000000	51.00000000	-7.44093505	10.43801140	50.50639965
 26	0.00000000	13.00000000	64.00000000	-13.07804799	11.51139015	62.47421846
 27	0.00000000	13.00000000	77.00000000	-18.20625376	11.84577411	74.29157674
 28	0.00000000	13.00000000	89.00000000	-25.32808810	11.94563940	84.93669793
 29	0.00000000	13.00000000	102.00000000	-33.87332797	12.14319745	96.09925255
 30	0.00000000	13.00000000	115.00000000	-42.32878625	12.66253838	106.90224767
 31	0.00000000	13.00000000	128.00000000	-52.26660579	13.39201279	117.76462600
 32	0.00000000	13.00000000	140.00000000	-59.84280646	14.16112097	127.00599611
 33	0.00000000	13.00000000	153.00000000	-65.35890967	14.77180900	134.98527914
 34	0.00000000	13.00000000	166.00000000	-71.54274344	15.31927697	142.22762972
 35	0.00000000	13.00000000	179.00000000	-79.08546790	15.98293226	149.19865966
 36	0.00000000	13.00000000	191.00000000	-87.55277395	16.76400315	155.61654568
 37	0.00000000	13.00000000	204.00000000	-97.00064778	17.81757452	162.53370970
 38	0.00000000	13.00000000	217.00000000	-111.19179949	19.21674684	170.39747894
 39	0.00000000	13.00000000	230.00000000	-128.05331111	20.69502331	178.53574544
 40	0.00000000	13.00000000	242.00000000	-143.55574965	22.31411833	186.06723011
 41	0.00000000	13.00000000	255.00000000	-165.07439017	24.23831798	194.49736655
 42	0.00000000	26.00000000	0.00000000	-14.76953387	19.66957614	-10.92800556
 43	0.00000000	26.00000000	13.00000000	-13.85818603	20.53586505	10.54955442
 44	0.00000000	26.00000000	26.00000000	-12.43365766	21.16605934	26.37325432
 45	0.00000000	26.00000000	38.00000000	-12.37100378	21.19773444	38.27081300
 46	0.00000000	26.00000000	51.00000000	-15.38153568	21.49350297	50.59054613
 47	0.00000000	26.00000000	64.00000000	-21.21519830	22.01793183	63.05983923
 48	0.00000000	26.00000000	77.00000000	-27.97930274	22.38701932	75.32465011
 49	0.00000000	26.00000000	89.00000000	-35.00246018	22.60775518	86.47449061
 50	0.00000000	26.00000000	102.00000000	-44.63240504	23.09867363	98.29640105
 51	0.00000000	26.00000000	115.00000000	-54.53824170	23.62197585	109.26844150
 52	0.00000000	26.00000000	128.00000000	-65.48346698	24.31224111	119.92876947
 53	0.00000000	26.00000000	140.00000000	-75.50615117	25.01446813	129.55695122
 54	0.00000000	26.00000000	153.00000000	-82.83026576	25.84636319	138.37910503
 55	0.00000000	26.00000000	166.00000000	-88.06241781	26.60762765	146.15926355
 56	0.00000000	26.00000000	179.00000000	-95.54796293	27.26048581	153.39030594
 57	0.00000000	26.00000000	191.00000000	-104.90983218	27.90725861	159.85945880
 58	0.00000000	26.00000000	204.00000000	-107.97762796	28.63805819	167.17160404
 59	0.00000000	26.00000000	217.00000000	-118.88950244	29.76544440	174.36603159
 60	0.00000000	26.00000000	230.00000000	-133.08539629	31.18906271	182.04662025
 61	0.00000000	26.00000000	242.00000000	-147.11205482	32.58779995	189.14159954
 62	0.00000000	26.00000000	255.00000000	-162.92017937	34.09394413	196.52306825
 63	0.00000000	38.00000000	0.00000000	-16.43493131	28.44919313	-10.42392651
 64	0.00000000	38.00000000	13.00000000	-17.63143010	28.53482913	9.22723582
 65	0.00000000	38.00000000	26.00000000	-18.67136020	28.60936023	24.53137536
 66	0.00000000	38.00000000	38.00000000	-20.45250513	28.85359403	37.03328401
 67	0.00000000	38.00000000	51.00000000	-24.92780808	29.36500099	49.78337444
 68	0.00000000	38.00000000	64.00000000	-31.26242727	29.94638119	62.63737790
 69	0.00000000	38.00000000	77.00000000	-39.07206461	30.59406783	75.43221474
 70	0.00000000	38.00000000	89.00000000	-46.37272686	31.05810463	87.16913134
 71	0.00000000	38.00000000	102.00000000	-57.24426270	31.37085255	99.40631390
 72	0.00000000	38.00000000	115.00000000	-68.18810105	32.08066396	110.94719902
 73	0.00000000	38.00000000	128.00000000	-79.74132031	32.76731372	121.53726116
 74	0.00000000	38.00000000	140.00000000	-90.75787157	33.41548294	131.11267895
 75	0.00000000	38.00000000	153.00000000	-100.51957816	34.17509638	140.53451657
 76	0.00000000	38.00000000	166.00000000	-108.19908008	34.99945454	148.88791233
 77	0.00000000	38.00000000	179.00000000	-116.14953026	35.74165732	156.54892445
 78	0.00000000	38.00000000	191.00000000	-127.32440382	36.36022232	163.23983341
 79	0.00000000	38.00000000	204.00000000	-128.28943044	37.14307532	170.86319715
 80	0.00000000	38.00000000	217.00000000	-131.03824854	38.00137706	178.36787045
 81	0.00000000	38.00000000	230.00000000	-141.06513530	39.16611336	185.68115562
 82	0.00000000	38.00000000	242.00000000	-153.79781127	40.50247125	192.42000282
 83	0.00000000	38.00000000	255.00000000	-168.65869224	41.97881363	199.65732247
 84	0.00000000	51.00000000	0.00000000	-23.32770444	37.70764522	-11.74069930
 85	0.00000000	51.00000000	13.00000000	-25.82215849	37.52503842	6.90770824
 86	0.00000000	51.00000000	26.00000000	-29.28794872	36.86331153	22.44122341
 87	0.00000000	51.00000000	38.00000000	-32.24266827	36.84896730	34.70805198
 88	0.00000000	51.00000000	51.00000000	-37.47856312	37.06234865	48.17642167
 89	0.00000000	51.00000000	64.00000000	-45.26849851	37.69412555	61.11015625
 90	0.00000000	51.00000000	77.00000000	-53.61633137	38.75425346	74.57725301
 91	0.00000000	51.00000000	89.00000000	-62.16621839	39.49667662	86.80354536
 92	0.00000000	51.00000000	102.00000000	-72.28988975	40.10941274	99.81752783
 93	0.00000000	51.00000000	115.00000000	-86.10546961	40.52123465	112.15973675
 94	0.00000000	51.00000000	128.00000000	-98.25933784	41.29707702	123.11562806
 95	0.00000000	51.00000000	140.00000000	-109.94466841	41.91420190	132.60463089
 96	0.00000000	51.00000000	153.00000000	-123.23679596	42.54275657	142.39924371
 97	0.00000000	51.00000000	166.00000000	-133.62481534	43.21959905	151.18578583
 98	0.00000000	51.00000000	179.00000000	-143.13144922	44.00046855	159.44509864
 99	0.00000000	51.00000000	191.00000000	-157.14120626	44.55426604	166.39635444
 100	0.00000000	51.00000000	204.00000000	-156.10475868	45.51529147	174.33425009
 101	0.00000000	51.00000000	217.00000000	-156.25612736	46.36461429	182.07627386
 102	0.00000000	51.00000000	230.00000000	-159.22531843	47.32147135	189.56184179
 103	0.00000000	51.00000000	242.00000000	-167.02713579	48.38193364	196.31544739
 104	0.00000000	51.00000000	255.00000000	-182.19397634	49.85293351	203.39823693
 105	0.00000000	64.00000000	0.00000000	-35.96450396	47.92717785	-13.32483239
 106	0.00000000	64.00000000	13.00000000	-39.32092465	47.99832143	4.43228547
 107	0.00000000	64.00000000	26.00000000	-44.52224515	46.35543019	20.36008649
 108	0.00000000	64.00000000	38.00000000	-48.79440531	45.35270579	32.40199752
 109	0.00000000	64.00000000	51.00000000	-53.36814769	45.30911073	45.44355512
 110	0.00000000	64.00000000	64.00000000	-62.36496672	45.19283317	58.85473408
 111	0.00000000	64.00000000	77.00000000	-70.38956612	46.70595758	73.01095426
 112	0.00000000	64.00000000	89.00000000	-80.61680853	47.59941503	85.57093710
 113	0.00000000	64.00000000	102.00000000	-92.79824048	48.37012388	98.96841019
 114	0.00000000	64.00000000	115.00000000	-105.20028099	49.01830070	112.08848298
 115	0.00000000	64.00000000	128.00000000	-119.68264148	49.57105704	124.48940635
 116	0.00000000	64.00000000	140.00000000	-132.62487620	50.28926790	134.25640225
 117	0.00000000	64.00000000	153.00000000	-151.35481596	50.75871751	144.58286494
 118	0.00000000	64.00000000	166.00000000	-168.09208184	51.15537062	153.75554234
 119	0.00000000	64.00000000	179.00000000	-180.12033641	51.61646828	161.81294918
 120	0.00000000	64.00000000	191.00000000	-190.01889646	52.23120689	169.24607992
 121	0.00000000	64.00000000	204.00000000	-184.15415436	53.53885353	177.50904053
 122	0.00000000	64.00000000	217.00000000	-184.78624284	54.48980950	185.38416356
 123	0.00000000	64.00000000	230.00000000	-189.77859735	55.38163304	192.87755907
 124	0.00000000	64.00000000	242.00000000	-196.76069230	56.28983371	199.59134281
 125	0.00000000	64.00000000	255.00000000	-207.03553855	57.39070304	206.85057968
 126	0.00000000	77.00000000	0.00000000	-54.83560234	59.19098943	-18.04410316
 127	0.00000000	77.00000000	13.00000000	-58.03794891	58.21792625	-1.40937240
 128	0.00000000	77.00000000	26.00000000	-61.47069991	57.34044693	16.07467834
 129	0.00000000	77.00000000	38.00000000	-65.89643642	55.67501530	28.96774370
 130	0.00000000	77.00000000	51.00000000	-71.36622772	54.35512953	41.92258805
 131	0.00000000	77.00000000	64.00000000	-80.47690004	53.56362060	55.34005567
 132	0.00000000	77.00000000	77.00000000	-91.66580245	54.25318860	70.01249716
 133	0.00000000	77.00000000	89.00000000	-102.56487161	55.51316299	83.38703468
 134	0.00000000	77.00000000	102.00000000	-115.66950202	56.69238411	97.44841576
 135	0.00000000	77.00000000	115.00000000	-129.53813463	57.61142179	111.11028627
 136	0.00000000	77.00000000	128.00000000	-146.60193980	58.09844166	124.10056561
 137	0.00000000	77.00000000	140.00000000	-158.94306958	58.67643625	134.75490510
 138	0.00000000	77.00000000	153.00000000	-175.47999501	59.02077757	145.01561612
 139	0.00000000	77.00000000	166.00000000	-188.82694602	59.69117939	155.16049415
 140	0.00000000	77.00000000	179.00000000	-197.81571329	60.39112844	164.40865070
 141	0.00000000	77.00000000	191.00000000	-207.61417150	60.77733211	172.14822739
 142	0.00000000	77.00000000	204.00000000	-208.92216772	61.76131211	180.60110182
 143	0.00000000	77.00000000	217.00000000	-212.40572959	62.55347461	188.58851641
 144	0.00000000	77.00000000	230.00000000	-219.08995092	63.25955272	196.21704787
 145	0.00000000	77.00000000	242.00000000	-226.54106230	64.01220113	203.05955350
 146	0.00000000	77.00000000	255.00000000	-236.04736179	64.98086035	210.43530732
 147	0.00000000	89.00000000	0.00000000	-76.80148646	69.02212590	-24.02494233
 148	0.00000000	89.00000000	13.00000000	-79.69091222	68.60090330	-7.50110482
 149	0.00000000	89.00000000	26.00000000	-83.29615116	67.26650611	10.32461694
 150	0.00000000	89.00000000	38.00000000	-87.78868049	65.86854592	25.11489674
 151	0.00000000	89.00000000	51.00000000	-93.51539880	63.68742876	38.18408646
 152	0.00000000	89.00000000	64.00000000	-101.98187649	61.82286881	51.17061920
 153	0.00000000	89.00000000	77.00000000	-112.78633833	62.03542560	66.22043744
 154	0.00000000	89.00000000	89.00000000	-126.01340577	62.84273408	80.86006388
 155	0.00000000	89.00000000	102.00000000	-141.05984598	64.04814720	95.56497082
 156	0.00000000	89.00000000	115.00000000	-157.12238967	65.08812860	109.80501831
 157	0.00000000	89.00000000	128.00000000	-176.40416622	65.61289564	123.45447868
 158	0.00000000	89.00000000	140.00000000	-189.56304252	66.35189518	134.92390484
 159	0.00000000	89.00000000	153.00000000	-204.29786146	66.93811253	146.26403153
 160	0.00000000	89.00000000	166.00000000	-219.26138252	67.43870527	156.65714264
 161	0.00000000	89.00000000	179.00000000	-226.46018744	68.34269956	166.67138368
 162	0.00000000	89.00000000	191.00000000	-232.84727991	68.79481450	174.82480377
 163	0.00000000	89.00000000	204.00000000	-237.79713750	69.45386633	183.32988739
 164	0.00000000	89.00000000	217.00000000	-242.95795977	70.12145251	191.54097319
 165	0.00000000	89.00000000	230.00000000	-251.18289202	70.72351500	199.42574769
 166	0.00000000	89.00000000	242.00000000	-259.14366245	71.41051054	206.51470810
 167	0.00000000	89.00000000	255.00000000	-268.19289207	72.35502586	214.21770036
 168	0.00000000	102.00000000	0.00000000	-105.66197142	79.94085521	-32.86449350
 169	0.00000000	102.00000000	13.00000000	-108.99165675	79.45470169	-16.50361262
 170	0.00000000	102.00000000	26.00000000	-112.62889758	78.59313592	1.21088411
 171	0.00000000	102.00000000	38.00000000	-117.11699635	77.01282352	19.39157356
 172	0.00000000	102.00000000	51.00000000	-123.82917657	74.80552956	33.41641769
 173	0.00000000	102.00000000	64.00000000	-131.44558668	71.85967684	45.96187770
 174	0.00000000	102.00000000	77.00000000	-140.29663414	71.48928791	61.17553934
 175	0.00000000	102.00000000	89.00000000	-153.79913360	71.31217942	76.16378948
 176	0.00000000	102.00000000	102.00000000	-171.70898616	72.19513804	92.77133033
 177	0.00000000	102.00000000	115.00000000	-190.18058538	73.20830047	107.82254308
 178	0.00000000	102.00000000	128.00000000	-211.60474777	73.82854879	122.35907346
 179	0.00000000	102.00000000	140.00000000	-227.71526009	74.68379170	134.65224981
 180	0.00000000	102.00000000	153.00000000	-243.24979931	75.41777551	146.81212932
 181	0.00000000	102.00000000	166.00000000	-256.55594051	75.98142967	157.96567082
 182	0.00000000	102.00000000	179.00000000	-269.06532526	76.81838036	168.76273066
 183	0.00000000	102.00000000	191.00000000	-274.02405918	77.49729753	177.65297681
 184	0.00000000	102.00000000	204.00000000	-277.30039537	78.15155402	186.35908484
 185	0.00000000	102.00000000	217.00000000	-282.57165492	78.62907439	194.71214622
 186	0.00000000	102.00000000	230.00000000	-291.30106330	79.14521590	202.79419094
 187	0.00000000	102.00000000	242.00000000	-300.72768867	79.71846074	210.13851285
 188	0.00000000	102.00000000	255.00000000	-310.46379983	80.60754463	218.18192124
 189	0.00000000	115.00000000	0.00000000	-140.71426213	91.72892466	-43.26900400
 190	0.00000000	115.00000000	13.00000000	-143.82200897	91.18309915	-26.95402466
 191	0.00000000	115.00000000	26.00000000	-148.09395254	90.06358042	-9.82729772
 192	0.00000000	115.00000000	38.00000000	-153.23193043	88.71958494	10.02166964
 193	0.00000000	115.00000000	51.00000000	-159.97707009	86.37475356	27.63421476
 194	0.00000000	115.00000000	64.00000000	-168.71590197	83.16175237	40.34572586
 195	0.00000000	115.00000000	77.00000000	-175.34754932	82.13700056	55.70588104
 196	0.00000000	115.00000000	89.00000000	-187.06978351	81.17349386	70.54072961
 197	0.00000000	115.00000000	102.00000000	-205.58311969	80.86061105	87.51607552
 198	0.00000000	115.00000000	115.00000000	-227.09051281	81.46604776	104.87599880
 199	0.00000000	115.00000000	128.00000000	-250.08788198	82.27871776	120.58697775
 200	0.00000000	115.00000000	140.00000000	-269.14047003	83.23122784	133.78221810
 201	0.00000000	115.00000000	153.00000000	-288.20337832	84.09242123	146.91175997
 202	0.00000000	115.00000000	166.00000000	-302.63725340	84.80824202	158.74391466
 203	0.00000000	115.00000000	179.00000000	-314.22948897	85.36968470	169.82466727
 204	0.00000000	115.00000000	191.00000000	-326.79301322	86.22080103	179.99997407
 205	0.00000000	115.00000000	204.00000000	-328.68725717	87.07566395	189.32668000
 206	0.00000000	115.00000000	217.00000000	-331.73226178	87.59930626	197.92137802
 207	0.00000000	115.00000000	230.00000000	-337.79354453	87.99709171	206.23214006
 208	0.00000000	115.00000000	242.00000000	-347.51834750	88.37656215	213.73964041
 209	0.00000000	115.00000000	255.00000000	-359.35565472	89.05032679	221.88767999
 210	0.00000000	128.00000000	0.00000000	-182.64200270	104.59625021	-52.80890509
 211	0.00000000	128.00000000	13.00000000	-183.19076926	104.75671560	-36.83992378
 212	0.00000000	128.00000000	26.00000000	-188.08597058	103.29584599	-19.54596877
 213	0.00000000	128.00000000	38.00000000	-194.79928315	101.36737347	-0.96385474
 214	0.00000000	128.00000000	51.00000000	-203.48122448	98.87216896	20.17064195
 215	0.00000000	128.00000000	64.00000000	-213.36476773	95.29436454	34.74019825
 216	0.00000000	128.00000000	77.00000000	-219.57475930	93.51697952	50.55962719
 217	0.00000000	128.00000000	89.00000000	-230.08814156	91.96828902	64.98011559
 218	0.00000000	128.00000000	102.00000000	-247.15387702	90.93659878	81.48455277
 219	0.00000000	128.00000000	115.00000000	-269.32714641	90.65527707	99.23514828
 220	0.00000000	128.00000000	128.00000000	-293.91106725	90.66615209	117.67704070
 221	0.00000000	128.00000000	140.00000000	-314.54456806	91.84799507	131.99079663
 222	0.00000000	128.00000000	153.00000000	-337.34158158	92.89660200	146.35486186
 223	0.00000000	128.00000000	166.00000000	-356.32338703	93.81628186	159.22831267
 224	0.00000000	128.00000000	179.00000000	-370.08944035	94.56301779	170.84290624
 225	0.00000000	128.00000000	191.00000000	-382.21492410	95.12204379	181.22010380
 226	0.00000000	128.00000000	204.00000000	-387.41447389	96.15865856	191.72903270
 227	0.00000000	128.00000000	217.00000000	-391.73158944	96.79221377	200.97188473
 228	0.00000000	128.00000000	230.00000000	-396.60165131	97.18502149	209.58775520
 229	0.00000000	128.00000000	242.00000000	-402.46504068	97.44503394	217.37850755
 230	0.00000000	128.00000000	255.00000000	-411.49442017	97.67024785	225.74430585
 231	0.00000000	140.00000000	0.00000000	-218.20432484	115.91713473	-60.90167664
 232	0.00000000	140.00000000	13.00000000	-223.43605131	115.47149464	-46.80667497
 233	0.00000000	140.00000000	26.00000000	-228.90827447	114.99781206	-29.19454593
 234	0.00000000	140.00000000	38.00000000	-238.10650170	113.41584295	-10.53747866
 235	0.00000000	140.00000000	51.00000000	-249.99411821	111.20086581	12.18845682
 236	0.00000000	140.00000000	64.00000000	-262.58980393	108.23042080	28.44519954
 237	0.00000000	140.00000000	77.00000000	-270.89092970	105.23863614	44.36842941
 238	0.00000000	140.00000000	89.00000000	-280.13455689	103.39538544	58.67625006
 239	0.00000000	140.00000000	102.00000000	-295.63422918	101.77961335	75.11865556
 240	0.00000000	140.00000000	115.00000000	-315.95718026	100.81421435	93.04078907
 241	0.00000000	140.00000000	128.00000000	-337.99210668	100.20945400	112.16030672
 242	0.00000000	140.00000000	140.00000000	-361.17560506	100.54970294	130.21398157
 243	0.00000000	140.00000000	153.00000000	-383.75721574	101.40900403	145.11704028
 244	0.00000000	140.00000000	166.00000000	-406.28985465	102.46350065	158.93360049
 245	0.00000000	140.00000000	179.00000000	-424.40734327	103.28741804	171.30708933
 246	0.00000000	140.00000000	191.00000000	-438.69439423	103.53514194	181.72752857
 247	0.00000000	140.00000000	204.00000000	-447.25229502	104.56108689	192.89525092
 248	0.00000000	140.00000000	217.00000000	-451.44249737	105.37893221	203.19496304
 249	0.00000000	140.00000000	230.00000000	-456.65171385	105.84962815	212.45043039
 250	0.00000000	140.00000000	242.00000000	-463.42586875	106.13624677	220.63016027
 251	0.00000000	140.00000000	255.00000000	-474.23823416	106.36187106	229.33873057
 252	0.00000000	153.00000000	0.00000000	-253.06956679	128.22536588	-70.24160966
 253	0.00000000	153.00000000	13.00000000	-261.82112038	127.65045673	-54.66324739
 254	0.00000000	153.00000000	26.00000000	-271.60535216	126.96369678	-37.40158305
 255	0.00000000	153.00000000	38.00000000	-282.90275395	125.95701680	-18.33783880
 256	0.00000000	153.00000000	51.00000000	-300.14543831	124.00123894	3.99167821
 257	0.00000000	153.00000000	64.00000000	-319.37404811	121.45285249	22.83956174
 258	0.00000000	153.00000000	77.00000000	-333.94356072	119.89621282	37.35465556
 259	0.00000000	153.00000000	89.00000000	-355.83145022	116.58116430	49.31229472
 260	0.00000000	153.00000000	102.00000000	-360.49261451	114.18966383	67.02205002
 261	0.00000000	153.00000000	115.00000000	-375.60464680	112.39261866	85.37600756
 262	0.00000000	153.00000000	128.00000000	-397.06361532	111.13872394	104.60853875
 263	0.00000000	153.00000000	140.00000000	-418.56094658	111.21443868	123.83869126
 264	0.00000000	153.00000000	153.00000000	-444.57115889	111.22812554	142.75229037
 265	0.00000000	153.00000000	166.00000000	-467.15316474	111.92999348	157.71167725
 266	0.00000000	153.00000000	179.00000000	-489.79262352	112.72991896	171.23291731
 267	0.00000000	153.00000000	191.00000000	-508.29449952	112.85886124	182.16055334
 268	0.00000000	153.00000000	204.00000000	-516.57230973	113.57359529	193.25079024
 269	0.00000000	153.00000000	217.00000000	-525.08555532	114.37738135	204.27196205
 270	0.00000000	153.00000000	230.00000000	-528.04775476	115.14656648	214.56070036
 271	0.00000000	153.00000000	242.00000000	-533.56031656	115.57159647	223.43672007
 272	0.00000000	153.00000000	255.00000000	-543.67002368	115.86324602	232.85405874
 273	0.00000000	166.00000000	0.00000000	-283.16366315	139.79048610	-77.40306258
 274	0.00000000	166.00000000	13.00000000	-293.94374549	139.45025235	-60.17904662
 275	0.00000000	166.00000000	26.00000000	-307.92590082	138.95845234	-41.57016836
 276	0.00000000	166.00000000	38.00000000	-322.72595465	138.35404158	-23.03918783
 277	0.00000000	166.00000000	51.00000000	-342.26818442	136.81016922	0.26588946
 278	0.00000000	166.00000000	64.00000000	-368.55754495	134.55561340	20.68377022
 279	0.00000000	166.00000000	77.00000000	-388.33329499	132.96760261	34.81682874
 280	0.00000000	166.00000000	89.00000000	-411.00151062	130.91267288	45.58931150
 281	0.00000000	166.00000000	102.00000000	-439.13328588	127.61368990	58.60397793
 282	0.00000000	166.00000000	115.00000000	-443.04470479	125.05679950	77.66514972
 283	0.00000000	166.00000000	128.00000000	-464.55638409	123.16695571	96.25809163
 284	0.00000000	166.00000000	140.00000000	-482.66256452	122.45533749	115.84810764
 285	0.00000000	166.00000000	153.00000000	-511.82232141	122.08469018	136.66156679
 286	0.00000000	166.00000000	166.00000000	-536.32541299	121.85211226	155.03304899
 287	0.00000000	166.00000000	179.00000000	-559.71416116	122.39142492	170.21052897
 288	0.00000000	166.00000000	191.00000000	-582.39778876	122.50804827	182.25068450
 289	0.00000000	166.00000000	204.00000000	-590.71514726	123.07387590	193.81995410
 290	0.00000000	166.00000000	217.00000000	-596.76022768	123.66240352	204.74903405
 291	0.00000000	166.00000000	230.00000000	-602.93857455	124.29094300	215.58279991
 292	0.00000000	166.00000000	242.00000000	-606.55385256	124.91216406	225.18842608
 293	0.00000000	166.00000000	255.00000000	-616.19712710	125.25751233	235.34585863
 294	0.00000000	179.00000000	0.00000000	-307.89598882	150.18441796	-80.66656306
 295	0.00000000	179.00000000	13.00000000	-318.80526423	150.14505208	-61.69446610
 296	0.00000000	179.00000000	26.00000000	-335.59209466	149.92670059	-41.93315908
 297	0.00000000	179.00000000	38.00000000	-357.65653789	149.33514833	-23.41267738
 298	0.00000000	179.00000000	51.00000000	-377.39994407	148.90774727	-0.36122150
 299	0.00000000	179.00000000	64.00000000	-403.06236863	147.14164764	21.94318034
