bench/lcms_compat/reference/srgb_to_RISO_MZ770_Black.icc_Relative_BPC.it8
CGATS.17
ORIGINATOR	"icctrans"
#
# Data follows
#
NUMBER_OF_SETS	9261.00000000
NUMBER_OF_FIELDS	5.00000000
BEGIN_DATA_FORMAT
 SAMPLE_ID	IN_RGB_R	IN_RGB_G	IN_RGB_B	OUT_GRAY
END_DATA_FORMAT
BEGIN_DATA
 0	0.00000000	0.00000000	0.00000000	0.45136187
 1	0.00000000	0.00000000	13.00000000	0.74708171
 2	0.00000000	0.00000000	26.00000000	1.19844358
 3	0.00000000	0.00000000	38.00000000	1.85603119
 4	0.00000000	0.00000000	51.00000000	2.84824903
 5	0.00000000	0.00000000	64.00000000	4.13618683
 6	0.00000000	0.00000000	77.00000000	5.75097288
 7	0.00000000	0.00000000	89.00000000	7.53696492
 8	0.00000000	0.00000000	102.00000000	9.79766501
 9	0.00000000	0.00000000	115.00000000	12.44747087
 10	0.00000000	0.00000000	128.00000000	15.43579772
 11	0.00000000	0.00000000	140.00000000	18.47470745
 12	0.00000000	0.00000000	153.00000000	22.07392942
 13	0.00000000	0.00000000	166.00000000	25.87159574
 14	0.00000000	0.00000000	179.00000000	28.38521406
 15	0.00000000	0.00000000	191.00000000	30.85214049
 16	0.00000000	0.00000000	204.00000000	33.66536893
 17	0.00000000	0.00000000	217.00000000	36.14785932
 18	0.00000000	0.00000000	230.00000000	37.82101214
 19	0.00000000	0.00000000	242.00000000	39.42801431
 20	0.00000000	0.00000000	255.00000000	41.12840407
 21	0.00000000	13.00000000	0.00000000	3.87937737
 22	0.00000000	13.00000000	13.00000000	4.15953325
 23	0.00000000	13.00000000	26.00000000	4.61089488
 24	0.00000000	13.00000000	38.00000000	5.25291841
 25	0.00000000	13.00000000	51.00000000	6.20233451
 26	0.00000000	13.00000000	64.00000000	7.46692613
 27	0.00000000	13.00000000	77.00000000	9.03891033
 28	0.00000000	13.00000000	89.00000000	10.81712086
 29	0.00000000	13.00000000	102.00000000	13.05836599
 30	0.00000000	13.00000000	115.00000000	15.64202311
 31	0.00000000	13.00000000	128.00000000	18.56031116
 32	0.00000000	13.00000000	140.00000000	21.52918305
 33	0.00000000	13.00000000	153.00000000	25.04669230
 34	0.00000000	13.00000000	166.00000000	27.60311343
 35	0.00000000	13.00000000	179.00000000	30.07003985
 36	0.00000000	13.00000000	191.00000000	32.47470662
 37	0.00000000	13.00000000	204.00000000	35.24513796
 38	0.00000000	13.00000000	217.00000000	36.97276086
 39	0.00000000	13.00000000	230.00000000	38.61867674
 40	0.00000000	13.00000000	242.00000000	40.20233296
 41	0.00000000	13.00000000	255.00000000	41.63034953
 42	0.00000000	26.00000000	0.00000000	9.05836623
 43	0.00000000	26.00000000	13.00000000	9.33463041
 44	0.00000000	26.00000000	26.00000000	9.77431906
 45	0.00000000	26.00000000	38.00000000	10.40856013
 46	0.00000000	26.00000000	51.00000000	11.34630326
 47	0.00000000	26.00000000	64.00000000	12.58754846
 48	0.00000000	26.00000000	77.00000000	14.13618671
 49	0.00000000	26.00000000	89.00000000	15.84046651
 50	0.00000000	26.00000000	102.00000000	18.00778281
 51	0.00000000	26.00000000	115.00000000	20.49416419
 52	0.00000000	26.00000000	128.00000000	23.29961065
 53	0.00000000	26.00000000	140.00000000	25.98832738
 54	0.00000000	26.00000000	153.00000000	28.02723717
 55	0.00000000	26.00000000	166.00000000	30.24513636
 56	0.00000000	26.00000000	179.00000000	32.63424106
 57	0.00000000	26.00000000	191.00000000	34.97276098
 58	0.00000000	26.00000000	204.00000000	36.70427866
 59	0.00000000	26.00000000	217.00000000	38.23346481
 60	0.00000000	26.00000000	230.00000000	39.84435797
 61	0.00000000	26.00000000	242.00000000	41.23735562
 62	0.00000000	26.00000000	255.00000000	42.40466818
 63	0.00000000	38.00000000	0.00000000	16.31517503
 64	0.00000000	38.00000000	13.00000000	16.58754822
 65	0.00000000	38.00000000	26.00000000	17.00389188
 66	0.00000000	38.00000000	38.00000000	17.58754816
 67	0.00000000	38.00000000	51.00000000	18.48248944
 68	0.00000000	38.00000000	64.00000000	19.66147877
 69	0.00000000	38.00000000	77.00000000	21.12840526
 70	0.00000000	38.00000000	89.00000000	22.74708230
 71	0.00000000	38.00000000	102.00000000	24.80155606
 72	0.00000000	38.00000000	115.00000000	26.58365853
 73	0.00000000	38.00000000	128.00000000	28.18287872
 74	0.00000000	38.00000000	140.00000000	29.82490361
 75	0.00000000	38.00000000	153.00000000	31.77431870
 76	0.00000000	38.00000000	166.00000000	33.89883220
 77	0.00000000	38.00000000	179.00000000	35.89883208
 78	0.00000000	38.00000000	191.00000000	37.11673133
 79	0.00000000	38.00000000	204.00000000	38.52140196
 80	0.00000000	38.00000000	217.00000000	40.00000142
 81	0.00000000	38.00000000	230.00000000	41.35019436
 82	0.00000000	38.00000000	242.00000000	42.35408530
 83	0.00000000	38.00000000	255.00000000	43.48638274
 84	0.00000000	51.00000000	0.00000000	26.24513660
 85	0.00000000	51.00000000	13.00000000	26.39688715
 86	0.00000000	51.00000000	26.00000000	26.62645943
 87	0.00000000	51.00000000	38.00000000	26.95330650
 88	0.00000000	51.00000000	51.00000000	27.44746998
 89	0.00000000	51.00000000	64.00000000	28.10116790
 90	0.00000000	51.00000000	77.00000000	28.92217845
 91	0.00000000	51.00000000	89.00000000	29.82101262
 92	0.00000000	51.00000000	102.00000000	30.96887212
 93	0.00000000	51.00000000	115.00000000	32.28793904
 94	0.00000000	51.00000000	128.00000000	33.78988445
 95	0.00000000	51.00000000	140.00000000	35.32684878
 96	0.00000000	51.00000000	153.00000000	36.42801449
 97	0.00000000	51.00000000	166.00000000	37.50972904
 98	0.00000000	51.00000000	179.00000000	38.67315061
 99	0.00000000	51.00000000	191.00000000	39.82879400
 100	0.00000000	51.00000000	204.00000000	41.08171217
 101	0.00000000	51.00000000	217.00000000	42.02723823
 102	0.00000000	51.00000000	230.00000000	43.01945619
 103	0.00000000	51.00000000	242.00000000	43.98054622
 104	0.00000000	51.00000000	255.00000000	45.16342275
 105	0.00000000	64.00000000	0.00000000	33.75486553
 106	0.00000000	64.00000000	13.00000000	33.89105022
 107	0.00000000	64.00000000	26.00000000	34.09727655
 108	0.00000000	64.00000000	38.00000000	34.40077767
 109	0.00000000	64.00000000	51.00000000	34.84824926
 110	0.00000000	64.00000000	64.00000000	35.45136049
 111	0.00000000	64.00000000	77.00000000	35.91050506
 112	0.00000000	64.00000000	89.00000000	36.36186764
 113	0.00000000	64.00000000	102.00000000	36.93774194
 114	0.00000000	64.00000000	115.00000000	37.59533085
 115	0.00000000	64.00000000	128.00000000	38.34241256
 116	0.00000000	64.00000000	140.00000000	39.11284022
 117	0.00000000	64.00000000	153.00000000	40.03112935
 118	0.00000000	64.00000000	166.00000000	40.99611036
 119	0.00000000	64.00000000	179.00000000	41.73541009
 120	0.00000000	64.00000000	191.00000000	42.45525107
 121	0.00000000	64.00000000	204.00000000	43.29572037
 122	0.00000000	64.00000000	217.00000000	44.18287776
 123	0.00000000	64.00000000	230.00000000	45.23346439
 124	0.00000000	64.00000000	242.00000000	46.31128415
 125	0.00000000	64.00000000	255.00000000	47.52529241
 126	0.00000000	77.00000000	0.00000000	39.26070169
 127	0.00000000	77.00000000	13.00000000	39.32684854
 128	0.00000000	77.00000000	26.00000000	39.43190530
 129	0.00000000	77.00000000	38.00000000	39.58365776
 130	0.00000000	77.00000000	51.00000000	39.80155706
 131	0.00000000	77.00000000	64.00000000	40.09727620
 132	0.00000000	77.00000000	77.00000000	40.46692796
 133	0.00000000	77.00000000	89.00000000	40.87159485
 134	0.00000000	77.00000000	102.00000000	41.24513760
 135	0.00000000	77.00000000	115.00000000	41.65369548
 136	0.00000000	77.00000000	128.00000000	42.11284004
 137	0.00000000	77.00000000	140.00000000	42.59143956
 138	0.00000000	77.00000000	153.00000000	43.15953188
 139	0.00000000	77.00000000	166.00000000	43.78210187
 140	0.00000000	77.00000000	179.00000000	44.45914574
 141	0.00000000	77.00000000	191.00000000	45.24124637
 142	0.00000000	77.00000000	204.00000000	46.17120467
 143	0.00000000	77.00000000	217.00000000	47.15564065
 144	0.00000000	77.00000000	230.00000000	48.19844529
 145	0.00000000	77.00000000	242.00000000	49.32684794
 146	0.00000000	77.00000000	255.00000000	50.90272218
 147	0.00000000	89.00000000	0.00000000	43.00778322
 148	0.00000000	89.00000000	13.00000000	43.05058412
 149	0.00000000	89.00000000	26.00000000	43.11283998
 150	0.00000000	89.00000000	38.00000000	43.20233278
 151	0.00000000	89.00000000	51.00000000	43.34241226
 152	0.00000000	89.00000000	64.00000000	43.52140166
 153	0.00000000	89.00000000	77.00000000	43.74708295
 154	0.00000000	89.00000000	89.00000000	44.00000118
 155	0.00000000	89.00000000	102.00000000	44.32295725
 156	0.00000000	89.00000000	115.00000000	44.71984595
 157	0.00000000	89.00000000	128.00000000	45.22957340
 158	0.00000000	89.00000000	140.00000000	45.75097382
 159	0.00000000	89.00000000	153.00000000	46.37354001
 160	0.00000000	89.00000000	166.00000000	47.06225686
 161	0.00000000	89.00000000	179.00000000	47.80933857
 162	0.00000000	89.00000000	191.00000000	48.54863830
 163	0.00000000	89.00000000	204.00000000	49.60700311
 164	0.00000000	89.00000000	217.00000000	50.87159425
 165	0.00000000	89.00000000	230.00000000	52.20622703
 166	0.00000000	89.00000000	242.00000000	53.50583710
 167	0.00000000	89.00000000	255.00000000	55.06225638
 168	0.00000000	102.00000000	0.00000000	47.15174966
 169	0.00000000	102.00000000	13.00000000	47.19844535
 170	0.00000000	102.00000000	26.00000000	47.26459220
 171	0.00000000	102.00000000	38.00000000	47.36575797
 172	0.00000000	102.00000000	51.00000000	47.50972845
 173	0.00000000	102.00000000	64.00000000	47.70428181
 174	0.00000000	102.00000000	77.00000000	47.94941805
 175	0.00000000	102.00000000	89.00000000	48.22179124
 176	0.00000000	102.00000000	102.00000000	48.56809326
 177	0.00000000	102.00000000	115.00000000	49.00000088
 178	0.00000000	102.00000000	128.00000000	49.63424005
 179	0.00000000	102.00000000	140.00000000	50.28793797
 180	0.00000000	102.00000000	153.00000000	51.07392959
 181	0.00000000	102.00000000	166.00000000	51.93774484
 182	0.00000000	102.00000000	179.00000000	52.87159413
 183	0.00000000	102.00000000	191.00000000	53.80933821
 184	0.00000000	102.00000000	204.00000000	54.92218070
 185	0.00000000	102.00000000	217.00000000	56.96887247
 186	0.00000000	102.00000000	230.00000000	59.13618498
 187	0.00000000	102.00000000	242.00000000	61.26070037
 188	0.00000000	102.00000000	255.00000000	63.66537094
 189	0.00000000	115.00000000	0.00000000	52.94941776
 190	0.00000000	115.00000000	13.00000000	53.00389163
 191	0.00000000	115.00000000	26.00000000	53.08560245
 192	0.00000000	115.00000000	38.00000000	53.20622697
 193	0.00000000	115.00000000	51.00000000	53.39299455
 194	0.00000000	115.00000000	64.00000000	53.62645783
 195	0.00000000	115.00000000	77.00000000	53.93385373
 196	0.00000000	115.00000000	89.00000000	54.27237377
 197	0.00000000	115.00000000	102.00000000	54.70817238
 198	0.00000000	115.00000000	115.00000000	55.47081806
 199	0.00000000	115.00000000	128.00000000	56.47470899
 200	0.00000000	115.00000000	140.00000000	57.51750983
 201	0.00000000	115.00000000	153.00000000	58.77820998
 202	0.00000000	115.00000000	166.00000000	60.15953466
 203	0.00000000	115.00000000	179.00000000	61.67704403
 204	0.00000000	115.00000000	191.00000000	63.17898944
 205	0.00000000	115.00000000	204.00000000	64.94552225
 206	0.00000000	115.00000000	217.00000000	66.89493924
 207	0.00000000	115.00000000	230.00000000	69.00000349
 208	0.00000000	115.00000000	242.00000000	71.05836824
 209	0.00000000	115.00000000	255.00000000	73.40466633
 210	0.00000000	128.00000000	0.00000000	63.27237323
 211	0.00000000	128.00000000	13.00000000	63.36186603
 212	0.00000000	128.00000000	26.00000000	63.49805452
 213	0.00000000	128.00000000	38.00000000	63.68871689
 214	0.00000000	128.00000000	51.00000000	63.98054123
 215	0.00000000	128.00000000	64.00000000	64.36575696
 216	0.00000000	128.00000000	77.00000000	64.85213846
 217	0.00000000	128.00000000	89.00000000	65.39299384
 218	0.00000000	128.00000000	102.00000000	66.11284241
 219	0.00000000	128.00000000	115.00000000	66.95719510
 220	0.00000000	128.00000000	128.00000000	67.92217612
 221	0.00000000	128.00000000	140.00000000	68.92606705
 222	0.00000000	128.00000000	153.00000000	70.12451515
 223	0.00000000	128.00000000	166.00000000	71.45914033
 224	0.00000000	128.00000000	179.00000000	72.90661186
 225	0.00000000	128.00000000	191.00000000	74.35797438
 226	0.00000000	128.00000000	204.00000000	76.05447695
 227	0.00000000	128.00000000	217.00000000	77.99222097
 228	0.00000000	128.00000000	230.00000000	80.11284158
 229	0.00000000	128.00000000	242.00000000	82.18287930
 230	0.00000000	128.00000000	255.00000000	84.54474896
 231	0.00000000	140.00000000	0.00000000	74.92606670
 232	0.00000000	140.00000000	13.00000000	75.00778511
 233	0.00000000	140.00000000	26.00000000	75.14007881
 234	0.00000000	140.00000000	38.00000000	75.32684639
 235	0.00000000	140.00000000	51.00000000	75.59922338
 236	0.00000000	140.00000000	64.00000000	75.98054811
 237	0.00000000	140.00000000	77.00000000	76.43968508
 238	0.00000000	140.00000000	89.00000000	76.99222103
 239	0.00000000	140.00000000	102.00000000	77.72373497
 240	0.00000000	140.00000000	115.00000000	78.56420428
 241	0.00000000	140.00000000	128.00000000	79.53307629
 242	0.00000000	140.00000000	140.00000000	80.53696722
 243	0.00000000	140.00000000	153.00000000	81.73540771
 244	0.00000000	140.00000000	166.00000000	83.07782248
 245	0.00000000	140.00000000	179.00000000	84.53696698
 246	0.00000000	140.00000000	191.00000000	86.00000247
 247	0.00000000	140.00000000	204.00000000	87.71206141
 248	0.00000000	140.00000000	217.00000000	89.75486219
 249	0.00000000	140.00000000	230.00000000	92.21011564
 250	0.00000000	140.00000000	242.00000000	94.61867720
 251	0.00000000	140.00000000	255.00000000	97.38132656
 252	0.00000000	153.00000000	0.00000000	89.03891221
 253	0.00000000	153.00000000	13.00000000	89.13229600
 254	0.00000000	153.00000000	26.00000000	89.29960862
 255	0.00000000	153.00000000	38.00000000	89.52140272
 256	0.00000000	153.00000000	51.00000000	89.87937391
 257	0.00000000	153.00000000	64.00000000	90.33462748
 258	0.00000000	153.00000000	77.00000000	90.92218235
 259	0.00000000	153.00000000	89.00000000	91.56809449
 260	0.00000000	153.00000000	102.00000000	92.39689082
 261	0.00000000	153.00000000	115.00000000	93.36186424
 262	0.00000000	153.00000000	128.00000000	94.46692854
 263	0.00000000	153.00000000	140.00000000	95.61089516
 264	0.00000000	153.00000000	153.00000000	96.98832884
 265	0.00000000	153.00000000	166.00000000	98.52529317
 266	0.00000000	153.00000000	179.00000000	100.20233318
 267	0.00000000	153.00000000	191.00000000	101.88327178
 268	0.00000000	153.00000000	204.00000000	103.85214373
 269	0.00000000	153.00000000	217.00000000	106.59922153
 270	0.00000000	153.00000000	230.00000000	109.61867630
 271	0.00000000	153.00000000	242.00000000	112.59143919
 272	0.00000000	153.00000000	255.00000000	115.98832771
 273	0.00000000	166.00000000	0.00000000	108.12062189
 274	0.00000000	166.00000000	13.00000000	108.24902460
 275	0.00000000	166.00000000	26.00000000	108.43969077
 276	0.00000000	166.00000000	38.00000000	108.71984214
 277	0.00000000	166.00000000	51.00000000	109.14007679
 278	0.00000000	166.00000000	64.00000000	109.70038712
 279	0.00000000	166.00000000	77.00000000	110.40856272
 280	0.00000000	166.00000000	89.00000000	111.19844154
 281	0.00000000	166.00000000	102.00000000	112.21400544
 282	0.00000000	166.00000000	115.00000000	113.39299858
 283	0.00000000	166.00000000	128.00000000	114.73151475
 284	0.00000000	166.00000000	140.00000000	116.12840340
 285	0.00000000	166.00000000	153.00000000	117.81323299
 286	0.00000000	166.00000000	166.00000000	119.69260454
 287	0.00000000	166.00000000	179.00000000	121.74318731
 288	0.00000000	166.00000000	191.00000000	123.80545065
 289	0.00000000	166.00000000	204.00000000	126.04280099
 290	0.00000000	166.00000000	217.00000000	128.35408777
 291	0.00000000	166.00000000	230.00000000	130.83267957
 292	0.00000000	166.00000000	242.00000000	133.26459467
 293	0.00000000	166.00000000	255.00000000	136.05837196
 294	0.00000000	179.00000000	0.00000000	131.59922004
 295	0.00000000	179.00000000	13.00000000	131.69260383
 296	0.00000000	179.00000000	26.00000000	131.85602546
 297	0.00000000	179.00000000	38.00000000	132.07782716
 298	0.00000000	179.00000000	51.00000000	132.42412537
 299	0.00000000	179.00000000	64.00000000	132.89104432
 300	0.00000000	179.00000000	77.00000000	133.46692622
 301	0.00000000	179.00000000	89.00000000	134.10506397
 302	0.00000000	179.00000000	102.00000000	134.93384510
 303	0.00000000	179.00000000	115.00000000	135.88715315
 304	0.00000000	179.00000000	128.00000000	136.97277009
 305	0.00000000	179.00000000	140.00000000	138.12451869
 306	0.00000000	179.00000000	153.00000000	139.50972676
 307	0.00000000	179.00000000	166.00000000	141.03113472
 308	0.00000000	179.00000000	179.00000000	142.71594912
 309	0.00000000	179.00000000	191.00000000	144.10117239
 310	0.00000000	179.00000000	204.00000000	145.70427597
 311	0.00000000	179.00000000	217.00000000	147.41634250
 312	0.00000000	179.00000000	230.00000000	149.26459372
 313	0.00000000	179.00000000	242.00000000	151.08171701
 314	0.00000000	179.00000000	255.00000000	153.17510068
 315	0.00000000	191.00000000	0.00000000	150.00778824
 316	0.00000000	191.00000000	13.00000000	150.08560807
 317	0.00000000	191.00000000	26.00000000	150.20233780
 318	0.00000000	191.00000000	38.00000000	150.36965042
 319	0.00000000	191.00000000	51.00000000	150.63034683
 320	0.00000000	191.00000000	64.00000000	150.96498728
 321	0.00000000	191.00000000	77.00000000	151.39688730
 322	0.00000000	191.00000000	89.00000000	151.88326120
 323	0.00000000	191.00000000	102.00000000	152.49027103
 324	0.00000000	191.00000000	115.00000000	153.21401060
 325	0.00000000	191.00000000	128.00000000	154.03502494
 326	0.00000000	191.00000000	140.00000000	154.89494920
 327	0.00000000	191.00000000	153.00000000	155.91440409
 328	0.00000000	191.00000000	166.00000000	157.06615269
 329	0.00000000	191.00000000	179.00000000	157.98444182
 330	0.00000000	191.00000000	191.00000000	158.68092924
 331	0.00000000	191.00000000	204.00000000	159.49027061
 332	0.00000000	191.00000000	217.00000000	160.36575884
 333	0.00000000	191.00000000	230.00000000	161.29961193
 334	0.00000000	191.00000000	242.00000000	162.22179204
 335	0.00000000	191.00000000	255.00000000	163.28015685
 336	0.00000000	204.00000000	0.00000000	163.08171630
 337	0.00000000	204.00000000	13.00000000	163.12451720
 338	0.00000000	204.00000000	26.00000000	163.18677306
 339	0.00000000	204.00000000	38.00000000	163.26848388
 340	0.00000000	204.00000000	51.00000000	163.40077758
 341	0.00000000	204.00000000	64.00000000	163.57198119
 342	0.00000000	204.00000000	77.00000000	163.78598571
 343	0.00000000	204.00000000	89.00000000	164.02335137
 344	0.00000000	204.00000000	102.00000000	164.33463067
 345	0.00000000	204.00000000	115.00000000	164.69649285
 346	0.00000000	204.00000000	128.00000000	165.10506213
 347	0.00000000	204.00000000	140.00000000	165.53696215
 348	0.00000000	204.00000000	153.00000000	165.89494854
 349	0.00000000	204.00000000	166.00000000	166.24902874
 350	0.00000000	204.00000000	179.00000000	166.63812786
 351	0.00000000	204.00000000	191.00000000	167.02724218
 352	0.00000000	204.00000000	204.00000000	167.49027014
 353	0.00000000	204.00000000	217.00000000	167.98444122
 354	0.00000000	204.00000000	230.00000000	168.51361603
 355	0.00000000	204.00000000	242.00000000	169.03891504
 356	0.00000000	204.00000000	255.00000000	169.64201868
 357	0.00000000	217.00000000	0.00000000	169.98833209
 358	0.00000000	217.00000000	13.00000000	170.01167804
 359	0.00000000	217.00000000	26.00000000	170.04280597
 360	0.00000000	217.00000000	38.00000000	170.09338886
 361	0.00000000	217.00000000	51.00000000	170.16731769
 362	0.00000000	217.00000000	64.00000000	170.26459247
 363	0.00000000	217.00000000	77.00000000	170.38521320
 364	0.00000000	217.00000000	89.00000000	170.52139789
 365	0.00000000	217.00000000	102.00000000	170.68871051
 366	0.00000000	217.00000000	115.00000000	170.87160230
 367	0.00000000	217.00000000	128.00000000	171.08560681
 368	0.00000000	217.00000000	140.00000000	171.30350232
 369	0.00000000	217.00000000	153.00000000	171.57198071
 370	0.00000000	217.00000000	166.00000000	171.86382025
 371	0.00000000	217.00000000	179.00000000	172.19844550
 372	0.00000000	217.00000000	191.00000000	172.52139777
 373	0.00000000	217.00000000	204.00000000	172.90662110
 374	0.00000000	217.00000000	217.00000000	173.32684815
 375	0.00000000	217.00000000	230.00000000	173.77820313
 376	0.00000000	217.00000000	242.00000000	174.21400934
 377	0.00000000	217.00000000	255.00000000	174.72762018
 378	0.00000000	230.00000000	0.00000000	175.66147327
 379	0.00000000	230.00000000	13.00000000	175.69260120
 380	0.00000000	230.00000000	26.00000000	175.74318409
 381	0.00000000	230.00000000	38.00000000	175.81323713
 382	0.00000000	230.00000000	51.00000000	175.91829389
 383	0.00000000	230.00000000	64.00000000	176.05836958
 384	0.00000000	230.00000000	77.00000000	176.24124616
 385	0.00000000	230.00000000	89.00000000	176.43968672
 386	0.00000000	230.00000000	102.00000000	176.69649214
 387	0.00000000	230.00000000	115.00000000	176.99611366
 388	0.00000000	230.00000000	128.00000000	177.34241188
 389	0.00000000	230.00000000	140.00000000	177.70038307
 390	0.00000000	230.00000000	153.00000000	178.12840730
 391	0.00000000	230.00000000	166.00000000	178.61478120
 392	0.00000000	230.00000000	179.00000000	179.14008021
 393	0.00000000	230.00000000	191.00000000	179.67703700
 394	0.00000000	230.00000000	204.00000000	180.30350178
 395	0.00000000	230.00000000	217.00000000	180.98444045
 396	0.00000000	230.00000000	230.00000000	181.71205580
 397	0.00000000	230.00000000	242.00000000	182.43190438
 398	0.00000000	230.00000000	255.00000000	183.39299440
 399	0.00000000	242.00000000	0.00000000	184.87160146
 400	0.00000000	242.00000000	13.00000000	184.91829336
 401	0.00000000	242.00000000	26.00000000	184.98444021
 402	0.00000000	242.00000000	38.00000000	185.07782400
 403	0.00000000	242.00000000	51.00000000	185.22179067
 404	0.00000000	242.00000000	64.00000000	185.41244924
 405	0.00000000	242.00000000	77.00000000	185.64590871
 406	0.00000000	242.00000000	89.00000000	185.90662032
 407	0.00000000	242.00000000	102.00000000	186.24902755
 408	0.00000000	242.00000000	115.00000000	186.64590865
 409	0.00000000	242.00000000	128.00000000	187.09727883
 410	0.00000000	242.00000000	140.00000000	187.57197976
 411	0.00000000	242.00000000	153.00000000	188.14786166
 412	0.00000000	242.00000000	166.00000000	188.78210843
 413	0.00000000	242.00000000	179.00000000	189.48637784
 414	0.00000000	242.00000000	191.00000000	190.18677145
 415	0.00000000	242.00000000	204.00000000	191.02334976
 416	0.00000000	242.00000000	217.00000000	191.91829294
 417	0.00000000	242.00000000	230.00000000	192.88327396
 418	0.00000000	242.00000000	242.00000000	193.84047300
 419	0.00000000	242.00000000	255.00000000	194.82490897
 420	0.00000000	255.00000000	0.00000000	197.57197917
 421	0.00000000	255.00000000	13.00000000	197.60699809
 422	0.00000000	255.00000000	26.00000000	197.65758097
 423	0.00000000	255.00000000	38.00000000	197.73930699
 424	0.00000000	255.00000000	51.00000000	197.84825474
 425	0.00000000	255.00000000	64.00000000	198.00000340
 426	0.00000000	255.00000000	77.00000000	198.19066197
 427	0.00000000	255.00000000	89.00000000	198.40466648
 428	0.00000000	255.00000000	102.00000000	198.68092686
 429	0.00000000	255.00000000	115.00000000	199.00000334
 430	0.00000000	255.00000000	128.00000000	199.36964750
 431	0.00000000	255.00000000	140.00000000	199.75487083
 432	0.00000000	255.00000000	153.00000000	200.22178978
 433	0.00000000	255.00000000	166.00000000	200.73152483
 434	0.00000000	255.00000000	179.00000000	201.30350053
 435	0.00000000	255.00000000	191.00000000	201.87938243
 436	0.00000000	255.00000000	204.00000000	202.54863292
 437	0.00000000	255.00000000	217.00000000	203.28015447
 438	0.00000000	255.00000000	230.00000000	203.88327330
 439	0.00000000	255.00000000	242.00000000	204.24902648
 440	0.00000000	255.00000000	255.00000000	204.67703551
 441	13.00000000	0.00000000	0.00000000	1.51750973
 442	13.00000000	0.00000000	13.00000000	1.80933858
 443	13.00000000	0.00000000	26.00000000	2.26848255
 444	13.00000000	0.00000000	38.00000000	2.91828806
 445	13.00000000	0.00000000	51.00000000	3.89494157
 446	13.00000000	0.00000000	64.00000000	5.18287961
