bench/lcms_compat/reference/sRGB_v4_ICC_preference.icc_to_lab_Relative_BPC.it8
CGATS.17
ORIGINATOR	"icctrans"
#
# Data follows
#
NUMBER_OF_SETS	9261.00000000
NUMBER_OF_FIELDS	7.00000000
BEGIN_DATA_FORMAT
 SAMPLE_ID	IN_RGB_R	IN_RGB_G	IN_RGB_B	OUT_LAB_L	OUT_LAB_A	OUT_LAB_B
END_DATA_FORMAT
BEGIN_DATA
 0	0.00000000	0.00000000	0.00000000	-0.00000040	0.02479744	-0.00993270
 1	0.00000000	0.00000000	13.00000000	0.22305013	1.36804056	-5.02358127
 2	0.00000000	0.00000000	26.00000000	0.57307715	3.48641169	-12.93710503
 3	0.00000000	0.00000000	38.00000000	1.06158033	6.61800605	-21.77733827
 4	0.00000000	0.00000000	51.00000000	1.81461796	11.29250002	-30.49340937
 5	0.00000000	0.00000000	64.00000000	2.80557759	17.51009119	-38.37588879
 6	0.00000000	0.00000000	77.00000000	4.06277627	24.78019547	-45.49856099
 7	0.00000000	0.00000000	89.00000000	5.47250360	30.29379082	-51.41396198
 8	0.00000000	0.00000000	102.00000000	7.27126375	34.77230650	-57.13064122
 9	0.00000000	0.00000000	115.00000000	9.30850208	37.96904457	-62.24109340
 10	0.00000000	0.00000000	128.00000000	11.33619398	40.95481795	-67.19884697
 11	0.00000000	0.00000000	140.00000000	13.16867173	43.71315074	-71.70552674
 12	0.00000000	0.00000000	153.00000000	15.12336135	46.62931186	-76.50620434
 13	0.00000000	0.00000000	166.00000000	17.04450846	49.51645774	-81.23793843
 14	0.00000000	0.00000000	179.00000000	18.93684715	52.37109256	-85.90181197
 15	0.00000000	0.00000000	191.00000000	20.66844404	54.94363052	-90.14526847
 16	0.00000000	0.00000000	204.00000000	22.51702249	57.71290672	-94.68783352
 17	0.00000000	0.00000000	217.00000000	24.34106618	60.45973372	-99.18160348
 18	0.00000000	0.00000000	230.00000000	26.14733279	63.16866916	-103.61829291
 19	0.00000000	0.00000000	242.00000000	27.79659331	65.63672793	-107.67797227
 20	0.00000000	0.00000000	255.00000000	29.56515253	68.30613029	-112.03424852
 21	0.00000000	13.00000000	0.00000000	2.59509496	-4.92765921	3.73766941
 22	0.00000000	13.00000000	13.00000000	2.81908326	-3.57993993	-1.27310652
 23	0.00000000	13.00000000	26.00000000	3.16866748	-1.40738371	-9.17541328
 24	0.00000000	13.00000000	38.00000000	3.65686193	1.66627896	-17.77174520
 25	0.00000000	13.00000000	51.00000000	4.41057496	6.34242964	-26.34674507
 26	0.00000000	13.00000000	64.00000000	5.40195331	12.54015547	-34.15775794
 27	0.00000000	13.00000000	77.00000000	6.65729865	18.74119473	-41.22833493
 28	0.00000000	13.00000000	89.00000000	8.06757584	23.37738675	-47.09635246
 29	0.00000000	13.00000000	102.00000000	9.75257680	27.64749122	-52.99114335
 30	0.00000000	13.00000000	115.00000000	11.46579534	31.69374210	-58.63655362
 31	0.00000000	13.00000000	128.00000000	13.20713758	35.49510372	-64.07077882
 32	0.00000000	13.00000000	140.00000000	14.83065933	38.84770942	-68.92288665
 33	0.00000000	13.00000000	153.00000000	16.59749001	42.29924661	-74.04227215
 34	0.00000000	13.00000000	166.00000000	18.36106479	45.63745868	-79.03277236
 35	0.00000000	13.00000000	179.00000000	20.12710124	48.84573293	-83.90858333
 36	0.00000000	13.00000000	191.00000000	21.74723297	51.75092024	-88.33450983
 37	0.00000000	13.00000000	204.00000000	23.49876463	54.80391961	-93.04152626
 38	0.00000000	13.00000000	217.00000000	25.24040937	57.79711020	-97.67334662
 39	0.00000000	13.00000000	230.00000000	26.97156370	60.71959418	-102.23823927
 40	0.00000000	13.00000000	242.00000000	28.56317461	63.36218518	-106.39496922
 41	0.00000000	13.00000000	255.00000000	30.27791083	66.18158829	-110.83648629
 42	0.00000000	26.00000000	0.00000000	6.69956952	-12.81890857	9.64658034
 43	0.00000000	26.00000000	13.00000000	6.90923780	-11.35204288	4.61303604
 44	0.00000000	26.00000000	26.00000000	7.25777224	-9.23359576	-3.21417156
 45	0.00000000	26.00000000	38.00000000	7.76133090	-6.16358089	-11.43864024
 46	0.00000000	26.00000000	51.00000000	8.49098712	-1.38281423	-19.82290554
 47	0.00000000	26.00000000	64.00000000	9.42030996	4.05995291	-27.61493462
 48	0.00000000	26.00000000	77.00000000	10.49328595	9.48025566	-34.91541448
 49	0.00000000	26.00000000	89.00000000	11.59241796	14.36583591	-41.27450246
 50	0.00000000	26.00000000	102.00000000	12.90269941	19.31722862	-47.76247191
 51	0.00000000	26.00000000	115.00000000	14.28884864	24.04333901	-53.94258189
 52	0.00000000	26.00000000	128.00000000	15.74249417	28.52069956	-59.85319513
 53	0.00000000	26.00000000	140.00000000	17.13257730	32.40596068	-65.08791204
 54	0.00000000	26.00000000	153.00000000	18.67751479	36.43441331	-70.56628707
 55	0.00000000	26.00000000	166.00000000	20.25081068	40.26413661	-75.87922278
 56	0.00000000	26.00000000	179.00000000	21.84908837	43.91545188	-81.03491913
 57	0.00000000	26.00000000	191.00000000	23.33259881	47.18414289	-85.68484361
 58	0.00000000	26.00000000	204.00000000	24.95431006	50.59219521	-90.60819763
 59	0.00000000	26.00000000	217.00000000	26.58166587	53.88927829	-95.43242636
 60	0.00000000	26.00000000	230.00000000	28.21566164	57.08214056	-100.15651147
 61	0.00000000	26.00000000	242.00000000	29.71807718	59.98553437	-104.45747408
 62	0.00000000	26.00000000	255.00000000	31.35146797	63.02622241	-109.04166590
 63	0.00000000	38.00000000	0.00000000	11.88649684	-21.06562886	16.95246351
 64	0.00000000	38.00000000	13.00000000	12.04885989	-19.46966890	11.81310248
 65	0.00000000	38.00000000	26.00000000	12.30355799	-16.96725997	4.01785117
 66	0.00000000	38.00000000	38.00000000	12.65061498	-13.60625672	-4.02297336
 67	0.00000000	38.00000000	51.00000000	13.16867173	-9.22732610	-12.48745996
 68	0.00000000	38.00000000	64.00000000	13.82556558	-4.31567165	-20.56999865
 69	0.00000000	38.00000000	77.00000000	14.61835206	0.87295753	-28.24201497
 70	0.00000000	38.00000000	89.00000000	15.46069682	5.66307169	-34.96538180
 71	0.00000000	38.00000000	102.00000000	16.47518426	10.86664927	-41.89978930
 72	0.00000000	38.00000000	115.00000000	17.58873463	15.89555782	-48.50819710
 73	0.00000000	38.00000000	128.00000000	18.79050285	20.70260388	-54.81207404
 74	0.00000000	38.00000000	140.00000000	19.96047497	24.99942851	-60.40171090
 75	0.00000000	38.00000000	153.00000000	21.28511071	29.44667947	-66.23837250
 76	0.00000000	38.00000000	166.00000000	22.65696973	33.71053708	-71.87894183
 77	0.00000000	38.00000000	179.00000000	24.06855524	37.80086559	-77.33986820
 78	0.00000000	38.00000000	191.00000000	25.40479004	41.40643132	-82.23711002
 79	0.00000000	38.00000000	204.00000000	26.87555850	45.18785161	-87.40472633
 80	0.00000000	38.00000000	217.00000000	28.36672664	48.83785975	-92.45068836
 81	0.00000000	38.00000000	230.00000000	29.87603545	52.36293060	-97.38478440
 82	0.00000000	38.00000000	242.00000000	31.28105700	55.50980014	-101.85313943
 83	0.00000000	38.00000000	255.00000000	32.80919194	58.83437854	-106.60623218
 84	0.00000000	51.00000000	0.00000000	17.33675450	-25.43973374	23.81428730
 85	0.00000000	51.00000000	13.00000000	17.45274663	-24.19570330	18.61457032
 86	0.00000000	51.00000000	26.00000000	17.63127893	-22.29484770	11.15149719
 87	0.00000000	51.00000000	38.00000000	17.87772626	-19.77852392	3.52290493
 88	0.00000000	51.00000000	51.00000000	18.25115681	-16.24133933	-4.81144625
 89	0.00000000	51.00000000	64.00000000	18.73106658	-12.10830870	-12.93216529
 90	0.00000000	51.00000000	77.00000000	19.32064146	-7.54835579	-20.78905690
 91	0.00000000	51.00000000	89.00000000	19.96047497	-3.07608697	-27.74074587
 92	0.00000000	51.00000000	102.00000000	20.74512690	1.89414513	-34.99220836
 93	0.00000000	51.00000000	115.00000000	21.62820697	6.87687856	-41.91970783
 94	0.00000000	51.00000000	128.00000000	22.59169370	11.82629538	-48.58225513
 95	0.00000000	51.00000000	140.00000000	23.55039120	16.31576967	-54.49698734
 96	0.00000000	51.00000000	153.00000000	24.65458363	21.03425008	-60.68452972
 97	0.00000000	51.00000000	166.00000000	25.81900656	25.61760974	-66.65161173
 98	0.00000000	51.00000000	179.00000000	27.03729570	30.03204566	-72.41926144
 99	0.00000000	51.00000000	191.00000000	28.19984257	34.00026393	-77.59923469
 100	0.00000000	51.00000000	204.00000000	29.49905992	38.12260193	-83.04734814
 101	0.00000000	51.00000000	217.00000000	30.83032966	42.12334645	-88.35396099
 102	0.00000000	51.00000000	230.00000000	32.19047189	45.98419768	-93.53437881
 103	0.00000000	51.00000000	242.00000000	33.46801698	49.44161695	-98.20813942
 104	0.00000000	51.00000000	255.00000000	34.87433195	53.05783731	-103.16226228
 105	0.00000000	64.00000000	0.00000000	22.57116735	-29.47369608	29.51229435
 106	0.00000000	64.00000000	13.00000000	22.65137732	-28.47969222	24.27877438
 107	0.00000000	64.00000000	26.00000000	22.78549671	-27.05470029	17.57468772
 108	0.00000000	64.00000000	38.00000000	22.97695428	-25.08029583	10.48709524
 109	0.00000000	64.00000000	51.00000000	23.26048762	-22.26555887	2.45674294
 110	0.00000000	64.00000000	64.00000000	23.62777293	-18.82673579	-5.54821151
 111	0.00000000	64.00000000	77.00000000	24.08321202	-14.86479479	-13.42198941
 112	0.00000000	64.00000000	89.00000000	24.58177060	-10.91037738	-20.47589290
 113	0.00000000	64.00000000	102.00000000	25.20243227	-6.31453159	-27.89223614
 114	0.00000000	64.00000000	115.00000000	25.90522766	-1.57798696	-35.04814896
 115	0.00000000	64.00000000	128.00000000	26.68685019	3.23290449	-41.94823670
 116	0.00000000	64.00000000	140.00000000	27.47509480	7.67764759	-48.10781258
 117	0.00000000	64.00000000	153.00000000	28.39656472	12.47113597	-54.56751916
 118	0.00000000	64.00000000	166.00000000	29.37722504	17.17855138	-60.80935302
 119	0.00000000	64.00000000	179.00000000	30.41967154	21.77828056	-66.85209277
 120	0.00000000	64.00000000	191.00000000	31.42355978	25.94044042	-72.28216860
 121	0.00000000	64.00000000	204.00000000	32.55891800	30.32172692	-77.99070868
 122	0.00000000	64.00000000	217.00000000	33.73389840	34.58924752	-83.55025496
 123	0.00000000	64.00000000	230.00000000	34.94832218	38.71451896	-88.96038185
 124	0.00000000	64.00000000	242.00000000	36.09675765	42.41991293	-93.84614448
 125	0.00000000	64.00000000	255.00000000	37.36538291	46.32897598	-99.02292210
 126	0.00000000	77.00000000	0.00000000	27.62889266	-33.31814739	34.03280538
 127	0.00000000	77.00000000	13.00000000	27.69600153	-32.55349922	29.29359329
 128	0.00000000	77.00000000	26.00000000	27.80012190	-31.42982352	23.42856240
 129	0.00000000	77.00000000	38.00000000	27.94643342	-29.82701632	16.90490526
 130	0.00000000	77.00000000	51.00000000	28.16995382	-27.52677935	9.27450430
 131	0.00000000	77.00000000	64.00000000	28.46148312	-24.65604100	1.48141128
 132	0.00000000	77.00000000	77.00000000	28.82403433	-21.29284146	-6.28809261
 133	0.00000000	77.00000000	89.00000000	29.22564149	-17.79979530	-13.33948824
 134	0.00000000	77.00000000	102.00000000	29.72676158	-13.69604591	-20.81846732
 135	0.00000000	77.00000000	115.00000000	30.30385375	-9.33251965	-28.08446023
 136	0.00000000	77.00000000	128.00000000	30.94744682	-4.80836841	-35.14188993
 137	0.00000000	77.00000000	140.00000000	31.60193264	-0.54659310	-41.46924201
 138	0.00000000	77.00000000	153.00000000	32.37309456	4.13334978	-48.12622640
 139	0.00000000	77.00000000	166.00000000	33.20343196	8.80585265	-54.58385068
 140	0.00000000	77.00000000	179.00000000	34.09061134	13.45560235	-60.85677448
 141	0.00000000	77.00000000	191.00000000	34.96009111	17.67801178	-66.48465249
 142	0.00000000	77.00000000	204.00000000	35.94790399	22.18850654	-72.42419358
 143	0.00000000	77.00000000	217.00000000	36.97772920	26.60496396	-78.20291589
 144	0.00000000	77.00000000	230.00000000	38.05094659	30.92970949	-83.84409699
 145	0.00000000	77.00000000	242.00000000	39.07487690	34.83703983	-88.92594810
 146	0.00000000	77.00000000	255.00000000	40.21646678	38.95348054	-94.30582482
 147	0.00000000	89.00000000	0.00000000	32.17339516	-36.79607037	37.58769703
 148	0.00000000	89.00000000	13.00000000	32.22804070	-36.16829845	33.57492995
 149	0.00000000	89.00000000	26.00000000	32.31167495	-35.22045451	28.37886077
 150	0.00000000	89.00000000	38.00000000	32.43449032	-33.90289801	22.40808916
 151	0.00000000	89.00000000	51.00000000	32.62024224	-31.96264613	15.19642574
 152	0.00000000	89.00000000	64.00000000	32.86022544	-29.51430070	7.66696256
 153	0.00000000	89.00000000	77.00000000	33.16099346	-26.59482616	0.05195838
 154	0.00000000	89.00000000	89.00000000	33.49513113	-23.51667213	-6.94051000
 155	0.00000000	89.00000000	102.00000000	33.91487598	-19.81507796	-14.40095368
 156	0.00000000	89.00000000	115.00000000	34.39774811	-15.83586308	-21.71299252
 157	0.00000000	89.00000000	128.00000000	34.94159877	-11.63581926	-28.85103109
 158	0.00000000	89.00000000	140.00000000	35.49903929	-7.61497381	-35.27639511
 159	0.00000000	89.00000000	153.00000000	36.16027832	-3.13379067	-42.06008750
 160	0.00000000	89.00000000	166.00000000	36.88112497	1.39237446	-48.66089571
 161	0.00000000	89.00000000	179.00000000	37.65113950	5.96131009	-55.08948195
 162	0.00000000	89.00000000	191.00000000	38.40872049	10.17236573	-60.87787855
 163	0.00000000	89.00000000	204.00000000	39.27785456	14.69693494	-66.98711093
 164	0.00000000	89.00000000	217.00000000	40.19345343	19.15812355	-72.94139902
 165	0.00000000	89.00000000	230.00000000	41.15031660	23.57303065	-78.75663358
 166	0.00000000	89.00000000	242.00000000	42.06818938	27.57848692	-84.00042060
 167	0.00000000	89.00000000	255.00000000	43.09579730	31.84138697	-89.56234935
 168	0.00000000	102.00000000	0.00000000	36.97772920	-40.45840505	41.33870375
 169	0.00000000	102.00000000	13.00000000	37.02101707	-39.94725648	37.94449788
 170	0.00000000	102.00000000	26.00000000	37.09259629	-39.15595654	33.38557851
 171	0.00000000	102.00000000	38.00000000	37.19576299	-38.05038306	27.96203834
 172	0.00000000	102.00000000	51.00000000	37.34875917	-36.41623515	21.22162563
 173	0.00000000	102.00000000	64.00000000	37.54817247	-34.32942513	14.02455342
 174	0.00000000	102.00000000	77.00000000	37.79886365	-31.81132305	6.62916225
 175	0.00000000	102.00000000	89.00000000	38.07581067	-29.10769212	-0.24083871
 176	0.00000000	102.00000000	102.00000000	38.43023479	-25.85872206	-7.63176131
 177	0.00000000	102.00000000	115.00000000	38.83704543	-22.27569672	-14.92664787
 178	0.00000000	102.00000000	128.00000000	39.29929733	-18.42616129	-22.09527481
 179	0.00000000	102.00000000	140.00000000	39.77391124	-14.69744417	-28.57452753
 180	0.00000000	102.00000000	153.00000000	40.33809006	-10.50612468	-35.44478688
 181	0.00000000	102.00000000	166.00000000	40.95526040	-6.17432672	-42.16225642
 182	0.00000000	102.00000000	179.00000000	41.62350297	-1.78262118	-48.71584076
 183	0.00000000	102.00000000	191.00000000	42.28213429	2.32113582	-54.63178131
 184	0.00000000	102.00000000	204.00000000	43.04041564	6.77581918	-60.89044067
 185	0.00000000	102.00000000	217.00000000	43.84413064	11.22407329	-67.00550194
 186	0.00000000	102.00000000	230.00000000	44.69142556	15.63548458	-72.97647494
 187	0.00000000	102.00000000	242.00000000	45.50768435	19.68518567	-78.37316196
 188	0.00000000	102.00000000	255.00000000	46.42718732	24.01658845	-84.10044643
 189	0.00000000	115.00000000	0.00000000	41.67421758	-44.04439422	44.99079418
 190	0.00000000	115.00000000	13.00000000	41.71347022	-43.60761526	42.10050207
 191	0.00000000	115.00000000	26.00000000	41.77398086	-42.94876862	38.08031780
 192	0.00000000	115.00000000	38.00000000	41.85736775	-41.99901718	33.14166200
 193	0.00000000	115.00000000	51.00000000	41.98648930	-40.60418043	26.88119394
 194	0.00000000	115.00000000	64.00000000	42.15639532	-38.80462739	20.04900855
 195	0.00000000	115.00000000	77.00000000	42.36864746	-36.60117123	12.91177553
 196	0.00000000	115.00000000	89.00000000	42.60686040	-34.25552669	6.20872241
 197	0.00000000	115.00000000	102.00000000	42.90682375	-31.34661558	-1.07937011
 198	0.00000000	115.00000000	115.00000000	43.25535595	-28.13235286	-8.31079248
 199	0.00000000	115.00000000	128.00000000	43.65231991	-24.65630698	-15.45561749
 200	0.00000000	115.00000000	140.00000000	44.06182468	-21.22844252	-21.95538911
 201	0.00000000	115.00000000	153.00000000	44.55034733	-17.31962267	-28.87392107
 202	0.00000000	115.00000000	166.00000000	45.08519471	-13.25615111	-35.65390486
 203	0.00000000	115.00000000	179.00000000	45.66458464	-9.07287958	-42.29553807
 204	0.00000000	115.00000000	191.00000000	46.24313116	-5.13863149	-48.30268893
 205	0.00000000	115.00000000	204.00000000	46.91115916	-0.81836212	-54.67420223
 206	0.00000000	115.00000000	217.00000000	47.62000144	3.53919846	-60.91428819
 207	0.00000000	115.00000000	230.00000000	48.36950302	7.89422077	-67.01814386
 208	0.00000000	115.00000000	242.00000000	49.09695089	11.91992235	-72.54187706
 209	0.00000000	115.00000000	255.00000000	49.91943538	16.25550491	-78.40893704
 210	0.00000000	128.00000000	0.00000000	46.27865553	-47.54749465	48.57942802
 211	0.00000000	128.00000000	13.00000000	46.31094635	-47.18678761	46.07958776
 212	0.00000000	128.00000000	26.00000000	46.36261165	-46.62219870	42.51437587
 213	0.00000000	128.00000000	38.00000000	46.43525779	-45.80300066	38.03377789
 214	0.00000000	128.00000000	51.00000000	46.54661715	-44.59554705	32.22168577
 215	0.00000000	128.00000000	64.00000000	46.69182599	-43.02467334	25.76067966
 216	0.00000000	128.00000000	77.00000000	46.87568545	-41.09718117	18.89881027
 217	0.00000000	128.00000000	89.00000000	47.08041847	-39.02195293	12.39526165
 218	0.00000000	128.00000000	102.00000000	47.33982384	-36.43441337	5.26038450
 219	0.00000000	128.00000000	115.00000000	47.64414728	-33.55606022	-1.87763888
 220	0.00000000	128.00000000	128.00000000	47.98686504	-30.39140764	-8.97251177
 221	0.00000000	128.00000000	140.00000000	48.34218621	-27.24581483	-15.45076895
 222	0.00000000	128.00000000	153.00000000	48.76788855	-23.64169303	-22.37924117
 223	0.00000000	128.00000000	166.00000000	49.23653007	-19.84713304	-29.19134843
 224	0.00000000	128.00000000	179.00000000	49.74638820	-15.90534616	-35.88655877
 225	0.00000000	128.00000000	191.00000000	50.25573969	-12.16759312	-41.95953730
 226	0.00000000	128.00000000	204.00000000	50.84614754	-8.02319351	-48.41425094
 227	0.00000000	128.00000000	217.00000000	51.47585273	-3.81145391	-54.74187660
 228	0.00000000	128.00000000	230.00000000	52.14313269	0.44341338	-60.95330450
 229	0.00000000	128.00000000	242.00000000	52.79371142	4.38536745	-66.57575260
 230	0.00000000	128.00000000	255.00000000	53.53114605	8.66475862	-72.55820099
 231	0.00000000	140.00000000	0.00000000	50.45261383	-50.73431525	51.84351367
 232	0.00000000	140.00000000	13.00000000	50.48301816	-50.41806582	49.61560202
 233	0.00000000	140.00000000	26.00000000	50.52782297	-49.92307398	46.41257149
 234	0.00000000	140.00000000	38.00000000	50.59182644	-49.19862005	42.32155901
 235	0.00000000	140.00000000	51.00000000	50.68941116	-48.13013259	36.89424944
 236	0.00000000	140.00000000	64.00000000	50.81736445	-46.74073714	30.77261072
 237	0.00000000	140.00000000	77.00000000	50.97885728	-45.01959670	24.19308138
 238	0.00000000	140.00000000	89.00000000	51.15949512	-43.14623642	17.88731974
 239	0.00000000	140.00000000	102.00000000	51.38798952	-40.82301828	10.91051412
 240	0.00000000	140.00000000	115.00000000	51.65631771	-38.21284714	3.88856691
 241	0.00000000	140.00000000	128.00000000	51.96122527	-35.31889963	-3.13290152
 242	0.00000000	140.00000000	140.00000000	52.27554440	-32.42278624	-9.57412589
 243	0.00000000	140.00000000	153.00000000	52.65504718	-29.07968763	-16.48430589
 244	0.00000000	140.00000000	166.00000000	53.07254791	-25.53418148	-23.30020535
 245	0.00000000	140.00000000	179.00000000	53.52796316	-21.82082313	-30.02060834
 246	0.00000000	140.00000000	191.00000000	53.98304462	-18.27720168	-36.12334687
 247	0.00000000	140.00000000	204.00000000	54.51250672	-14.32038280	-42.63287637
 248	0.00000000	140.00000000	217.00000000	55.07966876	-10.26776347	-49.02371544
 249	0.00000000	140.00000000	230.00000000	55.68125248	-6.14804733	-55.30664790
 250	0.00000000	140.00000000	242.00000000	56.26964569	-2.30915132	-61.00409257
 251	0.00000000	140.00000000	255.00000000	56.94151521	1.88560319	-67.07003008
 252	0.00000000	153.00000000	0.00000000	54.90496159	-54.14448786	55.31556976
 253	0.00000000	153.00000000	13.00000000	54.92878556	-53.85865960	53.35466218
 254	0.00000000	153.00000000	26.00000000	54.96849418	-53.40885493	50.48286748
 255	0.00000000	153.00000000	38.00000000	55.02725244	-52.79084849	46.74829108
 256	0.00000000	153.00000000	51.00000000	55.11142612	-51.82991806	41.72154081
 257	0.00000000	153.00000000	64.00000000	55.22574782	-50.60557815	35.96931827
 258	0.00000000	153.00000000	77.00000000	55.36702871	-49.08208030	29.68866569
 259	0.00000000	153.00000000	89.00000000	55.52574992	-47.40669701	23.60304904
 260	0.00000000	153.00000000	102.00000000	55.72884679	-45.32600465	16.82372642
 261	0.00000000	153.00000000	115.00000000	55.96361756	-42.95925605	9.94085175
 262	0.00000000	153.00000000	128.00000000	56.23317957	-40.32058644	3.02370292
 263	0.00000000	153.00000000	140.00000000	56.51215911	-37.68050331	-3.34993067
 264	0.00000000	153.00000000	153.00000000	56.84964657	-34.59775913	-10.21533388
 265	0.00000000	153.00000000	166.00000000	57.22022653	-31.31428692	-17.01669532
 266	0.00000000	153.00000000	179.00000000	57.62702823	-27.85176072	-23.73604956
 267	0.00000000	153.00000000	191.00000000	58.03203583	-24.50559947	-29.85850143
 268	0.00000000	153.00000000	204.00000000	58.50638747	-20.76494339	-36.40074718
 269	0.00000000	153.00000000	217.00000000	59.01364088	-16.90504211	-42.83689502
 270	0.00000000	153.00000000	230.00000000	59.55532789	-12.95464489	-49.17737159
 271	0.00000000	153.00000000	242.00000000	60.08562446	-9.24521554	-54.94011956
 272	0.00000000	153.00000000	255.00000000	60.69129109	-5.18209356	-61.07605311
 273	0.00000000	166.00000000	0.00000000	59.28531885	-57.48293552	58.73464149
 274	0.00000000	166.00000000	13.00000000	59.30900574	-57.23334211	56.98152196
 275	0.00000000	166.00000000	26.00000000	59.34374928	-56.84677365	54.39220411
 276	0.00000000	166.00000000	38.00000000	59.39269662	-56.27785298	50.98851395
 277	0.00000000	166.00000000	51.00000000	59.47006941	-55.43907079	46.33510125
 278	0.00000000	166.00000000	64.00000000	59.56953764	-54.33999497	40.91674399
 279	0.00000000	166.00000000	77.00000000	59.69582200	-52.96460557	34.94702113
 280	0.00000000	166.00000000	89.00000000	59.83787179	-51.46666515	29.09231049
 281	0.00000000	166.00000000	102.00000000	60.01935601	-49.58675402	22.52266061
 282	0.00000000	166.00000000	115.00000000	60.22918820	-47.44216430	15.80004615
 283	0.00000000	166.00000000	128.00000000	60.46894789	-45.04649925	9.00476438
 284	0.00000000	166.00000000	140.00000000	60.71809530	-42.61855873	2.71224123
 285	0.00000000	166.00000000	153.00000000	61.01919413	-39.78150177	-4.08655915
 286	0.00000000	166.00000000	166.00000000	61.35013103	-36.73817667	-10.84750596
 287	0.00000000	166.00000000	179.00000000	61.71560287	-33.50989270	-17.54793721
 288	0.00000000	166.00000000	191.00000000	62.07935810	-30.37848833	-23.67231178
 289	0.00000000	166.00000000	204.00000000	62.50593662	-26.84773299	-30.22543254
 290	0.00000000	166.00000000	217.00000000	62.96378970	-23.18330082	-36.69287550
 291	0.00000000	166.00000000	230.00000000	63.45288157	-19.41801447	-43.06913096
 292	0.00000000	166.00000000	242.00000000	63.93389106	-15.86256045	-48.87157160
 293	0.00000000	166.00000000	255.00000000	64.48380947	-11.94001573	-55.06757993
 294	0.00000000	179.00000000	0.00000000	63.60538602	-60.78392479	62.10933161
 295	0.00000000	179.00000000	13.00000000	63.62582445	-60.56143153	60.53414893
 296	0.00000000	179.00000000	26.00000000	63.65569234	-60.19919696	58.18535817
 297	0.00000000	179.00000000	38.00000000	63.70127797	-59.70504868	55.06268573
 298	0.00000000	179.00000000	51.00000000	63.76886964	-58.95202029	50.75098109
 299	0.00000000	179.00000000	64.00000000	63.85845542	-57.96097267	45.66533399
 300	0.00000000	179.00000000	77.00000000	63.97161484	-56.72426063	39.98863620
 301	0.00000000	179.00000000	89.00000000	64.09890056	-55.36954212	34.37515181
 302	0.00000000	179.00000000	102.00000000	64.26073313	-53.65968707	28.01845771
 303	0.00000000	179.00000000	115.00000000	64.44767714	-51.70646268	21.46847558
 304	0.00000000	179.00000000	128.00000000	64.66599703	-49.52265906	14.81184077
 305	0.00000000	179.00000000	140.00000000	64.88899589	-47.28935930	8.62145615
