bench/lcms_compat/reference/srgb_to_RISO_MZ770_RedGreen.icc_Perceptual_BPC.it8
CGATS.17
ORIGINATOR	"icctrans"
#
# Data follows
#
NUMBER_OF_SETS	9261.00000000
NUMBER_OF_FIELDS	6.00000000
BEGIN_DATA_FORMAT
 SAMPLE_ID	IN_RGB_R	IN_RGB_G	IN_RGB_B	OUT_CH1	OUT_CH2
END_DATA_FORMAT
BEGIN_DATA
 0	0.00000000	0.00000000	0.00000000	0.99998474	0.99996948
 1	0.00000000	0.00000000	13.00000000	0.99714655	0.96699476
 2	0.00000000	0.00000000	26.00000000	0.99688715	0.92182803
 3	0.00000000	0.00000000	38.00000000	0.99829102	0.89596397
 4	0.00000000	0.00000000	51.00000000	0.99908447	0.88326848
 5	0.00000000	0.00000000	64.00000000	0.96755934	0.88969254
 6	0.00000000	0.00000000	77.00000000	0.92060733	0.89687955
 7	0.00000000	0.00000000	89.00000000	0.84692150	0.87373161
 8	0.00000000	0.00000000	102.00000000	0.72248417	0.80590522
 9	0.00000000	0.00000000	115.00000000	0.61326009	0.73459983
 10	0.00000000	0.00000000	128.00000000	0.54088652	0.68117797
 11	0.00000000	0.00000000	140.00000000	0.48111695	0.62957197
 12	0.00000000	0.00000000	153.00000000	0.42800030	0.56366825
 13	0.00000000	0.00000000	166.00000000	0.38716716	0.50470740
 14	0.00000000	0.00000000	179.00000000	0.35245287	0.46465248
 15	0.00000000	0.00000000	191.00000000	0.32021058	0.43929198
 16	0.00000000	0.00000000	204.00000000	0.28886855	0.41377890
 17	0.00000000	0.00000000	217.00000000	0.27266347	0.39311817
 18	0.00000000	0.00000000	230.00000000	0.26144809	0.38066682
 19	0.00000000	0.00000000	242.00000000	0.25198749	0.37378499
 20	0.00000000	0.00000000	255.00000000	0.24150454	0.36607918
 21	0.00000000	13.00000000	0.00000000	0.89103532	0.96183717
 22	0.00000000	13.00000000	13.00000000	0.93170065	0.97141987
 23	0.00000000	13.00000000	26.00000000	0.96734571	0.94274813
 24	0.00000000	13.00000000	38.00000000	0.99540704	0.91085678
 25	0.00000000	13.00000000	51.00000000	0.99749750	0.90554667
 26	0.00000000	13.00000000	64.00000000	0.98057526	0.91192490
 27	0.00000000	13.00000000	77.00000000	0.90621805	0.90238804
 28	0.00000000	13.00000000	89.00000000	0.81240559	0.86636150
 29	0.00000000	13.00000000	102.00000000	0.70057219	0.80611885
 30	0.00000000	13.00000000	115.00000000	0.60086977	0.74216831
 31	0.00000000	13.00000000	128.00000000	0.52393377	0.67878234
 32	0.00000000	13.00000000	140.00000000	0.48073548	0.63179982
 33	0.00000000	13.00000000	153.00000000	0.42946517	0.57059586
 34	0.00000000	13.00000000	166.00000000	0.38344395	0.50366980
 35	0.00000000	13.00000000	179.00000000	0.35089648	0.46172273
 36	0.00000000	13.00000000	191.00000000	0.31975281	0.43587396
 37	0.00000000	13.00000000	204.00000000	0.28894484	0.40973526
 38	0.00000000	13.00000000	217.00000000	0.26814678	0.38831159
 39	0.00000000	13.00000000	230.00000000	0.25940338	0.37859160
 40	0.00000000	13.00000000	242.00000000	0.25015640	0.37132829
 41	0.00000000	13.00000000	255.00000000	0.23982605	0.36394292
 42	0.00000000	26.00000000	0.00000000	0.77122146	0.92620736
 43	0.00000000	26.00000000	13.00000000	0.79618526	0.94351113
 44	0.00000000	26.00000000	26.00000000	0.84504461	0.95440602
 45	0.00000000	26.00000000	38.00000000	0.91245902	0.94314486
 46	0.00000000	26.00000000	51.00000000	0.96139467	0.92074466
 47	0.00000000	26.00000000	64.00000000	0.91908139	0.90955979
 48	0.00000000	26.00000000	77.00000000	0.84374762	0.89829862
 49	0.00000000	26.00000000	89.00000000	0.75059128	0.85171282
 50	0.00000000	26.00000000	102.00000000	0.63915467	0.78112459
 51	0.00000000	26.00000000	115.00000000	0.56676584	0.73972684
 52	0.00000000	26.00000000	128.00000000	0.51216906	0.68610668
 53	0.00000000	26.00000000	140.00000000	0.47278553	0.63102162
 54	0.00000000	26.00000000	153.00000000	0.42078277	0.57480735
 55	0.00000000	26.00000000	166.00000000	0.37566185	0.51477838
 56	0.00000000	26.00000000	179.00000000	0.34155795	0.46250096
 57	0.00000000	26.00000000	191.00000000	0.31801328	0.42919052
 58	0.00000000	26.00000000	204.00000000	0.28844130	0.40146488
 59	0.00000000	26.00000000	217.00000000	0.26420996	0.38617533
 60	0.00000000	26.00000000	230.00000000	0.25535974	0.37517357
 61	0.00000000	26.00000000	242.00000000	0.24739452	0.36714733
 62	0.00000000	26.00000000	255.00000000	0.23746090	0.36028075
 63	0.00000000	38.00000000	0.00000000	0.68696117	0.87953001
 64	0.00000000	38.00000000	13.00000000	0.69633019	0.88897538
 65	0.00000000	38.00000000	26.00000000	0.71462578	0.90293735
 66	0.00000000	38.00000000	38.00000000	0.74975204	0.92188907
 67	0.00000000	38.00000000	51.00000000	0.82517737	0.94003206
 68	0.00000000	38.00000000	64.00000000	0.84403753	0.91285574
 69	0.00000000	38.00000000	77.00000000	0.76513314	0.87386894
 70	0.00000000	38.00000000	89.00000000	0.67562371	0.83637750
 71	0.00000000	38.00000000	102.00000000	0.59967959	0.78609902
 72	0.00000000	38.00000000	115.00000000	0.54665446	0.73536277
 73	0.00000000	38.00000000	128.00000000	0.48816663	0.69184405
 74	0.00000000	38.00000000	140.00000000	0.44637218	0.63768977
 75	0.00000000	38.00000000	153.00000000	0.40802625	0.57323569
 76	0.00000000	38.00000000	166.00000000	0.36728466	0.51436639
 77	0.00000000	38.00000000	179.00000000	0.32990006	0.46073091
 78	0.00000000	38.00000000	191.00000000	0.30632487	0.42201877
 79	0.00000000	38.00000000	204.00000000	0.28543526	0.39876401
 80	0.00000000	38.00000000	217.00000000	0.26320288	0.38287938
 81	0.00000000	38.00000000	230.00000000	0.24795911	0.36987868
 82	0.00000000	38.00000000	242.00000000	0.24208438	0.36102846
 83	0.00000000	38.00000000	255.00000000	0.23727779	0.35561150
 84	0.00000000	51.00000000	0.00000000	0.60993361	0.85009539
 85	0.00000000	51.00000000	13.00000000	0.61100173	0.85117877
 86	0.00000000	51.00000000	26.00000000	0.61287862	0.85375756
 87	0.00000000	51.00000000	38.00000000	0.61722744	0.85508507
 88	0.00000000	51.00000000	51.00000000	0.60842299	0.87324333
 89	0.00000000	51.00000000	64.00000000	0.63065535	0.89765775
 90	0.00000000	51.00000000	77.00000000	0.64791334	0.86720073
 91	0.00000000	51.00000000	89.00000000	0.60070193	0.81803614
 92	0.00000000	51.00000000	102.00000000	0.52936602	0.78078890
 93	0.00000000	51.00000000	115.00000000	0.48775464	0.74154270
 94	0.00000000	51.00000000	128.00000000	0.46355382	0.69312578
 95	0.00000000	51.00000000	140.00000000	0.43204394	0.64301521
 96	0.00000000	51.00000000	153.00000000	0.38471046	0.57891202
 97	0.00000000	51.00000000	166.00000000	0.34959945	0.51140612
 98	0.00000000	51.00000000	179.00000000	0.32184330	0.45774013
 99	0.00000000	51.00000000	191.00000000	0.29317158	0.42307165
 100	0.00000000	51.00000000	204.00000000	0.27275503	0.39494926
 101	0.00000000	51.00000000	217.00000000	0.25725186	0.37515831
 102	0.00000000	51.00000000	230.00000000	0.24260318	0.36369878
 103	0.00000000	51.00000000	242.00000000	0.23523308	0.35700008
 104	0.00000000	51.00000000	255.00000000	0.23340200	0.35065234
 105	0.00000000	64.00000000	0.00000000	0.52951860	0.83364612
 106	0.00000000	64.00000000	13.00000000	0.52657360	0.83430231
 107	0.00000000	64.00000000	26.00000000	0.52338445	0.83466852
 108	0.00000000	64.00000000	38.00000000	0.51039904	0.83533990
 109	0.00000000	64.00000000	51.00000000	0.49756619	0.83540094
 110	0.00000000	64.00000000	64.00000000	0.48787671	0.83700311
 111	0.00000000	64.00000000	77.00000000	0.47576106	0.83128101
 112	0.00000000	64.00000000	89.00000000	0.46092927	0.80265504
 113	0.00000000	64.00000000	102.00000000	0.43730831	0.78286409
 114	0.00000000	64.00000000	115.00000000	0.41332114	0.76298159
 115	0.00000000	64.00000000	128.00000000	0.40303653	0.70606548
 116	0.00000000	64.00000000	140.00000000	0.39392692	0.64533454
 117	0.00000000	64.00000000	153.00000000	0.36829177	0.57877469
 118	0.00000000	64.00000000	166.00000000	0.33289081	0.51998168
 119	0.00000000	64.00000000	179.00000000	0.30568400	0.45723659
 120	0.00000000	64.00000000	191.00000000	0.28662547	0.41219196
 121	0.00000000	64.00000000	204.00000000	0.26253146	0.38782331
 122	0.00000000	64.00000000	217.00000000	0.24904250	0.37264058
 123	0.00000000	64.00000000	230.00000000	0.24046692	0.36026549
 124	0.00000000	64.00000000	242.00000000	0.23143359	0.35213244
 125	0.00000000	64.00000000	255.00000000	0.22561990	0.34615090
 126	0.00000000	77.00000000	0.00000000	0.44782177	0.82175934
 127	0.00000000	77.00000000	13.00000000	0.44202334	0.82244605
 128	0.00000000	77.00000000	26.00000000	0.43544671	0.82246131
 129	0.00000000	77.00000000	38.00000000	0.42890060	0.82172883
 130	0.00000000	77.00000000	51.00000000	0.41145954	0.81995881
 131	0.00000000	77.00000000	64.00000000	0.39494926	0.81803614
 132	0.00000000	77.00000000	77.00000000	0.39516288	0.80712599
 133	0.00000000	77.00000000	89.00000000	0.39789426	0.79485768
 134	0.00000000	77.00000000	102.00000000	0.39632258	0.77048904
 135	0.00000000	77.00000000	115.00000000	0.38496986	0.74522012
 136	0.00000000	77.00000000	128.00000000	0.36354619	0.71085680
 137	0.00000000	77.00000000	140.00000000	0.34654763	0.65951020
 138	0.00000000	77.00000000	153.00000000	0.33531702	0.58159763
 139	0.00000000	77.00000000	166.00000000	0.31584650	0.51041430
 140	0.00000000	77.00000000	179.00000000	0.29016557	0.45653468
 141	0.00000000	77.00000000	191.00000000	0.26958114	0.41730374
 142	0.00000000	77.00000000	204.00000000	0.25528345	0.38426796
 143	0.00000000	77.00000000	217.00000000	0.24010071	0.36478218
 144	0.00000000	77.00000000	230.00000000	0.23195240	0.35553521
 145	0.00000000	77.00000000	242.00000000	0.22734417	0.34792095
 146	0.00000000	77.00000000	255.00000000	0.22128634	0.34048980
 147	0.00000000	89.00000000	0.00000000	0.36990920	0.81060505
 148	0.00000000	89.00000000	13.00000000	0.36372930	0.81193256
 149	0.00000000	89.00000000	26.00000000	0.35533684	0.81206989
 150	0.00000000	89.00000000	38.00000000	0.34616616	0.81123066
 151	0.00000000	89.00000000	51.00000000	0.33694974	0.80914015
 152	0.00000000	89.00000000	64.00000000	0.33194476	0.80143434
 153	0.00000000	89.00000000	77.00000000	0.32088196	0.79595637
 154	0.00000000	89.00000000	89.00000000	0.32614633	0.77843899
 155	0.00000000	89.00000000	102.00000000	0.33772793	0.75646603
 156	0.00000000	89.00000000	115.00000000	0.33443198	0.72742808
 157	0.00000000	89.00000000	128.00000000	0.33144122	0.69062334
 158	0.00000000	89.00000000	140.00000000	0.32224002	0.64351875
 159	0.00000000	89.00000000	153.00000000	0.30659953	0.57709622
 160	0.00000000	89.00000000	166.00000000	0.28761730	0.50614178
 161	0.00000000	89.00000000	179.00000000	0.27631035	0.44060427
 162	0.00000000	89.00000000	191.00000000	0.26019683	0.40172428
 163	0.00000000	89.00000000	204.00000000	0.24483101	0.37869841
 164	0.00000000	89.00000000	217.00000000	0.23547722	0.36185244
 165	0.00000000	89.00000000	230.00000000	0.22584878	0.34930953
 166	0.00000000	89.00000000	242.00000000	0.22081330	0.34291601
 167	0.00000000	89.00000000	255.00000000	0.21628137	0.33730069
 168	0.00000000	102.00000000	0.00000000	0.29529259	0.79806209
 169	0.00000000	102.00000000	13.00000000	0.28726634	0.79922181
 170	0.00000000	102.00000000	26.00000000	0.27649349	0.80054933
 171	0.00000000	102.00000000	38.00000000	0.26686504	0.79934388
 172	0.00000000	102.00000000	51.00000000	0.25503930	0.79700923
 173	0.00000000	102.00000000	64.00000000	0.24533455	0.79166859
 174	0.00000000	102.00000000	77.00000000	0.25020218	0.77651638
 175	0.00000000	102.00000000	89.00000000	0.25236896	0.76437020
 176	0.00000000	102.00000000	102.00000000	0.26283666	0.74041355
 177	0.00000000	102.00000000	115.00000000	0.27980468	0.71114671
 178	0.00000000	102.00000000	128.00000000	0.28023192	0.67197680
 179	0.00000000	102.00000000	140.00000000	0.27879760	0.63070112
 180	0.00000000	102.00000000	153.00000000	0.27775997	0.56780344
 181	0.00000000	102.00000000	166.00000000	0.26976424	0.49640650
 182	0.00000000	102.00000000	179.00000000	0.25679407	0.43430227
 183	0.00000000	102.00000000	191.00000000	0.24888991	0.39856565
 184	0.00000000	102.00000000	204.00000000	0.23750667	0.37067217
 185	0.00000000	102.00000000	217.00000000	0.22734417	0.35529107
 186	0.00000000	102.00000000	230.00000000	0.22146945	0.34496072
 187	0.00000000	102.00000000	242.00000000	0.21603723	0.33487448
 188	0.00000000	102.00000000	255.00000000	0.21243611	0.32738233
 189	0.00000000	115.00000000	0.00000000	0.24672313	0.77730983
 190	0.00000000	115.00000000	13.00000000	0.24069580	0.77911037
 191	0.00000000	115.00000000	26.00000000	0.23253223	0.78146029
 192	0.00000000	115.00000000	38.00000000	0.22270542	0.78414589
 193	0.00000000	115.00000000	51.00000000	0.22088960	0.77640957
 194	0.00000000	115.00000000	64.00000000	0.21951629	0.76673532
 195	0.00000000	115.00000000	77.00000000	0.21924163	0.75486380
 196	0.00000000	115.00000000	89.00000000	0.22375830	0.73803312
 197	0.00000000	115.00000000	102.00000000	0.22867170	0.71743345
 198	0.00000000	115.00000000	115.00000000	0.23248646	0.69181353
 199	0.00000000	115.00000000	128.00000000	0.24281682	0.66100556
 200	0.00000000	115.00000000	140.00000000	0.24408332	0.61252767
 201	0.00000000	115.00000000	153.00000000	0.24347295	0.55599296
 202	0.00000000	115.00000000	166.00000000	0.24484627	0.48807508
 203	0.00000000	115.00000000	179.00000000	0.24307622	0.42661172
 204	0.00000000	115.00000000	191.00000000	0.23732357	0.38522926
 205	0.00000000	115.00000000	204.00000000	0.23076218	0.36746776
 206	0.00000000	115.00000000	217.00000000	0.22310215	0.35089648
 207	0.00000000	115.00000000	230.00000000	0.21672389	0.33899444
 208	0.00000000	115.00000000	242.00000000	0.21245137	0.33032730
 209	0.00000000	115.00000000	255.00000000	0.20805676	0.32246891
 210	0.00000000	128.00000000	0.00000000	0.21625085	0.74972153
 211	0.00000000	128.00000000	13.00000000	0.20970474	0.75170517
 212	0.00000000	128.00000000	26.00000000	0.19867246	0.75527579
 213	0.00000000	128.00000000	38.00000000	0.18533608	0.75945675
 214	0.00000000	128.00000000	51.00000000	0.16922255	0.76433969
 215	0.00000000	128.00000000	64.00000000	0.18205538	0.74503702
 216	0.00000000	128.00000000	77.00000000	0.19295034	0.72732127
 217	0.00000000	128.00000000	89.00000000	0.19928282	0.70859843
 218	0.00000000	128.00000000	102.00000000	0.20621042	0.68203253
 219	0.00000000	128.00000000	115.00000000	0.21231402	0.65293354
 220	0.00000000	128.00000000	128.00000000	0.21568628	0.61858547
 221	0.00000000	128.00000000	140.00000000	0.22134738	0.58165866
 222	0.00000000	128.00000000	153.00000000	0.22342260	0.52391851
 223	0.00000000	128.00000000	166.00000000	0.22563516	0.46019685
 224	0.00000000	128.00000000	179.00000000	0.22716106	0.40535593
 225	0.00000000	128.00000000	191.00000000	0.22581826	0.37831694
 226	0.00000000	128.00000000	204.00000000	0.22209506	0.35825130
 227	0.00000000	128.00000000	217.00000000	0.21696803	0.34505227
 228	0.00000000	128.00000000	230.00000000	0.21124589	0.33307394
 229	0.00000000	128.00000000	242.00000000	0.20672923	0.32106507
 230	0.00000000	128.00000000	255.00000000	0.20334172	0.30995652
 231	0.00000000	140.00000000	0.00000000	0.19514763	0.72254521
 232	0.00000000	140.00000000	13.00000000	0.19313344	0.72217900
 233	0.00000000	140.00000000	26.00000000	0.18301670	0.72449833
 234	0.00000000	140.00000000	38.00000000	0.16064699	0.73127335
 235	0.00000000	140.00000000	51.00000000	0.13246357	0.74016935
 236	0.00000000	140.00000000	64.00000000	0.11454948	0.74061191
 237	0.00000000	140.00000000	77.00000000	0.14325170	0.71015489
 238	0.00000000	140.00000000	89.00000000	0.16423285	0.68590832
 239	0.00000000	140.00000000	102.00000000	0.17831694	0.65343708
 240	0.00000000	140.00000000	115.00000000	0.19156176	0.61567104
 241	0.00000000	140.00000000	128.00000000	0.20010681	0.57853055
 242	0.00000000	140.00000000	140.00000000	0.20271611	0.54493022
 243	0.00000000	140.00000000	153.00000000	0.20717174	0.50179291
 244	0.00000000	140.00000000	166.00000000	0.20968948	0.45268941
 245	0.00000000	140.00000000	179.00000000	0.21313801	0.40509650
 246	0.00000000	140.00000000	191.00000000	0.21481651	0.37444115
 247	0.00000000	140.00000000	204.00000000	0.21400778	0.35353628
 248	0.00000000	140.00000000	217.00000000	0.21033035	0.33902496
 249	0.00000000	140.00000000	230.00000000	0.20549324	0.32539865
 250	0.00000000	140.00000000	242.00000000	0.20126650	0.31490043
 251	0.00000000	140.00000000	255.00000000	0.19790952	0.30031282
 252	0.00000000	153.00000000	0.00000000	0.17599756	0.69622338
 253	0.00000000	153.00000000	13.00000000	0.17245747	0.69518578
 254	0.00000000	153.00000000	26.00000000	0.16795605	0.69344628
 255	0.00000000	153.00000000	38.00000000	0.15532158	0.69419396
 256	0.00000000	153.00000000	51.00000000	0.11667048	0.70469213
 257	0.00000000	153.00000000	64.00000000	0.06952010	0.71786070
 258	0.00000000	153.00000000	77.00000000	0.04699779	0.71346611
 259	0.00000000	153.00000000	89.00000000	0.08015564	0.67653924
 260	0.00000000	153.00000000	102.00000000	0.11471733	0.63787287
 261	0.00000000	153.00000000	115.00000000	0.14447242	0.59008163
 262	0.00000000	153.00000000	128.00000000	0.17354086	0.53856719
 263	0.00000000	153.00000000	140.00000000	0.18710613	0.49796292
 264	0.00000000	153.00000000	153.00000000	0.19073777	0.46262303
 265	0.00000000	153.00000000	166.00000000	0.19482720	0.42825970
 266	0.00000000	153.00000000	179.00000000	0.19797055	0.39653620
 267	0.00000000	153.00000000	191.00000000	0.20140383	0.37018389
 268	0.00000000	153.00000000	204.00000000	0.20265508	0.34860760
 269	0.00000000	153.00000000	217.00000000	0.20219730	0.32840466
 270	0.00000000	153.00000000	230.00000000	0.19897765	0.31117722
 271	0.00000000	153.00000000	242.00000000	0.19508660	0.29466698
 272	0.00000000	153.00000000	255.00000000	0.19099718	0.27685970
 273	0.00000000	166.00000000	0.00000000	0.15820554	0.66982526
 274	0.00000000	166.00000000	13.00000000	0.15196460	0.66851300
 275	0.00000000	166.00000000	26.00000000	0.14334325	0.66633099
 276	0.00000000	166.00000000	38.00000000	0.13304341	0.66300452
 277	0.00000000	166.00000000	51.00000000	0.11490043	0.66204315
 278	0.00000000	166.00000000	64.00000000	0.07933165	0.67055774
 279	0.00000000	166.00000000	77.00000000	0.03566033	0.68137634
 280	0.00000000	166.00000000	89.00000000	0.02298009	0.66253150
 281	0.00000000	166.00000000	102.00000000	0.04582284	0.61028457
 282	0.00000000	166.00000000	115.00000000	0.06732281	0.56226444
 283	0.00000000	166.00000000	128.00000000	0.10684367	0.50978869
 284	0.00000000	166.00000000	140.00000000	0.14584573	0.45915923
 285	0.00000000	166.00000000	153.00000000	0.16836804	0.42261386
 286	0.00000000	166.00000000	166.00000000	0.17669947	0.40076295
 287	0.00000000	166.00000000	179.00000000	0.18463416	0.38153657
 288	0.00000000	166.00000000	191.00000000	0.18850996	0.36572823
 289	0.00000000	166.00000000	204.00000000	0.19183642	0.34950790
 290	0.00000000	166.00000000	217.00000000	0.19020371	0.32945755
 291	0.00000000	166.00000000	230.00000000	0.18828107	0.30457008
 292	0.00000000	166.00000000	242.00000000	0.18760967	0.27887389
 293	0.00000000	166.00000000	255.00000000	0.18493934	0.26375219
 294	0.00000000	179.00000000	0.00000000	0.14601359	0.64692152
 295	0.00000000	179.00000000	13.00000000	0.13766690	0.64538032
 296	0.00000000	179.00000000	26.00000000	0.12565805	0.64290839
 297	0.00000000	179.00000000	38.00000000	0.11042954	0.63912416
 298	0.00000000	179.00000000	51.00000000	0.09115740	0.63302052
 299	0.00000000	179.00000000	64.00000000	0.07113756	0.62986189
 300	0.00000000	179.00000000	77.00000000	0.04678416	0.63367665
 301	0.00000000	179.00000000	89.00000000	0.01788357	0.63839167
 302	0.00000000	179.00000000	102.00000000	0.01181048	0.59818417
 303	0.00000000	179.00000000	115.00000000	0.02360571	0.53383690
 304	0.00000000	179.00000000	128.00000000	0.03828489	0.47949952
 305	0.00000000	179.00000000	140.00000000	0.07179370	0.44361028
 306	0.00000000	179.00000000	153.00000000	0.11273365	0.40254825
 307	0.00000000	179.00000000	166.00000000	0.13456932	0.38135347
 308	0.00000000	179.00000000	179.00000000	0.14859235	0.36891738
 309	0.00000000	179.00000000	191.00000000	0.16083010	0.35786983
 310	0.00000000	179.00000000	204.00000000	0.16765088	0.34543374
 311	0.00000000	179.00000000	217.00000000	0.17055009	0.32928970
 312	0.00000000	179.00000000	230.00000000	0.17084001	0.30641642
 313	0.00000000	179.00000000	242.00000000	0.17105363	0.28067446
 314	0.00000000	179.00000000	255.00000000	0.17253377	0.25090408
 315	0.00000000	191.00000000	0.00000000	0.12657359	0.63300526
 316	0.00000000	191.00000000	13.00000000	0.12146182	0.62917525
 317	0.00000000	191.00000000	26.00000000	0.10884260	0.62555885
 318	0.00000000	191.00000000	38.00000000	0.09233234	0.62037081
 319	0.00000000	191.00000000	51.00000000	0.07025254	0.61240560
 320	0.00000000	191.00000000	64.00000000	0.04548714	0.60170901
 321	0.00000000	191.00000000	77.00000000	0.03158617	0.59658200
 322	0.00000000	191.00000000	89.00000000	0.02124056	0.59569693
 323	0.00000000	191.00000000	102.00000000	0.00396735	0.59458303
 324	0.00000000	191.00000000	115.00000000	0.00563058	0.52858776
 325	0.00000000	191.00000000	128.00000000	0.01058976	0.45716029
 326	0.00000000	191.00000000	140.00000000	0.02003510	0.41098648
 327	0.00000000	191.00000000	153.00000000	0.04509041	0.39066148
 328	0.00000000	191.00000000	166.00000000	0.07652400	0.36896315
 329	0.00000000	191.00000000	179.00000000	0.09639124	0.35887694
 330	0.00000000	191.00000000	191.00000000	0.11319143	0.35024032
 331	0.00000000	191.00000000	204.00000000	0.12736705	0.33914703
 332	0.00000000	191.00000000	217.00000000	0.13392843	0.32510871
 333	0.00000000	191.00000000	230.00000000	0.13876554	0.30759135
 334	0.00000000	191.00000000	242.00000000	0.14488441	0.28529793
 335	0.00000000	191.00000000	255.00000000	0.15196460	0.26147860
 336	0.00000000	204.00000000	0.00000000	0.10521095	0.62047762
 337	0.00000000	204.00000000	13.00000000	0.09935149	0.61620510
 338	0.00000000	204.00000000	26.00000000	0.09059282	0.60958266
 339	0.00000000	204.00000000	38.00000000	0.07838560	0.60158694
 340	0.00000000	204.00000000	51.00000000	0.06044099	0.59143966
 341	0.00000000	204.00000000	64.00000000	0.03810178	0.57872891
 342	0.00000000	204.00000000	77.00000000	0.01295491	0.56304264
 343	0.00000000	204.00000000	89.00000000	0.00860609	0.55509269
 344	0.00000000	204.00000000	102.00000000	0.00668345	0.54882121
 345	0.00000000	204.00000000	115.00000000	0.00068666	0.54045928
 346	0.00000000	204.00000000	128.00000000	0.00250248	0.47190052
 347	0.00000000	204.00000000	140.00000000	0.00375372	0.41609827
 348	0.00000000	204.00000000	153.00000000	0.01033036	0.38086519
 349	0.00000000	204.00000000	166.00000000	0.02529946	0.36574349
 350	0.00000000	204.00000000	179.00000000	0.04235905	0.34976730
 351	0.00000000	204.00000000	191.00000000	0.05561914	0.34285498
 352	0.00000000	204.00000000	204.00000000	0.07017624	0.33359274
 353	0.00000000	204.00000000	217.00000000	0.08017090	0.32056153
 354	0.00000000	204.00000000	230.00000000	0.08577096	0.30334935
 355	0.00000000	204.00000000	242.00000000	0.09217975	0.28476387
 356	0.00000000	204.00000000	255.00000000	0.11065843	0.26277563
 357	0.00000000	217.00000000	0.00000000	0.09239338	0.61055923
 358	0.00000000	217.00000000	13.00000000	0.08628977	0.60627145
 359	0.00000000	217.00000000	26.00000000	0.07705806	0.59971011
 360	0.00000000	217.00000000	38.00000000	0.06445411	0.59050888
 361	0.00000000	217.00000000	51.00000000	0.04914931	0.57705045
 362	0.00000000	217.00000000	64.00000000	0.03591974	0.56037229
 363	0.00000000	217.00000000	77.00000000	0.01997406	0.54053557
 364	0.00000000	217.00000000	89.00000000	0.00291447	0.51966125
 365	0.00000000	217.00000000	102.00000000	0.00024414	0.50836957
 366	0.00000000	217.00000000	115.00000000	0.00080873	0.50212866
 367	0.00000000	217.00000000	128.00000000	0.00035096	0.48329899
 368	0.00000000	217.00000000	140.00000000	0.00035096	0.43065536
 369	0.00000000	217.00000000	153.00000000	0.00016785	0.38147554
 370	0.00000000	217.00000000	166.00000000	0.00427253	0.35819027
 371	0.00000000	217.00000000	179.00000000	0.01255818	0.34686810
 372	0.00000000	217.00000000	191.00000000	0.02149996	0.33553064
 373	0.00000000	217.00000000	204.00000000	0.03013657	0.32516974
 374	0.00000000	217.00000000	217.00000000	0.04116884	0.31116197
 375	0.00000000	217.00000000	230.00000000	0.04965286	0.29439232
 376	0.00000000	217.00000000	242.00000000	0.05511559	0.27734798
 377	0.00000000	217.00000000	255.00000000	0.06041047	0.25745022
 378	0.00000000	230.00000000	0.00000000	0.07971313	0.59813839
