bench/lcms_compat/reference/srgb_virt_to_lab_Perceptual.it8
CGATS.17
ORIGINATOR	"icctrans"
#
# Data follows
#
NUMBER_OF_SETS	9261.00000000
NUMBER_OF_FIELDS	7.00000000
BEGIN_DATA_FORMAT
 SAMPLE_ID	IN_RGB_R	IN_RGB_G	IN_RGB_B	OUT_LAB_L	OUT_LAB_A	OUT_LAB_B
END_DATA_FORMAT
BEGIN_DATA
 0	0.00000000	0.00000000	0.00000000	0.00000000	0.00000757	0.00000757
 1	0.00000000	0.00000000	13.00000000	0.22034978	1.37501699	-5.04486012
 2	0.00000000	0.00000000	26.00000000	0.56554885	3.52910620	-12.94769886
 3	0.00000000	0.00000000	38.00000000	1.06116757	6.62185144	-21.78146484
 4	0.00000000	0.00000000	51.00000000	1.81245729	11.31002468	-30.48745888
 5	0.00000000	0.00000000	64.00000000	2.80695856	17.51586688	-38.37924781
 6	0.00000000	0.00000000	77.00000000	4.06312868	24.75403768	-45.50344753
 7	0.00000000	0.00000000	89.00000000	5.46936914	30.27685893	-51.42028484
 8	0.00000000	0.00000000	102.00000000	7.27442503	34.74535835	-57.12812576
 9	0.00000000	0.00000000	115.00000000	9.31309909	37.93481600	-62.23728600
 10	0.00000000	0.00000000	128.00000000	11.33367792	40.96290392	-67.20528002
 11	0.00000000	0.00000000	140.00000000	13.16615790	43.70909256	-71.71079326
 12	0.00000000	0.00000000	153.00000000	15.11941403	46.63630348	-76.51326436
 13	0.00000000	0.00000000	166.00000000	17.04246849	49.51823604	-81.24147984
 14	0.00000000	0.00000000	179.00000000	18.93792301	52.35879642	-85.90182717
 15	0.00000000	0.00000000	191.00000000	20.66499889	54.94705033	-90.14818671
 16	0.00000000	0.00000000	204.00000000	22.51334637	57.71702570	-94.69271626
 17	0.00000000	0.00000000	217.00000000	24.33976829	60.45414042	-99.18334189
 18	0.00000000	0.00000000	230.00000000	26.14573836	63.16061360	-103.62367912
 19	0.00000000	0.00000000	242.00000000	27.79576480	65.63338411	-107.68059413
 20	0.00000000	0.00000000	255.00000000	29.56593931	68.28620416	-112.03291669
 21	0.00000000	13.00000000	0.00000000	2.60631684	-4.97521746	3.75607562
 22	0.00000000	13.00000000	13.00000000	2.82666683	-3.60020044	-1.28878447
 23	0.00000000	13.00000000	26.00000000	3.17186601	-1.44610363	-9.17445573
 24	0.00000000	13.00000000	38.00000000	3.66748460	1.64664161	-17.76516396
 25	0.00000000	13.00000000	51.00000000	4.41877432	6.33479965	-26.32916722
 26	0.00000000	13.00000000	64.00000000	5.41327558	12.52235723	-34.13661587
 27	0.00000000	13.00000000	77.00000000	6.66944534	18.68942630	-41.20618212
 28	0.00000000	13.00000000	89.00000000	8.07544813	23.33268595	-47.08822849
 29	0.00000000	13.00000000	102.00000000	9.75003242	27.65068305	-52.99317244
 30	0.00000000	13.00000000	115.00000000	11.46746948	31.68349785	-58.63539088
 31	0.00000000	13.00000000	128.00000000	13.21111321	35.48400831	-64.06485873
 32	0.00000000	13.00000000	140.00000000	14.83377516	38.82307154	-68.92038639
 33	0.00000000	13.00000000	153.00000000	16.59822464	42.28897196	-74.03808858
 34	0.00000000	13.00000000	166.00000000	18.36392283	45.62339944	-79.02918915
 35	0.00000000	13.00000000	179.00000000	20.12686282	48.84732884	-83.91104180
 36	0.00000000	13.00000000	191.00000000	21.74934000	51.73958164	-88.33230975
 37	0.00000000	13.00000000	204.00000000	23.49996418	54.79464811	-93.04030272
 38	0.00000000	13.00000000	217.00000000	25.24197698	57.77879518	-97.67215538
 39	0.00000000	13.00000000	230.00000000	26.97450221	60.70077759	-102.23540462
 40	0.00000000	13.00000000	242.00000000	28.56486142	63.34899229	-106.39218777
 41	0.00000000	13.00000000	255.00000000	30.27780950	66.17038649	-110.84031648
 42	0.00000000	26.00000000	0.00000000	6.68936297	-12.76937443	9.64031827
 43	0.00000000	26.00000000	13.00000000	6.90971315	-11.39435741	4.59546578
 44	0.00000000	26.00000000	26.00000000	7.25491196	-9.24026060	-3.21622345
 45	0.00000000	26.00000000	38.00000000	7.75053054	-6.14752296	-11.45599011
 46	0.00000000	26.00000000	51.00000000	8.49167854	-1.42037901	-19.82506382
 47	0.00000000	26.00000000	64.00000000	9.41166133	4.07992464	-27.63256568
 48	0.00000000	26.00000000	77.00000000	10.48607603	9.51791924	-34.93151802
 49	0.00000000	26.00000000	89.00000000	11.59374714	14.35624522	-41.27352971
 50	0.00000000	26.00000000	102.00000000	12.89674938	19.34435916	-47.77594599
 51	0.00000000	26.00000000	115.00000000	14.28566426	24.05727667	-53.95224857
 52	0.00000000	26.00000000	128.00000000	15.74174613	28.50790185	-59.85259476
 53	0.00000000	26.00000000	140.00000000	17.13196039	32.40396959	-65.09060229
 54	0.00000000	26.00000000	153.00000000	18.67614686	36.42015648	-70.57199056
 55	0.00000000	26.00000000	166.00000000	20.25009543	40.24936301	-75.88056411
 56	0.00000000	26.00000000	179.00000000	21.84574753	43.91567987	-81.03995006
 57	0.00000000	26.00000000	191.00000000	23.33241850	47.17371625	-85.68688031
 58	0.00000000	26.00000000	204.00000000	24.95319098	50.58368367	-90.61089168
 59	0.00000000	26.00000000	217.00000000	26.58074796	53.88450575	-95.43335731
 60	0.00000000	26.00000000	230.00000000	28.21198702	57.08954257	-100.16542199
 61	0.00000000	26.00000000	242.00000000	29.71890867	59.97278225	-104.46136317
 62	0.00000000	26.00000000	255.00000000	31.35088682	63.02379054	-109.04461454
 63	0.00000000	38.00000000	0.00000000	11.88779101	-21.09862629	16.94413435
 64	0.00000000	38.00000000	13.00000000	12.05004007	-19.47317991	11.79910403
 65	0.00000000	38.00000000	26.00000000	12.30050847	-16.93566087	4.01882392
 66	0.00000000	38.00000000	38.00000000	12.65254766	-13.60902297	-4.01880118
 67	0.00000000	38.00000000	51.00000000	13.17024976	-9.22298673	-12.48769554
 68	0.00000000	38.00000000	64.00000000	13.82848918	-4.31488129	-20.56955788
 69	0.00000000	38.00000000	77.00000000	14.62049484	0.85132909	-28.23814678
 70	0.00000000	38.00000000	89.00000000	15.46109617	5.67723733	-34.96407467
 71	0.00000000	38.00000000	102.00000000	16.47828072	10.84255856	-41.89820099
 72	0.00000000	38.00000000	115.00000000	17.59277284	15.86494666	-48.50174505
 73	0.00000000	38.00000000	128.00000000	18.79084855	20.70290786	-54.81148127
 74	0.00000000	38.00000000	140.00000000	19.95977014	24.99105376	-60.40494832
 75	0.00000000	38.00000000	153.00000000	21.28337175	29.44367003	-66.24372262
 76	0.00000000	38.00000000	166.00000000	22.65643030	33.70394063	-71.87989558
 77	0.00000000	38.00000000	179.00000000	24.06996340	37.78495204	-77.33770992
 78	0.00000000	38.00000000	191.00000000	25.40403903	41.40588415	-82.23557870
 79	0.00000000	38.00000000	204.00000000	26.87490880	45.18456858	-87.40680102
 80	0.00000000	38.00000000	217.00000000	28.36709321	48.82782829	-92.45302524
 81	0.00000000	38.00000000	230.00000000	29.87601757	52.34928173	-97.38765325
 82	0.00000000	38.00000000	242.00000000	31.28041923	55.50248933	-101.85362770
 83	0.00000000	38.00000000	255.00000000	32.81138837	58.82338953	-106.60459827
 84	0.00000000	51.00000000	0.00000000	17.33563393	-25.45459095	23.82216048
 85	0.00000000	51.00000000	13.00000000	17.44945794	-24.19162992	18.59364104
 86	0.00000000	51.00000000	26.00000000	17.62623340	-22.30527434	11.14880693
 87	0.00000000	51.00000000	38.00000000	17.87683368	-19.77215546	3.52038187
 88	0.00000000	51.00000000	51.00000000	18.24978441	-16.26752752	-4.80386946
 89	0.00000000	51.00000000	64.00000000	18.73131096	-12.13400292	-12.93768260
 90	0.00000000	51.00000000	77.00000000	19.32107061	-7.55672294	-20.78424636
 91	0.00000000	51.00000000	89.00000000	19.95874345	-3.08724317	-27.74734992
 92	0.00000000	51.00000000	102.00000000	20.74549198	1.88460004	-34.98820338
 93	0.00000000	51.00000000	115.00000000	21.62515819	6.88450855	-41.92821938
 94	0.00000000	51.00000000	128.00000000	22.58971930	11.83429015	-48.58753684
 95	0.00000000	51.00000000	140.00000000	23.54810685	16.31397617	-54.50488332
 96	0.00000000	51.00000000	153.00000000	24.65208322	21.04066414	-60.68785074
 97	0.00000000	51.00000000	166.00000000	25.81639886	25.61964643	-66.65569271
 98	0.00000000	51.00000000	179.00000000	27.03332007	30.04446340	-72.42903452
 99	0.00000000	51.00000000	191.00000000	28.19716632	33.99245155	-77.60208833
 100	0.00000000	51.00000000	204.00000000	29.49586511	38.12612814	-83.05318083
 101	0.00000000	51.00000000	217.00000000	30.82832992	42.11799634	-88.36023825
 102	0.00000000	51.00000000	230.00000000	32.18944669	45.97682607	-93.53711466
 103	0.00000000	51.00000000	242.00000000	33.46741498	49.42883444	-98.21091137
 104	0.00000000	51.00000000	255.00000000	34.87154543	53.05811089	-103.17085552
 105	0.00000000	64.00000000	0.00000000	22.56838679	-29.45024374	29.51524299
 106	0.00000000	64.00000000	13.00000000	22.65352309	-28.50037071	24.26176649
 107	0.00000000	64.00000000	26.00000000	22.78614640	-27.05819610	17.57810754
 108	0.00000000	64.00000000	38.00000000	22.97499180	-25.07825154	10.48005801
 109	0.00000000	64.00000000	51.00000000	23.25781137	-22.25950959	2.46229064
 110	0.00000000	64.00000000	64.00000000	23.62603247	-18.82106650	-5.55793899
 111	0.00000000	64.00000000	77.00000000	24.08157289	-14.87690094	-13.42199701
 112	0.00000000	64.00000000	89.00000000	24.57954884	-10.89518580	-20.48263374
 113	0.00000000	64.00000000	102.00000000	25.20136237	-6.32476825	-27.89153698
 114	0.00000000	64.00000000	115.00000000	25.90581775	-1.59029070	-35.04517752
 115	0.00000000	64.00000000	128.00000000	26.68876946	3.22094274	-41.94869268
 116	0.00000000	64.00000000	140.00000000	27.47691274	7.67111194	-48.10857254
 117	0.00000000	64.00000000	153.00000000	28.39652896	12.45424968	-54.56434253
 118	0.00000000	64.00000000	166.00000000	29.37905192	17.16274422	-60.80862346
 119	0.00000000	64.00000000	179.00000000	30.41875362	21.77236807	-66.85672852
 120	0.00000000	64.00000000	191.00000000	31.42437935	25.92668515	-72.27850179
 121	0.00000000	64.00000000	204.00000000	32.55847394	30.31054032	-77.99108106
 122	0.00000000	64.00000000	217.00000000	33.73405933	34.57015735	-83.54946080
 123	0.00000000	64.00000000	230.00000000	34.94639993	38.70615941	-88.96627913
 124	0.00000000	64.00000000	242.00000000	36.09432578	42.41688830	-93.85087523
 125	0.00000000	64.00000000	255.00000000	37.36543059	46.32516098	-99.02736786
 126	0.00000000	77.00000000	0.00000000	27.62877047	-33.31427920	34.03525245
 127	0.00000000	77.00000000	13.00000000	27.69534886	-32.56913158	29.27509588
 128	0.00000000	77.00000000	26.00000000	27.79924273	-31.42701167	23.42064363
 129	0.00000000	77.00000000	38.00000000	27.94755101	-29.83821052	16.89832401
 130	0.00000000	77.00000000	51.00000000	28.17047834	-27.53576207	9.28211910
 131	0.00000000	77.00000000	64.00000000	28.46215069	-24.66475013	1.48397994
 132	0.00000000	77.00000000	77.00000000	28.82518768	-21.29049319	-6.28717306
 133	0.00000000	77.00000000	89.00000000	29.22473848	-17.80053246	-13.34533232
 134	0.00000000	77.00000000	102.00000000	29.72747684	-13.69669187	-20.81814054
 135	0.00000000	77.00000000	115.00000000	30.30196428	-9.34195834	-28.08737087
 136	0.00000000	77.00000000	128.00000000	30.94634712	-4.81615040	-35.14477018
 137	0.00000000	77.00000000	140.00000000	31.60095513	-0.54650190	-41.47168148
 138	0.00000000	77.00000000	153.00000000	32.37191439	4.12468624	-48.12773111
 139	0.00000000	77.00000000	166.00000000	33.20364654	8.79861784	-54.58587217
 140	0.00000000	77.00000000	179.00000000	34.09227133	13.43973440	-60.85600692
 141	0.00000000	77.00000000	191.00000000	34.95954871	17.67176491	-66.48618761
 142	0.00000000	77.00000000	204.00000000	35.94620228	22.18227488	-72.42501053
 143	0.00000000	77.00000000	217.00000000	36.97789907	26.60310966	-78.20745285
 144	0.00000000	77.00000000	230.00000000	38.05070519	30.92619848	-83.84404759
 145	0.00000000	77.00000000	242.00000000	39.07420635	34.82626361	-88.92632428
 146	0.00000000	77.00000000	255.00000000	40.21563828	38.95189983	-94.31028958
 147	0.00000000	89.00000000	0.00000000	32.17242956	-36.78374383	37.58079660
 148	0.00000000	89.00000000	13.00000000	32.22706020	-36.17117870	33.56588644
 149	0.00000000	89.00000000	26.00000000	32.31239915	-35.22708136	28.38700753
 150	0.00000000	89.00000000	38.00000000	32.43439496	-33.90340719	22.39516985
 151	0.00000000	89.00000000	51.00000000	32.61816800	-31.96433324	15.19482982
 152	0.00000000	89.00000000	64.00000000	32.85931349	-29.51278079	7.66533625
 153	0.00000000	89.00000000	77.00000000	33.16054344	-26.58551666	0.04917693
 154	0.00000000	89.00000000	89.00000000	33.49344134	-23.50776541	-6.94193873
 155	0.00000000	89.00000000	102.00000000	33.91429484	-19.82653815	-14.40447229
 156	0.00000000	89.00000000	115.00000000	34.39783156	-15.85073549	-21.71318251
 157	0.00000000	89.00000000	128.00000000	34.94341075	-11.64737064	-28.84830284
 158	0.00000000	89.00000000	140.00000000	35.50098538	-7.61941198	-35.27331728
 159	0.00000000	89.00000000	153.00000000	36.16181314	-3.14779672	-42.05767843
 160	0.00000000	89.00000000	166.00000000	36.87952161	1.38938022	-48.66157207
 161	0.00000000	89.00000000	179.00000000	37.65154779	5.95199299	-55.09024191
 162	0.00000000	89.00000000	191.00000000	38.40996623	10.15810889	-60.87477031
 163	0.00000000	89.00000000	204.00000000	39.27837908	14.68460840	-66.98645356
 164	0.00000000	89.00000000	217.00000000	40.19245803	19.16055542	-72.94502023
 165	0.00000000	89.00000000	230.00000000	41.14909470	23.57126755	-78.75878046
 166	0.00000000	89.00000000	242.00000000	42.06724465	27.57570547	-84.00397341
 167	0.00000000	89.00000000	255.00000000	43.09709370	31.83471453	-89.56240255
 168	0.00000000	102.00000000	0.00000000	36.97679639	-40.45228738	41.32883948
 169	0.00000000	102.00000000	13.00000000	37.02197969	-39.94498420	37.93890458
 170	0.00000000	102.00000000	26.00000000	37.09261417	-39.15998432	33.39206856
 171	0.00000000	102.00000000	38.00000000	37.19369471	-38.05305052	27.94761431
 172	0.00000000	102.00000000	51.00000000	37.34619319	-36.41834024	21.21686828
 173	0.00000000	102.00000000	64.00000000	37.54673004	-34.32978231	14.02190876
 174	0.00000000	102.00000000	77.00000000	37.79790103	-31.80494699	6.62676078
 175	0.00000000	102.00000000	89.00000000	38.07632327	-29.11508653	-0.23977476
 176	0.00000000	102.00000000	102.00000000	38.42955828	-25.85226241	-7.63427678
 177	0.00000000	102.00000000	115.00000000	38.83709311	-22.27499756	-14.92939132
 178	0.00000000	102.00000000	128.00000000	39.29901719	-18.43567598	-22.09363329
 179	0.00000000	102.00000000	140.00000000	39.77333605	-14.70413941	-28.57569027
 180	0.00000000	102.00000000	153.00000000	40.33831656	-10.50478715	-35.44798630
 181	0.00000000	102.00000000	166.00000000	40.95528126	-6.18639487	-42.16150406
 182	0.00000000	102.00000000	179.00000000	41.62268043	-1.78912643	-48.71686670
 183	0.00000000	102.00000000	191.00000000	42.28193164	2.30985802	-54.63013980
 184	0.00000000	102.00000000	204.00000000	43.04100871	6.76621330	-60.89100304
 185	0.00000000	102.00000000	217.00000000	43.84462833	11.21536416	-67.00612131
 186	0.00000000	102.00000000	230.00000000	44.69049275	15.63761246	-72.98145267
 187	0.00000000	102.00000000	242.00000000	45.50673664	19.68238902	-78.37848547
 188	0.00000000	102.00000000	255.00000000	46.42716050	24.01257586	-84.10273391
 189	0.00000000	115.00000000	0.00000000	41.67445898	-44.03935570	44.99362123
 190	0.00000000	115.00000000	13.00000000	41.71259105	-43.61086789	42.09068340
 191	0.00000000	115.00000000	26.00000000	41.77222550	-42.94598716	38.08074337
 192	0.00000000	115.00000000	38.00000000	41.85763299	-42.00472447	33.14117563
 193	0.00000000	115.00000000	51.00000000	41.98661745	-40.60679469	26.87835169
 194	0.00000000	115.00000000	64.00000000	42.15647876	-38.80735564	20.04332405
 195	0.00000000	115.00000000	77.00000000	42.36963093	-36.61241862	12.90736777
 196	0.00000000	115.00000000	89.00000000	42.60641336	-34.25109613	6.20548499
 197	0.00000000	115.00000000	102.00000000	42.90756881	-31.35603148	-1.07559311
 198	0.00000000	115.00000000	115.00000000	43.25604439	-28.14467940	-8.31124845
 199	0.00000000	115.00000000	128.00000000	43.65232885	-24.65647417	-15.45907530
 200	0.00000000	115.00000000	140.00000000	44.06064749	-21.22674021	-21.95688623
 201	0.00000000	115.00000000	153.00000000	44.54882145	-17.32269290	-28.87351829
 202	0.00000000	115.00000000	166.00000000	45.08408904	-13.26148602	-35.65457362
 203	0.00000000	115.00000000	179.00000000	45.66558897	-9.08028159	-42.29638162
 204	0.00000000	115.00000000	191.00000000	46.24242783	-5.14340404	-48.30312210
 205	0.00000000	115.00000000	204.00000000	46.90950811	-0.82279268	-54.67721167
 206	0.00000000	115.00000000	217.00000000	47.61897922	3.53027654	-60.91549653
 207	0.00000000	115.00000000	230.00000000	48.36920202	7.89352161	-67.02167387
 208	0.00000000	115.00000000	242.00000000	49.09637272	11.91393387	-72.54463571
 209	0.00000000	115.00000000	255.00000000	49.91997778	16.24714535	-78.40930942
 210	0.00000000	128.00000000	0.00000000	46.27823532	-47.55472946	48.58517331
 211	0.00000000	128.00000000	13.00000000	46.31094038	-47.18695480	46.06846195
 212	0.00000000	128.00000000	26.00000000	46.36211097	-46.61519948	42.51299274
 213	0.00000000	128.00000000	38.00000000	46.43542767	-45.80343384	38.03023648
 214	0.00000000	128.00000000	51.00000000	46.54624462	-44.59292519	32.21916270
 215	0.00000000	128.00000000	64.00000000	46.69232965	-43.02619326	25.75411361
 216	0.00000000	128.00000000	77.00000000	46.87588513	-41.10235649	18.90192610
 217	0.00000000	128.00000000	89.00000000	47.08010852	-39.01740077	12.39378732
 218	0.00000000	128.00000000	102.00000000	47.34032750	-36.44017386	5.26074928
 219	0.00000000	128.00000000	115.00000000	47.64208198	-33.55515587	-1.87951598
 220	0.00000000	128.00000000	128.00000000	47.98606634	-30.39128605	-8.97467765
 221	0.00000000	128.00000000	140.00000000	48.34140837	-27.25102815	-15.45492592
 222	0.00000000	128.00000000	153.00000000	48.76742065	-23.64242259	-22.38028991
 223	0.00000000	128.00000000	166.00000000	49.23598170	-19.85177639	-29.19404629
 224	0.00000000	128.00000000	179.00000000	49.74667728	-15.91174501	-35.88842827
 225	0.00000000	128.00000000	191.00000000	50.25495291	-12.16900665	-41.95842776
 226	0.00000000	128.00000000	204.00000000	50.84474087	-8.02652213	-48.41434973
 227	0.00000000	128.00000000	217.00000000	51.47430301	-3.81790596	-54.74593478
 228	0.00000000	128.00000000	230.00000000	52.14250088	0.43379229	-60.95480922
 229	0.00000000	128.00000000	242.00000000	52.79250741	4.37921178	-66.57932061
 230	0.00000000	128.00000000	255.00000000	53.53139639	8.65957570	-72.55983870
 231	0.00000000	140.00000000	0.00000000	50.45343041	-50.74284199	51.84237373
 232	0.00000000	140.00000000	13.00000000	50.48215985	-50.41967693	49.61525244
 233	0.00000000	140.00000000	26.00000000	50.52711964	-49.91655353	46.41740483
 234	0.00000000	140.00000000	38.00000000	50.59155822	-49.20086953	42.31342745
 235	0.00000000	140.00000000	51.00000000	50.68899989	-48.13061136	36.89738047
 236	0.00000000	140.00000000	64.00000000	50.81755519	-46.74008358	30.77299070
 237	0.00000000	140.00000000	77.00000000	50.97922683	-45.02462003	24.19525486
 238	0.00000000	140.00000000	89.00000000	51.15929842	-43.15570551	17.88411272
 239	0.00000000	140.00000000	102.00000000	51.38902664	-40.83179581	10.91110688
 240	0.00000000	140.00000000	115.00000000	51.65582299	-38.21289274	3.88411355
 241	0.00000000	140.00000000	128.00000000	51.96048021	-35.32029036	-3.13645813
 242	0.00000000	140.00000000	140.00000000	52.27575898	-32.42875192	-9.57634497
 243	0.00000000	140.00000000	153.00000000	52.65449882	-29.08165592	-16.48369792
 244	0.00000000	140.00000000	166.00000000	53.07198167	-25.53875643	-23.30186206
 245	0.00000000	140.00000000	179.00000000	53.52808833	-21.82830113	-30.01945320
 246	0.00000000	140.00000000	191.00000000	53.98311615	-18.27836442	-36.12498838
 247	0.00000000	140.00000000	204.00000000	54.51244712	-14.32187992	-42.63237479
 248	0.00000000	140.00000000	217.00000000	55.07900119	-10.27416992	-49.02686167
 249	0.00000000	140.00000000	230.00000000	55.68199754	-6.15775201	-55.30822861
 250	0.00000000	140.00000000	242.00000000	56.27017617	-2.31460023	-61.00683603
 251	0.00000000	140.00000000	255.00000000	56.94063902	1.87880915	-67.07410346
 252	0.00000000	153.00000000	0.00000000	54.90381718	-54.14109844	55.31426263
 253	0.00000000	153.00000000	13.00000000	54.92905378	-53.85709408	53.34558827
 254	0.00000000	153.00000000	26.00000000	54.96855378	-53.41447103	50.47918928
 255	0.00000000	153.00000000	38.00000000	55.02519011	-52.78382647	46.74157304
 256	0.00000000	153.00000000	51.00000000	55.11087179	-51.83850560	41.72527981
 257	0.00000000	153.00000000	64.00000000	55.22397161	-50.60641411	35.96149069
 258	0.00000000	153.00000000	77.00000000	55.36631942	-49.08037040	29.68675059
 259	0.00000000	153.00000000	89.00000000	55.52500486	-47.41039801	23.60201550
 260	0.00000000	153.00000000	102.00000000	55.72766066	-45.32328400	16.82120335
 261	0.00000000	153.00000000	115.00000000	55.96331954	-42.95748535	9.93835908
 262	0.00000000	153.00000000	128.00000000	56.23279810	-40.32802644	3.02134705
 263	0.00000000	153.00000000	140.00000000	56.51210546	-37.68276039	-3.35330489
 264	0.00000000	153.00000000	153.00000000	56.84818625	-34.60050258	-10.21767455
 265	0.00000000	153.00000000	166.00000000	57.21935034	-31.31510007	-17.01721209
 266	0.00000000	153.00000000	179.00000000	57.62568116	-27.85004321	-23.73676392
 267	0.00000000	153.00000000	191.00000000	58.03188086	-24.51253030	-29.85971737
 268	0.00000000	153.00000000	204.00000000	58.50545168	-20.76808962	-36.40045080
 269	0.00000000	153.00000000	217.00000000	59.01352167	-16.91146377	-42.84118119
 270	0.00000000	153.00000000	230.00000000	59.55559611	-12.96373400	-49.17987186
 271	0.00000000	153.00000000	242.00000000	60.08564234	-9.25580937	-54.93979278
 272	0.00000000	153.00000000	255.00000000	60.69134474	-5.18653932	-61.08126643
 273	0.00000000	166.00000000	0.00000000	59.28539038	-57.48679611	58.73245281
 274	0.00000000	166.00000000	13.00000000	59.30777788	-57.23480123	56.97770697
 275	0.00000000	166.00000000	26.00000000	59.34281945	-56.84173512	54.39434719
 276	0.00000000	166.00000000	38.00000000	59.39307809	-56.28100681	50.98127913
 277	0.00000000	166.00000000	51.00000000	59.46913362	-55.43897200	46.33370292
 278	0.00000000	166.00000000	64.00000000	59.56957340	-54.33873343	40.91642481
 279	0.00000000	166.00000000	77.00000000	59.69606042	-52.97182518	34.94423968
 280	0.00000000	166.00000000	89.00000000	59.83716249	-51.47070813	29.09372401
 281	0.00000000	166.00000000	102.00000000	60.01750827	-49.58703521	22.51905841
 282	0.00000000	166.00000000	115.00000000	60.22742987	-47.44187552	15.79769027
 283	0.00000000	166.00000000	128.00000000	60.46774387	-45.04545811	9.00330526
 284	0.00000000	166.00000000	140.00000000	60.71712375	-42.62204695	2.71231723
 285	0.00000000	166.00000000	153.00000000	61.01758480	-39.78282410	-4.08869463
 286	0.00000000	166.00000000	166.00000000	61.34991050	-36.73867065	-10.84908667
 287	0.00000000	166.00000000	179.00000000	61.71430349	-33.50884396	-17.55014110
 288	0.00000000	166.00000000	191.00000000	62.07919121	-30.37987146	-23.67175701
 289	0.00000000	166.00000000	204.00000000	62.50533462	-26.84909332	-30.22575933
 290	0.00000000	166.00000000	217.00000000	62.96340227	-23.19090801	-36.69302750
 291	0.00000000	166.00000000	230.00000000	63.45310211	-19.42450452	-43.06971613
 292	0.00000000	166.00000000	242.00000000	63.93288970	-15.86759898	-48.87355509
 293	0.00000000	166.00000000	255.00000000	64.48228359	-11.94347355	-55.07090855
 294	0.00000000	179.00000000	0.00000000	63.60407472	-60.78447956	62.10159522
 295	0.00000000	179.00000000	13.00000000	63.62409592	-60.55902246	60.52601737
 296	0.00000000	179.00000000	26.00000000	63.65544796	-60.20713094	58.18567735
 297	0.00000000	179.00000000	38.00000000	63.70041370	-59.70463070	55.05982828
 298	0.00000000	179.00000000	51.00000000	63.76848221	-58.94895765	50.74999315
 299	0.00000000	179.00000000	64.00000000	63.85840178	-57.95966554	45.66171658
 300	0.00000000	179.00000000	77.00000000	63.97170424	-56.72755125	39.98673630
 301	0.00000000	179.00000000	89.00000000	64.09815550	-55.37066686	34.37357110
 302	0.00000000	179.00000000	102.00000000	64.25988078	-53.66243812	28.01426274
 303	0.00000000	179.00000000	115.00000000	64.44827318	-51.70969251	21.46725965
 304	0.00000000	179.00000000	128.00000000	64.66413736	-49.51913285	14.81064004
 305	0.00000000	179.00000000	140.00000000	64.88834620	-47.29437503	8.61838591
