bench/lcms_compat/reference/srgb_to_USSheetfedCoated.icc_Perceptual.it8
CGATS.17
ORIGINATOR	"icctrans"
#
# Data follows
#
NUMBER_OF_SETS	9261.00000000
NUMBER_OF_FIELDS	8.00000000
BEGIN_DATA_FORMAT
 SAMPLE_ID	IN_RGB_R	IN_RGB_G	IN_RGB_B	OUT_CMYK_C	OUT_CMYK_M	OUT_CMYK_Y	OUT_CMYK_K
END_DATA_FORMAT
BEGIN_DATA
 0	0.00000000	0.00000000	0.00000000	93.47066283	85.39406657	84.04211402	84.58076119
 1	0.00000000	0.00000000	13.00000000	97.88662791	89.53993917	72.75806665	76.21576190
 2	0.00000000	0.00000000	26.00000000	100.00000000	94.68833208	64.12909031	67.89044142
 3	0.00000000	0.00000000	38.00000000	100.00000000	94.71732378	62.70695329	60.32501459
 4	0.00000000	0.00000000	51.00000000	100.00000000	94.05966401	59.36369896	52.61616111
 5	0.00000000	0.00000000	64.00000000	100.00000000	93.66598129	56.96955919	43.90173256
 6	0.00000000	0.00000000	77.00000000	100.00000000	93.27992797	55.46349287	34.69443917
 7	0.00000000	0.00000000	89.00000000	100.00000000	93.11207533	53.29976082	27.82177329
 8	0.00000000	0.00000000	102.00000000	100.00000000	92.71534085	51.09636188	20.88960111
 9	0.00000000	0.00000000	115.00000000	100.00000000	91.90966487	47.80499041	15.39635360
 10	0.00000000	0.00000000	128.00000000	100.00000000	90.80796242	40.16174674	10.70115194
 11	0.00000000	0.00000000	140.00000000	100.00000000	90.55924416	32.26214945	7.19920620
 12	0.00000000	0.00000000	153.00000000	100.00000000	89.61928487	22.81681597	3.70641649
 13	0.00000000	0.00000000	166.00000000	100.00000000	87.80346513	14.13748413	1.92111079
 14	0.00000000	0.00000000	179.00000000	100.00000000	87.01915145	5.97390719	0.30670634
 15	0.00000000	0.00000000	191.00000000	100.00000000	84.15350318	0.26245518	0.17395285
 16	0.00000000	0.00000000	204.00000000	99.51629043	81.21004105	0.00000000	0.00000000
 17	0.00000000	0.00000000	217.00000000	95.98840475	77.74929404	0.00000000	0.00000000
 18	0.00000000	0.00000000	230.00000000	94.24734712	75.50621629	0.00000000	0.00000000
 19	0.00000000	0.00000000	242.00000000	92.88624525	73.58968258	0.00000000	0.00000000
 20	0.00000000	0.00000000	255.00000000	91.96459651	72.07446694	0.00000000	0.00000000
 21	0.00000000	13.00000000	0.00000000	92.25909710	72.98848033	89.34310079	79.07987833
 22	0.00000000	13.00000000	13.00000000	96.61554694	77.72945762	80.01831174	76.70862675
 23	0.00000000	13.00000000	26.00000000	100.00000000	86.47134900	66.93674922	67.19615459
 24	0.00000000	13.00000000	38.00000000	100.00000000	90.26321769	63.23643923	58.73807669
 25	0.00000000	13.00000000	51.00000000	100.00000000	91.49767160	60.41657329	50.00991821
 26	0.00000000	13.00000000	64.00000000	100.00000000	92.17669964	58.50461721	40.91401398
 27	0.00000000	13.00000000	77.00000000	100.00000000	92.08362103	56.33172989	32.30945170
 28	0.00000000	13.00000000	89.00000000	100.00000000	91.77233577	53.89791727	25.56191385
 29	0.00000000	13.00000000	102.00000000	100.00000000	91.35576487	51.16807818	19.45525259
 30	0.00000000	13.00000000	115.00000000	100.00000000	90.78965187	44.39307153	14.13901001
 31	0.00000000	13.00000000	128.00000000	100.00000000	90.15030265	37.42122650	9.64827985
 32	0.00000000	13.00000000	140.00000000	100.00000000	89.66506720	29.59792614	6.04867637
 33	0.00000000	13.00000000	153.00000000	100.00000000	88.86548877	21.66018188	3.17235067
 34	0.00000000	13.00000000	166.00000000	100.00000000	87.54100800	10.97581461	1.31990537
 35	0.00000000	13.00000000	179.00000000	100.00000000	85.51155925	4.24353406	0.46082246
 36	0.00000000	13.00000000	191.00000000	100.00000000	83.73540640	0.00000000	0.02136263
 37	0.00000000	13.00000000	204.00000000	99.33928251	80.01220822	0.00000000	0.00000000
 38	0.00000000	13.00000000	217.00000000	94.75700259	77.14961767	0.00000000	0.00000000
 39	0.00000000	13.00000000	230.00000000	93.67208481	75.08811951	0.00000000	0.00000000
 40	0.00000000	13.00000000	242.00000000	92.71076322	73.01136851	0.00000000	0.00000000
 41	0.00000000	13.00000000	255.00000000	91.96154475	71.12687826	0.00000000	0.00000000
 42	0.00000000	26.00000000	0.00000000	91.30083323	62.23391891	95.79308629	70.87662816
 43	0.00000000	26.00000000	13.00000000	95.83123326	63.64843249	90.88273644	71.66857123
 44	0.00000000	26.00000000	26.00000000	99.98626709	70.63553929	74.76615310	66.63462520
 45	0.00000000	26.00000000	38.00000000	100.00000000	79.46135402	63.88952732	57.97359943
 46	0.00000000	26.00000000	51.00000000	100.00000000	86.37064099	60.80720425	47.46013582
 47	0.00000000	26.00000000	64.00000000	100.00000000	88.90516758	58.93339515	37.85763383
 48	0.00000000	26.00000000	77.00000000	100.00000000	89.46059346	56.49042726	29.72304821
 49	0.00000000	26.00000000	89.00000000	100.00000000	90.01601934	52.86030173	23.19218665
 50	0.00000000	26.00000000	102.00000000	100.00000000	89.51247334	47.59899378	17.20454693
 51	0.00000000	26.00000000	115.00000000	100.00000000	89.25154209	41.36720896	12.22705394
 52	0.00000000	26.00000000	128.00000000	100.00000000	88.68390918	33.70260298	8.18036199
 53	0.00000000	26.00000000	140.00000000	100.00000000	88.36499453	26.36148632	5.00038154
 54	0.00000000	26.00000000	153.00000000	100.00000000	87.77447343	16.98786914	2.22781729
 55	0.00000000	26.00000000	166.00000000	100.00000000	86.20889783	8.73731598	0.93385214
 56	0.00000000	26.00000000	179.00000000	100.00000000	84.70435739	0.91401543	0.01220722
 57	0.00000000	26.00000000	191.00000000	100.00000000	82.01876879	0.00000000	0.00000000
 58	0.00000000	26.00000000	204.00000000	96.18219137	78.37491632	0.00000000	0.00000000
 59	0.00000000	26.00000000	217.00000000	94.14358735	76.46143436	0.00000000	0.00000000
 60	0.00000000	26.00000000	230.00000000	92.96711683	74.37094450	0.00000000	0.00000000
 61	0.00000000	26.00000000	242.00000000	92.64209867	72.17212319	0.00000000	0.00000000
 62	0.00000000	26.00000000	255.00000000	90.82475305	71.28404379	0.00000000	0.00000000
 63	0.00000000	38.00000000	0.00000000	92.41474271	56.68268800	100.00000000	63.54925036
 64	0.00000000	38.00000000	13.00000000	95.75799108	56.16083145	99.49187636	63.75371814
 65	0.00000000	38.00000000	26.00000000	97.15266824	58.22690129	85.39101481	62.20950484
 66	0.00000000	38.00000000	38.00000000	99.61242080	65.29945731	70.89952230	56.76050782
 67	0.00000000	38.00000000	51.00000000	100.00000000	74.43045974	59.95422006	47.23582864
 68	0.00000000	38.00000000	64.00000000	100.00000000	81.54116273	54.40604091	36.60639226
 69	0.00000000	38.00000000	77.00000000	100.00000000	84.79591012	51.74486637	27.62340605
 70	0.00000000	38.00000000	89.00000000	100.00000000	86.07766628	48.34973812	20.83924562
 71	0.00000000	38.00000000	102.00000000	100.00000000	86.84977293	43.03044081	15.35057575
 72	0.00000000	38.00000000	115.00000000	100.00000000	86.78873777	36.41412854	10.35782397
 73	0.00000000	38.00000000	128.00000000	100.00000000	86.53544188	29.38887477	6.24551773
 74	0.00000000	38.00000000	140.00000000	100.00000000	85.98306179	21.78835720	3.61791402
 75	0.00000000	38.00000000	153.00000000	100.00000000	85.71602702	12.58869320	1.48165105
 76	0.00000000	38.00000000	166.00000000	100.00000000	84.37476158	5.18501550	0.36316472
 77	0.00000000	38.00000000	179.00000000	100.00000000	82.24155307	0.00000000	0.10223545
 78	0.00000000	38.00000000	191.00000000	98.18112254	79.13176417	0.00000000	0.00000000
 79	0.00000000	38.00000000	204.00000000	95.43907642	76.75287724	0.00000000	0.00000000
 80	0.00000000	38.00000000	217.00000000	93.82162094	74.43503737	0.00000000	0.00000000
 81	0.00000000	38.00000000	230.00000000	92.60242581	72.69092798	0.00000000	0.00000000
 82	0.00000000	38.00000000	242.00000000	91.36339426	71.35271430	0.00000000	0.00000000
 83	0.00000000	38.00000000	255.00000000	90.51651955	70.06484866	0.00000000	0.00000000
 84	0.00000000	51.00000000	0.00000000	92.55664945	50.84916353	100.00000000	54.48691249
 85	0.00000000	51.00000000	13.00000000	94.58304644	50.53787827	100.00000000	54.34042811
 86	0.00000000	51.00000000	26.00000000	96.02807760	50.56686997	95.57946324	54.07034159
 87	0.00000000	51.00000000	38.00000000	96.62622809	53.36995721	81.87075853	51.99511647
 88	0.00000000	51.00000000	51.00000000	98.79148602	59.98321772	67.57610440	46.08987570
 89	0.00000000	51.00000000	64.00000000	100.00000000	67.73784757	56.07538223	37.33882606
 90	0.00000000	51.00000000	77.00000000	100.00000000	74.68222976	47.70885706	27.71496177
 91	0.00000000	51.00000000	89.00000000	100.00000000	78.59159112	42.60318875	20.26245445
 92	0.00000000	51.00000000	102.00000000	100.00000000	81.19935989	37.51583099	13.50575984
 93	0.00000000	51.00000000	115.00000000	100.00000000	82.11032152	31.10704124	8.76478255
 94	0.00000000	51.00000000	128.00000000	100.00000000	82.17746019	24.19165373	4.92713824
 95	0.00000000	51.00000000	140.00000000	100.00000000	82.33920932	16.85511619	2.28580143
 96	0.00000000	51.00000000	153.00000000	100.00000000	82.25681186	8.76478255	0.56763561
 97	0.00000000	51.00000000	166.00000000	100.00000000	80.95673919	1.36568248	0.09765774
 98	0.00000000	51.00000000	179.00000000	99.51018691	78.48935723	0.00000000	0.00000000
 99	0.00000000	51.00000000	191.00000000	95.34752369	76.34546161	0.00000000	0.00000000
 100	0.00000000	51.00000000	204.00000000	93.79110336	74.43503737	0.00000000	0.00000000
 101	0.00000000	51.00000000	217.00000000	92.68482327	72.62836695	0.00000000	0.00000000
 102	0.00000000	51.00000000	230.00000000	91.23064280	70.89646459	0.00000000	0.00000000
 103	0.00000000	51.00000000	242.00000000	90.67673683	69.21644807	0.00000000	0.00000000
 104	0.00000000	51.00000000	255.00000000	89.49416280	67.89196730	0.00000000	0.00000000
 105	0.00000000	64.00000000	0.00000000	93.09223890	45.53139508	100.00000000	44.95918155
 106	0.00000000	64.00000000	13.00000000	94.37247515	45.36201954	100.00000000	44.78065073
 107	0.00000000	64.00000000	26.00000000	95.58556676	45.43984234	100.00000000	44.41748559
 108	0.00000000	64.00000000	38.00000000	95.76714635	46.34927809	91.16349816	43.90478432
 109	0.00000000	64.00000000	51.00000000	95.99756002	49.16914701	76.78340077	41.65255129
 110	0.00000000	64.00000000	64.00000000	97.61654139	54.79667187	63.57366443	36.05249226
 111	0.00000000	64.00000000	77.00000000	99.39726591	61.25734448	52.42084265	29.01960909
 112	0.00000000	64.00000000	89.00000000	100.00000000	66.86655879	43.04569960	21.76241726
 113	0.00000000	64.00000000	102.00000000	100.00000000	71.44274116	34.31296349	14.65323865
 114	0.00000000	64.00000000	115.00000000	100.00000000	74.64103103	27.41130590	8.37720335
 115	0.00000000	64.00000000	128.00000000	100.00000000	76.32257342	20.39063126	4.23437841
 116	0.00000000	64.00000000	140.00000000	100.00000000	76.67963505	13.49507868	1.70290694
 117	0.00000000	64.00000000	153.00000000	100.00000000	76.88105702	4.52124812	0.17242695
 118	0.00000000	64.00000000	166.00000000	100.00000000	76.14099383	0.00000000	0.00457771
 119	0.00000000	64.00000000	179.00000000	96.72694206	74.03830290	0.00000000	0.00000000
 120	0.00000000	64.00000000	191.00000000	94.33890581	72.62531519	0.00000000	0.00000000
 121	0.00000000	64.00000000	204.00000000	92.61921048	70.92393637	0.00000000	0.00000000
 122	0.00000000	64.00000000	217.00000000	91.07652307	69.62233782	0.00000000	0.00000000
 123	0.00000000	64.00000000	230.00000000	90.29678702	68.07812452	0.00000000	0.00000000
 124	0.00000000	64.00000000	242.00000000	89.21492100	67.01610088	0.00000000	0.00000000
 125	0.00000000	64.00000000	255.00000000	88.29480410	66.11428857	0.00000000	0.00000000
 126	0.00000000	77.00000000	0.00000000	92.55970120	40.60273170	100.00000000	35.53826213
 127	0.00000000	77.00000000	13.00000000	92.89387465	40.77363312	100.00000000	35.43449938
 128	0.00000000	77.00000000	26.00000000	93.52864623	41.08186364	100.00000000	35.12932062
 129	0.00000000	77.00000000	38.00000000	94.62882280	40.85908234	98.48630428	34.91111696
 130	0.00000000	77.00000000	51.00000000	94.30533051	41.96383655	85.91897488	34.30991173
 131	0.00000000	77.00000000	64.00000000	94.56015825	45.06141841	72.27893472	31.78912103
 132	0.00000000	77.00000000	77.00000000	95.78698277	49.11726415	59.73907113	27.61882842
 133	0.00000000	77.00000000	89.00000000	96.54383063	53.73312235	49.45448935	22.80460894
 134	0.00000000	77.00000000	102.00000000	97.92172313	59.11955237	38.48783076	16.54993445
 135	0.00000000	77.00000000	115.00000000	98.90897870	63.40886354	29.15541232	10.64621955
 136	0.00000000	77.00000000	128.00000000	99.84741211	66.86808467	20.57831734	5.46883345
 137	0.00000000	77.00000000	140.00000000	100.00000000	68.91279221	13.33333403	2.15457398
 138	0.00000000	77.00000000	153.00000000	100.00000000	69.47585344	5.42000458	0.37537194
 139	0.00000000	77.00000000	166.00000000	98.51224422	69.43618059	0.00000000	0.00000000
 140	0.00000000	77.00000000	179.00000000	94.73258853	68.62897873	0.00000000	0.00000000
 141	0.00000000	77.00000000	191.00000000	92.78401136	67.29991436	0.00000000	0.00000000
 142	0.00000000	77.00000000	204.00000000	90.91172814	66.71244502	0.00000000	0.00000000
 143	0.00000000	77.00000000	217.00000000	89.37819600	65.58327675	0.00000000	0.00000000
 144	0.00000000	77.00000000	230.00000000	88.43823671	64.71351385	0.00000000	0.00000000
 145	0.00000000	77.00000000	242.00000000	87.38994598	63.96276951	0.00000000	0.00000000
 146	0.00000000	77.00000000	255.00000000	86.82383299	63.37834597	0.00000000	0.00000000
 147	0.00000000	89.00000000	0.00000000	91.40611887	36.11505330	100.00000000	27.79125571
 148	0.00000000	89.00000000	13.00000000	91.47936106	36.06775105	100.00000000	27.70428061
 149	0.00000000	89.00000000	26.00000000	92.18890667	36.20050251	100.00000000	27.44792998
 150	0.00000000	89.00000000	38.00000000	92.47882962	36.58197820	100.00000000	27.35179663
 151	0.00000000	89.00000000	51.00000000	92.70618558	36.84901297	91.90661311	26.99626088
 152	0.00000000	89.00000000	64.00000000	92.56580472	38.21774721	79.85961437	26.21957660
 153	0.00000000	89.00000000	77.00000000	92.87098646	40.39520919	67.20530987	24.15045351
 154	0.00000000	89.00000000	89.00000000	93.00221205	43.81933212	56.11047745	21.26192153
 155	0.00000000	89.00000000	102.00000000	93.84603500	48.22156131	45.23384571	16.86427146
 156	0.00000000	89.00000000	115.00000000	94.86686587	52.61158347	34.82566476	12.09582686
 157	0.00000000	89.00000000	128.00000000	95.69085240	56.43854141	25.68398714	7.40520358
 158	0.00000000	89.00000000	140.00000000	96.18524313	59.10734534	17.62569547	3.43785770
 159	0.00000000	89.00000000	153.00000000	96.30579352	61.27260327	9.42092016	0.86213471
 160	0.00000000	89.00000000	166.00000000	96.17608786	61.99740767	0.37537194	0.03509575
 161	0.00000000	89.00000000	179.00000000	93.31960082	61.97604537	0.00000000	0.00000000
 162	0.00000000	89.00000000	191.00000000	90.78049660	61.90737486	0.00000000	0.00000000
 163	0.00000000	89.00000000	204.00000000	89.22255039	61.56710386	0.00000000	0.00000000
 164	0.00000000	89.00000000	217.00000000	87.67833710	61.45113111	0.00000000	0.00000000
 165	0.00000000	89.00000000	230.00000000	86.75974607	61.08491421	0.00000000	0.00000000
 166	0.00000000	89.00000000	242.00000000	85.81979275	60.57526469	0.00000000	0.00000000
 167	0.00000000	89.00000000	255.00000000	85.06752253	60.25940180	0.00000000	0.00000000
 168	0.00000000	102.00000000	0.00000000	89.40566182	31.08873069	100.00000000	20.66529393
 169	0.00000000	102.00000000	13.00000000	89.53688741	31.15129173	100.00000000	20.57984322
 170	0.00000000	102.00000000	26.00000000	89.95193243	31.25047684	100.00000000	20.39215714
 171	0.00000000	102.00000000	38.00000000	90.53940773	31.40611947	100.00000000	19.86877173
 172	0.00000000	102.00000000	51.00000000	91.16654992	31.25810623	96.41413093	19.87335086
 173	0.00000000	102.00000000	64.00000000	90.62638283	32.37048984	85.67025065	19.80315894
 174	0.00000000	102.00000000	77.00000000	90.51957130	33.34248960	74.05050993	18.88456494
 175	0.00000000	102.00000000	89.00000000	90.40817618	35.55199504	63.46074343	17.53566861
 176	0.00000000	102.00000000	102.00000000	90.62333107	38.20401430	52.59785056	15.28801471
 177	0.00000000	102.00000000	115.00000000	90.91172814	41.63118899	41.96383655	12.19958812
 178	0.00000000	102.00000000	128.00000000	91.20469689	45.36659718	31.90356195	8.45960155
 179	0.00000000	102.00000000	140.00000000	91.71435237	48.73273969	23.70641679	5.00953682
 180	0.00000000	102.00000000	153.00000000	92.32776165	51.15739703	15.09727687	1.67544056
 181	0.00000000	102.00000000	166.00000000	92.23163128	52.78248191	7.16258511	0.18921187
 182	0.00000000	102.00000000	179.00000000	91.10398889	53.90096903	0.00000000	0.00000000
 183	0.00000000	102.00000000	191.00000000	89.03028965	54.43198085	0.00000000	0.00000000
 184	0.00000000	102.00000000	204.00000000	86.84214354	55.49706221	0.00000000	0.00000000
 185	0.00000000	102.00000000	217.00000000	85.52986979	55.85870147	0.00000000	0.00000000
 186	0.00000000	102.00000000	230.00000000	84.17944312	56.16693497	0.00000000	0.00000000
 187	0.00000000	102.00000000	242.00000000	83.49431753	56.33172989	0.00000000	0.00000000
 188	0.00000000	102.00000000	255.00000000	82.97550678	56.49195313	0.00000000	0.00000000
 189	0.00000000	115.00000000	0.00000000	87.27244735	25.81673861	100.00000000	14.59525377
 190	0.00000000	115.00000000	13.00000000	87.28465438	25.89456141	100.00000000	14.52201158
 191	0.00000000	115.00000000	26.00000000	87.50438690	26.13870502	100.00000000	14.30838555
 192	0.00000000	115.00000000	38.00000000	87.97741532	26.37369335	100.00000000	14.05050755
 193	0.00000000	115.00000000	51.00000000	88.69153857	26.48966312	99.73754287	13.89791667
 194	0.00000000	115.00000000	64.00000000	88.46875429	26.82841122	90.66910744	13.82772624
 195	0.00000000	115.00000000	77.00000000	88.50232959	27.23887861	79.90539670	13.63851428
 196	0.00000000	115.00000000	89.00000000	87.60662079	28.50537896	69.61928606	13.21736425
 197	0.00000000	115.00000000	102.00000000	87.68749237	30.11367917	59.03715491	12.01800555
 198	0.00000000	115.00000000	115.00000000	87.45250702	32.43305087	48.85023236	10.34714282
 199	0.00000000	115.00000000	128.00000000	87.55321503	35.17357111	38.51682246	8.13153312
 200	0.00000000	115.00000000	140.00000000	87.71496415	38.03921640	30.20065725	5.51003292
 201	0.00000000	115.00000000	153.00000000	87.88586259	41.11543596	21.52590156	2.84885932
 202	0.00000000	115.00000000	166.00000000	88.01098466	43.37987304	12.89692521	0.75074388
 203	0.00000000	115.00000000	179.00000000	87.74548173	44.20538545	5.23842238	0.06256199
 204	0.00000000	115.00000000	191.00000000	86.94590926	45.74044347	0.00000000	0.00000000
 205	0.00000000	115.00000000	204.00000000	84.82337594	47.26787210	0.00000000	0.00000000
 206	0.00000000	115.00000000	217.00000000	82.77103901	49.06538427	0.00000000	0.00000000
 207	0.00000000	115.00000000	230.00000000	81.91500902	50.34714341	0.00000000	0.00000000
 208	0.00000000	115.00000000	242.00000000	81.30769730	51.00633502	0.00000000	0.00000000
 209	0.00000000	115.00000000	255.00000000	80.55390120	51.47020817	0.00000000	0.00000000
 210	0.00000000	128.00000000	0.00000000	85.14229059	20.72785497	100.00000000	9.41634253
 211	0.00000000	128.00000000	13.00000000	85.15602350	20.85603178	100.00000000	9.36903954
 212	0.00000000	128.00000000	26.00000000	85.26130915	21.06050253	100.00000000	9.27290767
 213	0.00000000	128.00000000	38.00000000	85.54360271	21.26497328	100.00000000	8.93415734
 214	0.00000000	128.00000000	51.00000000	85.95254421	21.32906020	100.00000000	8.64881352
 215	0.00000000	128.00000000	64.00000000	85.80148220	21.36110514	93.68124008	8.69764239
 216	0.00000000	128.00000000	77.00000000	85.73281169	21.89669609	84.10314918	8.65186527
 217	0.00000000	128.00000000	89.00000000	85.52224040	22.54520506	74.87144470	8.42450634
 218	0.00000000	128.00000000	102.00000000	85.14991999	23.36766571	65.21400809	8.00640881
 219	0.00000000	128.00000000	115.00000000	84.35034752	25.03700256	55.04844785	7.42961764
 220	0.00000000	128.00000000	128.00000000	84.69520211	26.73075497	45.11635005	6.02121018
 221	0.00000000	128.00000000	140.00000000	84.30304527	28.81056070	36.32715344	4.73029688
 222	0.00000000	128.00000000	153.00000000	83.88189673	31.22911453	27.33043432	3.02128643
 223	0.00000000	128.00000000	166.00000000	83.87579322	33.65072012	18.83268505	1.35347527
 224	0.00000000	128.00000000	179.00000000	83.71709585	35.31090319	11.14671528	0.04272526
 225	0.00000000	128.00000000	191.00000000	83.26695561	36.47058904	4.04974446	0.00000000
 226	0.00000000	128.00000000	204.00000000	82.05844164	38.18722963	0.00000000	0.00000000
 227	0.00000000	128.00000000	217.00000000	80.32654524	40.32501578	0.00000000	0.00000000
 228	0.00000000	128.00000000	230.00000000	78.68009210	43.02433729	0.00000000	0.00000000
 229	0.00000000	128.00000000	242.00000000	78.13687325	44.27405298	0.00000000	0.00000000
 230	0.00000000	128.00000000	255.00000000	77.73403525	45.71145177	0.00000000	0.00000000
 231	0.00000000	140.00000000	0.00000000	82.17135668	16.10742360	100.00000000	5.45052253
 232	0.00000000	140.00000000	13.00000000	82.26749301	16.16388261	100.00000000	5.36964983
 233	0.00000000	140.00000000	26.00000000	82.29038119	16.23865068	100.00000000	5.27809560
 234	0.00000000	140.00000000	38.00000000	83.23948979	16.19134843	100.00000000	4.98207062
 235	0.00000000	140.00000000	51.00000000	83.77507925	16.28748029	100.00000000	4.66468297
 236	0.00000000	140.00000000	64.00000000	83.84069800	16.44159555	95.68017125	4.64484617
 237	0.00000000	140.00000000	77.00000000	83.54009390	16.76966548	87.36705780	4.81727310
 238	0.00000000	140.00000000	89.00000000	83.20286870	17.50362366	78.50156426	4.78980690
 239	0.00000000	140.00000000	102.00000000	82.46280551	18.02395731	69.28969026	4.67231236
 240	0.00000000	140.00000000	115.00000000	82.07675219	18.77927780	60.04272699	4.32898439
 241	0.00000000	140.00000000	128.00000000	81.89212084	20.07324398	50.67368746	3.91241312
 242	0.00000000	140.00000000	140.00000000	81.36720657	21.73800319	41.65560305	3.10978871
 243	0.00000000	140.00000000	153.00000000	80.67597747	23.41954708	32.68634975	2.14236677
 244	0.00000000	140.00000000	166.00000000	80.53253889	25.36812425	24.19470549	1.19325556
 245	0.00000000	140.00000000	179.00000000	80.23040891	27.26482153	16.14709646	0.26703288
 246	0.00000000	140.00000000	191.00000000	79.77721691	28.41687500	9.30190012	0.00000000
 247	0.00000000	140.00000000	204.00000000	78.69535089	29.68642712	2.23239493	0.00000000
 248	0.00000000	140.00000000	217.00000000	77.91561484	31.43663704	0.00000000	0.00000000
 249	0.00000000	140.00000000	230.00000000	76.13641620	34.46707726	0.00000000	0.00000000
 250	0.00000000	140.00000000	242.00000000	74.25040007	36.82459891	0.00000000	0.00000000
 251	0.00000000	140.00000000	255.00000000	73.61714840	38.48477900	0.00000000	0.00000000
 252	0.00000000	153.00000000	0.00000000	80.00915647	10.54551005	100.00000000	2.14389265
 253	0.00000000	153.00000000	13.00000000	79.94812131	10.61570123	100.00000000	2.12558173
 254	0.00000000	153.00000000	26.00000000	80.08087277	10.70572957	100.00000000	2.03097574
 255	0.00000000	153.00000000	38.00000000	80.11901975	10.80643907	100.00000000	1.94399934
 256	0.00000000	153.00000000	51.00000000	80.32196760	10.91020033	100.00000000	1.76699478
 257	0.00000000	153.00000000	64.00000000	80.33264875	11.08262762	96.60639167	1.62661169
 258	0.00000000	153.00000000	77.00000000	80.85297942	11.11467183	89.71999884	1.56099796
 259	0.00000000	153.00000000	89.00000000	80.35401106	11.55870929	81.79293275	1.70748457
 260	0.00000000	153.00000000	102.00000000	79.93133664	12.32165992	73.18074107	1.65102612
 261	0.00000000	153.00000000	115.00000000	79.48576808	12.84199357	63.97497654	1.73952859
 262	0.00000000	153.00000000	128.00000000	78.59464288	14.12375122	55.80682158	1.47096971
 263	0.00000000	153.00000000	140.00000000	78.38864923	14.76157755	47.20836282	1.24818804
 264	0.00000000	153.00000000	153.00000000	78.01022530	16.25543535	38.16739023	1.06660565
 265	0.00000000	153.00000000	166.00000000	77.34798193	17.66231805	29.39650714	0.53864350
 266	0.00000000	153.00000000	179.00000000	76.49805546	18.82200390	21.92721516	0.20752270
 267	0.00000000	153.00000000	191.00000000	76.14251971	20.24109215	14.75089639	0.00000000
 268	0.00000000	153.00000000	204.00000000	75.69085360	21.34584635	7.62340724	0.00000000
 269	0.00000000	153.00000000	217.00000000	74.57999587	22.17746228	0.94453348	0.00000000
