bench/lcms_compat/reference/srgb_to_RISO_MZ770_RedGreen.icc_Absolute.it8
CGATS.17
ORIGINATOR	"icctrans"
#
# Data follows
#
NUMBER_OF_SETS	9261.00000000
NUMBER_OF_FIELDS	6.00000000
BEGIN_DATA_FORMAT
 SAMPLE_ID	IN_RGB_R	IN_RGB_G	IN_RGB_B	OUT_CH1	OUT_CH2
END_DATA_FORMAT
BEGIN_DATA
 0	0.00000000	0.00000000	0.00000000	1.00000000	1.00000000
 1	0.00000000	0.00000000	13.00000000	1.00000000	1.00000000
 2	0.00000000	0.00000000	26.00000000	0.99743646	1.00000000
 3	0.00000000	0.00000000	38.00000000	0.98982221	1.00000000
 4	0.00000000	0.00000000	51.00000000	0.97492945	1.00000000
 5	0.00000000	0.00000000	64.00000000	0.89742887	1.00000000
 6	0.00000000	0.00000000	77.00000000	0.86871135	1.00000000
 7	0.00000000	0.00000000	89.00000000	0.78918135	1.00000000
 8	0.00000000	0.00000000	102.00000000	0.67058825	1.00000000
 9	0.00000000	0.00000000	115.00000000	0.65198749	1.00000000
 10	0.00000000	0.00000000	128.00000000	0.57189286	1.00000000
 11	0.00000000	0.00000000	140.00000000	0.58298618	0.99975586
 12	0.00000000	0.00000000	153.00000000	0.54999620	0.99501032
 13	0.00000000	0.00000000	166.00000000	0.52622265	0.90366977
 14	0.00000000	0.00000000	179.00000000	0.50229651	0.83949035
 15	0.00000000	0.00000000	191.00000000	0.46739909	0.80364692
 16	0.00000000	0.00000000	204.00000000	0.42897689	0.78414589
 17	0.00000000	0.00000000	217.00000000	0.38504615	0.76585031
 18	0.00000000	0.00000000	230.00000000	0.37137407	0.73482871
 19	0.00000000	0.00000000	242.00000000	0.35124743	0.70385289
 20	0.00000000	0.00000000	255.00000000	0.32915238	0.66578162
 21	0.00000000	13.00000000	0.00000000	1.00000000	1.00000000
 22	0.00000000	13.00000000	13.00000000	1.00000000	1.00000000
 23	0.00000000	13.00000000	26.00000000	0.99476618	1.00000000
 24	0.00000000	13.00000000	38.00000000	0.96812391	1.00000000
 25	0.00000000	13.00000000	51.00000000	0.92613107	1.00000000
 26	0.00000000	13.00000000	64.00000000	0.88911271	1.00000000
 27	0.00000000	13.00000000	77.00000000	0.85755706	1.00000000
 28	0.00000000	13.00000000	89.00000000	0.72217900	1.00000000
 29	0.00000000	13.00000000	102.00000000	0.65528345	1.00000000
 30	0.00000000	13.00000000	115.00000000	0.62426186	1.00000000
 31	0.00000000	13.00000000	128.00000000	0.59542227	1.00000000
 32	0.00000000	13.00000000	140.00000000	0.57764554	0.99308765
 33	0.00000000	13.00000000	153.00000000	0.54590678	0.92880142
 34	0.00000000	13.00000000	166.00000000	0.52271307	0.86637676
 35	0.00000000	13.00000000	179.00000000	0.48639658	0.82114899
 36	0.00000000	13.00000000	191.00000000	0.45513085	0.79551387
 37	0.00000000	13.00000000	204.00000000	0.41112381	0.77813381
 38	0.00000000	13.00000000	217.00000000	0.38188756	0.75085068
 39	0.00000000	13.00000000	230.00000000	0.36336309	0.72294194
 40	0.00000000	13.00000000	242.00000000	0.33911651	0.69459069
 41	0.00000000	13.00000000	255.00000000	0.31938660	0.65516138
 42	0.00000000	26.00000000	0.00000000	0.89488059	1.00000000
 43	0.00000000	26.00000000	13.00000000	0.83051807	1.00000000
 44	0.00000000	26.00000000	26.00000000	0.74036777	1.00000000
 45	0.00000000	26.00000000	38.00000000	0.75057602	1.00000000
 46	0.00000000	26.00000000	51.00000000	0.82909894	1.00000000
 47	0.00000000	26.00000000	64.00000000	0.78921187	1.00000000
 48	0.00000000	26.00000000	77.00000000	0.77547878	1.00000000
 49	0.00000000	26.00000000	89.00000000	0.71615165	1.00000000
 50	0.00000000	26.00000000	102.00000000	0.62816817	1.00000000
 51	0.00000000	26.00000000	115.00000000	0.60918593	1.00000000
 52	0.00000000	26.00000000	128.00000000	0.61225301	1.00000000
 53	0.00000000	26.00000000	140.00000000	0.55268174	0.98846418
 54	0.00000000	26.00000000	153.00000000	0.55179673	0.91482413
 55	0.00000000	26.00000000	166.00000000	0.50414282	0.82586402
 56	0.00000000	26.00000000	179.00000000	0.46845198	0.80025941
 57	0.00000000	26.00000000	191.00000000	0.42084381	0.78582436
 58	0.00000000	26.00000000	204.00000000	0.39880979	0.75757992
 59	0.00000000	26.00000000	217.00000000	0.37137407	0.73189896
 60	0.00000000	26.00000000	230.00000000	0.34766155	0.70246434
 61	0.00000000	26.00000000	242.00000000	0.32883191	0.67003894
 62	0.00000000	26.00000000	255.00000000	0.30687419	0.63237965
 63	0.00000000	38.00000000	0.00000000	0.52265203	1.00000000
 64	0.00000000	38.00000000	13.00000000	0.52764171	1.00000000
 65	0.00000000	38.00000000	26.00000000	0.53933012	1.00000000
 66	0.00000000	38.00000000	38.00000000	0.54958421	1.00000000
 67	0.00000000	38.00000000	51.00000000	0.62105745	1.00000000
 68	0.00000000	38.00000000	64.00000000	0.67289233	1.00000000
 69	0.00000000	38.00000000	77.00000000	0.64406806	1.00000000
 70	0.00000000	38.00000000	89.00000000	0.64438850	1.00000000
 71	0.00000000	38.00000000	102.00000000	0.61467916	1.00000000
 72	0.00000000	38.00000000	115.00000000	0.56478220	1.00000000
 73	0.00000000	38.00000000	128.00000000	0.59493399	0.95472646
 74	0.00000000	38.00000000	140.00000000	0.57856107	0.91258109
 75	0.00000000	38.00000000	153.00000000	0.51392388	0.85931182
 76	0.00000000	38.00000000	166.00000000	0.47148851	0.81844819
 77	0.00000000	38.00000000	179.00000000	0.43006027	0.77880520
 78	0.00000000	38.00000000	191.00000000	0.39894712	0.75674069
 79	0.00000000	38.00000000	204.00000000	0.38423744	0.72626841
 80	0.00000000	38.00000000	217.00000000	0.35625237	0.70202184
 81	0.00000000	38.00000000	230.00000000	0.33748379	0.66941327
 82	0.00000000	38.00000000	242.00000000	0.31358817	0.64110780
 83	0.00000000	38.00000000	255.00000000	0.29547569	0.59603268
 84	0.00000000	51.00000000	0.00000000	0.49417868	1.00000000
 85	0.00000000	51.00000000	13.00000000	0.48784620	1.00000000
 86	0.00000000	51.00000000	26.00000000	0.48598459	1.00000000
 87	0.00000000	51.00000000	38.00000000	0.49518579	1.00000000
 88	0.00000000	51.00000000	51.00000000	0.50466162	1.00000000
 89	0.00000000	51.00000000	64.00000000	0.55674070	1.00000000
 90	0.00000000	51.00000000	77.00000000	0.57537192	1.00000000
 91	0.00000000	51.00000000	89.00000000	0.59749752	1.00000000
 92	0.00000000	51.00000000	102.00000000	0.57602805	0.99954224
 93	0.00000000	51.00000000	115.00000000	0.57886624	0.96652168
 94	0.00000000	51.00000000	128.00000000	0.53409630	0.89985502
 95	0.00000000	51.00000000	140.00000000	0.48854810	0.84298468
 96	0.00000000	51.00000000	153.00000000	0.45636684	0.79935914
 97	0.00000000	51.00000000	166.00000000	0.41785306	0.76845962
 98	0.00000000	51.00000000	179.00000000	0.39026475	0.74959946
 99	0.00000000	51.00000000	191.00000000	0.37383077	0.71876097
 100	0.00000000	51.00000000	204.00000000	0.35001144	0.69434655
 101	0.00000000	51.00000000	217.00000000	0.33093765	0.65847260
 102	0.00000000	51.00000000	230.00000000	0.31282520	0.62040132
 103	0.00000000	51.00000000	242.00000000	0.29538414	0.58908981
 104	0.00000000	51.00000000	255.00000000	0.28206301	0.54030669
 105	0.00000000	64.00000000	0.00000000	0.47583735	1.00000000
 106	0.00000000	64.00000000	13.00000000	0.46881819	1.00000000
 107	0.00000000	64.00000000	26.00000000	0.45842680	1.00000000
 108	0.00000000	64.00000000	38.00000000	0.45168230	1.00000000
 109	0.00000000	64.00000000	51.00000000	0.44779125	1.00000000
 110	0.00000000	64.00000000	64.00000000	0.46201268	1.00000000
 111	0.00000000	64.00000000	77.00000000	0.49343100	1.00000000
 112	0.00000000	64.00000000	89.00000000	0.53025103	1.00000000
 113	0.00000000	64.00000000	102.00000000	0.53824675	1.00000000
 114	0.00000000	64.00000000	115.00000000	0.51561761	0.95912111
 115	0.00000000	64.00000000	128.00000000	0.51410699	0.89242387
 116	0.00000000	64.00000000	140.00000000	0.47536430	0.84299994
 117	0.00000000	64.00000000	153.00000000	0.41992828	0.78988326
 118	0.00000000	64.00000000	166.00000000	0.38683146	0.74395359
 119	0.00000000	64.00000000	179.00000000	0.36729991	0.70215917
 120	0.00000000	64.00000000	191.00000000	0.34828717	0.66907758
 121	0.00000000	64.00000000	204.00000000	0.32793164	0.63302052
 122	0.00000000	64.00000000	217.00000000	0.31059739	0.58887619
 123	0.00000000	64.00000000	230.00000000	0.29599452	0.54377049
 124	0.00000000	64.00000000	242.00000000	0.28332952	0.50423437
 125	0.00000000	64.00000000	255.00000000	0.26964217	0.46836042
 126	0.00000000	77.00000000	0.00000000	0.44768444	1.00000000
 127	0.00000000	77.00000000	13.00000000	0.45012587	1.00000000
 128	0.00000000	77.00000000	26.00000000	0.44086367	1.00000000
 129	0.00000000	77.00000000	38.00000000	0.42334631	1.00000000
 130	0.00000000	77.00000000	51.00000000	0.40756848	1.00000000
 131	0.00000000	77.00000000	64.00000000	0.41408408	1.00000000
 132	0.00000000	77.00000000	77.00000000	0.44089419	1.00000000
 133	0.00000000	77.00000000	89.00000000	0.46477455	1.00000000
 134	0.00000000	77.00000000	102.00000000	0.47385368	0.99153125
 135	0.00000000	77.00000000	115.00000000	0.47383842	0.93887234
 136	0.00000000	77.00000000	128.00000000	0.46384373	0.87306023
 137	0.00000000	77.00000000	140.00000000	0.43723202	0.80637825
 138	0.00000000	77.00000000	153.00000000	0.40250248	0.76272219
 139	0.00000000	77.00000000	166.00000000	0.35312429	0.72608531
 140	0.00000000	77.00000000	179.00000000	0.33168536	0.67461663
 141	0.00000000	77.00000000	191.00000000	0.31198597	0.63613337
 142	0.00000000	77.00000000	204.00000000	0.29172197	0.58742654
 143	0.00000000	77.00000000	217.00000000	0.27699703	0.53870451
 144	0.00000000	77.00000000	230.00000000	0.26820782	0.48517585
 145	0.00000000	77.00000000	242.00000000	0.25980011	0.44802013
 146	0.00000000	77.00000000	255.00000000	0.25168231	0.41532007
 147	0.00000000	89.00000000	0.00000000	0.41269550	1.00000000
 148	0.00000000	89.00000000	13.00000000	0.41425192	1.00000000
 149	0.00000000	89.00000000	26.00000000	0.41371787	1.00000000
 150	0.00000000	89.00000000	38.00000000	0.40280765	1.00000000
 151	0.00000000	89.00000000	51.00000000	0.38377964	1.00000000
 152	0.00000000	89.00000000	64.00000000	0.38150606	1.00000000
 153	0.00000000	89.00000000	77.00000000	0.39232472	1.00000000
 154	0.00000000	89.00000000	89.00000000	0.40845349	1.00000000
 155	0.00000000	89.00000000	102.00000000	0.42693219	0.97286946
 156	0.00000000	89.00000000	115.00000000	0.42883956	0.90432596
 157	0.00000000	89.00000000	128.00000000	0.42250705	0.84690624
 158	0.00000000	89.00000000	140.00000000	0.40234989	0.79517817
 159	0.00000000	89.00000000	153.00000000	0.36978713	0.74547952
 160	0.00000000	89.00000000	166.00000000	0.34082553	0.70246434
 161	0.00000000	89.00000000	179.00000000	0.31032273	0.64570075
 162	0.00000000	89.00000000	191.00000000	0.28775463	0.58863205
 163	0.00000000	89.00000000	204.00000000	0.27042037	0.53096819
 164	0.00000000	89.00000000	217.00000000	0.26414892	0.47270924
 165	0.00000000	89.00000000	230.00000000	0.25513086	0.43314260
 166	0.00000000	89.00000000	242.00000000	0.24582285	0.40300602
 167	0.00000000	89.00000000	255.00000000	0.23825437	0.37969023
 168	0.00000000	102.00000000	0.00000000	0.37650111	0.98773175
 169	0.00000000	102.00000000	13.00000000	0.37866789	0.99099720
 170	0.00000000	102.00000000	26.00000000	0.37517357	0.99246204
 171	0.00000000	102.00000000	38.00000000	0.36791027	0.99392688
 172	0.00000000	102.00000000	51.00000000	0.35123217	0.99755853
 173	0.00000000	102.00000000	64.00000000	0.33051041	0.99957275
 174	0.00000000	102.00000000	77.00000000	0.33675134	0.99389637
 175	0.00000000	102.00000000	89.00000000	0.34785992	0.97431904
 176	0.00000000	102.00000000	102.00000000	0.36504158	0.95193410
 177	0.00000000	102.00000000	115.00000000	0.37441063	0.89712369
 178	0.00000000	102.00000000	128.00000000	0.37424278	0.82442969
 179	0.00000000	102.00000000	140.00000000	0.36229494	0.77753872
 180	0.00000000	102.00000000	153.00000000	0.33504236	0.73105973
 181	0.00000000	102.00000000	166.00000000	0.30952924	0.67437249
 182	0.00000000	102.00000000	179.00000000	0.28030825	0.62406349
 183	0.00000000	102.00000000	191.00000000	0.26074618	0.56581980
 184	0.00000000	102.00000000	204.00000000	0.25247577	0.48209354
 185	0.00000000	102.00000000	217.00000000	0.24654001	0.41472495
 186	0.00000000	102.00000000	230.00000000	0.23894103	0.37978178
 187	0.00000000	102.00000000	242.00000000	0.23192187	0.36281377
 188	0.00000000	102.00000000	255.00000000	0.22659647	0.35779354
 189	0.00000000	115.00000000	0.00000000	0.33992523	0.88978410
 190	0.00000000	115.00000000	13.00000000	0.33672082	0.90664530
 191	0.00000000	115.00000000	26.00000000	0.33322653	0.92779434
 192	0.00000000	115.00000000	38.00000000	0.32283512	0.94834822
 193	0.00000000	115.00000000	51.00000000	0.30681315	0.96247804
 194	0.00000000	115.00000000	64.00000000	0.28467232	0.97103840
 195	0.00000000	115.00000000	77.00000000	0.26727703	0.97734034
 196	0.00000000	115.00000000	89.00000000	0.27267873	0.92913711
 197	0.00000000	115.00000000	102.00000000	0.28952467	0.86012053
 198	0.00000000	115.00000000	115.00000000	0.29729152	0.82557410
 199	0.00000000	115.00000000	128.00000000	0.29874113	0.79761958
 200	0.00000000	115.00000000	140.00000000	0.29687953	0.76304263
 201	0.00000000	115.00000000	153.00000000	0.28917372	0.71989012
 202	0.00000000	115.00000000	166.00000000	0.27667660	0.66511023
 203	0.00000000	115.00000000	179.00000000	0.26335546	0.59472036
 204	0.00000000	115.00000000	191.00000000	0.25188068	0.52274358
 205	0.00000000	115.00000000	204.00000000	0.24049744	0.45256734
 206	0.00000000	115.00000000	217.00000000	0.23381399	0.39429313
 207	0.00000000	115.00000000	230.00000000	0.22862592	0.36804760
 208	0.00000000	115.00000000	242.00000000	0.22354467	0.35700008
 209	0.00000000	115.00000000	255.00000000	0.21824978	0.34785992
 210	0.00000000	128.00000000	0.00000000	0.28053713	0.83833069
 211	0.00000000	128.00000000	13.00000000	0.28101015	0.84193182
 212	0.00000000	128.00000000	26.00000000	0.27904174	0.84812695
 213	0.00000000	128.00000000	38.00000000	0.27695125	0.85142291
 214	0.00000000	128.00000000	51.00000000	0.25661096	0.87525749
 215	0.00000000	128.00000000	64.00000000	0.21849394	0.91549551
 216	0.00000000	128.00000000	77.00000000	0.19108874	0.92585641
 217	0.00000000	128.00000000	89.00000000	0.20505074	0.86665142
 218	0.00000000	128.00000000	102.00000000	0.23323415	0.80541694
 219	0.00000000	128.00000000	115.00000000	0.23622492	0.78838789
 220	0.00000000	128.00000000	128.00000000	0.23419547	0.77479208
 221	0.00000000	128.00000000	140.00000000	0.23695736	0.74825668
 222	0.00000000	128.00000000	153.00000000	0.23770504	0.71012437
 223	0.00000000	128.00000000	166.00000000	0.23767452	0.65523767
 224	0.00000000	128.00000000	179.00000000	0.23894103	0.57660794
 225	0.00000000	128.00000000	191.00000000	0.23504998	0.50334936
 226	0.00000000	128.00000000	204.00000000	0.23277637	0.42157626
 227	0.00000000	128.00000000	217.00000000	0.22745098	0.36762035
 228	0.00000000	128.00000000	230.00000000	0.22066072	0.35117114
 229	0.00000000	128.00000000	242.00000000	0.21448082	0.34375525
 230	0.00000000	128.00000000	255.00000000	0.20941481	0.33420309
 231	0.00000000	140.00000000	0.00000000	0.25186542	0.81103230
 232	0.00000000	140.00000000	13.00000000	0.24917983	0.81171894
 233	0.00000000	140.00000000	26.00000000	0.24554817	0.81251240
 234	0.00000000	140.00000000	38.00000000	0.23561455	0.81582361
 235	0.00000000	140.00000000	51.00000000	0.22227818	0.82032502
 236	0.00000000	140.00000000	64.00000000	0.19775693	0.82706952
 237	0.00000000	140.00000000	77.00000000	0.15922789	0.82874799
 238	0.00000000	140.00000000	89.00000000	0.15959410	0.81501490
 239	0.00000000	140.00000000	102.00000000	0.18741131	0.79070723
 240	0.00000000	140.00000000	115.00000000	0.21019302	0.76270694
 241	0.00000000	140.00000000	128.00000000	0.21054399	0.74686807
 242	0.00000000	140.00000000	140.00000000	0.21359579	0.72208744
 243	0.00000000	140.00000000	153.00000000	0.21637294	0.68012512
 244	0.00000000	140.00000000	166.00000000	0.21757840	0.62558937
 245	0.00000000	140.00000000	179.00000000	0.21776150	0.55756468
 246	0.00000000	140.00000000	191.00000000	0.21864653	0.48500800
 247	0.00000000	140.00000000	204.00000000	0.21930267	0.41858548
 248	0.00000000	140.00000000	217.00000000	0.21895170	0.37056535
 249	0.00000000	140.00000000	230.00000000	0.21518272	0.34366369
 250	0.00000000	140.00000000	242.00000000	0.20900282	0.32889295
 251	0.00000000	140.00000000	255.00000000	0.20234989	0.31543452
 252	0.00000000	153.00000000	0.00000000	0.22909896	0.79472035
 253	0.00000000	153.00000000	13.00000000	0.22839704	0.79322499
 254	0.00000000	153.00000000	26.00000000	0.22413978	0.79179066
 255	0.00000000	153.00000000	38.00000000	0.21751736	0.79000533
 256	0.00000000	153.00000000	51.00000000	0.19835202	0.79121083
 257	0.00000000	153.00000000	64.00000000	0.17349508	0.79400319
 258	0.00000000	153.00000000	77.00000000	0.15526055	0.79301137
 259	0.00000000	153.00000000	89.00000000	0.12330816	0.79346913
 260	0.00000000	153.00000000	102.00000000	0.09326314	0.78599221
 261	0.00000000	153.00000000	115.00000000	0.11465629	0.75069809
 262	0.00000000	153.00000000	128.00000000	0.18243687	0.69401085
 263	0.00000000	153.00000000	140.00000000	0.19650568	0.66660565
 264	0.00000000	153.00000000	153.00000000	0.19864194	0.63350880
 265	0.00000000	153.00000000	166.00000000	0.19963378	0.58609903
 266	0.00000000	153.00000000	179.00000000	0.20045777	0.53482872
 267	0.00000000	153.00000000	191.00000000	0.20204471	0.48345160
 268	0.00000000	153.00000000	204.00000000	0.20486763	0.41087967
 269	0.00000000	153.00000000	217.00000000	0.20726329	0.36101320
 270	0.00000000	153.00000000	230.00000000	0.20659190	0.33743802
 271	0.00000000	153.00000000	242.00000000	0.20225833	0.32320133
 272	0.00000000	153.00000000	255.00000000	0.19844358	0.30115205
 273	0.00000000	166.00000000	0.00000000	0.21675441	0.78394753
 274	0.00000000	166.00000000	13.00000000	0.21562524	0.78139925
 275	0.00000000	166.00000000	26.00000000	0.21382467	0.77758449
 276	0.00000000	166.00000000	38.00000000	0.20987259	0.77296102
 277	0.00000000	166.00000000	51.00000000	0.20387580	0.76685739
 278	0.00000000	166.00000000	64.00000000	0.17219806	0.76844436
 279	0.00000000	166.00000000	77.00000000	0.12162966	0.77433431
 280	0.00000000	166.00000000	89.00000000	0.07177844	0.77682155
 281	0.00000000	166.00000000	102.00000000	0.05229267	0.75535208
 282	0.00000000	166.00000000	115.00000000	0.06427100	0.71583122
 283	0.00000000	166.00000000	128.00000000	0.10960555	0.66186005
 284	0.00000000	166.00000000	140.00000000	0.14351110	0.61748683
 285	0.00000000	166.00000000	153.00000000	0.18283360	0.56995499
 286	0.00000000	166.00000000	166.00000000	0.18577859	0.52698559
 287	0.00000000	166.00000000	179.00000000	0.18632792	0.48290226
 288	0.00000000	166.00000000	191.00000000	0.18886091	0.44310674
 289	0.00000000	166.00000000	204.00000000	0.19174486	0.40381476
 290	0.00000000	166.00000000	217.00000000	0.19403373	0.36884108
 291	0.00000000	166.00000000	230.00000000	0.19339284	0.33987945
 292	0.00000000	166.00000000	242.00000000	0.19179064	0.31384757
 293	0.00000000	166.00000000	255.00000000	0.19050889	0.28627452
 294	0.00000000	179.00000000	0.00000000	0.20889601	0.77698940
 295	0.00000000	179.00000000	13.00000000	0.20617990	0.77460897
 296	0.00000000	179.00000000	26.00000000	0.20175479	0.77007705
 297	0.00000000	179.00000000	38.00000000	0.19589533	0.76365298
 298	0.00000000	179.00000000	51.00000000	0.18844892	0.75446707
 299	0.00000000	179.00000000	64.00000000	0.18329138	0.74254978
 300	0.00000000	179.00000000	77.00000000	0.13807888	0.74503702
 301	0.00000000	179.00000000	89.00000000	0.07367056	0.75205618
 302	0.00000000	179.00000000	102.00000000	0.00000000	0.75967038
 303	0.00000000	179.00000000	115.00000000	0.00932326	0.69602501
 304	0.00000000	179.00000000	128.00000000	0.04271000	0.62461281
 305	0.00000000	179.00000000	140.00000000	0.06918441	0.56865799
 306	0.00000000	179.00000000	153.00000000	0.10151827	0.52092773
 307	0.00000000	179.00000000	166.00000000	0.15265125	0.46843672
 308	0.00000000	179.00000000	179.00000000	0.15741207	0.43514153
 309	0.00000000	179.00000000	191.00000000	0.16189823	0.40727857
 310	0.00000000	179.00000000	204.00000000	0.16777295	0.38175020
 311	0.00000000	179.00000000	217.00000000	0.17293049	0.36092165
 312	0.00000000	179.00000000	230.00000000	0.17380026	0.34575418
 313	0.00000000	179.00000000	242.00000000	0.17230487	0.32397956
 314	0.00000000	179.00000000	255.00000000	0.17232013	0.29034868
 315	0.00000000	191.00000000	0.00000000	0.20360112	0.77061111
 316	0.00000000	191.00000000	13.00000000	0.20125124	0.76809341
 317	0.00000000	191.00000000	26.00000000	0.19761959	0.76424813
 318	0.00000000	191.00000000	38.00000000	0.19070725	0.75803769
 319	0.00000000	191.00000000	51.00000000	0.17965972	0.74732584
 320	0.00000000	191.00000000	64.00000000	0.16073854	0.73557639
 321	0.00000000	191.00000000	77.00000000	0.12724498	0.72373539
 322	0.00000000	191.00000000	89.00000000	0.07954528	0.72141606
 323	0.00000000	191.00000000	102.00000000	0.03511101	0.71284044
 324	0.00000000	191.00000000	115.00000000	0.00581369	0.69259173
 325	0.00000000	191.00000000	128.00000000	0.00082399	0.63205922
 326	0.00000000	191.00000000	140.00000000	0.01857023	0.54619670
 327	0.00000000	191.00000000	153.00000000	0.03547722	0.47876707
 328	0.00000000	191.00000000	166.00000000	0.05752651	0.43851379
 329	0.00000000	191.00000000	179.00000000	0.09246967	0.40706491
 330	0.00000000	191.00000000	191.00000000	0.10507362	0.38831159
 331	0.00000000	191.00000000	204.00000000	0.11761654	0.37036699
 332	0.00000000	191.00000000	217.00000000	0.12764172	0.35579461
 333	0.00000000	191.00000000	230.00000000	0.13646144	0.34216830
 334	0.00000000	191.00000000	242.00000000	0.13821623	0.32314029
 335	0.00000000	191.00000000	255.00000000	0.13836882	0.29465172
 336	0.00000000	204.00000000	0.00000000	0.19536126	0.76035708
 337	0.00000000	204.00000000	13.00000000	0.19349965	0.75779355
 338	0.00000000	204.00000000	26.00000000	0.19028001	0.75344473
 339	0.00000000	204.00000000	38.00000000	0.18583962	0.74732584
 340	0.00000000	204.00000000	51.00000000	0.17425802	0.73859769
 341	0.00000000	204.00000000	64.00000000	0.14549477	0.72787058
 342	0.00000000	204.00000000	77.00000000	0.10815595	0.71485466
 343	0.00000000	204.00000000	89.00000000	0.06546120	0.70061797
 344	0.00000000	204.00000000	102.00000000	0.03425650	0.69901580
 345	0.00000000	204.00000000	115.00000000	0.01199359	0.68198675
 346	0.00000000	204.00000000	128.00000000	0.00000000	0.64509040
 347	0.00000000	204.00000000	140.00000000	0.00000000	0.57320517
 348	0.00000000	204.00000000	153.00000000	0.00000000	0.46355382
 349	0.00000000	204.00000000	166.00000000	0.00921645	0.39856565
 350	0.00000000	204.00000000	179.00000000	0.02421607	0.37669948
 351	0.00000000	204.00000000	191.00000000	0.04420539	0.37087053
 352	0.00000000	204.00000000	204.00000000	0.05664149	0.36162356
 353	0.00000000	204.00000000	217.00000000	0.06886397	0.35170519
 354	0.00000000	204.00000000	230.00000000	0.08123903	0.33948272
 355	0.00000000	204.00000000	242.00000000	0.09167621	0.32474250
 356	0.00000000	204.00000000	255.00000000	0.09639124	0.30127412
 357	0.00000000	217.00000000	0.00000000	0.19217212	0.74483865
 358	0.00000000	217.00000000	13.00000000	0.19044785	0.74335849
 359	0.00000000	217.00000000	26.00000000	0.18793011	0.74105442
 360	0.00000000	217.00000000	38.00000000	0.17998016	0.73702604
 361	0.00000000	217.00000000	51.00000000	0.16353093	0.72986954
 362	0.00000000	217.00000000	64.00000000	0.13867399	0.71981382
 363	0.00000000	217.00000000	77.00000000	0.09468223	0.70505834
 364	0.00000000	217.00000000	89.00000000	0.05973907	0.68888378
 365	0.00000000	217.00000000	102.00000000	0.02742046	0.66814679
 366	0.00000000	217.00000000	115.00000000	0.01075761	0.64211488
 367	0.00000000	217.00000000	128.00000000	0.00091554	0.59931332
 368	0.00000000	217.00000000	140.00000000	0.00000000	0.53809416
 369	0.00000000	217.00000000	153.00000000	0.00000000	0.45911345
 370	0.00000000	217.00000000	166.00000000	0.00000000	0.40509650
 371	0.00000000	217.00000000	179.00000000	0.00001526	0.37016863
 372	0.00000000	217.00000000	191.00000000	0.00595102	0.35643548
 373	0.00000000	217.00000000	204.00000000	0.01640345	0.35297170
 374	0.00000000	217.00000000	217.00000000	0.02812238	0.34734112
 375	0.00000000	217.00000000	230.00000000	0.03527886	0.33525598
 376	0.00000000	217.00000000	242.00000000	0.03935302	0.32089722
 377	0.00000000	217.00000000	255.00000000	0.04672312	0.29948881
 378	0.00000000	230.00000000	0.00000000	0.15968567	0.71601433
