bench/lcms_compat/reference/sRGB_v4_ICC_preference.icc_to_lab_Perceptual.it8
CGATS.17
ORIGINATOR	"icctrans"
#
# Data follows
#
NUMBER_OF_SETS	9261.00000000
NUMBER_OF_FIELDS	7.00000000
BEGIN_DATA_FORMAT
 SAMPLE_ID	IN_RGB_R	IN_RGB_G	IN_RGB_B	OUT_LAB_L	OUT_LAB_A	OUT_LAB_B
END_DATA_FORMAT
BEGIN_DATA
 0	0.00000000	0.00000000	0.00000000	-0.02601413	-0.04552919	0.00955266
 1	0.00000000	0.00000000	13.00000000	-0.10410621	3.24998838	-7.35069039
 2	0.00000000	0.00000000	26.00000000	0.01226645	6.38153714	-15.49156356
 3	0.00000000	0.00000000	38.00000000	0.25726163	9.29441524	-23.33525467
 4	0.00000000	0.00000000	51.00000000	0.77175158	12.54702550	-31.17316249
 5	0.00000000	0.00000000	64.00000000	1.75632630	15.89560342	-38.19844592
 6	0.00000000	0.00000000	77.00000000	2.43618824	19.93873847	-44.55390888
 7	0.00000000	0.00000000	89.00000000	3.19720507	24.44927883	-50.35121980
 8	0.00000000	0.00000000	102.00000000	4.25068401	29.19075561	-56.09607834
 9	0.00000000	0.00000000	115.00000000	5.50500862	33.44555449	-61.30183700
 10	0.00000000	0.00000000	128.00000000	6.82584867	36.79080379	-66.28907698
 11	0.00000000	0.00000000	140.00000000	7.80475885	38.79673135	-69.54788472
 12	0.00000000	0.00000000	153.00000000	8.81567597	40.45751584	-72.60188724
 13	0.00000000	0.00000000	166.00000000	9.80875194	41.89145249	-75.44987622
 14	0.00000000	0.00000000	179.00000000	10.83063632	43.16750002	-78.24887443
 15	0.00000000	0.00000000	191.00000000	11.80015877	44.26530671	-80.86020830
 16	0.00000000	0.00000000	204.00000000	12.73164302	45.49800617	-83.80644861
 17	0.00000000	0.00000000	217.00000000	13.59649003	46.86763507	-87.32045445
 18	0.00000000	0.00000000	230.00000000	14.66373056	48.14725441	-90.79989354
 19	0.00000000	0.00000000	242.00000000	15.83629847	49.21343160	-94.16321467
 20	0.00000000	0.00000000	255.00000000	17.14243293	50.34336936	-98.88958535
 21	0.00000000	13.00000000	0.00000000	0.49613207	-6.95675793	4.77318984
 22	0.00000000	13.00000000	13.00000000	1.96304098	-4.86378464	-3.33283919
 23	0.00000000	13.00000000	26.00000000	2.37187669	-1.42376083	-11.81197020
 24	0.00000000	13.00000000	38.00000000	2.81286817	1.73122507	-19.71914071
 25	0.00000000	13.00000000	51.00000000	3.37788835	5.16736549	-27.65685397
 26	0.00000000	13.00000000	64.00000000	4.15421687	8.81150675	-35.13617504
 27	0.00000000	13.00000000	77.00000000	5.01552187	14.14204311	-42.09419447
 28	0.00000000	13.00000000	89.00000000	5.78977950	18.74342901	-48.17553255
 29	0.00000000	13.00000000	102.00000000	6.76404014	23.04066402	-54.11167282
 30	0.00000000	13.00000000	115.00000000	7.98086971	26.49546903	-59.24785721
 31	0.00000000	13.00000000	128.00000000	9.31280777	29.38852739	-64.10003725
 32	0.00000000	13.00000000	140.00000000	10.56870595	31.78411645	-67.92842302
 33	0.00000000	13.00000000	153.00000000	11.70775741	33.89627111	-71.07815760
 34	0.00000000	13.00000000	166.00000000	12.69481778	35.72958153	-73.96981764
 35	0.00000000	13.00000000	179.00000000	13.61383349	37.34254938	-76.76691975
 36	0.00000000	13.00000000	191.00000000	14.44233656	38.68393821	-79.33998588
 37	0.00000000	13.00000000	204.00000000	15.37430882	40.01946014	-82.01408479
 38	0.00000000	13.00000000	217.00000000	16.36723578	41.34273154	-85.12805949
 39	0.00000000	13.00000000	230.00000000	17.35849380	42.65654904	-88.36981374
 40	0.00000000	13.00000000	242.00000000	18.34891587	43.77350670	-91.20934437
 41	0.00000000	13.00000000	255.00000000	19.38543171	44.88067609	-94.47077017
 42	0.00000000	26.00000000	0.00000000	3.34267020	-13.59062436	9.09951609
 43	0.00000000	26.00000000	13.00000000	4.03325073	-11.64606351	1.41517323
 44	0.00000000	26.00000000	26.00000000	4.73148786	-9.14314541	-7.30188581
 45	0.00000000	26.00000000	38.00000000	5.24211004	-6.05014178	-15.61121154
 46	0.00000000	26.00000000	51.00000000	5.86896539	-2.62304488	-23.77886567
 47	0.00000000	26.00000000	64.00000000	6.63419887	1.32356775	-31.54798958
 48	0.00000000	26.00000000	77.00000000	7.50983730	6.30447727	-38.73116213
 49	0.00000000	26.00000000	89.00000000	8.41909274	10.76923770	-44.88006818
 50	0.00000000	26.00000000	102.00000000	9.49588194	14.91200340	-51.03924888
 51	0.00000000	26.00000000	115.00000000	10.57775691	18.58474952	-56.47366408
 52	0.00000000	26.00000000	128.00000000	11.70598045	21.86055374	-61.50531608
 53	0.00000000	26.00000000	140.00000000	12.80173659	24.72646636	-65.82754235
 54	0.00000000	26.00000000	153.00000000	13.96688372	27.30739427	-69.44404769
 55	0.00000000	26.00000000	166.00000000	15.05892575	29.57848680	-72.47087407
 56	0.00000000	26.00000000	179.00000000	15.97349793	31.53103483	-75.41244063
 57	0.00000000	26.00000000	191.00000000	16.72938317	33.09044075	-78.11796005
 58	0.00000000	26.00000000	204.00000000	17.83458591	35.17335218	-80.71409474
 59	0.00000000	26.00000000	217.00000000	18.77198964	36.61309493	-83.49105033
 60	0.00000000	26.00000000	230.00000000	19.76291388	37.93507439	-86.43703605
 61	0.00000000	26.00000000	242.00000000	20.68743706	39.09373862	-89.11118436
 62	0.00000000	26.00000000	255.00000000	21.64484560	40.24892223	-91.86982873
 63	0.00000000	38.00000000	0.00000000	6.53843433	-20.26887241	13.48574233
 64	0.00000000	38.00000000	13.00000000	6.82938844	-18.62730730	5.94681007
 65	0.00000000	38.00000000	26.00000000	7.16225356	-16.70249778	-2.41090986
 66	0.00000000	38.00000000	38.00000000	7.65849426	-14.28711939	-11.00095692
 67	0.00000000	38.00000000	51.00000000	8.32649842	-11.43938500	-19.31181777
 68	0.00000000	38.00000000	64.00000000	9.11418870	-7.47335541	-27.25171971
 69	0.00000000	38.00000000	77.00000000	10.02119258	-2.49065238	-34.70980752
 70	0.00000000	38.00000000	89.00000000	10.93689278	2.41872978	-41.21546882
 71	0.00000000	38.00000000	102.00000000	11.81081086	7.14598012	-47.95689228
 72	0.00000000	38.00000000	115.00000000	12.87176609	11.25687313	-53.77125669
 73	0.00000000	38.00000000	128.00000000	13.87875527	14.82302737	-58.93393326
 74	0.00000000	38.00000000	140.00000000	14.83842880	17.96133977	-63.43079436
 75	0.00000000	38.00000000	153.00000000	15.90576619	21.01485592	-67.57200214
 76	0.00000000	38.00000000	166.00000000	16.95454717	23.62256479	-71.01186256
 77	0.00000000	38.00000000	179.00000000	17.89793819	25.90672863	-74.15177847
 78	0.00000000	38.00000000	191.00000000	18.60124469	27.64740002	-77.06462617
 79	0.00000000	38.00000000	204.00000000	19.77279186	30.17934096	-79.71792120
 80	0.00000000	38.00000000	217.00000000	20.88715434	32.41962475	-82.35985863
 81	0.00000000	38.00000000	230.00000000	21.86312675	34.01818377	-85.08992854
 82	0.00000000	38.00000000	242.00000000	22.74860889	35.18385482	-87.60261211
 83	0.00000000	38.00000000	255.00000000	23.69363755	36.38191533	-90.28252850
 84	0.00000000	51.00000000	0.00000000	10.49624532	-30.03125536	19.58199841
 85	0.00000000	51.00000000	13.00000000	10.53973362	-28.53357333	12.07717311
 86	0.00000000	51.00000000	26.00000000	10.33469886	-26.84156972	3.55404806
 87	0.00000000	51.00000000	38.00000000	10.55422202	-24.58780426	-4.96335450
 88	0.00000000	51.00000000	51.00000000	10.97466797	-21.29051599	-14.03982866
 89	0.00000000	51.00000000	64.00000000	11.60810888	-17.45975155	-22.22017410
 90	0.00000000	51.00000000	77.00000000	12.59477586	-12.14240807	-29.97887138
 91	0.00000000	51.00000000	89.00000000	13.48714381	-7.09025237	-36.82782906
 92	0.00000000	51.00000000	102.00000000	14.45608288	-1.64389062	-43.89721292
 93	0.00000000	51.00000000	115.00000000	15.27723968	3.05355412	-50.60402784
 94	0.00000000	51.00000000	128.00000000	16.25415385	7.03528446	-56.02490816
 95	0.00000000	51.00000000	140.00000000	17.10219383	10.39416742	-60.63105899
 96	0.00000000	51.00000000	153.00000000	17.99124777	13.74165100	-65.28549004
 97	0.00000000	51.00000000	166.00000000	18.91274899	16.77159321	-69.18963994
 98	0.00000000	51.00000000	179.00000000	19.85673904	19.47700244	-72.67810355
 99	0.00000000	51.00000000	191.00000000	20.47766447	21.39244926	-75.87125081
 100	0.00000000	51.00000000	204.00000000	21.73772454	24.36566812	-78.54665305
 101	0.00000000	51.00000000	217.00000000	22.89611548	27.09031951	-81.23672250
 102	0.00000000	51.00000000	230.00000000	23.97771925	29.37652004	-83.86969621
 103	0.00000000	51.00000000	242.00000000	24.89081472	31.02426362	-86.32548164
 104	0.00000000	51.00000000	255.00000000	25.80090761	32.21746039	-88.95711403
 105	0.00000000	64.00000000	0.00000000	14.65515941	-38.89096636	25.60435605
 106	0.00000000	64.00000000	13.00000000	14.74255472	-37.82175693	18.50224835
 107	0.00000000	64.00000000	26.00000000	13.99796903	-36.89294237	9.74961561
 108	0.00000000	64.00000000	38.00000000	13.63984048	-34.95511475	1.08024400
 109	0.00000000	64.00000000	51.00000000	13.86492252	-31.52921858	-7.74025309
 110	0.00000000	64.00000000	64.00000000	14.05147612	-27.62599203	-16.84895712
 111	0.00000000	64.00000000	77.00000000	15.18519372	-21.72945324	-24.80066884
 112	0.00000000	64.00000000	89.00000000	16.00396484	-16.80845889	-31.96498680
 113	0.00000000	64.00000000	102.00000000	16.88569784	-11.35638985	-39.40817940
 114	0.00000000	64.00000000	115.00000000	17.81290770	-5.82539904	-46.42054352
 115	0.00000000	64.00000000	128.00000000	18.68747026	-0.88862035	-52.91006330
 116	0.00000000	64.00000000	140.00000000	19.50255930	2.65845132	-57.72286984
 117	0.00000000	64.00000000	153.00000000	20.18554509	6.12347019	-63.02909511
 118	0.00000000	64.00000000	166.00000000	20.84133625	9.29795665	-67.59462993
 119	0.00000000	64.00000000	179.00000000	21.56333625	12.25787622	-71.31162468
 120	0.00000000	64.00000000	191.00000000	22.34449834	14.90698767	-74.50968507
 121	0.00000000	64.00000000	204.00000000	23.80343527	18.42175347	-77.02868770
 122	0.00000000	64.00000000	217.00000000	24.94225353	21.34986115	-79.81382045
 123	0.00000000	64.00000000	230.00000000	25.92588663	23.78280979	-82.59959537
 124	0.00000000	64.00000000	242.00000000	26.78974867	25.70526344	-85.09932163
 125	0.00000000	64.00000000	255.00000000	27.70871222	27.54428875	-87.80133384
 126	0.00000000	77.00000000	0.00000000	19.02030259	-46.03418025	32.54773867
 127	0.00000000	77.00000000	13.00000000	18.63109767	-45.29608506	25.35162401
 128	0.00000000	77.00000000	26.00000000	18.29241365	-44.32582992	17.42103916
 129	0.00000000	77.00000000	38.00000000	17.61262119	-43.23368493	8.76204860
 130	0.00000000	77.00000000	51.00000000	17.15919375	-40.68447012	-0.52029091
 131	0.00000000	77.00000000	64.00000000	16.96461886	-37.33213800	-9.99956626
 132	0.00000000	77.00000000	77.00000000	17.55581796	-32.19479847	-19.08577549
 133	0.00000000	77.00000000	89.00000000	18.47347468	-26.91864479	-26.60790506
 134	0.00000000	77.00000000	102.00000000	19.44648176	-21.26085478	-34.31509990
 135	0.00000000	77.00000000	115.00000000	20.38089335	-15.58849636	-41.64473939
 136	0.00000000	77.00000000	128.00000000	21.12098038	-10.40055874	-48.71040705
 137	0.00000000	77.00000000	140.00000000	21.91358954	-5.89982185	-54.09863952
 138	0.00000000	77.00000000	153.00000000	22.54583389	-1.95624906	-59.42631084
 139	0.00000000	77.00000000	166.00000000	23.41569662	2.07659614	-64.21377274
 140	0.00000000	77.00000000	179.00000000	24.34526831	5.90255004	-68.28841570
 141	0.00000000	77.00000000	191.00000000	25.02903640	8.96979105	-71.81321676
 142	0.00000000	77.00000000	204.00000000	26.16768479	12.48978537	-74.96491964
 143	0.00000000	77.00000000	217.00000000	27.15539634	15.58909667	-78.05189680
 144	0.00000000	77.00000000	230.00000000	28.02564800	18.28032506	-81.08977298
 145	0.00000000	77.00000000	242.00000000	28.82235646	20.47578645	-83.76178581
 146	0.00000000	77.00000000	255.00000000	29.70781922	22.61756432	-86.57100166
 147	0.00000000	89.00000000	0.00000000	22.67563194	-51.72503608	38.62432700
 148	0.00000000	89.00000000	13.00000000	22.53284901	-50.92408466	31.77346182
 149	0.00000000	89.00000000	26.00000000	21.98845297	-50.47013062	23.98436618
 150	0.00000000	89.00000000	38.00000000	21.41980231	-49.83590665	15.84947389
 151	0.00000000	89.00000000	51.00000000	20.54652274	-48.58170035	6.62156266
 152	0.00000000	89.00000000	64.00000000	19.83205378	-46.45164105	-2.97840941
 153	0.00000000	89.00000000	77.00000000	20.15597969	-41.63960966	-12.57913384
 154	0.00000000	89.00000000	89.00000000	20.79714537	-36.33903089	-21.32339942
 155	0.00000000	89.00000000	102.00000000	21.69210315	-30.62172848	-29.54510945
 156	0.00000000	89.00000000	115.00000000	22.58478105	-24.84945062	-37.29238454
 157	0.00000000	89.00000000	128.00000000	23.26851487	-19.42078072	-44.84663758
 158	0.00000000	89.00000000	140.00000000	24.10835624	-14.35558411	-50.64990658
 159	0.00000000	89.00000000	153.00000000	24.90849644	-9.49764359	-56.34418982
 160	0.00000000	89.00000000	166.00000000	25.65182447	-5.19020993	-61.47016796
 161	0.00000000	89.00000000	179.00000000	26.70186758	-0.70260513	-65.78750390
 162	0.00000000	89.00000000	191.00000000	27.46644616	2.93618602	-69.40521757
 163	0.00000000	89.00000000	204.00000000	28.37570608	6.59426492	-72.95137349
 164	0.00000000	89.00000000	217.00000000	29.26850319	9.93720394	-76.31123680
 165	0.00000000	89.00000000	230.00000000	30.06908298	12.87318480	-79.59865320
 166	0.00000000	89.00000000	242.00000000	30.83499670	15.32279176	-82.45024058
 167	0.00000000	89.00000000	255.00000000	31.72908127	17.77350825	-85.41755456
 168	0.00000000	102.00000000	0.00000000	26.64433420	-57.79638070	45.54757071
 169	0.00000000	102.00000000	13.00000000	26.46207511	-57.31620806	38.74804837
 170	0.00000000	102.00000000	26.00000000	26.12286210	-56.90694723	31.26360518
 171	0.00000000	102.00000000	38.00000000	25.47860444	-56.66721049	23.38840616
 172	0.00000000	102.00000000	51.00000000	24.56265092	-56.48546624	14.71728665
 173	0.00000000	102.00000000	64.00000000	23.35586399	-55.84965396	5.34554553
 174	0.00000000	102.00000000	77.00000000	23.39467704	-51.57770279	-4.46511003
 175	0.00000000	102.00000000	89.00000000	23.53369743	-46.96443874	-14.07281089
 176	0.00000000	102.00000000	102.00000000	24.23086613	-40.90547386	-23.78786358
 177	0.00000000	102.00000000	115.00000000	25.03064275	-35.01547831	-32.16966662
 178	0.00000000	102.00000000	128.00000000	25.69671869	-29.29569843	-40.28362203
 179	0.00000000	102.00000000	140.00000000	26.51644647	-23.94439998	-46.61299559
 180	0.00000000	102.00000000	153.00000000	27.35801041	-18.50098687	-52.72027108
 181	0.00000000	102.00000000	166.00000000	28.16093564	-13.38184077	-58.18525943
 182	0.00000000	102.00000000	179.00000000	29.09550071	-8.65871701	-63.14391735
 183	0.00000000	102.00000000	191.00000000	29.97721434	-4.43289536	-66.98609258
 184	0.00000000	102.00000000	204.00000000	30.87768555	-0.35793322	-70.64278457
 185	0.00000000	102.00000000	217.00000000	31.67068362	3.33581817	-74.23021767
 186	0.00000000	102.00000000	230.00000000	32.41514564	6.54041421	-77.70622174
 187	0.00000000	102.00000000	242.00000000	33.11605752	9.23817825	-80.79679351
 188	0.00000000	102.00000000	255.00000000	33.98586214	11.99306083	-83.98201819
 189	0.00000000	115.00000000	0.00000000	30.86819947	-63.58967903	52.55225164
 190	0.00000000	115.00000000	13.00000000	30.66578507	-63.18905133	45.79396468
 191	0.00000000	115.00000000	26.00000000	30.21160662	-63.18278927	38.52623147
 192	0.00000000	115.00000000	38.00000000	29.66026366	-63.25441542	31.07163948
 193	0.00000000	115.00000000	51.00000000	28.69524658	-63.50618231	22.70833385
 194	0.00000000	115.00000000	64.00000000	27.34525204	-64.27896205	13.99952036
 195	0.00000000	115.00000000	77.00000000	27.08197832	-60.88407221	4.24065602
 196	0.00000000	115.00000000	89.00000000	26.84406042	-57.23230097	-5.54100710
 197	0.00000000	115.00000000	102.00000000	26.94627643	-52.06080127	-16.27269524
 198	0.00000000	115.00000000	115.00000000	27.54297256	-45.51977146	-26.39356616
 199	0.00000000	115.00000000	128.00000000	28.25481296	-39.34770945	-35.13561267
 200	0.00000000	115.00000000	140.00000000	29.05422449	-33.74633121	-42.03307095
 201	0.00000000	115.00000000	153.00000000	29.88690436	-27.99692053	-48.72455749
 202	0.00000000	115.00000000	166.00000000	30.71797788	-22.44305494	-54.52990878
 203	0.00000000	115.00000000	179.00000000	31.53176606	-17.09161210	-59.83187068
 204	0.00000000	115.00000000	191.00000000	32.40568638	-12.66200739	-64.43385693
 205	0.00000000	115.00000000	204.00000000	33.39617252	-8.02827764	-68.28513648
 206	0.00000000	115.00000000	217.00000000	34.21057463	-3.91114536	-71.95533673
 207	0.00000000	115.00000000	230.00000000	34.93287563	-0.20937639	-75.57778876
 208	0.00000000	115.00000000	242.00000000	35.54932773	2.79253852	-78.88303760
 209	0.00000000	115.00000000	255.00000000	36.30148768	5.76144081	-82.30416122
 210	0.00000000	128.00000000	0.00000000	35.42859554	-68.91899566	58.46753103
 211	0.00000000	128.00000000	13.00000000	35.54305732	-67.95209955	52.05270004
 212	0.00000000	128.00000000	26.00000000	34.95641649	-68.16325042	44.82571584
 213	0.00000000	128.00000000	38.00000000	34.15715396	-68.84301874	38.06925279
 214	0.00000000	128.00000000	51.00000000	33.11290741	-69.87250510	30.63688201
 215	0.00000000	128.00000000	64.00000000	31.61701560	-71.41009259	22.23042589
 216	0.00000000	128.00000000	77.00000000	31.00414872	-69.36927910	12.58972001
 217	0.00000000	128.00000000	89.00000000	30.48068583	-66.99740458	3.11205578
 218	0.00000000	128.00000000	102.00000000	30.21793962	-63.14178187	-7.59491849
 219	0.00000000	128.00000000	115.00000000	30.35724461	-57.43510368	-18.54605246
 220	0.00000000	128.00000000	128.00000000	30.75909317	-50.00277090	-29.42638102
 221	0.00000000	128.00000000	140.00000000	31.62491024	-43.85640311	-36.88033465
 222	0.00000000	128.00000000	153.00000000	32.48606324	-37.73056182	-44.25203788
 223	0.00000000	128.00000000	166.00000000	33.33638608	-31.94284159	-50.62916729
 224	0.00000000	128.00000000	179.00000000	34.16815400	-26.36883709	-56.19538981
 225	0.00000000	128.00000000	191.00000000	34.90933776	-21.43221799	-61.10998529
 226	0.00000000	128.00000000	204.00000000	35.95215082	-16.25341508	-65.54911229
 227	0.00000000	128.00000000	217.00000000	36.78996265	-11.75438049	-69.53619654
 228	0.00000000	128.00000000	230.00000000	37.50800490	-7.66157451	-73.31901516
 229	0.00000000	128.00000000	242.00000000	38.12227249	-4.09858930	-76.76812048
 230	0.00000000	128.00000000	255.00000000	38.74856830	-0.47767240	-80.49773815
 231	0.00000000	140.00000000	0.00000000	39.43836689	-72.41420771	62.69609612
 232	0.00000000	140.00000000	13.00000000	39.24802542	-72.58408140	56.90560204
 233	0.00000000	140.00000000	26.00000000	39.05451894	-72.61026959	49.99974620
 234	0.00000000	140.00000000	38.00000000	38.38315606	-73.52135810	43.79425359
 235	0.00000000	140.00000000	51.00000000	37.43451238	-75.00167127	37.18367231
 236	0.00000000	140.00000000	64.00000000	36.17305160	-76.96787576	30.18528384
 237	0.00000000	140.00000000	77.00000000	35.00663042	-77.03850257	21.03073907
 238	0.00000000	140.00000000	89.00000000	34.34096575	-75.66240641	12.09471297
 239	0.00000000	140.00000000	102.00000000	33.80194008	-73.05087875	1.47054386
 240	0.00000000	140.00000000	115.00000000	33.61324966	-68.31236582	-9.83796093
 241	0.00000000	140.00000000	128.00000000	33.72961581	-61.01511958	-21.45869496
 242	0.00000000	140.00000000	140.00000000	34.31583345	-53.09173155	-31.59684736
 243	0.00000000	140.00000000	153.00000000	35.07724106	-46.59691486	-39.41609058
 244	0.00000000	140.00000000	166.00000000	35.93177795	-40.63134137	-46.32564741
 245	0.00000000	140.00000000	179.00000000	36.73048913	-34.97939545	-52.37268853
 246	0.00000000	140.00000000	191.00000000	37.28750348	-29.97894737	-57.59091812
 247	0.00000000	140.00000000	204.00000000	38.28006387	-24.47377998	-62.47927222
 248	0.00000000	140.00000000	217.00000000	39.21369314	-19.29465029	-66.90167631
 249	0.00000000	140.00000000	230.00000000	39.96082246	-14.79629207	-70.98387706
 250	0.00000000	140.00000000	242.00000000	40.56868553	-10.99746871	-74.64663352
 251	0.00000000	140.00000000	255.00000000	41.16837978	-7.19297606	-78.59418850
 252	0.00000000	153.00000000	0.00000000	43.79368722	-75.20840298	66.55191642
 253	0.00000000	153.00000000	13.00000000	43.52956712	-75.75754951	60.20417464
 254	0.00000000	153.00000000	26.00000000	43.21565330	-76.41370970	54.19110370
 255	0.00000000	153.00000000	38.00000000	42.76638925	-77.30578023	48.64925307
 256	0.00000000	153.00000000	51.00000000	41.89221561	-79.27316646	42.74854970
 257	0.00000000	153.00000000	64.00000000	40.75564146	-82.01729561	36.84704077
 258	0.00000000	153.00000000	77.00000000	40.07930756	-83.26165664	30.26745063
 259	0.00000000	153.00000000	89.00000000	38.62209618	-86.79518963	22.59415758
 260	0.00000000	153.00000000	102.00000000	37.86443174	-83.48625499	11.78738546
 261	0.00000000	153.00000000	115.00000000	37.33911514	-79.45872571	0.18920702
 262	0.00000000	153.00000000	128.00000000	37.10448742	-73.62384620	-11.79733339
 263	0.00000000	153.00000000	140.00000000	37.54396737	-65.51718260	-22.77905571
 264	0.00000000	153.00000000	153.00000000	38.02539706	-57.23547000	-33.40206209
 265	0.00000000	153.00000000	166.00000000	38.74232173	-50.50247449	-41.17380026
 266	0.00000000	153.00000000	179.00000000	39.48984444	-44.54345185	-47.95249972
 267	0.00000000	153.00000000	191.00000000	39.94055390	-39.52668744	-53.61503187
 268	0.00000000	153.00000000	204.00000000	40.76810479	-33.72763622	-58.70404559
 269	0.00000000	153.00000000	217.00000000	41.64788425	-28.24477363	-63.61294898
 270	0.00000000	153.00000000	230.00000000	42.54868627	-23.00027984	-68.01491018
 271	0.00000000	153.00000000	242.00000000	43.22808683	-18.71736246	-71.93612497
 272	0.00000000	153.00000000	255.00000000	43.87136102	-14.44725800	-76.18946093
 273	0.00000000	166.00000000	0.00000000	47.86060750	-77.31280605	68.54056251
 274	0.00000000	166.00000000	13.00000000	47.68092930	-77.88466397	62.43061197
 275	0.00000000	166.00000000	26.00000000	47.41911590	-78.80202594	57.06104410
 276	0.00000000	166.00000000	38.00000000	47.10612297	-79.87323786	52.45149624
 277	0.00000000	166.00000000	51.00000000	46.40396833	-81.58768307	47.10478795
 278	0.00000000	166.00000000	64.00000000	45.36016285	-84.58432007	41.79303777
 279	0.00000000	166.00000000	77.00000000	44.63849068	-86.47541019	36.14313614
 280	0.00000000	166.00000000	89.00000000	43.70513558	-89.11382522	30.34490567
 281	0.00000000	166.00000000	102.00000000	42.26250350	-92.75198559	22.00512838
 282	0.00000000	166.00000000	115.00000000	41.50467813	-88.49711071	10.44130009
 283	0.00000000	166.00000000	128.00000000	40.92387259	-84.94105253	-1.26508895
 284	0.00000000	166.00000000	140.00000000	40.99395871	-77.64768969	-12.81783703
 285	0.00000000	166.00000000	153.00000000	41.25558138	-69.59800783	-24.81753233
 286	0.00000000	166.00000000	166.00000000	41.66033566	-61.23968753	-35.05049723
 287	0.00000000	166.00000000	179.00000000	42.32628047	-54.32171035	-42.89445433
 288	0.00000000	166.00000000	191.00000000	42.74617732	-49.03250057	-49.22581899
 289	0.00000000	166.00000000	204.00000000	43.49538386	-42.81366307	-54.69177249
 290	0.00000000	166.00000000	217.00000000	44.26895976	-37.01133642	-59.69617996
 291	0.00000000	166.00000000	230.00000000	45.07464767	-31.49750549	-64.54510356
 292	0.00000000	166.00000000	242.00000000	45.84726691	-26.68998826	-68.70889734
 293	0.00000000	166.00000000	255.00000000	46.52334154	-21.95093575	-73.30340560
 294	0.00000000	179.00000000	0.00000000	51.49188042	-78.89111596	69.07718492
 295	0.00000000	179.00000000	13.00000000	51.43314004	-79.30125076	63.72798395
 296	0.00000000	179.00000000	26.00000000	51.26465559	-80.27090172	59.00109839
 297	0.00000000	179.00000000	38.00000000	50.91372132	-81.88104632	54.95794815
 298	0.00000000	179.00000000	51.00000000	50.64932108	-83.14083833	50.57489854
 299	0.00000000	179.00000000	64.00000000	49.84349906	-85.23231070	45.54947060
 300	0.00000000	179.00000000	77.00000000	48.87479544	-87.35349748	39.93540865
 301	0.00000000	179.00000000	89.00000000	47.90707231	-89.86241925	34.74841338
 302	0.00000000	179.00000000	102.00000000	46.98059261	-91.84124666	28.06882781
 303	0.00000000	179.00000000	115.00000000	45.82555294	-94.01203598	19.51047105
 304	0.00000000	179.00000000	128.00000000	45.01256943	-92.83350262	8.94177896
 305	0.00000000	179.00000000	140.00000000	44.69592869	-87.73926038	-2.37265351
