bench/lcms_compat/reference/srgb_to_RISO_MZ770_Black.icc_Relative.it8
CGATS.17
ORIGINATOR	"icctrans"
#
# Data follows
#
NUMBER_OF_SETS	9261.00000000
NUMBER_OF_FIELDS	5.00000000
BEGIN_DATA_FORMAT
 SAMPLE_ID	IN_RGB_R	IN_RGB_G	IN_RGB_B	OUT_GRAY
END_DATA_FORMAT
BEGIN_DATA
 0	0.00000000	0.00000000	0.00000000	0.00000000
 1	0.00000000	0.00000000	13.00000000	0.00000000
 2	0.00000000	0.00000000	26.00000000	0.00000000
 3	0.00000000	0.00000000	38.00000000	0.00000000
 4	0.00000000	0.00000000	51.00000000	0.00000000
 5	0.00000000	0.00000000	64.00000000	0.00000000
 6	0.00000000	0.00000000	77.00000000	0.00000000
 7	0.00000000	0.00000000	89.00000000	0.00000000
 8	0.00000000	0.00000000	102.00000000	0.00000000
 9	0.00000000	0.00000000	115.00000000	0.00000000
 10	0.00000000	0.00000000	128.00000000	0.00000000
 11	0.00000000	0.00000000	140.00000000	0.00000000
 12	0.00000000	0.00000000	153.00000000	0.00000000
 13	0.00000000	0.00000000	166.00000000	0.00000000
 14	0.00000000	0.00000000	179.00000000	0.00000000
 15	0.00000000	0.00000000	191.00000000	0.00000000
 16	0.00000000	0.00000000	204.00000000	0.00000000
 17	0.00000000	0.00000000	217.00000000	0.00000000
 18	0.00000000	0.00000000	230.00000000	0.00000000
 19	0.00000000	0.00000000	242.00000000	0.00000000
 20	0.00000000	0.00000000	255.00000000	0.68482490
 21	0.00000000	13.00000000	0.00000000	0.00000000
 22	0.00000000	13.00000000	13.00000000	0.00000000
 23	0.00000000	13.00000000	26.00000000	0.00000000
 24	0.00000000	13.00000000	38.00000000	0.00000000
 25	0.00000000	13.00000000	51.00000000	0.00000000
 26	0.00000000	13.00000000	64.00000000	0.00000000
 27	0.00000000	13.00000000	77.00000000	0.00000000
 28	0.00000000	13.00000000	89.00000000	0.00000000
 29	0.00000000	13.00000000	102.00000000	0.00000000
 30	0.00000000	13.00000000	115.00000000	0.00000000
 31	0.00000000	13.00000000	128.00000000	0.00000000
 32	0.00000000	13.00000000	140.00000000	0.00000000
 33	0.00000000	13.00000000	153.00000000	0.00000000
 34	0.00000000	13.00000000	166.00000000	0.00000000
 35	0.00000000	13.00000000	179.00000000	0.00000000
 36	0.00000000	13.00000000	191.00000000	0.00000000
 37	0.00000000	13.00000000	204.00000000	0.00000000
 38	0.00000000	13.00000000	217.00000000	0.00000000
 39	0.00000000	13.00000000	230.00000000	0.00000000
 40	0.00000000	13.00000000	242.00000000	0.00000000
 41	0.00000000	13.00000000	255.00000000	4.32295726
 42	0.00000000	26.00000000	0.00000000	0.00000000
 43	0.00000000	26.00000000	13.00000000	0.00000000
 44	0.00000000	26.00000000	26.00000000	0.00000000
 45	0.00000000	26.00000000	38.00000000	0.00000000
 46	0.00000000	26.00000000	51.00000000	0.00000000
 47	0.00000000	26.00000000	64.00000000	0.00000000
 48	0.00000000	26.00000000	77.00000000	0.00000000
 49	0.00000000	26.00000000	89.00000000	0.00000000
 50	0.00000000	26.00000000	102.00000000	0.00000000
 51	0.00000000	26.00000000	115.00000000	0.00000000
 52	0.00000000	26.00000000	128.00000000	0.00000000
 53	0.00000000	26.00000000	140.00000000	0.00000000
 54	0.00000000	26.00000000	153.00000000	0.00000000
 55	0.00000000	26.00000000	166.00000000	0.00000000
 56	0.00000000	26.00000000	179.00000000	0.00000000
 57	0.00000000	26.00000000	191.00000000	0.00000000
 58	0.00000000	26.00000000	204.00000000	0.00000000
 59	0.00000000	26.00000000	217.00000000	0.00000000
 60	0.00000000	26.00000000	230.00000000	0.00000000
 61	0.00000000	26.00000000	242.00000000	1.46303502
 62	0.00000000	26.00000000	255.00000000	9.82490290
 63	0.00000000	38.00000000	0.00000000	0.00000000
 64	0.00000000	38.00000000	13.00000000	0.00000000
 65	0.00000000	38.00000000	26.00000000	0.00000000
 66	0.00000000	38.00000000	38.00000000	0.00000000
 67	0.00000000	38.00000000	51.00000000	0.00000000
 68	0.00000000	38.00000000	64.00000000	0.00000000
 69	0.00000000	38.00000000	77.00000000	0.00000000
 70	0.00000000	38.00000000	89.00000000	0.00000000
 71	0.00000000	38.00000000	102.00000000	0.00000000
 72	0.00000000	38.00000000	115.00000000	0.00000000
 73	0.00000000	38.00000000	128.00000000	0.00000000
 74	0.00000000	38.00000000	140.00000000	0.00000000
 75	0.00000000	38.00000000	153.00000000	0.00000000
 76	0.00000000	38.00000000	166.00000000	0.00000000
 77	0.00000000	38.00000000	179.00000000	0.00000000
 78	0.00000000	38.00000000	191.00000000	0.00000000
 79	0.00000000	38.00000000	204.00000000	0.00000000
 80	0.00000000	38.00000000	217.00000000	0.00000000
 81	0.00000000	38.00000000	230.00000000	2.26070033
 82	0.00000000	38.00000000	242.00000000	9.45525303
 83	0.00000000	38.00000000	255.00000000	17.49416437
 84	0.00000000	51.00000000	0.00000000	0.00000000
 85	0.00000000	51.00000000	13.00000000	0.00000000
 86	0.00000000	51.00000000	26.00000000	0.00000000
 87	0.00000000	51.00000000	38.00000000	0.00000000
 88	0.00000000	51.00000000	51.00000000	0.00000000
 89	0.00000000	51.00000000	64.00000000	0.00000000
 90	0.00000000	51.00000000	77.00000000	0.00000000
 91	0.00000000	51.00000000	89.00000000	0.00000000
 92	0.00000000	51.00000000	102.00000000	0.00000000
 93	0.00000000	51.00000000	115.00000000	0.00000000
 94	0.00000000	51.00000000	128.00000000	0.00000000
 95	0.00000000	51.00000000	140.00000000	0.00000000
 96	0.00000000	51.00000000	153.00000000	0.00000000
 97	0.00000000	51.00000000	166.00000000	0.00000000
 98	0.00000000	51.00000000	179.00000000	0.00000000
 99	0.00000000	51.00000000	191.00000000	0.00000000
 100	0.00000000	51.00000000	204.00000000	0.32684825
 101	0.00000000	51.00000000	217.00000000	7.14007764
 102	0.00000000	51.00000000	230.00000000	14.22568141
 103	0.00000000	51.00000000	242.00000000	20.95330685
 104	0.00000000	51.00000000	255.00000000	27.27626447
 105	0.00000000	64.00000000	0.00000000	0.00000000
 106	0.00000000	64.00000000	13.00000000	0.00000000
 107	0.00000000	64.00000000	26.00000000	0.00000000
 108	0.00000000	64.00000000	38.00000000	0.00000000
 109	0.00000000	64.00000000	51.00000000	0.00000000
 110	0.00000000	64.00000000	64.00000000	0.00000000
 111	0.00000000	64.00000000	77.00000000	0.00000000
 112	0.00000000	64.00000000	89.00000000	0.00000000
 113	0.00000000	64.00000000	102.00000000	0.00000000
 114	0.00000000	64.00000000	115.00000000	0.00000000
 115	0.00000000	64.00000000	128.00000000	0.00000000
 116	0.00000000	64.00000000	140.00000000	0.00000000
 117	0.00000000	64.00000000	153.00000000	0.00000000
 118	0.00000000	64.00000000	166.00000000	0.00000000
 119	0.00000000	64.00000000	179.00000000	5.03891056
 120	0.00000000	64.00000000	191.00000000	10.21011673
 121	0.00000000	64.00000000	204.00000000	16.16731547
 122	0.00000000	64.00000000	217.00000000	22.34630261
 123	0.00000000	64.00000000	230.00000000	27.50972774
 124	0.00000000	64.00000000	242.00000000	31.13618664
 125	0.00000000	64.00000000	255.00000000	35.15175037
 126	0.00000000	77.00000000	0.00000000	0.00000000
 127	0.00000000	77.00000000	13.00000000	0.00000000
 128	0.00000000	77.00000000	26.00000000	0.00000000
 129	0.00000000	77.00000000	38.00000000	0.00000000
 130	0.00000000	77.00000000	51.00000000	0.00000000
 131	0.00000000	77.00000000	64.00000000	0.00000000
 132	0.00000000	77.00000000	77.00000000	0.00000000
 133	0.00000000	77.00000000	89.00000000	0.00000000
 134	0.00000000	77.00000000	102.00000000	1.50194552
 135	0.00000000	77.00000000	115.00000000	4.44747088
 136	0.00000000	77.00000000	128.00000000	7.73929979
 137	0.00000000	77.00000000	140.00000000	11.13618689
 138	0.00000000	77.00000000	153.00000000	15.18677048
 139	0.00000000	77.00000000	166.00000000	19.56031110
 140	0.00000000	77.00000000	179.00000000	24.22179077
 141	0.00000000	77.00000000	191.00000000	27.55641963
 142	0.00000000	77.00000000	204.00000000	30.67315109
 143	0.00000000	77.00000000	217.00000000	33.92996013
 144	0.00000000	77.00000000	230.00000000	36.51751108
 145	0.00000000	77.00000000	242.00000000	38.27237472
 146	0.00000000	77.00000000	255.00000000	40.22957370
 147	0.00000000	89.00000000	0.00000000	14.13618671
 148	0.00000000	89.00000000	13.00000000	14.43190679
 149	0.00000000	89.00000000	26.00000000	14.88326842
 150	0.00000000	89.00000000	38.00000000	15.51361850
 151	0.00000000	89.00000000	51.00000000	16.48638055
 152	0.00000000	89.00000000	64.00000000	17.75097359
 153	0.00000000	89.00000000	77.00000000	19.33073882
 154	0.00000000	89.00000000	89.00000000	21.08560245
 155	0.00000000	89.00000000	102.00000000	23.29182867
 156	0.00000000	89.00000000	115.00000000	25.78599203
 157	0.00000000	89.00000000	128.00000000	27.50194576
 158	0.00000000	89.00000000	140.00000000	29.26848236
 159	0.00000000	89.00000000	153.00000000	31.35408595
 160	0.00000000	89.00000000	166.00000000	33.61478604
 161	0.00000000	89.00000000	179.00000000	35.83657622
 162	0.00000000	89.00000000	191.00000000	37.13618629
 163	0.00000000	89.00000000	204.00000000	38.62645872
 164	0.00000000	89.00000000	217.00000000	40.19065998
 165	0.00000000	89.00000000	230.00000000	41.53696574
 166	0.00000000	89.00000000	242.00000000	42.60311253
 167	0.00000000	89.00000000	255.00000000	43.79766583
 168	0.00000000	102.00000000	0.00000000	33.92606914
 169	0.00000000	102.00000000	13.00000000	34.07003962
 170	0.00000000	102.00000000	26.00000000	34.29182991
 171	0.00000000	102.00000000	38.00000000	34.60700400
 172	0.00000000	102.00000000	51.00000000	35.09338550
 173	0.00000000	102.00000000	64.00000000	35.65758683
 174	0.00000000	102.00000000	77.00000000	36.08560346
 175	0.00000000	102.00000000	89.00000000	36.56420298
 176	0.00000000	102.00000000	102.00000000	37.16731422
 177	0.00000000	102.00000000	115.00000000	37.86381304
 178	0.00000000	102.00000000	128.00000000	38.65758665
 179	0.00000000	102.00000000	140.00000000	39.47471000
 180	0.00000000	102.00000000	153.00000000	40.43968722
 181	0.00000000	102.00000000	166.00000000	41.31517544
 182	0.00000000	102.00000000	179.00000000	42.08949409
 183	0.00000000	102.00000000	191.00000000	42.85213977
 184	0.00000000	102.00000000	204.00000000	43.73151898
 185	0.00000000	102.00000000	217.00000000	44.68871422
 186	0.00000000	102.00000000	230.00000000	45.85992157
 187	0.00000000	102.00000000	242.00000000	46.99221902
 188	0.00000000	102.00000000	255.00000000	48.26848313
 189	0.00000000	115.00000000	0.00000000	42.14785896
 190	0.00000000	115.00000000	13.00000000	42.19065987
 191	0.00000000	115.00000000	26.00000000	42.26070151
 192	0.00000000	115.00000000	38.00000000	42.36186728
 193	0.00000000	115.00000000	51.00000000	42.50583775
 194	0.00000000	115.00000000	64.00000000	42.70427831
 195	0.00000000	115.00000000	77.00000000	42.94941455
 196	0.00000000	115.00000000	89.00000000	43.22568253
 197	0.00000000	115.00000000	102.00000000	43.57587554
 198	0.00000000	115.00000000	115.00000000	43.98443721
 199	0.00000000	115.00000000	128.00000000	44.44357798
 200	0.00000000	115.00000000	140.00000000	44.98832814
 201	0.00000000	115.00000000	153.00000000	45.66536821
 202	0.00000000	115.00000000	166.00000000	46.40466794
 203	0.00000000	115.00000000	179.00000000	47.21011832
 204	0.00000000	115.00000000	191.00000000	48.01167391
 205	0.00000000	115.00000000	204.00000000	48.95719998
 206	0.00000000	115.00000000	217.00000000	50.31517491
 207	0.00000000	115.00000000	230.00000000	51.75097346
 208	0.00000000	115.00000000	242.00000000	53.14007632
 209	0.00000000	115.00000000	255.00000000	54.71595436
 210	0.00000000	128.00000000	0.00000000	48.05836581
 211	0.00000000	128.00000000	13.00000000	48.10894869
 212	0.00000000	128.00000000	26.00000000	48.17898653
 213	0.00000000	128.00000000	38.00000000	48.27626511
 214	0.00000000	128.00000000	51.00000000	48.43190476
 215	0.00000000	128.00000000	64.00000000	48.63813110
 216	0.00000000	128.00000000	77.00000000	48.89104933
 217	0.00000000	128.00000000	89.00000000	49.28015605
 218	0.00000000	128.00000000	102.00000000	49.78210151
 219	0.00000000	128.00000000	115.00000000	50.35797581
 220	0.00000000	128.00000000	128.00000000	51.01556472
 221	0.00000000	128.00000000	140.00000000	51.69649959
 222	0.00000000	128.00000000	153.00000000	52.50972815
 223	0.00000000	128.00000000	166.00000000	53.40466753
 224	0.00000000	128.00000000	179.00000000	54.38521251
 225	0.00000000	128.00000000	191.00000000	55.72762728
 226	0.00000000	128.00000000	204.00000000	57.71595418
 227	0.00000000	128.00000000	217.00000000	59.84435678
 228	0.00000000	128.00000000	230.00000000	62.10505687
 229	0.00000000	128.00000000	242.00000000	64.29961011
 230	0.00000000	128.00000000	255.00000000	66.86770231
 231	0.00000000	140.00000000	0.00000000	56.39688537
 232	0.00000000	140.00000000	13.00000000	56.49416395
 233	0.00000000	140.00000000	26.00000000	56.64591260
 234	0.00000000	140.00000000	38.00000000	56.86381191
 235	0.00000000	140.00000000	51.00000000	57.19455376
 236	0.00000000	140.00000000	64.00000000	57.62645759
 237	0.00000000	140.00000000	77.00000000	58.17509875
 238	0.00000000	140.00000000	89.00000000	58.78210098
 239	0.00000000	140.00000000	102.00000000	59.56031062
 240	0.00000000	140.00000000	115.00000000	60.45914479
 241	0.00000000	140.00000000	128.00000000	61.49027266
 242	0.00000000	140.00000000	140.00000000	62.55641945
 243	0.00000000	140.00000000	153.00000000	63.83268356
 244	0.00000000	140.00000000	166.00000000	65.24513617
 245	0.00000000	140.00000000	179.00000000	66.85602933
 246	0.00000000	140.00000000	191.00000000	68.47470447
 247	0.00000000	140.00000000	204.00000000	70.36964759
 248	0.00000000	140.00000000	217.00000000	72.38132045
 249	0.00000000	140.00000000	230.00000000	74.52529460
 250	0.00000000	140.00000000	242.00000000	76.63035125
 251	0.00000000	140.00000000	255.00000000	79.24902633
 252	0.00000000	153.00000000	0.00000000	71.75875425
 253	0.00000000	153.00000000	13.00000000	71.85213804
 254	0.00000000	153.00000000	26.00000000	71.98833033
 255	0.00000000	153.00000000	38.00000000	72.18677089
 256	0.00000000	153.00000000	51.00000000	72.49416679
 257	0.00000000	153.00000000	64.00000000	72.89104789
 258	0.00000000	153.00000000	77.00000000	73.40466633
 259	0.00000000	153.00000000	89.00000000	73.97276625
 260	0.00000000	153.00000000	102.00000000	74.69260722
 261	0.00000000	153.00000000	115.00000000	75.52918553
 262	0.00000000	153.00000000	128.00000000	76.49416655
 263	0.00000000	153.00000000	140.00000000	77.57587731
 264	0.00000000	153.00000000	153.00000000	78.88715655
 265	0.00000000	153.00000000	166.00000000	80.33073708
 266	0.00000000	153.00000000	179.00000000	81.92217529
 267	0.00000000	153.00000000	191.00000000	83.50194812
 268	0.00000000	153.00000000	204.00000000	85.35019174
 269	0.00000000	153.00000000	217.00000000	87.33851865
 270	0.00000000	153.00000000	230.00000000	89.62645948
 271	0.00000000	153.00000000	242.00000000	92.23346159
 272	0.00000000	153.00000000	255.00000000	95.19455150
 273	0.00000000	166.00000000	0.00000000	88.39688346
 274	0.00000000	166.00000000	13.00000000	88.48249286
 275	0.00000000	166.00000000	26.00000000	88.61867756
 276	0.00000000	166.00000000	38.00000000	88.83268207
 277	0.00000000	166.00000000	51.00000000	89.19844285
 278	0.00000000	166.00000000	64.00000000	89.69260633
 279	0.00000000	166.00000000	77.00000000	90.32295451
 280	0.00000000	166.00000000	89.00000000	91.00778416
 281	0.00000000	166.00000000	102.00000000	91.89494535
 282	0.00000000	166.00000000	115.00000000	92.92218223
 283	0.00000000	166.00000000	128.00000000	94.10116777
 284	0.00000000	166.00000000	140.00000000	95.31906322
 285	0.00000000	166.00000000	153.00000000	96.79766268
 286	0.00000000	166.00000000	166.00000000	98.42412740
 287	0.00000000	166.00000000	179.00000000	100.21400616
 288	0.00000000	166.00000000	191.00000000	102.00389251
 289	0.00000000	166.00000000	204.00000000	104.09727618
 290	0.00000000	166.00000000	217.00000000	107.11283997
 291	0.00000000	166.00000000	230.00000000	110.31128034
 292	0.00000000	166.00000000	242.00000000	113.46303642
 293	0.00000000	166.00000000	255.00000000	117.06225649
 294	0.00000000	179.00000000	0.00000000	111.31128028
 295	0.00000000	179.00000000	13.00000000	111.43969059
 296	0.00000000	179.00000000	26.00000000	111.63813114
 297	0.00000000	179.00000000	38.00000000	111.94552705
 298	0.00000000	179.00000000	51.00000000	112.38521665
 299	0.00000000	179.00000000	64.00000000	112.97276393
 300	0.00000000	179.00000000	77.00000000	113.71984184
 301	0.00000000	179.00000000	89.00000000	114.54085618
 302	0.00000000	179.00000000	102.00000000	115.61089396
 303	0.00000000	179.00000000	115.00000000	116.84046999
 304	0.00000000	179.00000000	128.00000000	118.26069698
 305	0.00000000	179.00000000	140.00000000	119.72373247
 306	0.00000000	179.00000000	153.00000000	121.50194585
 307	0.00000000	179.00000000	166.00000000	123.46692681
 308	0.00000000	179.00000000	179.00000000	125.50194561
 309	0.00000000	179.00000000	191.00000000	127.42801666
 310	0.00000000	179.00000000	204.00000000	129.68093097
 311	0.00000000	179.00000000	217.00000000	132.10506409
 312	0.00000000	179.00000000	230.00000000	134.70038563
 313	0.00000000	179.00000000	242.00000000	137.25681245
 314	0.00000000	179.00000000	255.00000000	140.17510146
 315	0.00000000	191.00000000	0.00000000	135.74318647
 316	0.00000000	191.00000000	13.00000000	135.84046125
 317	0.00000000	191.00000000	26.00000000	136.01168007
 318	0.00000000	191.00000000	38.00000000	136.25292152
 319	0.00000000	191.00000000	51.00000000	136.61089271
 320	0.00000000	191.00000000	64.00000000	137.08171785
 321	0.00000000	191.00000000	77.00000000	137.69649446
 322	0.00000000	191.00000000	89.00000000	138.36576015
 323	0.00000000	191.00000000	102.00000000	139.22179341
 324	0.00000000	191.00000000	115.00000000	140.22957534
 325	0.00000000	191.00000000	128.00000000	141.36575997
 326	0.00000000	191.00000000	140.00000000	142.56420046
 327	0.00000000	191.00000000	153.00000000	143.78209591
 328	0.00000000	191.00000000	166.00000000	145.07004440
 329	0.00000000	191.00000000	179.00000000	146.49416238
 330	0.00000000	191.00000000	191.00000000	147.92218655
 331	0.00000000	191.00000000	204.00000000	149.59921896
 332	0.00000000	191.00000000	217.00000000	151.39299631
 333	0.00000000	191.00000000	230.00000000	153.32295835
 334	0.00000000	191.00000000	242.00000000	155.21790147
 335	0.00000000	191.00000000	255.00000000	157.39688694
 336	0.00000000	204.00000000	0.00000000	157.00778782
 337	0.00000000	204.00000000	13.00000000	157.07782567
 338	0.00000000	204.00000000	26.00000000	157.20233738
 339	0.00000000	204.00000000	38.00000000	157.36965001
 340	0.00000000	204.00000000	51.00000000	157.61478245
 341	0.00000000	204.00000000	64.00000000	157.80544102
 342	0.00000000	204.00000000	77.00000000	158.04669768
 343	0.00000000	204.00000000	89.00000000	158.32295805
 344	0.00000000	204.00000000	102.00000000	158.66536528
 345	0.00000000	204.00000000	115.00000000	159.06226158
 346	0.00000000	204.00000000	128.00000000	159.52918053
 347	0.00000000	204.00000000	140.00000000	160.00000566
 348	0.00000000	204.00000000	153.00000000	160.58754534
 349	0.00000000	204.00000000	166.00000000	161.22957408
 350	0.00000000	204.00000000	179.00000000	161.92996770
 351	0.00000000	204.00000000	191.00000000	162.63812810
 352	0.00000000	204.00000000	204.00000000	163.47470641
 353	0.00000000	204.00000000	217.00000000	164.37354058
 354	0.00000000	204.00000000	230.00000000	165.33463061
 355	0.00000000	204.00000000	242.00000000	166.03113323
 356	0.00000000	204.00000000	255.00000000	166.70427471
 357	0.00000000	217.00000000	0.00000000	167.08560705
 358	0.00000000	217.00000000	13.00000000	167.11284399
 359	0.00000000	217.00000000	26.00000000	167.14786291
 360	0.00000000	217.00000000	38.00000000	167.20233679
 361	0.00000000	217.00000000	51.00000000	167.28404760
 362	0.00000000	217.00000000	64.00000000	167.38910437
 363	0.00000000	217.00000000	77.00000000	167.52528906
 364	0.00000000	217.00000000	89.00000000	167.67703772
 365	0.00000000	217.00000000	102.00000000	167.86771148
 366	0.00000000	217.00000000	115.00000000	168.09338897
 367	0.00000000	217.00000000	128.00000000	168.35019439
 368	0.00000000	217.00000000	140.00000000	168.62256378
 369	0.00000000	217.00000000	153.00000000	168.94553125
 370	0.00000000	217.00000000	166.00000000	169.30350244
 371	0.00000000	217.00000000	179.00000000	169.70427454
 372	0.00000000	217.00000000	191.00000000	170.10117084
 373	0.00000000	217.00000000	204.00000000	170.57198077
 374	0.00000000	217.00000000	217.00000000	171.03502393
 375	0.00000000	217.00000000	230.00000000	171.52528882
 376	0.00000000	217.00000000	242.00000000	172.01167792
 377	0.00000000	217.00000000	255.00000000	172.57198066
 378	0.00000000	230.00000000	0.00000000	173.32295716
 379	0.00000000	230.00000000	13.00000000	173.34241211
 380	0.00000000	230.00000000	26.00000000	173.36964905
 381	0.00000000	230.00000000	38.00000000	173.41634095
 382	0.00000000	230.00000000	51.00000000	173.48248780
 383	0.00000000	230.00000000	64.00000000	173.57587159
 384	0.00000000	230.00000000	77.00000000	173.68481934
 385	0.00000000	230.00000000	89.00000000	173.81322205
 386	0.00000000	230.00000000	102.00000000	173.97276789
 387	0.00000000	230.00000000	115.00000000	174.15953547
 388	0.00000000	230.00000000	128.00000000	174.37743098
 389	0.00000000	230.00000000	140.00000000	174.60310847
 390	0.00000000	230.00000000	153.00000000	174.87549305
 391	0.00000000	230.00000000	166.00000000	175.24124622
 392	0.00000000	230.00000000	179.00000000	175.82101911
 393	0.00000000	230.00000000	191.00000000	176.40855879
 394	0.00000000	230.00000000	204.00000000	177.08949745
 395	0.00000000	230.00000000	217.00000000	177.82880098
 396	0.00000000	230.00000000	230.00000000	178.62256318
 397	0.00000000	230.00000000	242.00000000	179.40855861
 398	0.00000000	230.00000000	255.00000000	180.31517476
 399	0.00000000	242.00000000	0.00000000	181.45525038
 400	0.00000000	242.00000000	13.00000000	181.49416029
 401	0.00000000	242.00000000	26.00000000	181.54474318
 402	0.00000000	242.00000000	38.00000000	181.61478102
 403	0.00000000	242.00000000	51.00000000	181.71983778
 404	0.00000000	242.00000000	64.00000000	181.86381966
 405	0.00000000	242.00000000	77.00000000	182.05058724
 406	0.00000000	242.00000000	89.00000000	182.24902779
 407	0.00000000	242.00000000	102.00000000	182.50972420
 408	0.00000000	242.00000000	115.00000000	182.81323671
 409	0.00000000	242.00000000	128.00000000	183.25680971
 410	0.00000000	242.00000000	140.00000000	183.77042055
 411	0.00000000	242.00000000	153.00000000	184.39299434
 412	0.00000000	242.00000000	166.00000000	185.09338796
 413	0.00000000	242.00000000	179.00000000	185.85214645
 414	0.00000000	242.00000000	191.00000000	186.61478072
 415	0.00000000	242.00000000	204.00000000	187.51750588
 416	0.00000000	242.00000000	217.00000000	188.49026889
 417	0.00000000	242.00000000	230.00000000	189.54085171
 418	0.00000000	242.00000000	242.00000000	190.57197958
 419	0.00000000	242.00000000	255.00000000	191.77043527
 420	0.00000000	255.00000000	0.00000000	195.04280448
 421	0.00000000	255.00000000	13.00000000	195.07782340
 422	0.00000000	255.00000000	26.00000000	195.13229728
 423	0.00000000	255.00000000	38.00000000	195.21789908
 424	0.00000000	255.00000000	51.00000000	195.33851981
 425	0.00000000	255.00000000	64.00000000	195.50194144
 426	0.00000000	255.00000000	77.00000000	195.70816398
 427	0.00000000	255.00000000	89.00000000	195.94552964
 428	0.00000000	255.00000000	102.00000000	196.23735398
 429	0.00000000	255.00000000	115.00000000	196.57976121
 430	0.00000000	255.00000000	128.00000000	196.98054850
 431	0.00000000	255.00000000	140.00000000	197.39688456
 432	0.00000000	255.00000000	153.00000000	197.89494663
 433	0.00000000	255.00000000	166.00000000	198.45135838
 434	0.00000000	255.00000000	179.00000000	199.06615019
 435	0.00000000	255.00000000	191.00000000	199.68481779
 436	0.00000000	255.00000000	204.00000000	200.41244835
 437	0.00000000	255.00000000	217.00000000	201.20233476
 438	0.00000000	255.00000000	230.00000000	202.04280406
 439	0.00000000	255.00000000	242.00000000	202.88327336
 440	0.00000000	255.00000000	255.00000000	203.77821654
 441	13.00000000	0.00000000	0.00000000	0.00000000
 442	13.00000000	0.00000000	13.00000000	0.00000000
 443	13.00000000	0.00000000	26.00000000	0.00000000
 444	13.00000000	0.00000000	38.00000000	0.00000000
 445	13.00000000	0.00000000	51.00000000	0.00000000
 446	13.00000000	0.00000000	64.00000000	0.00000000
 447	13.00000000	0.00000000	77.00000000	0.00000000
 448	13.00000000	0.00000000	89.00000000	0.00000000
