bench/lcms_compat/reference/srgb_to_D65_XYZ.icc_Relative.it8
CGATS.17
ORIGINATOR	"icctrans"
#
# Data follows
#
NUMBER_OF_SETS	9261.00000000
NUMBER_OF_FIELDS	7.00000000
BEGIN_DATA_FORMAT
 SAMPLE_ID	IN_RGB_R	IN_RGB_G	IN_RGB_B	OUT_RGB_R	OUT_RGB_G	OUT_RGB_B
END_DATA_FORMAT
BEGIN_DATA
 0	0.00000000	0.00000000	0.00000000	0.00000000	0.00000000	0.00000000
 1	0.00000000	0.00000000	13.00000000	0.18520200	0.07408321	0.97539460
 2	0.00000000	0.00000000	26.00000000	0.47533876	0.19014169	2.50344389
 3	0.00000000	0.00000000	38.00000000	0.89190186	0.35677239	4.69733692
 4	0.00000000	0.00000000	51.00000000	1.52335405	0.60936149	8.02297689
 5	0.00000000	0.00000000	64.00000000	2.35922358	0.94372021	12.42521167
 6	0.00000000	0.00000000	77.00000000	3.41502329	1.36605389	17.98574019
 7	0.00000000	0.00000000	89.00000000	4.59695580	1.83884222	24.21056807
 8	0.00000000	0.00000000	102.00000000	6.11408947	2.44571549	32.20078312
 9	0.00000000	0.00000000	115.00000000	7.88906068	3.15572710	41.54894270
 10	0.00000000	0.00000000	128.00000000	9.93307170	3.97335820	52.31403865
 11	0.00000000	0.00000000	140.00000000	12.06776865	4.82726477	63.55674617
 12	0.00000000	0.00000000	153.00000000	14.65829959	5.86351097	77.20016867
 13	0.00000000	0.00000000	166.00000000	17.54716013	7.01909261	92.41478786
 14	0.00000000	0.00000000	179.00000000	20.74343082	8.29764230	109.24843937
 15	0.00000000	0.00000000	191.00000000	23.97421505	9.58999855	126.26386553
 16	0.00000000	0.00000000	204.00000000	27.78581522	11.11468764	146.33821875
 17	0.00000000	0.00000000	217.00000000	31.92931429	12.77214160	168.16059977
 18	0.00000000	0.00000000	230.00000000	36.41249232	14.56547152	191.77193999
 19	0.00000000	0.00000000	242.00000000	40.85880853	16.34405728	215.18914104
 20	0.00000000	0.00000000	255.00000000	46.01615779	18.40706158	242.35110193
 21	0.00000000	13.00000000	0.00000000	0.36696759	0.73398714	0.12232151
 22	0.00000000	13.00000000	13.00000000	0.55216957	0.80807040	1.09771609
 23	0.00000000	13.00000000	26.00000000	0.84230632	0.92412888	2.62576550
 24	0.00000000	13.00000000	38.00000000	1.25886948	1.09075950	4.81965853
 25	0.00000000	13.00000000	51.00000000	1.89032173	1.34334869	8.14529803
 26	0.00000000	13.00000000	64.00000000	2.72619126	1.67770735	12.54753280
 27	0.00000000	13.00000000	77.00000000	3.78199097	2.10004091	18.10806323
 28	0.00000000	13.00000000	89.00000000	4.96392349	2.57282936	24.33288921
 29	0.00000000	13.00000000	102.00000000	6.48105715	3.17970263	32.32310615
 30	0.00000000	13.00000000	115.00000000	8.25602883	3.88971424	41.67126194
 31	0.00000000	13.00000000	128.00000000	10.30003985	4.70734558	52.43635789
 32	0.00000000	13.00000000	140.00000000	12.43473681	5.56125191	63.67906541
 33	0.00000000	13.00000000	153.00000000	15.02526680	6.59749811	77.32249171
 34	0.00000000	13.00000000	166.00000000	17.91412733	7.75307975	92.53711089
 35	0.00000000	13.00000000	179.00000000	21.11039802	9.03162992	109.37076241
 36	0.00000000	13.00000000	191.00000000	24.34118416	10.32398617	126.38618097
 37	0.00000000	13.00000000	204.00000000	28.15278243	11.84867525	146.46054178
 38	0.00000000	13.00000000	217.00000000	32.29627959	13.50612827	168.28292280
 39	0.00000000	13.00000000	230.00000000	36.77945763	15.29945819	191.89426303
 40	0.00000000	13.00000000	242.00000000	41.22577764	17.07804300	215.31146407
 41	0.00000000	13.00000000	255.00000000	46.38312310	19.14104920	242.47342497
 42	0.00000000	26.00000000	0.00000000	0.94185760	1.88384854	0.31394990
 43	0.00000000	26.00000000	13.00000000	1.12705954	1.95793186	1.28934456
 44	0.00000000	26.00000000	26.00000000	1.41719630	2.07399022	2.81739397
 45	0.00000000	26.00000000	38.00000000	1.83375939	2.24062102	5.01128700
 46	0.00000000	26.00000000	51.00000000	2.46521177	2.49321009	8.33692649
 47	0.00000000	26.00000000	64.00000000	3.30108118	2.82756887	12.73916127
 48	0.00000000	26.00000000	77.00000000	4.35688089	3.24990244	18.29969075
 49	0.00000000	26.00000000	89.00000000	5.53881316	3.72269088	24.52451862
 50	0.00000000	26.00000000	102.00000000	7.05594683	4.32956415	32.51473367
 51	0.00000000	26.00000000	115.00000000	8.83091804	5.03957600	41.86289325
 52	0.00000000	26.00000000	128.00000000	10.87493001	5.85720710	52.62798920
 53	0.00000000	26.00000000	140.00000000	13.00962696	6.71111343	63.87069672
 54	0.00000000	26.00000000	153.00000000	15.60015695	7.74735963	77.51411542
 55	0.00000000	26.00000000	166.00000000	18.48901749	8.90294127	92.72874221
 56	0.00000000	26.00000000	179.00000000	21.68528818	10.18149097	109.56238613
 57	0.00000000	26.00000000	191.00000000	24.91607431	11.47384722	126.57781228
 58	0.00000000	26.00000000	204.00000000	28.72767258	12.99853630	146.65217310
 59	0.00000000	26.00000000	217.00000000	32.87116975	14.65599027	168.47453892
 60	0.00000000	26.00000000	230.00000000	37.35434778	16.44931924	192.08587915
 61	0.00000000	26.00000000	242.00000000	41.80066779	18.22790500	215.50309539
 62	0.00000000	26.00000000	255.00000000	46.95801325	20.29091120	242.66505629
 63	0.00000000	38.00000000	0.00000000	1.76725441	3.53475914	0.58907990
 64	0.00000000	38.00000000	13.00000000	1.95245648	3.60884258	1.56447449
 65	0.00000000	38.00000000	26.00000000	2.24259311	3.72490094	3.09252391
 66	0.00000000	38.00000000	38.00000000	2.65915621	3.89153173	5.28641693
 67	0.00000000	38.00000000	51.00000000	3.29060846	4.14412080	8.61205643
 68	0.00000000	38.00000000	64.00000000	4.12647835	4.47847959	13.01429121
 69	0.00000000	38.00000000	77.00000000	5.18227782	4.90081315	18.57482068
 70	0.00000000	38.00000000	89.00000000	6.36421010	5.37360135	24.79964856
 71	0.00000000	38.00000000	102.00000000	7.88134377	5.98047487	32.78986551
 72	0.00000000	38.00000000	115.00000000	9.65631545	6.69048624	42.13802129
 73	0.00000000	38.00000000	128.00000000	11.70032647	7.50811734	52.90311724
 74	0.00000000	38.00000000	140.00000000	13.83502342	8.36202415	64.14582476
 75	0.00000000	38.00000000	153.00000000	16.42555341	9.39827034	77.78925106
 76	0.00000000	38.00000000	166.00000000	19.31441300	10.55385198	93.00387025
 77	0.00000000	38.00000000	179.00000000	22.51068559	11.83240168	109.83752176
 78	0.00000000	38.00000000	191.00000000	25.74146982	13.12475793	126.85294032
 79	0.00000000	38.00000000	204.00000000	29.55306809	14.64944702	146.92730874
 80	0.00000000	38.00000000	217.00000000	33.69656906	16.30690098	168.74967456
 81	0.00000000	38.00000000	230.00000000	38.17974709	18.10022995	192.36101478
 82	0.00000000	38.00000000	242.00000000	42.62606330	19.87881571	215.77823102
 83	0.00000000	38.00000000	255.00000000	47.78341256	21.94182191	242.94017673
 84	0.00000000	51.00000000	0.00000000	3.01844237	6.03731222	1.00613910
 85	0.00000000	51.00000000	13.00000000	3.20364419	6.11139541	1.98153370
 86	0.00000000	51.00000000	26.00000000	3.49378095	6.22745401	3.50958311
 87	0.00000000	51.00000000	38.00000000	3.91034405	6.39408457	5.70347638
 88	0.00000000	51.00000000	51.00000000	4.54179654	6.64667364	9.02911540
 89	0.00000000	51.00000000	64.00000000	5.37766619	6.98103243	13.43135018
 90	0.00000000	51.00000000	77.00000000	6.43346566	7.40336599	18.99188060
 91	0.00000000	51.00000000	89.00000000	7.61539794	7.87615467	25.21670658
 92	0.00000000	51.00000000	102.00000000	9.13253160	8.48302770	33.20692353
 93	0.00000000	51.00000000	115.00000000	10.90750281	9.19303956	42.55507931
 94	0.00000000	51.00000000	128.00000000	12.95151478	10.01067018	53.32017526
 95	0.00000000	51.00000000	140.00000000	15.08621078	10.86457746	64.56288278
 96	0.00000000	51.00000000	153.00000000	17.67674267	11.90082271	78.20630908
 97	0.00000000	51.00000000	166.00000000	20.56560226	13.05640435	93.42092827
 98	0.00000000	51.00000000	179.00000000	23.76187295	14.33495499	110.25457978
 99	0.00000000	51.00000000	191.00000000	26.99265908	15.62731124	127.26999834
 100	0.00000000	51.00000000	204.00000000	30.80425736	17.15200033	147.34435916
 101	0.00000000	51.00000000	217.00000000	34.94775452	18.80945429	169.16674018
 102	0.00000000	51.00000000	230.00000000	39.43093255	20.60278326	192.77808040
 103	0.00000000	51.00000000	242.00000000	43.87725256	22.38136902	216.19528145
 104	0.00000000	51.00000000	255.00000000	49.03459802	24.44437522	243.35724235
 105	0.00000000	64.00000000	0.00000000	4.67467208	9.35000628	1.55821101
 106	0.00000000	64.00000000	13.00000000	4.85987367	9.42408901	2.53360549
 107	0.00000000	64.00000000	26.00000000	5.15001043	9.54014808	4.06165478
 108	0.00000000	64.00000000	38.00000000	5.56657352	9.70677864	6.25554828
 109	0.00000000	64.00000000	51.00000000	6.19802602	9.95936723	9.58118778
 110	0.00000000	64.00000000	64.00000000	7.03389566	10.29372649	13.98342256
 111	0.00000000	64.00000000	77.00000000	8.08969561	10.71605958	19.54395108
 112	0.00000000	64.00000000	89.00000000	9.27162789	11.18884826	25.76877896
 113	0.00000000	64.00000000	102.00000000	10.78876108	11.79572130	33.75899591
 114	0.00000000	64.00000000	115.00000000	12.56373324	12.50573315	43.10715169
 115	0.00000000	64.00000000	128.00000000	14.60774425	13.32336472	53.87224764
 116	0.00000000	64.00000000	140.00000000	16.74244121	14.17727105	65.11495516
 117	0.00000000	64.00000000	153.00000000	19.33297120	15.21351725	78.75838146
 118	0.00000000	64.00000000	166.00000000	22.22183079	16.36909794	93.97300065
 119	0.00000000	64.00000000	179.00000000	25.41810337	17.64764953	110.80665216
 120	0.00000000	64.00000000	191.00000000	28.64888761	18.94000579	127.82207072
 121	0.00000000	64.00000000	204.00000000	32.46048778	20.46469487	147.89643914
 122	0.00000000	64.00000000	217.00000000	36.60398684	22.12214693	169.71880496
 123	0.00000000	64.00000000	230.00000000	41.08716488	23.91547780	193.33014518
 124	0.00000000	64.00000000	242.00000000	45.53348109	25.69406167	216.74736142
 125	0.00000000	64.00000000	255.00000000	50.69083035	27.75706787	243.90930712
 126	0.00000000	77.00000000	0.00000000	6.76668070	13.53431990	2.25554139
 127	0.00000000	77.00000000	13.00000000	6.95188276	13.60840358	3.23093599
 128	0.00000000	77.00000000	26.00000000	7.24201952	13.72446170	4.75898528
 129	0.00000000	77.00000000	38.00000000	7.65858262	13.89109226	6.95287879
 130	0.00000000	77.00000000	51.00000000	8.29003511	14.14368181	10.27851781
 131	0.00000000	77.00000000	64.00000000	9.12590476	14.47804011	14.68075259
 132	0.00000000	77.00000000	77.00000000	10.18170375	14.90037415	20.24128206
 133	0.00000000	77.00000000	89.00000000	11.36363698	15.37316283	26.46610994
 134	0.00000000	77.00000000	102.00000000	12.88077017	15.98003492	34.45632689
 135	0.00000000	77.00000000	115.00000000	14.65574138	16.69004772	43.80448267
 136	0.00000000	77.00000000	128.00000000	16.69975240	17.50767834	54.56957862
 137	0.00000000	77.00000000	140.00000000	18.83444935	18.36158562	65.81228614
 138	0.00000000	77.00000000	153.00000000	21.42498124	19.39783182	79.45571244
 139	0.00000000	77.00000000	166.00000000	24.31384083	20.55341251	94.67033163
 140	0.00000000	77.00000000	179.00000000	27.51011152	21.83196221	111.50398314
 141	0.00000000	77.00000000	191.00000000	30.74089576	23.12431846	128.51940930
 142	0.00000000	77.00000000	204.00000000	34.55249593	24.64900754	148.59376252
 143	0.00000000	77.00000000	217.00000000	38.69599499	26.30646151	170.41614354
 144	0.00000000	77.00000000	230.00000000	43.17917302	28.09979238	194.02748376
 145	0.00000000	77.00000000	242.00000000	47.62548923	29.87837624	217.44468480
 146	0.00000000	77.00000000	255.00000000	52.78283849	31.94138244	244.60664570
 147	0.00000000	89.00000000	0.00000000	9.10861474	18.21851950	3.03617958
 148	0.00000000	89.00000000	13.00000000	9.29381680	18.29260413	4.01157442
 149	0.00000000	89.00000000	26.00000000	9.58395308	18.40866130	5.53962347
 150	0.00000000	89.00000000	38.00000000	10.00051618	18.57529186	7.73351650
 151	0.00000000	89.00000000	51.00000000	10.63196914	18.82788140	11.05915647
 152	0.00000000	89.00000000	64.00000000	11.46783879	19.16224066	15.46139125
 153	0.00000000	89.00000000	77.00000000	12.52363779	19.58457470	21.02191977
 154	0.00000000	89.00000000	89.00000000	13.70557006	20.05736243	27.24674765
 155	0.00000000	89.00000000	102.00000000	15.22270421	20.66423547	35.23696460
 156	0.00000000	89.00000000	115.00000000	16.99767541	21.37424637	44.58512038
 157	0.00000000	89.00000000	128.00000000	19.04168643	22.19187889	55.35021633
 158	0.00000000	89.00000000	140.00000000	21.17638338	23.04578427	66.59292385
 159	0.00000000	89.00000000	153.00000000	23.76691338	24.08203047	80.23635015
 160	0.00000000	89.00000000	166.00000000	26.65577486	25.23761306	95.45096934
 161	0.00000000	89.00000000	179.00000000	29.85204555	26.51616275	112.28462085
 162	0.00000000	89.00000000	191.00000000	33.08282979	27.80851901	129.30003941
 163	0.00000000	89.00000000	204.00000000	36.89442806	29.33320809	149.37440783
 164	0.00000000	89.00000000	217.00000000	41.03792712	30.99066205	171.19677365
 165	0.00000000	89.00000000	230.00000000	45.52110516	32.78399102	194.80811387
 166	0.00000000	89.00000000	242.00000000	49.96742517	34.56257679	218.22533011
 167	0.00000000	89.00000000	255.00000000	55.12477063	36.62558109	245.38727582
 168	0.00000000	102.00000000	0.00000000	12.11473128	24.23118006	4.03821004
 169	0.00000000	102.00000000	13.00000000	12.29993334	24.30526279	5.01360487
 170	0.00000000	102.00000000	26.00000000	12.59007057	24.42132186	6.54165440
 171	0.00000000	102.00000000	38.00000000	13.00663367	24.58795242	8.73554695
 172	0.00000000	102.00000000	51.00000000	13.63808569	24.84054197	12.06118645
 173	0.00000000	102.00000000	64.00000000	14.47395533	25.17489932	16.46342218
 174	0.00000000	102.00000000	77.00000000	15.52975528	25.59723336	22.02395070
 175	0.00000000	102.00000000	89.00000000	16.71168756	26.07002109	28.24877858
 176	0.00000000	102.00000000	102.00000000	18.22882075	26.67689413	36.23899363
 177	0.00000000	102.00000000	115.00000000	20.00379290	27.38690693	45.58715321
 178	0.00000000	102.00000000	128.00000000	22.04780392	28.20453756	56.35224916
 179	0.00000000	102.00000000	140.00000000	24.18250088	29.05844484	67.59495288
 180	0.00000000	102.00000000	153.00000000	26.77303087	30.09469103	81.23837918
 181	0.00000000	102.00000000	166.00000000	29.66189045	31.25027172	96.45299837
 182	0.00000000	102.00000000	179.00000000	32.85816304	32.52882332	113.28664988
 183	0.00000000	102.00000000	191.00000000	36.08894728	33.82117957	130.30207604
 184	0.00000000	102.00000000	204.00000000	39.90054555	35.34586675	150.37642926
 185	0.00000000	102.00000000	217.00000000	44.04404461	37.00332262	172.19881028
 186	0.00000000	102.00000000	230.00000000	48.52722265	38.79665159	195.81015050
 187	0.00000000	102.00000000	242.00000000	52.97354266	40.57523735	219.22735155
 188	0.00000000	102.00000000	255.00000000	58.13088812	42.63824165	246.38931245
 189	0.00000000	115.00000000	0.00000000	15.63173991	31.26569510	5.21053643
 190	0.00000000	115.00000000	13.00000000	15.81694197	31.33977782	6.18593127
 191	0.00000000	115.00000000	26.00000000	16.10707920	31.45583689	7.71398032
 192	0.00000000	115.00000000	38.00000000	16.52364135	31.62246745	9.90787335
 193	0.00000000	115.00000000	51.00000000	17.15509336	31.87505700	13.23351284
 194	0.00000000	115.00000000	64.00000000	17.99096301	32.20941626	17.63574857
 195	0.00000000	115.00000000	77.00000000	19.04676296	32.63174839	23.19627710
 196	0.00000000	115.00000000	89.00000000	20.22869524	33.10453802	29.42110498
 197	0.00000000	115.00000000	102.00000000	21.74582843	33.71141106	37.41132192
 198	0.00000000	115.00000000	115.00000000	23.52080058	34.42142196	46.75947770
 199	0.00000000	115.00000000	128.00000000	25.56481160	35.23905449	57.52457365
 200	0.00000000	115.00000000	140.00000000	27.69950856	36.09295987	68.76728117
 201	0.00000000	115.00000000	153.00000000	30.29003855	37.12920606	82.41070747
 202	0.00000000	115.00000000	166.00000000	33.17890003	38.28478865	97.62532666
 203	0.00000000	115.00000000	179.00000000	36.37517072	39.56333645	114.45897818
 204	0.00000000	115.00000000	191.00000000	39.60595496	40.85569270	131.47440434
 205	0.00000000	115.00000000	204.00000000	43.41755323	42.38038369	151.54875755
 206	0.00000000	115.00000000	217.00000000	47.56105229	44.03783575	173.37113857
 207	0.00000000	115.00000000	230.00000000	52.04423033	45.83116472	196.98247880
 208	0.00000000	115.00000000	242.00000000	56.49055034	47.60975048	220.39967984
 209	0.00000000	115.00000000	255.00000000	61.64789580	49.67275858	247.56164074
 210	0.00000000	128.00000000	0.00000000	19.68183618	39.36645761	6.56055696
 211	0.00000000	128.00000000	13.00000000	19.86703824	39.44054224	7.53595180
 212	0.00000000	128.00000000	26.00000000	20.15717357	39.55659941	9.06400133
 213	0.00000000	128.00000000	38.00000000	20.57373762	39.72323187	11.25789436
 214	0.00000000	128.00000000	51.00000000	21.20518964	39.97581951	14.58353385
 215	0.00000000	128.00000000	64.00000000	22.04105929	40.31017877	18.98576863
 216	0.00000000	128.00000000	77.00000000	23.09685923	40.73251471	24.54629906
 217	0.00000000	128.00000000	89.00000000	24.27879151	41.20530054	30.77112503
 218	0.00000000	128.00000000	102.00000000	25.79592470	41.81217358	38.76134008
 219	0.00000000	128.00000000	115.00000000	27.57089686	42.52218448	48.10949966
 220	0.00000000	128.00000000	128.00000000	29.61490788	43.33981700	58.87459561
 221	0.00000000	128.00000000	140.00000000	31.74960483	44.19372238	70.11730313
 222	0.00000000	128.00000000	153.00000000	34.34013672	45.22996858	83.76072943
 223	0.00000000	128.00000000	166.00000000	37.22899631	46.38555117	98.97534862
 224	0.00000000	128.00000000	179.00000000	40.42526700	47.66410276	115.80900013
 225	0.00000000	128.00000000	191.00000000	43.65605123	48.95645902	132.82442629
 226	0.00000000	128.00000000	204.00000000	47.46764950	50.48114620	152.89877951
 227	0.00000000	128.00000000	217.00000000	51.61114857	52.13860206	174.72114533
 228	0.00000000	128.00000000	230.00000000	56.09432660	53.93193103	198.33250076
 229	0.00000000	128.00000000	242.00000000	60.54064661	55.71051680	221.74970180
 230	0.00000000	128.00000000	255.00000000	65.69798827	57.77352110	248.91166270
 231	0.00000000	140.00000000	0.00000000	23.91161911	47.82662764	7.97047321
 232	0.00000000	140.00000000	13.00000000	24.09682117	47.90071227	8.94586852
 233	0.00000000	140.00000000	26.00000000	24.38695841	48.01676944	10.47391757
 234	0.00000000	140.00000000	38.00000000	24.80352245	48.18339810	12.66781060
 235	0.00000000	140.00000000	51.00000000	25.43497447	48.43598954	15.99345010
 236	0.00000000	140.00000000	64.00000000	26.27084412	48.77034880	20.39568488
 237	0.00000000	140.00000000	77.00000000	27.32664216	49.19268094	25.95621530
 238	0.00000000	140.00000000	89.00000000	28.50857634	49.66547057	32.18104318
 239	0.00000000	140.00000000	102.00000000	30.02570953	50.27234361	40.17125823
 240	0.00000000	140.00000000	115.00000000	31.80067979	50.98235451	49.51941401
 241	0.00000000	140.00000000	128.00000000	33.84469271	51.79998703	60.28450996
 242	0.00000000	140.00000000	140.00000000	35.97938776	52.65389241	71.52721748
 243	0.00000000	140.00000000	153.00000000	38.56991775	53.69013861	85.17064378
 244	0.00000000	140.00000000	166.00000000	41.45877734	54.84572120	100.38526297
 245	0.00000000	140.00000000	179.00000000	44.65505183	56.12426899	117.21891448
 246	0.00000000	140.00000000	191.00000000	47.88583606	57.41662525	134.23433304
 247	0.00000000	140.00000000	204.00000000	51.69743434	58.94131623	154.30870146
 248	0.00000000	140.00000000	217.00000000	55.84093340	60.59876829	176.13106728
 249	0.00000000	140.00000000	230.00000000	60.32411143	62.39209726	199.74240750
 250	0.00000000	140.00000000	242.00000000	64.77042764	64.17068303	223.15962374
 251	0.00000000	140.00000000	255.00000000	69.92777690	66.23369113	250.32156944
 252	0.00000000	153.00000000	0.00000000	29.04461358	58.09334233	9.68145680
 253	0.00000000	153.00000000	13.00000000	29.22981564	58.16742696	10.65685211
 254	0.00000000	153.00000000	26.00000000	29.51995287	58.28348413	12.18490116
 255	0.00000000	153.00000000	38.00000000	29.93651502	58.45011279	14.37879419
 256	0.00000000	153.00000000	51.00000000	30.56796703	58.70270424	17.70443369
 257	0.00000000	153.00000000	64.00000000	31.40383668	59.03706349	22.10666846
 258	0.00000000	153.00000000	77.00000000	32.45963663	59.45939563	27.66719889
 259	0.00000000	153.00000000	89.00000000	33.64157081	59.93218526	33.89202677
 260	0.00000000	153.00000000	102.00000000	35.15870400	60.53905830	41.88224182
 261	0.00000000	153.00000000	115.00000000	36.93367615	61.24906920	51.23039760
 262	0.00000000	153.00000000	128.00000000	38.97768527	62.06670173	61.99549355
 263	0.00000000	153.00000000	140.00000000	41.11238413	62.92060710	73.23820487
 264	0.00000000	153.00000000	153.00000000	43.70291412	63.95685330	86.88162357
 265	0.00000000	153.00000000	166.00000000	46.59177370	65.11243209	102.09624276
 266	0.00000000	153.00000000	179.00000000	49.78804439	66.39098749	118.92989427
 267	0.00000000	153.00000000	191.00000000	53.01882863	67.68334374	135.94532043
 268	0.00000000	153.00000000	204.00000000	56.83042690	69.20802712	156.01968884
 269	0.00000000	153.00000000	217.00000000	60.97392596	70.86548299	177.84205467
 270	0.00000000	153.00000000	230.00000000	65.45710400	72.65881196	201.45339489
 271	0.00000000	153.00000000	242.00000000	69.90342021	74.43739772	224.87061113
 272	0.00000000	153.00000000	255.00000000	75.06076947	76.50040582	252.03255683
 273	0.00000000	166.00000000	0.00000000	34.76873092	69.54238638	11.58947976
 274	0.00000000	166.00000000	13.00000000	34.95393299	69.61646721	12.56487507
 275	0.00000000	166.00000000	26.00000000	35.24407022	69.73252818	14.09292413
 276	0.00000000	166.00000000	38.00000000	35.66063046	69.89915684	16.28681716
 277	0.00000000	166.00000000	51.00000000	36.29208438	70.15174448	19.61245760
 278	0.00000000	166.00000000	64.00000000	37.12795213	70.48610374	24.01469048
 279	0.00000000	166.00000000	77.00000000	38.18375207	70.90844348	29.57522091
 280	0.00000000	166.00000000	89.00000000	39.36568625	71.38122931	35.80004878
 281	0.00000000	166.00000000	102.00000000	40.88281944	71.98810235	43.79026383
 282	0.00000000	166.00000000	115.00000000	42.65779160	72.69810945	53.13842341
 283	0.00000000	166.00000000	128.00000000	44.70180072	73.51574197	63.90351936
 284	0.00000000	166.00000000	140.00000000	46.83649957	74.36964735	75.14622688
 285	0.00000000	166.00000000	153.00000000	49.42702956	75.40589735	88.78964558
 286	0.00000000	166.00000000	166.00000000	52.31588915	76.56147614	104.00427237
 287	0.00000000	166.00000000	179.00000000	55.51215984	77.84003153	120.83791628
 288	0.00000000	166.00000000	191.00000000	58.74294408	79.13238779	137.85335004
 289	0.00000000	166.00000000	204.00000000	62.55454615	80.65707117	157.92770326
 290	0.00000000	166.00000000	217.00000000	66.69804141	82.31452703	179.75006908
 291	0.00000000	166.00000000	230.00000000	71.18122324	84.10785601	203.36140931
 292	0.00000000	166.00000000	242.00000000	75.62753946	85.88644177	226.77862555
 293	0.00000000	166.00000000	255.00000000	80.78488871	87.94944987	253.94058645
 294	0.00000000	179.00000000	0.00000000	41.10196508	82.20975906	13.70054103
 295	0.00000000	179.00000000	13.00000000	41.28716715	82.28383988	14.67593540
 296	0.00000000	179.00000000	26.00000000	41.57730438	82.39989325	16.20398540
 297	0.00000000	179.00000000	38.00000000	41.99386843	82.56652951	18.39787748
 298	0.00000000	179.00000000	51.00000000	42.62531854	82.81911716	21.72351792
 299	0.00000000	179.00000000	64.00000000	43.46119009	83.15347642	26.12575270
 300	0.00000000	179.00000000	77.00000000	44.51699004	83.57580855	31.68628313
 301	0.00000000	179.00000000	89.00000000	45.69892041	84.04859439	37.91110910
 302	0.00000000	179.00000000	102.00000000	47.21605361	84.65546742	45.90132415
 303	0.00000000	179.00000000	115.00000000	48.99102576	85.36548212	55.24948373
 304	0.00000000	179.00000000	128.00000000	51.03503868	86.18311465	66.01457968
 305	0.00000000	179.00000000	140.00000000	53.16973373	87.03702003	77.25728720
 306	0.00000000	179.00000000	153.00000000	55.76026373	88.07326242	90.90071350
 307	0.00000000	179.00000000	166.00000000	58.64912711	89.22884881	106.11533269
 308	0.00000000	179.00000000	179.00000000	61.84539780	90.50739661	122.94898421
 309	0.00000000	179.00000000	191.00000000	65.07618204	91.79975286	139.96441036
 310	0.00000000	179.00000000	204.00000000	68.88778031	93.32444385	160.03876358
