bench/lcms_compat/reference/srgb_to_USSheetfedCoated.icc_Absolute.it8
CGATS.17
ORIGINATOR	"icctrans"
#
# Data follows
#
NUMBER_OF_SETS	9261.00000000
NUMBER_OF_FIELDS	8.00000000
BEGIN_DATA_FORMAT
 SAMPLE_ID	IN_RGB_R	IN_RGB_G	IN_RGB_B	OUT_CMYK_C	OUT_CMYK_M	OUT_CMYK_Y	OUT_CMYK_K
END_DATA_FORMAT
BEGIN_DATA
 0	0.00000000	0.00000000	0.00000000	94.38468218	85.17128229	84.09246802	84.87678170
 1	0.00000000	0.00000000	13.00000000	96.47669196	88.35889101	76.60639286	80.69123626
 2	0.00000000	0.00000000	26.00000000	99.75280166	92.28045940	70.61875463	75.19187927
 3	0.00000000	0.00000000	38.00000000	100.00000000	95.76409459	64.73792791	69.59334612
 4	0.00000000	0.00000000	51.00000000	100.00000000	94.96909976	63.29594851	63.75219226
 5	0.00000000	0.00000000	64.00000000	100.00000000	93.83993149	58.68467093	59.40032005
 6	0.00000000	0.00000000	77.00000000	100.00000000	93.36385131	54.07797098	51.58617496
 7	0.00000000	0.00000000	89.00000000	100.00000000	93.38521361	51.14976764	39.50713277
 8	0.00000000	0.00000000	102.00000000	100.00000000	92.94575453	49.45754111	28.67628038
 9	0.00000000	0.00000000	115.00000000	100.00000000	91.99206233	46.41947150	20.01373321
 10	0.00000000	0.00000000	128.00000000	100.00000000	90.42801261	38.74723315	12.96559125
 11	0.00000000	0.00000000	140.00000000	100.00000000	89.63454366	30.97886741	7.84618929
 12	0.00000000	0.00000000	153.00000000	100.00000000	88.66712451	18.13382208	3.14641036
 13	0.00000000	0.00000000	166.00000000	100.00000000	86.28214002	8.75562653	0.88654915
 14	0.00000000	0.00000000	179.00000000	100.00000000	83.55993032	0.00000000	0.14953841
 15	0.00000000	0.00000000	191.00000000	99.64293838	78.80522013	0.00000000	0.00000000
 16	0.00000000	0.00000000	204.00000000	95.67101598	76.24627948	0.00000000	0.00000000
 17	0.00000000	0.00000000	217.00000000	94.45945024	74.05966520	0.00000000	0.00000000
 18	0.00000000	0.00000000	230.00000000	93.53474975	71.77538872	0.00000000	0.00000000
 19	0.00000000	0.00000000	242.00000000	92.82368422	70.26779652	0.00000000	0.00000000
 20	0.00000000	0.00000000	255.00000000	92.48798490	68.23377013	0.00000000	0.00000000
 21	0.00000000	13.00000000	0.00000000	92.63294339	72.84351587	88.82886767	80.10376096
 22	0.00000000	13.00000000	13.00000000	98.03158641	79.62615490	81.45418763	80.14801145
 23	0.00000000	13.00000000	26.00000000	100.00000000	87.24345565	71.40612006	74.31143522
 24	0.00000000	13.00000000	38.00000000	100.00000000	91.65026546	64.49072957	68.82429123
 25	0.00000000	13.00000000	51.00000000	100.00000000	92.67566800	62.25833297	63.12505007
 26	0.00000000	13.00000000	64.00000000	100.00000000	92.09582806	58.00259113	57.59670138
 27	0.00000000	13.00000000	77.00000000	100.00000000	92.64209867	54.04440165	47.11680710
 28	0.00000000	13.00000000	89.00000000	100.00000000	92.53681302	51.93713307	35.75646579
 29	0.00000000	13.00000000	102.00000000	100.00000000	91.52513742	49.25154448	25.25978386
 30	0.00000000	13.00000000	115.00000000	100.00000000	90.98954797	45.50240338	17.90035814
 31	0.00000000	13.00000000	128.00000000	100.00000000	89.50636983	37.45479584	11.32524610
 32	0.00000000	13.00000000	140.00000000	100.00000000	88.74647021	27.28465796	6.19058535
 33	0.00000000	13.00000000	153.00000000	100.00000000	87.52422333	16.68268889	2.37125196
 34	0.00000000	13.00000000	166.00000000	100.00000000	85.38491130	5.10109104	0.81788357
 35	0.00000000	13.00000000	179.00000000	100.00000000	82.12405443	0.00000000	0.06561379
 36	0.00000000	13.00000000	191.00000000	97.71419764	77.92477012	0.00000000	0.00000000
 37	0.00000000	13.00000000	204.00000000	95.75188756	74.99046326	0.00000000	0.00000000
 38	0.00000000	13.00000000	217.00000000	93.87655258	73.63546491	0.00000000	0.00000000
 39	0.00000000	13.00000000	230.00000000	93.00831556	71.36949897	0.00000000	0.00000000
 40	0.00000000	13.00000000	242.00000000	92.71534085	69.30342317	0.00000000	0.00000000
 41	0.00000000	13.00000000	255.00000000	91.79980159	67.87060499	0.00000000	0.00000000
 42	0.00000000	26.00000000	0.00000000	91.48851633	64.51209188	93.58968735	73.82009625
 43	0.00000000	26.00000000	13.00000000	96.94514275	66.82536006	91.12992883	76.01892352
 44	0.00000000	26.00000000	26.00000000	100.00000000	75.15525818	77.09468007	72.44067788
 45	0.00000000	26.00000000	38.00000000	100.00000000	83.66521597	66.76890254	66.70328975
 46	0.00000000	26.00000000	51.00000000	100.00000000	88.03845048	61.47249341	60.74922085
 47	0.00000000	26.00000000	64.00000000	100.00000000	89.59181905	58.24673772	52.29877234
 48	0.00000000	26.00000000	77.00000000	100.00000000	90.59433937	55.05760312	40.25024772
 49	0.00000000	26.00000000	89.00000000	100.00000000	90.59128761	52.90150046	31.06431663
 50	0.00000000	26.00000000	102.00000000	100.00000000	90.37155509	48.88074994	22.26138711
 51	0.00000000	26.00000000	115.00000000	100.00000000	89.26375508	41.85702205	14.62119520
 52	0.00000000	26.00000000	128.00000000	100.00000000	88.34058046	32.60547817	8.97688270
 53	0.00000000	26.00000000	140.00000000	100.00000000	87.29991317	23.96734506	4.89356816
 54	0.00000000	26.00000000	153.00000000	100.00000000	86.48355603	12.90455461	1.80971995
 55	0.00000000	26.00000000	166.00000000	100.00000000	83.52788687	3.47142741	0.36926833
 56	0.00000000	26.00000000	179.00000000	98.62058163	80.03204465	0.00000000	0.03356985
 57	0.00000000	26.00000000	191.00000000	96.72846794	76.75592899	0.00000000	0.00000000
 58	0.00000000	26.00000000	204.00000000	94.70969439	74.43198562	0.00000000	0.00000000
 59	0.00000000	26.00000000	217.00000000	93.59273911	72.29724526	0.00000000	0.00000000
 60	0.00000000	26.00000000	230.00000000	92.70465970	70.60196996	0.00000000	0.00000000
 61	0.00000000	26.00000000	242.00000000	91.75402522	69.18440461	0.00000000	0.00000000
 62	0.00000000	26.00000000	255.00000000	90.81254005	67.33958721	0.00000000	0.00000000
 63	0.00000000	38.00000000	0.00000000	92.13550091	59.47051048	98.65873456	67.22972393
 64	0.00000000	38.00000000	13.00000000	96.09216452	59.20805931	97.72640467	68.35584044
 65	0.00000000	38.00000000	26.00000000	100.00000000	60.32348871	91.80285335	68.85786057
 66	0.00000000	38.00000000	38.00000000	100.00000000	68.81971359	74.07797575	63.87732029
 67	0.00000000	38.00000000	51.00000000	100.00000000	78.15060616	60.03967524	55.78698516
 68	0.00000000	38.00000000	64.00000000	100.00000000	83.79339576	56.43701553	45.32539845
 69	0.00000000	38.00000000	77.00000000	100.00000000	86.01052761	53.06019783	34.11917388
 70	0.00000000	38.00000000	89.00000000	100.00000000	87.06797957	49.48805869	25.88082850
 71	0.00000000	38.00000000	102.00000000	100.00000000	86.88029051	44.11078095	18.37643981
 72	0.00000000	38.00000000	115.00000000	100.00000000	86.96116805	36.85511649	12.04394624
 73	0.00000000	38.00000000	128.00000000	100.00000000	85.81063747	28.54810357	6.95201010
 74	0.00000000	38.00000000	140.00000000	100.00000000	85.10566950	19.63378340	3.33104432
 75	0.00000000	38.00000000	153.00000000	100.00000000	83.75676870	7.03135729	0.78736553
 76	0.00000000	38.00000000	166.00000000	100.00000000	81.86770678	0.00000000	0.00000000
 77	0.00000000	38.00000000	179.00000000	98.87846112	77.97513008	0.00000000	0.00000000
 78	0.00000000	38.00000000	191.00000000	95.33531666	75.54283738	0.00000000	0.00000000
 79	0.00000000	38.00000000	204.00000000	94.03830171	72.98542857	0.00000000	0.00000000
 80	0.00000000	38.00000000	217.00000000	93.07392836	70.68436742	0.00000000	0.00000000
 81	0.00000000	38.00000000	230.00000000	91.65636897	69.62233782	0.00000000	0.00000000
 82	0.00000000	38.00000000	242.00000000	91.13908410	67.39605069	0.00000000	0.00000000
 83	0.00000000	38.00000000	255.00000000	90.67673683	65.70687294	0.00000000	0.00000000
 84	0.00000000	51.00000000	0.00000000	92.14770794	53.74227762	100.00000000	58.79301429
 85	0.00000000	51.00000000	13.00000000	95.30479908	52.91218162	100.00000000	58.79148841
 86	0.00000000	51.00000000	26.00000000	100.00000000	51.41222477	100.00000000	58.54276419
 87	0.00000000	51.00000000	38.00000000	100.00000000	52.62836814	89.01197910	57.23506808
 88	0.00000000	51.00000000	51.00000000	100.00000000	61.62203550	68.92499924	50.23880601
 89	0.00000000	51.00000000	64.00000000	100.00000000	70.76218724	55.71984649	40.43030441
 90	0.00000000	51.00000000	77.00000000	100.00000000	77.14655995	49.36751425	30.49973249
 91	0.00000000	51.00000000	89.00000000	100.00000000	80.00457883	44.28778589	22.67643213
 92	0.00000000	51.00000000	102.00000000	100.00000000	81.28938675	37.36018836	14.79667425
 93	0.00000000	51.00000000	115.00000000	100.00000000	81.60830140	30.47074080	9.00434852
 94	0.00000000	51.00000000	128.00000000	100.00000000	81.81887269	22.12253064	4.51972224
 95	0.00000000	51.00000000	140.00000000	100.00000000	81.45266175	12.86030412	1.69680323
 96	0.00000000	51.00000000	153.00000000	100.00000000	80.05645871	1.54879075	0.30365454
 97	0.00000000	51.00000000	166.00000000	100.00000000	76.99092031	0.00000000	0.00000000
 98	0.00000000	51.00000000	179.00000000	96.32257819	74.41061735	0.00000000	0.00000000
 99	0.00000000	51.00000000	191.00000000	94.37400103	72.63141870	0.00000000	0.00000000
 100	0.00000000	51.00000000	204.00000000	92.91523695	70.60807347	0.00000000	0.00000000
 101	0.00000000	51.00000000	217.00000000	91.59227610	68.79072189	0.00000000	0.00000000
 102	0.00000000	51.00000000	230.00000000	90.49668312	67.45861173	0.00000000	0.00000000
 103	0.00000000	51.00000000	242.00000000	89.61928487	66.30960703	0.00000000	0.00000000
 104	0.00000000	51.00000000	255.00000000	89.19355869	64.69215155	0.00000000	0.00000000
 105	0.00000000	64.00000000	0.00000000	93.25246215	46.48355842	100.00000000	46.54611945
 106	0.00000000	64.00000000	13.00000000	95.79156041	45.72976232	100.00000000	46.72465026
 107	0.00000000	64.00000000	26.00000000	100.00000000	44.91798282	100.00000000	46.37369215
 108	0.00000000	64.00000000	38.00000000	100.00000000	45.33607960	98.99442792	45.86556852
 109	0.00000000	64.00000000	51.00000000	100.00000000	48.50842953	80.66071272	43.67437363
 110	0.00000000	64.00000000	64.00000000	100.00000000	55.70458770	63.81475329	37.25490272
 111	0.00000000	64.00000000	77.00000000	100.00000000	62.78935075	51.15739703	28.71747911
 112	0.00000000	64.00000000	89.00000000	100.00000000	68.63660812	41.95010364	20.87891996
 113	0.00000000	64.00000000	102.00000000	100.00000000	72.33386636	34.37552452	13.24025393
 114	0.00000000	64.00000000	115.00000000	100.00000000	74.54337478	26.44998729	7.42809176
 115	0.00000000	64.00000000	128.00000000	100.00000000	75.30785203	18.01022291	3.20439450
 116	0.00000000	64.00000000	140.00000000	100.00000000	75.97925067	8.95399377	0.79957275
 117	0.00000000	64.00000000	153.00000000	100.00000000	74.59220290	0.00000000	0.00000000
 118	0.00000000	64.00000000	166.00000000	97.43648171	71.76928520	0.00000000	0.00000000
 119	0.00000000	64.00000000	179.00000000	94.64255571	69.84512210	0.00000000	0.00000000
 120	0.00000000	64.00000000	191.00000000	92.69397855	68.60609055	0.00000000	0.00000000
 121	0.00000000	64.00000000	204.00000000	91.26726389	67.05119610	0.00000000	0.00000000
 122	0.00000000	64.00000000	217.00000000	90.31051993	65.88540673	0.00000000	0.00000000
 123	0.00000000	64.00000000	230.00000000	89.12184238	64.94849920	0.00000000	0.00000000
 124	0.00000000	64.00000000	242.00000000	88.36804628	63.91699314	0.00000000	0.00000000
 125	0.00000000	64.00000000	255.00000000	87.59441376	63.20134401	0.00000000	0.00000000
 126	0.00000000	77.00000000	0.00000000	94.65018511	39.97100890	100.00000000	36.05096638
 127	0.00000000	77.00000000	13.00000000	96.37598395	39.73906934	100.00000000	35.88159084
 128	0.00000000	77.00000000	26.00000000	98.02700877	39.54985738	100.00000000	35.60234904
 129	0.00000000	77.00000000	38.00000000	99.63378310	40.07782042	100.00000000	34.87449586
 130	0.00000000	77.00000000	51.00000000	100.00000000	40.98115563	91.05821252	34.43655968
 131	0.00000000	77.00000000	64.00000000	100.00000000	43.83459091	74.17715788	32.23010600
 132	0.00000000	77.00000000	77.00000000	100.00000000	49.04249609	59.72533822	27.44335234
 133	0.00000000	77.00000000	89.00000000	100.00000000	54.45792079	47.77447283	21.50453925
 134	0.00000000	77.00000000	102.00000000	100.00000000	60.02899408	35.96856594	14.52506334
 135	0.00000000	77.00000000	115.00000000	100.00000000	63.73235583	25.68856478	7.82940388
 136	0.00000000	77.00000000	128.00000000	100.00000000	66.06546044	15.96093625	2.65964754
 137	0.00000000	77.00000000	140.00000000	100.00000000	67.10612774	7.00389072	0.27466239
 138	0.00000000	77.00000000	153.00000000	99.71007705	67.14274883	0.00000000	0.00000000
 139	0.00000000	77.00000000	166.00000000	95.39330006	65.63210487	0.00000000	0.00000000
 140	0.00000000	77.00000000	179.00000000	92.87708998	64.26947713	0.00000000	0.00000000
 141	0.00000000	77.00000000	191.00000000	91.07347131	63.75371814	0.00000000	0.00000000
 142	0.00000000	77.00000000	204.00000000	89.49721456	63.17082644	0.00000000	0.00000000
 143	0.00000000	77.00000000	217.00000000	88.49012256	62.10879683	0.00000000	0.00000000
 144	0.00000000	77.00000000	230.00000000	87.30143905	61.86007261	0.00000000	0.00000000
 145	0.00000000	77.00000000	242.00000000	86.66819334	61.44197583	0.00000000	0.00000000
 146	0.00000000	77.00000000	255.00000000	86.06851101	60.28991938	0.00000000	0.00000000
 147	0.00000000	89.00000000	0.00000000	94.75395083	33.89791846	100.00000000	26.41031444
 148	0.00000000	89.00000000	13.00000000	94.89585757	33.91928077	100.00000000	26.34927928
 149	0.00000000	89.00000000	26.00000000	95.54284215	34.20157135	100.00000000	26.08377337
 150	0.00000000	89.00000000	38.00000000	96.10894918	34.57389176	100.00000000	25.50698221
 151	0.00000000	89.00000000	51.00000000	96.75135612	34.77378488	96.59265876	25.50698221
 152	0.00000000	89.00000000	64.00000000	97.03364372	36.20965779	82.04165697	24.77760017
 153	0.00000000	89.00000000	77.00000000	96.90241814	38.57480884	67.48607755	22.86259234
 154	0.00000000	89.00000000	89.00000000	96.86274529	42.45975316	55.07286191	19.62615401
 155	0.00000000	89.00000000	102.00000000	97.82558680	47.21751809	42.32394993	14.93400484
 156	0.00000000	89.00000000	115.00000000	98.49088192	51.65636539	30.64316809	9.43770483
 157	0.00000000	89.00000000	128.00000000	99.10429716	55.39635420	20.01373321	4.22980078
 158	0.00000000	89.00000000	140.00000000	99.39726591	57.74624348	10.72098911	1.12458989
 159	0.00000000	89.00000000	153.00000000	98.43442440	58.35965276	0.00000000	0.00000000
 160	0.00000000	89.00000000	166.00000000	94.22598481	58.64347219	0.00000000	0.00000000
 161	0.00000000	89.00000000	179.00000000	91.01853967	58.51224661	0.00000000	0.00000000
 162	0.00000000	89.00000000	191.00000000	89.27443624	58.35507512	0.00000000	0.00000000
 163	0.00000000	89.00000000	204.00000000	87.43877411	58.37338567	0.00000000	0.00000000
 164	0.00000000	89.00000000	217.00000000	86.03188992	58.49851370	0.00000000	0.00000000
 165	0.00000000	89.00000000	230.00000000	85.54207683	58.22537541	0.00000000	0.00000000
 166	0.00000000	89.00000000	242.00000000	84.72877145	58.22232366	0.00000000	0.00000000
 167	0.00000000	89.00000000	255.00000000	84.25726891	57.20759630	0.00000000	0.00000000
 168	0.00000000	102.00000000	0.00000000	92.46814847	28.01098526	100.00000000	18.39475036
 169	0.00000000	102.00000000	13.00000000	92.49714017	28.19714546	100.00000000	18.32150817
 170	0.00000000	102.00000000	26.00000000	92.59784818	28.49012017	100.00000000	18.22079867
 171	0.00000000	102.00000000	38.00000000	93.08460951	28.77546251	100.00000000	17.79812276
 172	0.00000000	102.00000000	51.00000000	94.23666596	29.05012667	100.00000000	17.39833653
 173	0.00000000	102.00000000	64.00000000	94.42893267	29.47890460	88.88533115	17.41664708
 174	0.00000000	102.00000000	77.00000000	93.29518676	30.93613982	75.17356873	16.98023975
 175	0.00000000	102.00000000	89.00000000	93.45235229	32.69397914	63.27916384	15.61150551
 176	0.00000000	102.00000000	102.00000000	93.35164428	36.00671291	50.52414536	13.11512887
 177	0.00000000	102.00000000	115.00000000	93.69039536	39.54985738	38.46341670	9.73983333
 178	0.00000000	102.00000000	128.00000000	93.99557710	43.41344237	27.28465796	5.81216142
 179	0.00000000	102.00000000	140.00000000	94.65323687	45.94949186	17.63180047	2.35751886
 180	0.00000000	102.00000000	153.00000000	94.62577105	47.82482684	7.49523193	0.26398108
 181	0.00000000	102.00000000	166.00000000	92.98237562	48.75867963	0.00000000	0.00000000
 182	0.00000000	102.00000000	179.00000000	88.96009922	50.56534410	0.00000000	0.00000000
 183	0.00000000	102.00000000	191.00000000	86.76737547	51.62279606	0.00000000	0.00000000
 184	0.00000000	102.00000000	204.00000000	85.42611003	52.38574743	0.00000000	0.00000000
 185	0.00000000	102.00000000	217.00000000	83.98260474	52.91523337	0.00000000	0.00000000
 186	0.00000000	102.00000000	230.00000000	83.18608403	53.42183709	0.00000000	0.00000000
 187	0.00000000	102.00000000	242.00000000	82.72831440	53.26466560	0.00000000	0.00000000
 188	0.00000000	102.00000000	255.00000000	81.90280199	53.65987420	0.00000000	0.00000000
 189	0.00000000	115.00000000	0.00000000	89.31868672	22.05386460	100.00000000	11.87304482
 190	0.00000000	115.00000000	13.00000000	89.43312764	22.23544717	100.00000000	11.85168251
 191	0.00000000	115.00000000	26.00000000	89.83596563	22.43228853	100.00000000	11.65026352
 192	0.00000000	115.00000000	38.00000000	90.36545157	22.84733355	100.00000000	11.28862426
 193	0.00000000	115.00000000	51.00000000	90.88273644	23.23643863	100.00000000	10.83085388
 194	0.00000000	115.00000000	64.00000000	91.13908410	23.39208126	93.73006821	10.87663099
 195	0.00000000	115.00000000	77.00000000	90.89189172	23.86358380	81.45571351	10.81101671
 196	0.00000000	115.00000000	89.00000000	90.66605568	25.22774041	70.22354603	10.41428223
 197	0.00000000	115.00000000	102.00000000	90.11368155	27.00694203	58.13229680	9.46364552
 198	0.00000000	115.00000000	115.00000000	90.02517462	29.04860079	45.83657682	7.86602572
 199	0.00000000	115.00000000	128.00000000	90.22354484	31.87609613	34.88517702	5.42915985
 200	0.00000000	115.00000000	140.00000000	89.52773213	34.64103043	25.34523606	3.22728306
 201	0.00000000	115.00000000	153.00000000	90.16556144	36.67505980	14.88212347	0.96589606
 202	0.00000000	115.00000000	166.00000000	89.27443624	38.25436831	5.14839403	0.00000000
 203	0.00000000	115.00000000	179.00000000	87.55474091	39.67193067	0.00000000	0.00000000
 204	0.00000000	115.00000000	191.00000000	84.25116539	42.24917889	0.00000000	0.00000000
 205	0.00000000	115.00000000	204.00000000	82.32547641	44.48157549	0.00000000	0.00000000
 206	0.00000000	115.00000000	217.00000000	81.64950013	46.23331130	0.00000000	0.00000000
 207	0.00000000	115.00000000	230.00000000	80.31586409	47.52574861	0.00000000	0.00000000
 208	0.00000000	115.00000000	242.00000000	80.13275266	48.53895009	0.00000000	0.00000000
 209	0.00000000	115.00000000	255.00000000	79.73296642	49.06233251	0.00000000	0.00000000
 210	0.00000000	128.00000000	0.00000000	86.88029051	15.95178097	100.00000000	6.16769679
 211	0.00000000	128.00000000	13.00000000	86.82688475	16.03570580	100.00000000	6.13260083
 212	0.00000000	128.00000000	26.00000000	86.91844344	16.16846025	100.00000000	6.02121018
 213	0.00000000	128.00000000	38.00000000	87.15648055	16.34851545	100.00000000	5.80605790
 214	0.00000000	128.00000000	51.00000000	87.71191239	16.60944521	100.00000000	5.44899665
 215	0.00000000	128.00000000	64.00000000	88.08422685	16.99092090	96.67658210	5.28572537
 216	0.00000000	128.00000000	77.00000000	87.56389618	17.77065694	85.72975993	5.54665439
 217	0.00000000	128.00000000	89.00000000	87.43572235	18.25741976	75.27428269	5.41237518
 218	0.00000000	128.00000000	102.00000000	86.95353866	19.37895715	64.10620213	5.20027466
 219	0.00000000	128.00000000	115.00000000	85.93423367	21.20393664	52.91675925	4.69367504
 220	0.00000000	128.00000000	128.00000000	85.90371609	22.54520506	41.92874134	3.61333638
 221	0.00000000	128.00000000	140.00000000	85.53444743	24.12603945	32.20874369	2.32242309
 222	0.00000000	128.00000000	153.00000000	84.95154977	26.78873837	22.08895981	1.17952237
 223	0.00000000	128.00000000	166.00000000	84.72266793	27.70428061	12.60395199	0.23804074
 224	0.00000000	128.00000000	179.00000000	83.92004371	28.89906168	3.23796459	0.00000000
 225	0.00000000	128.00000000	191.00000000	82.24613070	30.65232337	0.00000000	0.00000000
 226	0.00000000	128.00000000	204.00000000	78.87235880	34.64865983	0.00000000	0.00000000
 227	0.00000000	128.00000000	217.00000000	77.71877646	37.50972748	0.00000000	0.00000000
 228	0.00000000	128.00000000	230.00000000	76.66590214	39.76348639	0.00000000	0.00000000
 229	0.00000000	128.00000000	242.00000000	76.83833241	41.95773304	0.00000000	0.00000000
 230	0.00000000	128.00000000	255.00000000	76.23712420	42.88090467	0.00000000	0.00000000
 231	0.00000000	140.00000000	0.00000000	83.23338628	10.23727804	100.00000000	2.45212484
 232	0.00000000	140.00000000	13.00000000	83.33562016	10.30289158	100.00000000	2.37888154
 233	0.00000000	140.00000000	26.00000000	83.32646489	10.44785231	100.00000000	2.32700091
 234	0.00000000	140.00000000	38.00000000	83.48363638	10.65079719	100.00000000	2.20035091
 235	0.00000000	140.00000000	51.00000000	84.66773629	10.41733399	100.00000000	1.84634160
 236	0.00000000	140.00000000	64.00000000	85.20637751	10.73319614	98.36423397	1.75783932
 237	0.00000000	140.00000000	77.00000000	84.71351266	11.25963256	89.02418613	1.88296326
 238	0.00000000	140.00000000	89.00000000	84.06347632	12.28198707	79.04020548	1.99130233
 239	0.00000000	140.00000000	102.00000000	83.57213736	12.80384511	68.66407394	1.90737769
 240	0.00000000	140.00000000	115.00000000	83.31273198	13.83077800	58.31387639	1.81277189
 241	0.00000000	140.00000000	128.00000000	82.64896870	14.87754583	47.45860994	1.51979858
 242	0.00000000	140.00000000	140.00000000	81.71358705	16.54383093	38.00259531	1.01167317
 243	0.00000000	140.00000000	153.00000000	81.64950013	18.33981872	28.05371284	0.37994965
 244	0.00000000	140.00000000	166.00000000	81.34889603	19.70244944	18.73502731	0.11749447
 245	0.00000000	140.00000000	179.00000000	80.27313352	20.74616551	10.29678807	0.00000000
 246	0.00000000	140.00000000	191.00000000	79.80620861	21.65255249	1.89517047	0.00000000
 247	0.00000000	140.00000000	204.00000000	77.82101035	23.99023473	0.00000000	0.00000000
 248	0.00000000	140.00000000	217.00000000	74.47928786	28.09338570	0.00000000	0.00000000
 249	0.00000000	140.00000000	230.00000000	72.77942896	30.98191917	0.00000000	0.00000000
 250	0.00000000	140.00000000	242.00000000	71.42443061	33.13496709	0.00000000	0.00000000
 251	0.00000000	140.00000000	255.00000000	70.78507543	34.84397531	0.00000000	0.00000000
 252	0.00000000	153.00000000	0.00000000	80.29755354	2.89616231	100.00000000	0.35553521
 253	0.00000000	153.00000000	13.00000000	80.33722639	2.85954066	100.00000000	0.31433585
 254	0.00000000	153.00000000	26.00000000	80.42267561	2.95109488	100.00000000	0.20752270
 255	0.00000000	153.00000000	38.00000000	80.47760725	3.17998007	100.00000000	0.18158236
 256	0.00000000	153.00000000	51.00000000	80.91096282	3.37682143	100.00000000	0.12817578
 257	0.00000000	153.00000000	64.00000000	81.24208450	3.61943990	99.96490479	0.10528725
 258	0.00000000	153.00000000	77.00000000	81.10017776	4.12451364	91.40306711	0.16174563
 259	0.00000000	153.00000000	89.00000000	81.38551712	4.30609584	82.23392367	0.16784924
 260	0.00000000	153.00000000	102.00000000	80.60578108	5.49477376	72.58564234	0.24109255
 261	0.00000000	153.00000000	115.00000000	79.92523313	6.81620538	62.53299713	0.00000000
 262	0.00000000	153.00000000	128.00000000	78.84184122	7.45250657	52.76417136	0.15716793
 263	0.00000000	153.00000000	140.00000000	78.49393487	8.69611651	43.58129203	0.17395285
 264	0.00000000	153.00000000	153.00000000	78.03463936	9.85427648	33.93759131	0.00457771
 265	0.00000000	153.00000000	166.00000000	76.58045292	10.93308926	24.53040332	0.00000000
 266	0.00000000	153.00000000	179.00000000	76.00824237	12.10803390	16.11200124	0.00000000
 267	0.00000000	153.00000000	191.00000000	75.45433640	12.76417226	8.72358307	0.00000000
 268	0.00000000	153.00000000	204.00000000	74.56321120	13.77584487	0.34027619	0.00000000
 269	0.00000000	153.00000000	217.00000000	72.20416665	16.73456877	0.00000000	0.00000000
