bench/lcms_compat/reference/srgb_to_ISOcoated_v2_grey1c_bas.ICC_Absolute.it8
CGATS.17
ORIGINATOR	"icctrans"
#
# Data follows
#
NUMBER_OF_SETS	9261.00000000
NUMBER_OF_FIELDS	5.00000000
BEGIN_DATA_FORMAT
 SAMPLE_ID	IN_RGB_R	IN_RGB_G	IN_RGB_B	OUT_GRAY
END_DATA_FORMAT
BEGIN_DATA
 0	0.00000000	0.00000000	0.00000000	0.00000000
 1	0.00000000	0.00000000	13.00000000	0.00000000
 2	0.00000000	0.00000000	26.00000000	0.00000000
 3	0.00000000	0.00000000	38.00000000	0.00000000
 4	0.00000000	0.00000000	51.00000000	0.00000000
 5	0.00000000	0.00000000	64.00000000	0.00000000
 6	0.00000000	0.00000000	77.00000000	0.00000000
 7	0.00000000	0.00000000	89.00000000	0.00000000
 8	0.00000000	0.00000000	102.00000000	0.00000000
 9	0.00000000	0.00000000	115.00000000	0.00000000
 10	0.00000000	0.00000000	128.00000000	0.00000000
 11	0.00000000	0.00000000	140.00000000	0.00000000
 12	0.00000000	0.00000000	153.00000000	0.00000000
 13	0.00000000	0.00000000	166.00000000	2.44747076
 14	0.00000000	0.00000000	179.00000000	6.86770446
 15	0.00000000	0.00000000	191.00000000	10.87937767
 16	0.00000000	0.00000000	204.00000000	15.28015522
 17	0.00000000	0.00000000	217.00000000	19.71984364
 18	0.00000000	0.00000000	230.00000000	24.15953301
 19	0.00000000	0.00000000	242.00000000	28.27626441
 20	0.00000000	0.00000000	255.00000000	32.76264757
 21	0.00000000	13.00000000	0.00000000	0.00000000
 22	0.00000000	13.00000000	13.00000000	0.00000000
 23	0.00000000	13.00000000	26.00000000	0.00000000
 24	0.00000000	13.00000000	38.00000000	0.00000000
 25	0.00000000	13.00000000	51.00000000	0.00000000
 26	0.00000000	13.00000000	64.00000000	0.00000000
 27	0.00000000	13.00000000	77.00000000	0.00000000
 28	0.00000000	13.00000000	89.00000000	0.00000000
 29	0.00000000	13.00000000	102.00000000	0.00000000
 30	0.00000000	13.00000000	115.00000000	0.00000000
 31	0.00000000	13.00000000	128.00000000	0.00000000
 32	0.00000000	13.00000000	140.00000000	0.00000000
 33	0.00000000	13.00000000	153.00000000	1.40466932
 34	0.00000000	13.00000000	166.00000000	5.53307405
 35	0.00000000	13.00000000	179.00000000	9.61089458
 36	0.00000000	13.00000000	191.00000000	13.45914379
 37	0.00000000	13.00000000	204.00000000	17.66926087
 38	0.00000000	13.00000000	217.00000000	21.92217886
 39	0.00000000	13.00000000	230.00000000	26.21789966
 40	0.00000000	13.00000000	242.00000000	30.21789942
 41	0.00000000	13.00000000	255.00000000	34.57587607
 42	0.00000000	26.00000000	0.00000000	0.00000000
 43	0.00000000	26.00000000	13.00000000	0.00000000
 44	0.00000000	26.00000000	26.00000000	0.00000000
 45	0.00000000	26.00000000	38.00000000	0.00000000
 46	0.00000000	26.00000000	51.00000000	0.00000000
 47	0.00000000	26.00000000	64.00000000	0.00000000
 48	0.00000000	26.00000000	77.00000000	0.00000000
 49	0.00000000	26.00000000	89.00000000	0.00000000
 50	0.00000000	26.00000000	102.00000000	0.00000000
 51	0.00000000	26.00000000	115.00000000	0.00000000
 52	0.00000000	26.00000000	128.00000000	0.00000000
 53	0.00000000	26.00000000	140.00000000	2.65369662
 54	0.00000000	26.00000000	153.00000000	6.25680934
 55	0.00000000	26.00000000	166.00000000	9.92217863
 56	0.00000000	26.00000000	179.00000000	13.68871607
 57	0.00000000	26.00000000	191.00000000	17.26459209
 58	0.00000000	26.00000000	204.00000000	21.21789806
 59	0.00000000	26.00000000	217.00000000	25.23735467
 60	0.00000000	26.00000000	230.00000000	29.33074012
 61	0.00000000	26.00000000	242.00000000	33.15175049
 62	0.00000000	26.00000000	255.00000000	37.30350271
 63	0.00000000	38.00000000	0.00000000	0.00000000
 64	0.00000000	38.00000000	13.00000000	0.00000000
 65	0.00000000	38.00000000	26.00000000	0.00000000
 66	0.00000000	38.00000000	38.00000000	0.00000000
 67	0.00000000	38.00000000	51.00000000	0.00000000
 68	0.00000000	38.00000000	64.00000000	0.00000000
 69	0.00000000	38.00000000	77.00000000	0.00000000
 70	0.00000000	38.00000000	89.00000000	0.00000000
 71	0.00000000	38.00000000	102.00000000	1.12451368
 72	0.00000000	38.00000000	115.00000000	3.73540856
 73	0.00000000	38.00000000	128.00000000	6.51750955
 74	0.00000000	38.00000000	140.00000000	9.21011679
 75	0.00000000	38.00000000	153.00000000	12.34241221
 76	0.00000000	38.00000000	166.00000000	15.63035013
 77	0.00000000	38.00000000	179.00000000	19.06225663
 78	0.00000000	38.00000000	191.00000000	22.31906567
 79	0.00000000	38.00000000	204.00000000	25.96887242
 80	0.00000000	38.00000000	217.00000000	29.72373594
 81	0.00000000	38.00000000	230.00000000	33.56031217
 82	0.00000000	38.00000000	242.00000000	37.12840430
 83	0.00000000	38.00000000	255.00000000	41.04280226
 84	0.00000000	51.00000000	0.00000000	3.12062269
 85	0.00000000	51.00000000	13.00000000	3.38132290
 86	0.00000000	51.00000000	26.00000000	3.80933858
 87	0.00000000	51.00000000	38.00000000	4.39299605
 88	0.00000000	51.00000000	51.00000000	5.26070039
 89	0.00000000	51.00000000	64.00000000	6.38521395
 90	0.00000000	51.00000000	77.00000000	7.74319078
 91	0.00000000	51.00000000	89.00000000	9.21011679
 92	0.00000000	51.00000000	102.00000000	11.07393008
 93	0.00000000	51.00000000	115.00000000	13.15953271
 94	0.00000000	51.00000000	128.00000000	15.47081759
 95	0.00000000	51.00000000	140.00000000	17.78988350
 96	0.00000000	51.00000000	153.00000000	20.47859833
 97	0.00000000	51.00000000	166.00000000	23.33852056
 98	0.00000000	51.00000000	179.00000000	26.37354121
 99	0.00000000	51.00000000	191.00000000	29.29571930
 100	0.00000000	51.00000000	204.00000000	32.59144016
 101	0.00000000	51.00000000	217.00000000	35.97665191
 102	0.00000000	51.00000000	230.00000000	39.43968728
 103	0.00000000	51.00000000	242.00000000	42.71984607
 104	0.00000000	51.00000000	255.00000000	46.34630308
 105	0.00000000	64.00000000	0.00000000	15.41634277
 106	0.00000000	64.00000000	13.00000000	15.61867716
 107	0.00000000	64.00000000	26.00000000	15.94552517
 108	0.00000000	64.00000000	38.00000000	16.39688775
 109	0.00000000	64.00000000	51.00000000	17.07782071
 110	0.00000000	64.00000000	64.00000000	17.98832595
 111	0.00000000	64.00000000	77.00000000	19.09338456
 112	0.00000000	64.00000000	89.00000000	20.29961083
 113	0.00000000	64.00000000	102.00000000	21.83268417
 114	0.00000000	64.00000000	115.00000000	23.56031086
 115	0.00000000	64.00000000	128.00000000	25.50583687
 116	0.00000000	64.00000000	140.00000000	27.48249080
 117	0.00000000	64.00000000	153.00000000	29.79377378
 118	0.00000000	64.00000000	166.00000000	32.28793904
 119	0.00000000	64.00000000	179.00000000	34.94163305
 120	0.00000000	64.00000000	191.00000000	37.49416508
 121	0.00000000	64.00000000	204.00000000	40.39299533
 122	0.00000000	64.00000000	217.00000000	43.40466812
 123	0.00000000	64.00000000	230.00000000	46.53307445
 124	0.00000000	64.00000000	242.00000000	49.59143914
 125	0.00000000	64.00000000	255.00000000	53.03891055
 126	0.00000000	77.00000000	0.00000000	27.85214067
 127	0.00000000	77.00000000	13.00000000	28.02723717
 128	0.00000000	77.00000000	26.00000000	28.28404639
 129	0.00000000	77.00000000	38.00000000	28.66147824
 130	0.00000000	77.00000000	51.00000000	29.22957245
 131	0.00000000	77.00000000	64.00000000	29.96498119
 132	0.00000000	77.00000000	77.00000000	30.87937742
 133	0.00000000	77.00000000	89.00000000	31.89494133
 134	0.00000000	77.00000000	102.00000000	33.17898743
 135	0.00000000	77.00000000	115.00000000	34.64202292
 136	0.00000000	77.00000000	128.00000000	36.27237484
 137	0.00000000	77.00000000	140.00000000	37.94552386
 138	0.00000000	77.00000000	153.00000000	39.91828680
 139	0.00000000	77.00000000	166.00000000	42.04280220
 140	0.00000000	77.00000000	179.00000000	44.32295725
 141	0.00000000	77.00000000	191.00000000	46.56809337
 142	0.00000000	77.00000000	204.00000000	49.18677226
 143	0.00000000	77.00000000	217.00000000	51.98054574
 144	0.00000000	77.00000000	230.00000000	54.97276358
 145	0.00000000	77.00000000	242.00000000	57.85992086
 146	0.00000000	77.00000000	255.00000000	61.15175262
 147	0.00000000	89.00000000	0.00000000	39.40077737
 148	0.00000000	89.00000000	13.00000000	39.54085685
 149	0.00000000	89.00000000	26.00000000	39.76264715
 150	0.00000000	89.00000000	38.00000000	40.07393025
 151	0.00000000	89.00000000	51.00000000	40.54474778
 152	0.00000000	89.00000000	64.00000000	41.16342299
 153	0.00000000	89.00000000	77.00000000	41.93385065
 154	0.00000000	89.00000000	89.00000000	42.78599292
 155	0.00000000	89.00000000	102.00000000	43.86381269
 156	0.00000000	89.00000000	115.00000000	45.11673085
 157	0.00000000	89.00000000	128.00000000	46.52918346
 158	0.00000000	89.00000000	140.00000000	48.01556490
 159	0.00000000	89.00000000	153.00000000	49.77042854
 160	0.00000000	89.00000000	166.00000000	51.71206355
 161	0.00000000	89.00000000	179.00000000	53.84046614
 162	0.00000000	89.00000000	191.00000000	55.98054551
 163	0.00000000	89.00000000	204.00000000	58.44358094
 164	0.00000000	89.00000000	217.00000000	61.08560197
 165	0.00000000	89.00000000	230.00000000	63.86381149
 166	0.00000000	89.00000000	242.00000000	66.51362211
 167	0.00000000	89.00000000	255.00000000	69.49805796
 168	0.00000000	102.00000000	0.00000000	51.98054574
 169	0.00000000	102.00000000	13.00000000	52.10116647
 170	0.00000000	102.00000000	26.00000000	52.29571983
 171	0.00000000	102.00000000	38.00000000	52.57198401
 172	0.00000000	102.00000000	51.00000000	52.98443668
 173	0.00000000	102.00000000	64.00000000	53.54863800
 174	0.00000000	102.00000000	77.00000000	54.25680980
 175	0.00000000	102.00000000	89.00000000	55.04669242
 176	0.00000000	102.00000000	102.00000000	56.03112839
 177	0.00000000	102.00000000	115.00000000	57.19066277
 178	0.00000000	102.00000000	128.00000000	58.50583680
 179	0.00000000	102.00000000	140.00000000	59.89105247
 180	0.00000000	102.00000000	153.00000000	61.50972761
 181	0.00000000	102.00000000	166.00000000	63.29571918
 182	0.00000000	102.00000000	179.00000000	65.22957221
 183	0.00000000	102.00000000	191.00000000	67.13618830
 184	0.00000000	102.00000000	204.00000000	69.33462873
 185	0.00000000	102.00000000	217.00000000	71.64591551
 186	0.00000000	102.00000000	230.00000000	74.09727797
 187	0.00000000	102.00000000	242.00000000	76.44357607
 188	0.00000000	102.00000000	255.00000000	79.08949569
 189	0.00000000	115.00000000	0.00000000	65.38132086
 190	0.00000000	115.00000000	13.00000000	65.49026862
 191	0.00000000	115.00000000	26.00000000	65.66537082
 192	0.00000000	115.00000000	38.00000000	65.91439426
 193	0.00000000	115.00000000	51.00000000	66.28404602
 194	0.00000000	115.00000000	64.00000000	66.76653653
 195	0.00000000	115.00000000	77.00000000	67.38521174
 196	0.00000000	115.00000000	89.00000000	68.08171436
 197	0.00000000	115.00000000	102.00000000	68.94552201
 198	0.00000000	115.00000000	115.00000000	69.96108592
 199	0.00000000	115.00000000	128.00000000	71.09727815
 200	0.00000000	115.00000000	140.00000000	72.27237269
 201	0.00000000	115.00000000	153.00000000	73.68482530
 202	0.00000000	115.00000000	166.00000000	75.22957161
 203	0.00000000	115.00000000	179.00000000	76.90272063
 204	0.00000000	115.00000000	191.00000000	78.55642229
 205	0.00000000	115.00000000	204.00000000	80.48638433
 206	0.00000000	115.00000000	217.00000000	82.54085809
 207	0.00000000	115.00000000	230.00000000	84.71206158
 208	0.00000000	115.00000000	242.00000000	86.83268219
 209	0.00000000	115.00000000	255.00000000	89.24902573
 210	0.00000000	128.00000000	0.00000000	78.66147906
 211	0.00000000	128.00000000	13.00000000	78.75097185
 212	0.00000000	128.00000000	26.00000000	78.90272051
 213	0.00000000	128.00000000	38.00000000	79.11284164
 214	0.00000000	128.00000000	51.00000000	79.43579391
 215	0.00000000	128.00000000	64.00000000	79.85602856
 216	0.00000000	128.00000000	77.00000000	80.38910195
 217	0.00000000	128.00000000	89.00000000	80.98443881
 218	0.00000000	128.00000000	102.00000000	81.73540771
 219	0.00000000	128.00000000	115.00000000	82.60700494
 220	0.00000000	128.00000000	128.00000000	83.60311389
 221	0.00000000	128.00000000	140.00000000	84.63424176
 222	0.00000000	128.00000000	153.00000000	85.88326514
 223	0.00000000	128.00000000	166.00000000	87.24513486
 224	0.00000000	128.00000000	179.00000000	88.74708027
 225	0.00000000	128.00000000	191.00000000	90.24124369
 226	0.00000000	128.00000000	204.00000000	91.99222013
 227	0.00000000	128.00000000	217.00000000	93.87548268
 228	0.00000000	128.00000000	230.00000000	95.88327214
 229	0.00000000	128.00000000	242.00000000	97.85213649
 230	0.00000000	128.00000000	255.00000000	100.11673138
 231	0.00000000	140.00000000	0.00000000	90.82879096
 232	0.00000000	140.00000000	13.00000000	90.91440037
 233	0.00000000	140.00000000	26.00000000	91.04669407
 234	0.00000000	140.00000000	38.00000000	91.23735264
 235	0.00000000	140.00000000	51.00000000	91.52918458
 236	0.00000000	140.00000000	64.00000000	91.91050932
 237	0.00000000	140.00000000	77.00000000	92.39299983
 238	0.00000000	140.00000000	89.00000000	92.92607322
 239	0.00000000	140.00000000	102.00000000	93.61867726
 240	0.00000000	140.00000000	115.00000000	94.41634566
 241	0.00000000	140.00000000	128.00000000	95.32684520
 242	0.00000000	140.00000000	140.00000000	96.28404424
 243	0.00000000	140.00000000	153.00000000	97.43190944
 244	0.00000000	140.00000000	166.00000000	98.70816976
 245	0.00000000	140.00000000	179.00000000	100.10894939
 246	0.00000000	140.00000000	191.00000000	101.50972903
 247	0.00000000	140.00000000	204.00000000	103.17509606
 248	0.00000000	140.00000000	217.00000000	104.97276440
 249	0.00000000	140.00000000	230.00000000	106.90661743
 250	0.00000000	140.00000000	242.00000000	108.81711692
 251	0.00000000	140.00000000	255.00000000	111.01945594
 252	0.00000000	153.00000000	0.00000000	104.41245407
 253	0.00000000	153.00000000	13.00000000	104.49027389
 254	0.00000000	153.00000000	26.00000000	104.61867660
 255	0.00000000	153.00000000	38.00000000	104.79766220
 256	0.00000000	153.00000000	51.00000000	105.07003918
 257	0.00000000	153.00000000	64.00000000	105.43579996
 258	0.00000000	153.00000000	77.00000000	105.89105353
 259	0.00000000	153.00000000	89.00000000	106.39688998
 260	0.00000000	153.00000000	102.00000000	107.05447510
 261	0.00000000	153.00000000	115.00000000	107.81711698
 262	0.00000000	153.00000000	128.00000000	108.69649619
 263	0.00000000	153.00000000	140.00000000	109.60700333
 264	0.00000000	153.00000000	153.00000000	110.71206003
 265	0.00000000	153.00000000	166.00000000	111.93774506
 266	0.00000000	153.00000000	179.00000000	113.29182521
 267	0.00000000	153.00000000	191.00000000	114.64202195
 268	0.00000000	153.00000000	204.00000000	116.23735115
 269	0.00000000	153.00000000	217.00000000	117.95719966
 270	0.00000000	153.00000000	230.00000000	119.79766890
 271	0.00000000	153.00000000	242.00000000	121.60311162
 272	0.00000000	153.00000000	255.00000000	123.67314935
 273	0.00000000	166.00000000	0.00000000	118.87937978
 274	0.00000000	166.00000000	13.00000000	118.95330861
 275	0.00000000	166.00000000	26.00000000	119.07003835
 276	0.00000000	166.00000000	38.00000000	119.24124196
 277	0.00000000	166.00000000	51.00000000	119.50194597
 278	0.00000000	166.00000000	64.00000000	119.84436080
 279	0.00000000	166.00000000	77.00000000	120.27626082
 280	0.00000000	166.00000000	89.00000000	120.75096935
 281	0.00000000	166.00000000	102.00000000	121.36965215
 282	0.00000000	166.00000000	115.00000000	122.08949313
 283	0.00000000	166.00000000	128.00000000	122.90661648
 284	0.00000000	166.00000000	140.00000000	123.75875115
 285	0.00000000	166.00000000	153.00000000	124.78210464
 286	0.00000000	166.00000000	166.00000000	125.91439828
 287	0.00000000	166.00000000	179.00000000	127.14785770
 288	0.00000000	166.00000000	191.00000000	128.38910669
 289	0.00000000	166.00000000	204.00000000	129.82878864
 290	0.00000000	166.00000000	217.00000000	131.36576056
 291	0.00000000	166.00000000	230.00000000	133.01557124
 292	0.00000000	166.00000000	242.00000000	134.63034779
 293	0.00000000	166.00000000	255.00000000	136.48249000
 294	0.00000000	179.00000000	0.00000000	133.52529109
 295	0.00000000	179.00000000	13.00000000	133.59143794
 296	0.00000000	179.00000000	26.00000000	133.69649470
 297	0.00000000	179.00000000	38.00000000	133.85213435
 298	0.00000000	179.00000000	51.00000000	134.08171803
 299	0.00000000	179.00000000	64.00000000	134.38132435
 300	0.00000000	179.00000000	77.00000000	134.76264149
 301	0.00000000	179.00000000	89.00000000	135.18677473
 302	0.00000000	179.00000000	102.00000000	135.72762251
 303	0.00000000	179.00000000	115.00000000	136.36576027
 304	0.00000000	179.00000000	128.00000000	137.09728181
 305	0.00000000	179.00000000	140.00000000	137.84824312
 306	0.00000000	179.00000000	153.00000000	138.75875026
 307	0.00000000	179.00000000	166.00000000	139.78209615
 308	0.00000000	179.00000000	179.00000000	140.89104384
 309	0.00000000	179.00000000	191.00000000	142.01946169
 310	0.00000000	179.00000000	204.00000000	143.33074093
 311	0.00000000	179.00000000	217.00000000	144.75485891
 312	0.00000000	179.00000000	230.00000000	146.28404886
 313	0.00000000	179.00000000	242.00000000	147.78987765
 314	0.00000000	179.00000000	255.00000000	149.53696311
 315	0.00000000	191.00000000	0.00000000	146.89104348
 316	0.00000000	191.00000000	13.00000000	146.95720553
 317	0.00000000	191.00000000	26.00000000	147.05448031
 318	0.00000000	191.00000000	38.00000000	147.19455600
 319	0.00000000	191.00000000	51.00000000	147.40856051
 320	0.00000000	191.00000000	64.00000000	147.69260287
 321	0.00000000	191.00000000	77.00000000	148.05058926
 322	0.00000000	191.00000000	89.00000000	148.45525235
 323	0.00000000	191.00000000	102.00000000	148.96109641
 324	0.00000000	191.00000000	115.00000000	149.56420004
 325	0.00000000	191.00000000	128.00000000	150.25681168
 326	0.00000000	191.00000000	140.00000000	150.97666025
 327	0.00000000	191.00000000	153.00000000	151.84824228
 328	0.00000000	191.00000000	166.00000000	152.81322330
 329	0.00000000	191.00000000	179.00000000	153.89493406
 330	0.00000000	191.00000000	191.00000000	154.97666001
 331	0.00000000	191.00000000	204.00000000	156.26070231
 332	0.00000000	191.00000000	217.00000000	157.64591038
 333	0.00000000	191.00000000	230.00000000	159.13619041
 334	0.00000000	191.00000000	242.00000000	160.61478227
 335	0.00000000	191.00000000	255.00000000	162.31906682
 336	0.00000000	204.00000000	0.00000000	162.01556951
 337	0.00000000	204.00000000	13.00000000	162.07782537
 338	0.00000000	204.00000000	26.00000000	162.16731817
 339	0.00000000	204.00000000	38.00000000	162.30739385
 340	0.00000000	204.00000000	51.00000000	162.51361638
 341	0.00000000	204.00000000	64.00000000	162.78598577
 342	0.00000000	204.00000000	77.00000000	163.13229918
 343	0.00000000	204.00000000	89.00000000	163.52139831
 344	0.00000000	204.00000000	102.00000000	164.02335137
 345	0.00000000	204.00000000	115.00000000	164.60310906
 346	0.00000000	204.00000000	128.00000000	165.27237475
 347	0.00000000	204.00000000	140.00000000	165.96498638
 348	0.00000000	204.00000000	153.00000000	166.80933148
 349	0.00000000	204.00000000	166.00000000	167.74707556
 350	0.00000000	204.00000000	179.00000000	168.77042145
 351	0.00000000	204.00000000	191.00000000	169.81711328
 352	0.00000000	204.00000000	204.00000000	171.03113294
 353	0.00000000	204.00000000	217.00000000	172.35408515
 354	0.00000000	204.00000000	230.00000000	173.77820313
 355	0.00000000	204.00000000	242.00000000	175.17120838
 356	0.00000000	204.00000000	255.00000000	176.78598493
 357	0.00000000	217.00000000	0.00000000	177.71983802
 358	0.00000000	217.00000000	13.00000000	177.77431190
 359	0.00000000	217.00000000	26.00000000	177.87160188
 360	0.00000000	217.00000000	38.00000000	178.00000459
 361	0.00000000	217.00000000	51.00000000	178.19455415
 362	0.00000000	217.00000000	64.00000000	178.44746858
 363	0.00000000	217.00000000	77.00000000	178.77042085
 364	0.00000000	217.00000000	89.00000000	179.13618922
 365	0.00000000	217.00000000	102.00000000	179.60310817
 366	0.00000000	217.00000000	115.00000000	180.14786214
 367	0.00000000	217.00000000	128.00000000	180.75874776
 368	0.00000000	217.00000000	140.00000000	181.41244948
 369	0.00000000	217.00000000	153.00000000	182.19844490
 370	0.00000000	217.00000000	166.00000000	183.07004213
 371	0.00000000	217.00000000	179.00000000	184.02724117
 372	0.00000000	217.00000000	191.00000000	184.98833120
 373	0.00000000	217.00000000	204.00000000	186.11284286
 374	0.00000000	217.00000000	217.00000000	187.33073831
 375	0.00000000	217.00000000	230.00000000	188.63812655
 376	0.00000000	217.00000000	242.00000000	189.92218405
 377	0.00000000	217.00000000	255.00000000	191.39299393
 378	0.00000000	230.00000000	0.00000000	193.38132083
 379	0.00000000	230.00000000	13.00000000	193.43190372
 380	0.00000000	230.00000000	26.00000000	193.51361454
 381	0.00000000	230.00000000	38.00000000	193.63034427
 382	0.00000000	230.00000000	51.00000000	193.80934507
 383	0.00000000	230.00000000	64.00000000	194.04669553
 384	0.00000000	230.00000000	77.00000000	194.33851987
 385	0.00000000	230.00000000	89.00000000	194.66925412
 386	0.00000000	230.00000000	102.00000000	195.08949637
 387	0.00000000	230.00000000	115.00000000	195.59143424
 388	0.00000000	230.00000000	128.00000000	196.15953416
 389	0.00000000	230.00000000	140.00000000	196.75098002
 390	0.00000000	230.00000000	153.00000000	197.47081339
 391	0.00000000	230.00000000	166.00000000	198.26848179
 392	0.00000000	230.00000000	179.00000000	199.15175200
 393	0.00000000	230.00000000	191.00000000	200.04280418
 394	0.00000000	230.00000000	204.00000000	201.10116899
 395	0.00000000	230.00000000	217.00000000	202.24513561
 396	0.00000000	230.00000000	230.00000000	203.48637700
 397	0.00000000	230.00000000	242.00000000	204.72374260
 398	0.00000000	230.00000000	255.00000000	206.17120653
 399	0.00000000	242.00000000	0.00000000	208.01945776
 400	0.00000000	242.00000000	13.00000000	208.07393163
 401	0.00000000	242.00000000	26.00000000	208.15175146
 402	0.00000000	242.00000000	38.00000000	208.26848119
 403	0.00000000	242.00000000	51.00000000	208.44357580
 404	0.00000000	242.00000000	64.00000000	208.68483245
 405	0.00000000	242.00000000	77.00000000	208.97665679
 406	0.00000000	242.00000000	89.00000000	209.30739105
 407	0.00000000	242.00000000	102.00000000	209.73930627
 408	0.00000000	242.00000000	115.00000000	210.23735315
 409	0.00000000	242.00000000	128.00000000	210.80934405
 410	0.00000000	242.00000000	140.00000000	211.40855670
 411	0.00000000	242.00000000	153.00000000	212.14007825
 412	0.00000000	242.00000000	166.00000000	212.94163764
 413	0.00000000	242.00000000	179.00000000	213.84047180
 414	0.00000000	242.00000000	191.00000000	214.73541498
 415	0.00000000	242.00000000	204.00000000	215.79767078
 416	0.00000000	242.00000000	217.00000000	216.93774641
 417	0.00000000	242.00000000	230.00000000	218.16731483
 418	0.00000000	242.00000000	242.00000000	219.37353730
 419	0.00000000	242.00000000	255.00000000	220.76265156
 420	0.00000000	255.00000000	0.00000000	224.75097835
 421	0.00000000	255.00000000	13.00000000	224.79767025
 422	0.00000000	255.00000000	26.00000000	224.87549007
 423	0.00000000	255.00000000	38.00000000	224.98443782
 424	0.00000000	255.00000000	51.00000000	225.15175045
 425	0.00000000	255.00000000	64.00000000	225.37353694
 426	0.00000000	255.00000000	77.00000000	225.64981252
 427	0.00000000	255.00000000	89.00000000	225.96109182
 428	0.00000000	255.00000000	102.00000000	226.35019094
 429	0.00000000	255.00000000	115.00000000	226.81712508
 430	0.00000000	255.00000000	128.00000000	227.35019088
 431	0.00000000	255.00000000	140.00000000	227.90272683
 432	0.00000000	255.00000000	153.00000000	228.57197732
 433	0.00000000	255.00000000	166.00000000	229.31906283
 434	0.00000000	255.00000000	179.00000000	230.14396816
 435	0.00000000	255.00000000	191.00000000	230.96887350
 436	0.00000000	255.00000000	204.00000000	231.94941849
 437	0.00000000	255.00000000	217.00000000	232.99611032
 438	0.00000000	255.00000000	230.00000000	234.13229495
 439	0.00000000	255.00000000	242.00000000	235.25291562
 440	0.00000000	255.00000000	255.00000000	236.56030387
 441	13.00000000	0.00000000	0.00000000	0.00000000
 442	13.00000000	0.00000000	13.00000000	0.00000000
 443	13.00000000	0.00000000	26.00000000	0.00000000
 444	13.00000000	0.00000000	38.00000000	0.00000000
 445	13.00000000	0.00000000	51.00000000	0.00000000
 446	13.00000000	0.00000000	64.00000000	0.00000000
