bench/lcms_compat/reference/srgb_to_ISOcoated_v2_grey1c_bas.ICC_Relative_BPC.it8
CGATS.17
ORIGINATOR	"icctrans"
#
# Data follows
#
NUMBER_OF_SETS	9261.00000000
NUMBER_OF_FIELDS	5.00000000
BEGIN_DATA_FORMAT
 SAMPLE_ID	IN_RGB_R	IN_RGB_G	IN_RGB_B	OUT_GRAY
END_DATA_FORMAT
BEGIN_DATA
 0	0.00000000	0.00000000	0.00000000	0.02334630
 1	0.00000000	0.00000000	13.00000000	0.25291829
 2	0.00000000	0.00000000	26.00000000	0.62645914
 3	0.00000000	0.00000000	38.00000000	1.17120628
 4	0.00000000	0.00000000	51.00000000	2.00000012
 5	0.00000000	0.00000000	64.00000000	3.03112846
 6	0.00000000	0.00000000	77.00000000	4.32684825
 7	0.00000000	0.00000000	89.00000000	5.70038904
 8	0.00000000	0.00000000	102.00000000	7.39688734
 9	0.00000000	0.00000000	115.00000000	9.29961054
 10	0.00000000	0.00000000	128.00000000	11.42801598
 11	0.00000000	0.00000000	140.00000000	13.56420245
 12	0.00000000	0.00000000	153.00000000	16.04280185
 13	0.00000000	0.00000000	166.00000000	18.69260676
 14	0.00000000	0.00000000	179.00000000	21.49027314
 15	0.00000000	0.00000000	191.00000000	24.19066094
 16	0.00000000	0.00000000	204.00000000	27.23346356
 17	0.00000000	0.00000000	217.00000000	30.38521394
 18	0.00000000	0.00000000	230.00000000	33.64980496
 19	0.00000000	0.00000000	242.00000000	36.70427866
 20	0.00000000	0.00000000	255.00000000	40.08949421
 21	0.00000000	13.00000000	0.00000000	2.82490284
 22	0.00000000	13.00000000	13.00000000	3.04669267
 23	0.00000000	13.00000000	26.00000000	3.41245130
 24	0.00000000	13.00000000	38.00000000	3.92606998
 25	0.00000000	13.00000000	51.00000000	4.67315169
 26	0.00000000	13.00000000	64.00000000	5.64591422
 27	0.00000000	13.00000000	77.00000000	6.84046704
 28	0.00000000	13.00000000	89.00000000	8.12451409
 29	0.00000000	13.00000000	102.00000000	9.75486411
 30	0.00000000	13.00000000	115.00000000	11.57587554
 31	0.00000000	13.00000000	128.00000000	13.60700430
 32	0.00000000	13.00000000	140.00000000	15.66537000
 33	0.00000000	13.00000000	153.00000000	18.07392966
 34	0.00000000	13.00000000	166.00000000	20.62645979
 35	0.00000000	13.00000000	179.00000000	23.31906561
 36	0.00000000	13.00000000	191.00000000	25.94163358
 37	0.00000000	13.00000000	204.00000000	28.92606944
 38	0.00000000	13.00000000	217.00000000	32.00778387
 39	0.00000000	13.00000000	230.00000000	35.17509632
 40	0.00000000	13.00000000	242.00000000	38.17120515
 41	0.00000000	13.00000000	255.00000000	41.48249187
 42	0.00000000	26.00000000	0.00000000	6.86770446
 43	0.00000000	26.00000000	13.00000000	7.06614786
 44	0.00000000	26.00000000	26.00000000	7.38521389
 45	0.00000000	26.00000000	38.00000000	7.83268500
 46	0.00000000	26.00000000	51.00000000	8.50194594
 47	0.00000000	26.00000000	64.00000000	9.38910523
 48	0.00000000	26.00000000	77.00000000	10.50583681
 49	0.00000000	26.00000000	89.00000000	11.71984412
 50	0.00000000	26.00000000	102.00000000	13.24124543
 51	0.00000000	26.00000000	115.00000000	14.95330721
 52	0.00000000	26.00000000	128.00000000	16.87937826
 53	0.00000000	26.00000000	140.00000000	18.81712038
 54	0.00000000	26.00000000	153.00000000	21.10116642
 55	0.00000000	26.00000000	166.00000000	23.52140095
 56	0.00000000	26.00000000	179.00000000	26.10116802
 57	0.00000000	26.00000000	191.00000000	28.63424130
 58	0.00000000	26.00000000	204.00000000	31.48249056
 59	0.00000000	26.00000000	217.00000000	34.45136055
 60	0.00000000	26.00000000	230.00000000	37.50194706
 61	0.00000000	26.00000000	242.00000000	40.38521335
 62	0.00000000	26.00000000	255.00000000	43.58754851
 63	0.00000000	38.00000000	0.00000000	12.05836605
 64	0.00000000	38.00000000	13.00000000	12.23735450
 65	0.00000000	38.00000000	26.00000000	12.53307363
 66	0.00000000	38.00000000	38.00000000	12.94941634
 67	0.00000000	38.00000000	51.00000000	13.56420245
 68	0.00000000	38.00000000	64.00000000	14.37743196
 69	0.00000000	38.00000000	77.00000000	15.39299587
 70	0.00000000	38.00000000	89.00000000	16.49416253
 71	0.00000000	38.00000000	102.00000000	17.89883316
 72	0.00000000	38.00000000	115.00000000	19.47859839
 73	0.00000000	38.00000000	128.00000000	21.26848284
 74	0.00000000	38.00000000	140.00000000	23.05836540
 75	0.00000000	38.00000000	153.00000000	25.17898791
 76	0.00000000	38.00000000	166.00000000	27.47081783
 77	0.00000000	38.00000000	179.00000000	29.91050541
 78	0.00000000	38.00000000	191.00000000	32.29961202
 79	0.00000000	38.00000000	204.00000000	35.00000171
 80	0.00000000	38.00000000	217.00000000	37.79377520
 81	0.00000000	38.00000000	230.00000000	40.69649644
 82	0.00000000	38.00000000	242.00000000	43.44746903
 83	0.00000000	38.00000000	255.00000000	46.53307445
 84	0.00000000	51.00000000	0.00000000	19.11284141
 85	0.00000000	51.00000000	13.00000000	19.28015593
 86	0.00000000	51.00000000	26.00000000	19.53307416
 87	0.00000000	51.00000000	38.00000000	19.89883304
 88	0.00000000	51.00000000	51.00000000	20.44747040
 89	0.00000000	51.00000000	64.00000000	21.17898814
 90	0.00000000	51.00000000	77.00000000	22.07003843
 91	0.00000000	51.00000000	89.00000000	23.05058341
 92	0.00000000	51.00000000	102.00000000	24.31128357
 93	0.00000000	51.00000000	115.00000000	25.74319113
 94	0.00000000	51.00000000	128.00000000	27.36186817
 95	0.00000000	51.00000000	140.00000000	29.00778215
 96	0.00000000	51.00000000	153.00000000	30.94163518
 97	0.00000000	51.00000000	166.00000000	33.04280274
 98	0.00000000	51.00000000	179.00000000	35.29182985
 99	0.00000000	51.00000000	191.00000000	37.47081533
 100	0.00000000	51.00000000	204.00000000	39.95330572
 101	0.00000000	51.00000000	217.00000000	42.55252965
 102	0.00000000	51.00000000	230.00000000	45.27237430
 103	0.00000000	51.00000000	242.00000000	47.91050434
 104	0.00000000	51.00000000	255.00000000	50.88715822
 105	0.00000000	64.00000000	0.00000000	27.32684735
 106	0.00000000	64.00000000	13.00000000	27.47081783
 107	0.00000000	64.00000000	26.00000000	27.69260623
 108	0.00000000	64.00000000	38.00000000	28.00778221
 109	0.00000000	64.00000000	51.00000000	28.49416371
 110	0.00000000	64.00000000	64.00000000	29.14396875
 111	0.00000000	64.00000000	77.00000000	29.93774235
 112	0.00000000	64.00000000	89.00000000	30.80933768
 113	0.00000000	64.00000000	102.00000000	31.92996025
 114	0.00000000	64.00000000	115.00000000	33.21400635
 115	0.00000000	64.00000000	128.00000000	34.64980491
 116	0.00000000	64.00000000	140.00000000	36.11284040
 117	0.00000000	64.00000000	153.00000000	37.84824908
 118	0.00000000	64.00000000	166.00000000	39.72373724
 119	0.00000000	64.00000000	179.00000000	41.75486505
 120	0.00000000	64.00000000	191.00000000	43.73540998
 121	0.00000000	64.00000000	204.00000000	46.01945601
 122	0.00000000	64.00000000	217.00000000	48.45914550
 123	0.00000000	64.00000000	230.00000000	51.04669265
 124	0.00000000	64.00000000	242.00000000	53.58754791
 125	0.00000000	64.00000000	255.00000000	56.50194593
 126	0.00000000	77.00000000	0.00000000	36.38910457
 127	0.00000000	77.00000000	13.00000000	36.51751108
 128	0.00000000	77.00000000	26.00000000	36.71206065
 129	0.00000000	77.00000000	38.00000000	36.99221961
 130	0.00000000	77.00000000	51.00000000	37.42023245
 131	0.00000000	77.00000000	64.00000000	37.97665559
 132	0.00000000	77.00000000	77.00000000	38.66147764
 133	0.00000000	77.00000000	89.00000000	39.43190530
 134	0.00000000	77.00000000	102.00000000	40.40077731
 135	0.00000000	77.00000000	115.00000000	41.52529277
 136	0.00000000	77.00000000	128.00000000	42.78599292
 137	0.00000000	77.00000000	140.00000000	44.08560298
 138	0.00000000	77.00000000	153.00000000	45.63813128
 139	0.00000000	77.00000000	166.00000000	47.35019401
 140	0.00000000	77.00000000	179.00000000	49.21400920
 141	0.00000000	77.00000000	191.00000000	51.07392959
 142	0.00000000	77.00000000	204.00000000	53.25680986
 143	0.00000000	77.00000000	217.00000000	55.60700275
 144	0.00000000	77.00000000	230.00000000	58.09727512
 145	0.00000000	77.00000000	242.00000000	60.53696461
 146	0.00000000	77.00000000	255.00000000	63.27626422
 147	0.00000000	89.00000000	0.00000000	45.23735538
 148	0.00000000	89.00000000	13.00000000	45.35019413
 149	0.00000000	89.00000000	26.00000000	45.52140154
 150	0.00000000	89.00000000	38.00000000	45.76653779
 151	0.00000000	89.00000000	51.00000000	46.14007674
 152	0.00000000	89.00000000	64.00000000	46.63424022
 153	0.00000000	89.00000000	77.00000000	47.25681022
 154	0.00000000	89.00000000	89.00000000	47.95720004
 155	0.00000000	89.00000000	102.00000000	48.83657545
 156	0.00000000	89.00000000	115.00000000	49.87548530
 157	0.00000000	89.00000000	128.00000000	51.03891067
 158	0.00000000	89.00000000	140.00000000	52.26848289
 159	0.00000000	89.00000000	153.00000000	53.74708235
 160	0.00000000	89.00000000	166.00000000	55.38521245
 161	0.00000000	89.00000000	179.00000000	57.17120782
 162	0.00000000	89.00000000	191.00000000	58.95330839
 163	0.00000000	89.00000000	204.00000000	61.01945512
 164	0.00000000	89.00000000	217.00000000	63.21789935
 165	0.00000000	89.00000000	230.00000000	65.53696811
 166	0.00000000	89.00000000	242.00000000	67.76653647
 167	0.00000000	89.00000000	255.00000000	70.28793678
 168	0.00000000	102.00000000	0.00000000	55.60700275
 169	0.00000000	102.00000000	13.00000000	55.71595430
 170	0.00000000	102.00000000	26.00000000	55.87548494
 171	0.00000000	102.00000000	38.00000000	56.10505722
 172	0.00000000	102.00000000	51.00000000	56.45525403
 173	0.00000000	102.00000000	64.00000000	56.92607157
 174	0.00000000	102.00000000	77.00000000	57.50972785
 175	0.00000000	102.00000000	89.00000000	58.15564379
 176	0.00000000	102.00000000	102.00000000	59.00000028
 177	0.00000000	102.00000000	115.00000000	59.98054527
 178	0.00000000	102.00000000	128.00000000	61.07003801
 179	0.00000000	102.00000000	140.00000000	62.21400842
 180	0.00000000	102.00000000	153.00000000	63.57587434
 181	0.00000000	102.00000000	166.00000000	65.07004157
 182	0.00000000	102.00000000	179.00000000	66.68482572
 183	0.00000000	102.00000000	191.00000000	68.29571888
 184	0.00000000	102.00000000	204.00000000	70.15175208
 185	0.00000000	102.00000000	217.00000000	72.10895106
 186	0.00000000	102.00000000	230.00000000	74.20233473
 187	0.00000000	102.00000000	242.00000000	76.20622560
 188	0.00000000	102.00000000	255.00000000	78.47860247
 189	0.00000000	115.00000000	0.00000000	66.80933744
 190	0.00000000	115.00000000	13.00000000	66.89883024
 191	0.00000000	115.00000000	26.00000000	67.05058649
 192	0.00000000	115.00000000	38.00000000	67.25680903
 193	0.00000000	115.00000000	51.00000000	67.57198691
 194	0.00000000	115.00000000	64.00000000	67.99222156
 195	0.00000000	115.00000000	77.00000000	68.50584000
 196	0.00000000	115.00000000	89.00000000	69.08560529
 197	0.00000000	115.00000000	102.00000000	69.82490122
 198	0.00000000	115.00000000	115.00000000	70.66926152
 199	0.00000000	115.00000000	128.00000000	71.63813353
 200	0.00000000	115.00000000	140.00000000	72.63813347
 201	0.00000000	115.00000000	153.00000000	73.84824693
 202	0.00000000	115.00000000	166.00000000	75.16731575
 203	0.00000000	115.00000000	179.00000000	76.59922332
 204	0.00000000	115.00000000	191.00000000	78.02334890
 205	0.00000000	115.00000000	204.00000000	79.68093395
 206	0.00000000	115.00000000	217.00000000	81.45525634
 207	0.00000000	115.00000000	230.00000000	83.33851889
 208	0.00000000	115.00000000	242.00000000	85.17120615
 209	0.00000000	115.00000000	255.00000000	87.26848081
 210	0.00000000	128.00000000	0.00000000	78.11284170
 211	0.00000000	128.00000000	13.00000000	78.19066152
 212	0.00000000	128.00000000	26.00000000	78.31906423
 213	0.00000000	128.00000000	38.00000000	78.49805743
 214	0.00000000	128.00000000	51.00000000	78.77431780
 215	0.00000000	128.00000000	64.00000000	79.13229659
 216	0.00000000	128.00000000	77.00000000	79.59144115
 217	0.00000000	128.00000000	89.00000000	80.10505959
 218	0.00000000	128.00000000	102.00000000	80.75875372
 219	0.00000000	128.00000000	115.00000000	81.51362121
 220	0.00000000	128.00000000	128.00000000	82.37742886
 221	0.00000000	128.00000000	140.00000000	83.26848105
 222	0.00000000	128.00000000	153.00000000	84.33851883
 223	0.00000000	128.00000000	166.00000000	85.52918494
 224	0.00000000	128.00000000	179.00000000	86.82100922
 225	0.00000000	128.00000000	191.00000000	88.13618705
 226	0.00000000	128.00000000	204.00000000	89.64591444
 227	0.00000000	128.00000000	217.00000000	91.28015354
 228	0.00000000	128.00000000	230.00000000	93.02334800
 229	0.00000000	128.00000000	242.00000000	94.73929793
 230	0.00000000	128.00000000	255.00000000	96.71206087
 231	0.00000000	140.00000000	0.00000000	88.63813251
 232	0.00000000	140.00000000	13.00000000	88.71595234
 233	0.00000000	140.00000000	26.00000000	88.82490009
 234	0.00000000	140.00000000	38.00000000	88.99222031
 235	0.00000000	140.00000000	51.00000000	89.24124375
 236	0.00000000	140.00000000	64.00000000	89.57587659
 237	0.00000000	140.00000000	77.00000000	89.99222025
 238	0.00000000	140.00000000	89.00000000	90.45914680
 239	0.00000000	140.00000000	102.00000000	91.05447605
 240	0.00000000	140.00000000	115.00000000	91.75486207
 241	0.00000000	140.00000000	128.00000000	92.54863948
 242	0.00000000	140.00000000	140.00000000	93.37742820
 243	0.00000000	140.00000000	153.00000000	94.37742814
 244	0.00000000	140.00000000	166.00000000	95.47860146
 245	0.00000000	140.00000000	179.00000000	96.70427889
 246	0.00000000	140.00000000	191.00000000	97.92607293
 247	0.00000000	140.00000000	204.00000000	99.35797289
 248	0.00000000	140.00000000	217.00000000	100.89883581
 249	0.00000000	140.00000000	230.00000000	102.57198483
 250	0.00000000	140.00000000	242.00000000	104.22178790
 251	0.00000000	140.00000000	255.00000000	106.13229498
 252	0.00000000	153.00000000	0.00000000	100.42412728
 253	0.00000000	153.00000000	13.00000000	100.49027413
 254	0.00000000	153.00000000	26.00000000	100.59922189
 255	0.00000000	153.00000000	38.00000000	100.75097054
 256	0.00000000	153.00000000	51.00000000	100.98832861
 257	0.00000000	153.00000000	64.00000000	101.29571691
 258	0.00000000	153.00000000	77.00000000	101.69260561
 259	0.00000000	153.00000000	89.00000000	102.13229522
 260	0.00000000	153.00000000	102.00000000	102.69649655
 261	0.00000000	153.00000000	115.00000000	103.35798025
 262	0.00000000	153.00000000	128.00000000	104.11673114
 263	0.00000000	153.00000000	140.00000000	104.90661755
 264	0.00000000	153.00000000	153.00000000	105.86770758
 265	0.00000000	153.00000000	166.00000000	106.92996338
 266	0.00000000	153.00000000	179.00000000	108.10894892
 267	0.00000000	153.00000000	191.00000000	109.29182544
 268	0.00000000	153.00000000	204.00000000	110.68482310
 269	0.00000000	153.00000000	217.00000000	112.19065949
 270	0.00000000	153.00000000	230.00000000	113.80934224
 271	0.00000000	153.00000000	242.00000000	115.39299846
 272	0.00000000	153.00000000	255.00000000	117.22567812
 273	0.00000000	166.00000000	0.00000000	112.99610987
 274	0.00000000	166.00000000	13.00000000	113.06225672
 275	0.00000000	166.00000000	26.00000000	113.16731349
 276	0.00000000	166.00000000	38.00000000	113.32296073
 277	0.00000000	166.00000000	51.00000000	113.54863822
 278	0.00000000	166.00000000	64.00000000	113.85214314
 279	0.00000000	166.00000000	77.00000000	114.22567829
 280	0.00000000	166.00000000	89.00000000	114.64980394
 281	0.00000000	166.00000000	102.00000000	115.19065931
 282	0.00000000	166.00000000	115.00000000	115.82101509
 283	0.00000000	166.00000000	128.00000000	116.54863805
 284	0.00000000	166.00000000	140.00000000	117.30739653
 285	0.00000000	166.00000000	153.00000000	118.22567806
 286	0.00000000	166.00000000	166.00000000	119.24124196
 287	0.00000000	166.00000000	179.00000000	120.35408825
 288	0.00000000	166.00000000	191.00000000	121.47470891
 289	0.00000000	166.00000000	204.00000000	122.78988674
 290	0.00000000	166.00000000	217.00000000	124.20233175
 291	0.00000000	166.00000000	230.00000000	125.70427716
 292	0.00000000	166.00000000	242.00000000	127.17898563
 293	0.00000000	166.00000000	255.00000000	128.85991663
 294	0.00000000	179.00000000	0.00000000	126.17120370
 295	0.00000000	179.00000000	13.00000000	126.22956857
 296	0.00000000	179.00000000	26.00000000	126.32685095
 297	0.00000000	179.00000000	38.00000000	126.46692663
 298	0.00000000	179.00000000	51.00000000	126.67314917
 299	0.00000000	179.00000000	64.00000000	126.94552615
 300	0.00000000	179.00000000	77.00000000	127.29572296
 301	0.00000000	179.00000000	89.00000000	127.69260406
 302	0.00000000	179.00000000	102.00000000	128.19066614
 303	0.00000000	179.00000000	115.00000000	128.75485986
 304	0.00000000	179.00000000	128.00000000	129.41634357
 305	0.00000000	179.00000000	140.00000000	130.10506421
 306	0.00000000	179.00000000	153.00000000	130.93384534
 307	0.00000000	179.00000000	166.00000000	131.84435248
 308	0.00000000	179.00000000	179.00000000	132.84435242
 309	0.00000000	179.00000000	191.00000000	133.85213435
 310	0.00000000	179.00000000	204.00000000	135.03113508
 311	0.00000000	179.00000000	217.00000000	136.30350441
 312	0.00000000	179.00000000	230.00000000	137.66536653
 313	0.00000000	179.00000000	242.00000000	139.00000691
 314	0.00000000	179.00000000	255.00000000	140.55252761
 315	0.00000000	191.00000000	0.00000000	138.20622951
 316	0.00000000	191.00000000	13.00000000	138.26070338
 317	0.00000000	191.00000000	26.00000000	138.35019618
 318	0.00000000	191.00000000	38.00000000	138.47470790
 319	0.00000000	191.00000000	51.00000000	138.66536647
 320	0.00000000	191.00000000	64.00000000	138.91438991
 321	0.00000000	191.00000000	77.00000000	139.23346639
 322	0.00000000	191.00000000	89.00000000	139.59532857
 323	0.00000000	191.00000000	102.00000000	140.05058974
 324	0.00000000	191.00000000	115.00000000	140.57587355
 325	0.00000000	191.00000000	128.00000000	141.18288338
 326	0.00000000	191.00000000	140.00000000	141.82100594
 327	0.00000000	191.00000000	153.00000000	142.58365542
 328	0.00000000	191.00000000	166.00000000	143.43579769
 329	0.00000000	191.00000000	179.00000000	144.37354177
 330	0.00000000	191.00000000	191.00000000	145.31906784
 331	0.00000000	191.00000000	204.00000000	146.43190652
 332	0.00000000	191.00000000	217.00000000	147.63034701
 333	0.00000000	191.00000000	230.00000000	148.92607749
 334	0.00000000	191.00000000	242.00000000	150.21790177
 335	0.00000000	191.00000000	255.00000000	151.70427561
 336	0.00000000	204.00000000	0.00000000	151.43968821
 337	0.00000000	204.00000000	13.00000000	151.49027109
 338	0.00000000	204.00000000	26.00000000	151.57587290
 339	0.00000000	204.00000000	38.00000000	151.69260263
 340	0.00000000	204.00000000	51.00000000	151.87547922
 341	0.00000000	204.00000000	64.00000000	152.11284488
 342	0.00000000	204.00000000	77.00000000	152.41245121
 343	0.00000000	204.00000000	89.00000000	152.75096744
 344	0.00000000	204.00000000	102.00000000	153.18677366
 345	0.00000000	204.00000000	115.00000000	153.70038450
 346	0.00000000	204.00000000	128.00000000	154.28793937
 347	0.00000000	204.00000000	140.00000000	154.89494920
 348	0.00000000	204.00000000	153.00000000	155.64591050
 349	0.00000000	204.00000000	166.00000000	156.47859782
 350	0.00000000	204.00000000	179.00000000	157.38910496
 351	0.00000000	204.00000000	191.00000000	158.31128508
 352	0.00000000	204.00000000	204.00000000	159.40077782
 353	0.00000000	204.00000000	217.00000000	160.57587236
 354	0.00000000	204.00000000	230.00000000	161.84435070
 355	0.00000000	204.00000000	242.00000000	163.08949828
 356	0.00000000	204.00000000	255.00000000	164.54085320
 357	0.00000000	217.00000000	0.00000000	165.37743151
 358	0.00000000	217.00000000	13.00000000	165.42801440
 359	0.00000000	217.00000000	26.00000000	165.50972521
 360	0.00000000	217.00000000	38.00000000	165.62645495
 361	0.00000000	217.00000000	51.00000000	165.80154955
 362	0.00000000	217.00000000	64.00000000	166.03502423
 363	0.00000000	217.00000000	77.00000000	166.32684857
 364	0.00000000	217.00000000	89.00000000	166.65758282
 365	0.00000000	217.00000000	102.00000000	167.07782507
 366	0.00000000	217.00000000	115.00000000	167.57198095
 367	0.00000000	217.00000000	128.00000000	168.13618988
 368	0.00000000	217.00000000	140.00000000	168.71594757
 369	0.00000000	217.00000000	153.00000000	169.43579614
 370	0.00000000	217.00000000	166.00000000	170.22957355
 371	0.00000000	217.00000000	179.00000000	171.09727979
 372	0.00000000	217.00000000	191.00000000	171.98444098
 373	0.00000000	217.00000000	204.00000000	173.01556885
 374	0.00000000	217.00000000	217.00000000	174.13618952
 375	0.00000000	217.00000000	230.00000000	175.34241199
 376	0.00000000	217.00000000	242.00000000	176.52917951
 377	0.00000000	217.00000000	255.00000000	177.91051179
 378	0.00000000	230.00000000	0.00000000	179.75096583
 379	0.00000000	230.00000000	13.00000000	179.79767293
 380	0.00000000	230.00000000	26.00000000	179.87160176
 381	0.00000000	230.00000000	38.00000000	179.98833150
 382	0.00000000	230.00000000	51.00000000	180.15175313
 383	0.00000000	230.00000000	64.00000000	180.36575764
 384	0.00000000	230.00000000	77.00000000	180.63423604
 385	0.00000000	230.00000000	89.00000000	180.94163954
 386	0.00000000	230.00000000	102.00000000	181.33462965
 387	0.00000000	230.00000000	115.00000000	181.79767281
 388	0.00000000	230.00000000	128.00000000	182.32684761
 389	0.00000000	230.00000000	140.00000000	182.87549257
 390	0.00000000	230.00000000	153.00000000	183.54085207
 391	0.00000000	230.00000000	166.00000000	184.28015560
 392	0.00000000	230.00000000	179.00000000	185.09338796
 393	0.00000000	230.00000000	191.00000000	185.91051131
 394	0.00000000	230.00000000	204.00000000	186.86771035
 395	0.00000000	230.00000000	217.00000000	187.91051120
 396	0.00000000	230.00000000	230.00000000	189.01945889
 397	0.00000000	230.00000000	242.00000000	190.11673361
 398	0.00000000	230.00000000	255.00000000	191.37353897
 399	0.00000000	242.00000000	0.00000000	192.96887577
 400	0.00000000	242.00000000	13.00000000	193.01556766
 401	0.00000000	242.00000000	26.00000000	193.08171451
 402	0.00000000	242.00000000	38.00000000	193.18288028
 403	0.00000000	242.00000000	51.00000000	193.33851993
 404	0.00000000	242.00000000	64.00000000	193.53696048
 405	0.00000000	242.00000000	77.00000000	193.79378110
 406	0.00000000	242.00000000	89.00000000	194.07782346
 407	0.00000000	242.00000000	102.00000000	194.43579465
 408	0.00000000	242.00000000	115.00000000	194.86381888
 409	0.00000000	242.00000000	128.00000000	195.35019279
 410	0.00000000	242.00000000	140.00000000	195.86381882
 411	0.00000000	242.00000000	153.00000000	196.47470444
 412	0.00000000	242.00000000	166.00000000	197.15953410
 413	0.00000000	242.00000000	179.00000000	197.92218357
 414	0.00000000	242.00000000	191.00000000	198.68092686
 415	0.00000000	242.00000000	204.00000000	199.57976103
 416	0.00000000	242.00000000	217.00000000	200.56419700
 417	0.00000000	242.00000000	230.00000000	201.62256181
 418	0.00000000	242.00000000	242.00000000	202.67703563
 419	0.00000000	242.00000000	255.00000000	203.89883727
 420	0.00000000	255.00000000	0.00000000	207.49026775
 421	0.00000000	255.00000000	13.00000000	207.53306866
 422	0.00000000	255.00000000	26.00000000	207.60310650
 423	0.00000000	255.00000000	38.00000000	207.70428747
 424	0.00000000	255.00000000	51.00000000	207.85603613
 425	0.00000000	255.00000000	64.00000000	208.05836767
 426	0.00000000	255.00000000	77.00000000	208.31128210
 427	0.00000000	255.00000000	89.00000000	208.59532446
 428	0.00000000	255.00000000	102.00000000	208.95720184
 429	0.00000000	255.00000000	115.00000000	209.38521087
 430	0.00000000	255.00000000	128.00000000	209.87938195
 431	0.00000000	255.00000000	140.00000000	210.39299279
 432	0.00000000	255.00000000	153.00000000	211.01167560
 433	0.00000000	255.00000000	166.00000000	211.70817822
 434	0.00000000	255.00000000	179.00000000	212.47470349
 435	0.00000000	255.00000000	191.00000000	213.24513495
 436	0.00000000	255.00000000	204.00000000	214.15564209
 437	0.00000000	255.00000000	217.00000000	215.14007807
 438	0.00000000	255.00000000	230.00000000	216.20233387
 439	0.00000000	255.00000000	242.00000000	217.24513471
 440	0.00000000	255.00000000	255.00000000	218.45135719
 441	13.00000000	0.00000000	0.00000000	0.89105058
 442	13.00000000	0.00000000	13.00000000	1.14007788
 443	13.00000000	0.00000000	26.00000000	1.51361874
 444	13.00000000	0.00000000	38.00000000	2.05836570
 445	13.00000000	0.00000000	51.00000000	2.84046704
 446	13.00000000	0.00000000	64.00000000	3.86770440
