bench/lcms_compat/reference/srgb_to_AdobeRGB1998.icc_Perceptual.it8
CGATS.17
ORIGINATOR	"icctrans"
#
# Data follows
#
NUMBER_OF_SETS	9261.00000000
NUMBER_OF_FIELDS	7.00000000
BEGIN_DATA_FORMAT
 SAMPLE_ID	IN_RGB_R	IN_RGB_G	IN_RGB_B	OUT_RGB_R	OUT_RGB_G	OUT_RGB_B
END_DATA_FORMAT
BEGIN_DATA
 0	0.00000000	0.00000000	0.00000000	0.00000000	0.00000000	0.00000000
 1	0.00000000	0.00000000	13.00000000	0.10073116	0.00000000	20.37484299
 2	0.00000000	0.00000000	26.00000000	0.15463278	0.00000000	31.27749536
 3	0.00000000	0.00000000	38.00000000	0.20586345	0.00000000	41.63990222
 4	0.00000000	0.00000000	51.00000000	0.26259791	0.00000000	53.11554864
 5	0.00000000	0.00000000	64.00000000	0.32038423	0.00000000	64.80395705
 6	0.00000000	0.00000000	77.00000000	0.37906024	0.00000000	76.67233139
 7	0.00000000	0.00000000	89.00000000	0.43391062	0.00000000	87.76688486
 8	0.00000000	0.00000000	102.00000000	0.49399318	0.00000000	99.91974995
 9	0.00000000	0.00000000	115.00000000	0.55469471	0.00000000	112.19783351
 10	0.00000000	0.00000000	128.00000000	0.61595823	0.00000000	124.58956137
 11	0.00000000	0.00000000	140.00000000	0.67296693	0.00000000	136.12068862
 12	0.00000000	0.00000000	153.00000000	0.73518514	0.00000000	148.70553732
 13	0.00000000	0.00000000	166.00000000	0.79784746	0.00000000	161.38022840
 14	0.00000000	0.00000000	179.00000000	0.86092467	0.00000000	174.13880378
 15	0.00000000	0.00000000	191.00000000	0.91949586	0.00000000	185.98597527
 16	0.00000000	0.00000000	204.00000000	0.98330174	0.00000000	198.89196754
 17	0.00000000	0.00000000	217.00000000	1.04745619	0.00000000	211.86843842
 18	0.00000000	0.00000000	230.00000000	1.11194110	0.00000000	224.91178572
 19	0.00000000	0.00000000	242.00000000	1.17174526	0.00000000	237.00833023
 20	0.00000000	0.00000000	255.00000000	1.23682223	0.00000000	250.17141670
 21	0.00000000	13.00000000	0.00000000	11.73317380	20.76820739	4.86890056
 22	0.00000000	13.00000000	13.00000000	11.73332674	20.76810859	20.76807439
 23	0.00000000	13.00000000	26.00000000	11.73356518	20.76795280	31.51434045
 24	0.00000000	13.00000000	38.00000000	11.73390811	20.76772861	41.80830158
 25	0.00000000	13.00000000	51.00000000	11.73442774	20.76739043	53.24144349
 26	0.00000000	13.00000000	64.00000000	11.73511550	20.76694205	64.90319252
 27	0.00000000	13.00000000	77.00000000	11.73598375	20.76637588	76.75345704
 28	0.00000000	13.00000000	89.00000000	11.73695650	20.76574322	87.83588916
 29	0.00000000	13.00000000	102.00000000	11.73820473	20.76492816	99.97882918
 30	0.00000000	13.00000000	115.00000000	11.73966385	20.76397441	112.24924475
 31	0.00000000	13.00000000	128.00000000	11.74134526	20.76288007	124.63490814
 32	0.00000000	13.00000000	140.00000000	11.74309982	20.76173443	136.16146803
 33	0.00000000	13.00000000	153.00000000	11.74522961	20.76034371	148.74221295
 34	0.00000000	13.00000000	166.00000000	11.74760353	20.75879339	161.41346902
 35	0.00000000	13.00000000	179.00000000	11.75023014	20.75707778	174.16915655
 36	0.00000000	13.00000000	191.00000000	11.75288334	20.75534318	186.01401776
 37	0.00000000	13.00000000	204.00000000	11.75601343	20.75329699	198.91783655
 38	0.00000000	13.00000000	217.00000000	11.75941424	20.75107221	211.89242274
 39	0.00000000	13.00000000	230.00000000	11.76309340	20.74866503	224.93411332
 40	0.00000000	13.00000000	242.00000000	11.76674025	20.74627686	237.02930510
 41	0.00000000	13.00000000	255.00000000	11.77096942	20.74350871	250.19108444
 42	0.00000000	26.00000000	0.00000000	18.01163770	31.88134946	7.47426686
 43	0.00000000	26.00000000	13.00000000	18.01172890	31.88129246	21.36675697
 44	0.00000000	26.00000000	26.00000000	18.01187329	31.88120127	31.88114807
 45	0.00000000	26.00000000	38.00000000	18.01207658	31.88106447	42.07049131
 46	0.00000000	26.00000000	51.00000000	18.01238816	31.88086309	53.43795374
 47	0.00000000	26.00000000	64.00000000	18.01280044	31.88059330	65.05827740
 48	0.00000000	26.00000000	77.00000000	18.01331911	31.88025512	76.88034743
 49	0.00000000	26.00000000	89.00000000	18.01390048	31.87987514	87.94385657
 50	0.00000000	26.00000000	102.00000000	18.01464714	31.87938876	100.07127821
 51	0.00000000	26.00000000	115.00000000	18.01552109	31.87881880	112.32972443
 52	0.00000000	26.00000000	128.00000000	18.01652614	31.87816523	124.70589593
 53	0.00000000	26.00000000	140.00000000	18.01757678	31.87748127	136.22531980
 54	0.00000000	26.00000000	153.00000000	18.01885162	31.87664911	148.79965067
 55	0.00000000	26.00000000	166.00000000	18.02027274	31.87572196	161.46554142
 56	0.00000000	26.00000000	179.00000000	18.02184395	31.87469602	174.21669960
 57	0.00000000	26.00000000	191.00000000	18.02343417	31.87366057	186.05794340
 58	0.00000000	26.00000000	204.00000000	18.02530937	31.87243514	198.95837277
 59	0.00000000	26.00000000	217.00000000	18.02734606	31.87110711	211.93001032
 60	0.00000000	26.00000000	230.00000000	18.02954994	31.86966699	224.96910185
 61	0.00000000	26.00000000	242.00000000	18.03173482	31.86824016	237.06216574
 62	0.00000000	26.00000000	255.00000000	18.03427119	31.86658535	250.22186279
 63	0.00000000	38.00000000	0.00000000	23.97899140	42.44381748	9.95053176
 64	0.00000000	38.00000000	13.00000000	23.97905599	42.44377568	22.19270725
 65	0.00000000	38.00000000	26.00000000	23.97915859	42.44370729	32.39910968
 66	0.00000000	38.00000000	38.00000000	23.97930298	42.44361229	42.44354390
 67	0.00000000	38.00000000	51.00000000	23.97952337	42.44347170	53.71859148
 68	0.00000000	38.00000000	64.00000000	23.97981595	42.44327791	65.28017029
 69	0.00000000	38.00000000	77.00000000	23.98018453	42.44303852	77.06209168
 70	0.00000000	38.00000000	89.00000000	23.98059681	42.44276874	88.09859186
 71	0.00000000	38.00000000	102.00000000	23.98112688	42.44242296	100.20384550
 72	0.00000000	38.00000000	115.00000000	23.98174625	42.44202018	112.44515464
 73	0.00000000	38.00000000	128.00000000	23.98246061	42.44155280	124.80774567
 74	0.00000000	38.00000000	140.00000000	23.98320537	42.44106643	136.31692529
 75	0.00000000	38.00000000	153.00000000	23.98410972	42.44048126	148.88206065
 76	0.00000000	38.00000000	166.00000000	23.98511857	42.43982010	161.54027581
 77	0.00000000	38.00000000	179.00000000	23.98623381	42.43909433	174.28491354
 78	0.00000000	38.00000000	191.00000000	23.98736235	42.43835717	186.12100482
 79	0.00000000	38.00000000	204.00000000	23.98869418	42.43749082	199.01655525
 80	0.00000000	38.00000000	217.00000000	23.99014000	42.43654847	211.98395222
 81	0.00000000	38.00000000	230.00000000	23.99170361	42.43552633	225.01931995
 82	0.00000000	38.00000000	242.00000000	23.99325583	42.43451558	237.10931361
 83	0.00000000	38.00000000	255.00000000	23.99505503	42.43334144	250.26607722
 84	0.00000000	51.00000000	0.00000000	30.58742389	54.14101861	12.69282466
 85	0.00000000	51.00000000	13.00000000	30.58747329	54.14098822	23.37872431
 86	0.00000000	51.00000000	26.00000000	30.58754928	54.14093882	33.16585153
 87	0.00000000	51.00000000	38.00000000	30.58765758	54.14086662	43.00165795
 88	0.00000000	51.00000000	51.00000000	30.58782287	54.14076023	54.14067283
 89	0.00000000	51.00000000	64.00000000	30.58803946	54.14061584	65.61481073
 90	0.00000000	51.00000000	77.00000000	30.58831494	54.14043725	77.33661175
 91	0.00000000	51.00000000	89.00000000	30.58862273	54.14023586	88.33253011
 92	0.00000000	51.00000000	102.00000000	30.58901981	54.13997747	100.40439114
 93	0.00000000	51.00000000	115.00000000	30.58948148	54.13967729	112.61986166
 94	0.00000000	51.00000000	128.00000000	30.59001535	54.13933150	124.96193379
 95	0.00000000	51.00000000	140.00000000	30.59057202	54.13896672	136.45566344
 96	0.00000000	51.00000000	153.00000000	30.59124839	54.13852595	149.00689155
 97	0.00000000	51.00000000	166.00000000	30.59200075	54.13803577	161.65347934
 98	0.00000000	51.00000000	179.00000000	30.59283480	54.13749240	174.38826799
 99	0.00000000	51.00000000	191.00000000	30.59367646	54.13694143	186.21653169
 100	0.00000000	51.00000000	204.00000000	30.59467010	54.13629547	199.10471052
 101	0.00000000	51.00000000	217.00000000	30.59575114	54.13558871	212.06567824
 102	0.00000000	51.00000000	230.00000000	30.59691958	54.13482875	225.09540707
 103	0.00000000	51.00000000	242.00000000	30.59808042	54.13407259	237.18078017
 104	0.00000000	51.00000000	255.00000000	30.59942365	54.13319483	250.33306003
 105	0.00000000	64.00000000	0.00000000	37.31838271	66.05509311	15.48596168
 106	0.00000000	64.00000000	13.00000000	37.31842071	66.05507031	24.84567359
 107	0.00000000	64.00000000	26.00000000	37.31847771	66.05502471	34.14923877
 108	0.00000000	64.00000000	38.00000000	37.31856510	66.05497152	43.72734681
 109	0.00000000	64.00000000	51.00000000	37.31869429	66.05488792	54.69339877
 110	0.00000000	64.00000000	64.00000000	37.31886528	66.05477393	66.05466753
 111	0.00000000	64.00000000	77.00000000	37.31908187	66.05463713	77.69821554
 112	0.00000000	64.00000000	89.00000000	37.31932506	66.05447754	88.64106596
 113	0.00000000	64.00000000	102.00000000	37.31963664	66.05427235	100.66912293
 114	0.00000000	64.00000000	115.00000000	37.32000142	66.05403677	112.85062328
 115	0.00000000	64.00000000	128.00000000	37.32042320	66.05376318	125.16569406
 116	0.00000000	64.00000000	140.00000000	37.32086018	66.05347440	136.63904160
 117	0.00000000	64.00000000	153.00000000	37.32139215	66.05313241	149.17193949
 118	0.00000000	64.00000000	166.00000000	37.32198492	66.05273724	161.80317611
 119	0.00000000	64.00000000	179.00000000	37.32264228	66.05231166	174.52496946
 120	0.00000000	64.00000000	191.00000000	37.32330725	66.05187848	186.34288251
 121	0.00000000	64.00000000	204.00000000	37.32409000	66.05136931	199.22133386
 122	0.00000000	64.00000000	217.00000000	37.32494116	66.05081454	212.17380524
 123	0.00000000	64.00000000	230.00000000	37.32586071	66.05021417	225.19607127
 124	0.00000000	64.00000000	242.00000000	37.32677646	66.04962140	237.27533430
 125	0.00000000	64.00000000	255.00000000	37.32783660	66.04892984	250.42168647
 126	0.00000000	77.00000000	0.00000000	44.15296957	78.15259516	18.32210004
 127	0.00000000	77.00000000	13.00000000	44.15299617	78.15257236	26.56185910
 128	0.00000000	77.00000000	26.00000000	44.15304936	78.15254197	35.34481041
 129	0.00000000	77.00000000	38.00000000	44.15311776	78.15249637	44.62383270
 130	0.00000000	77.00000000	51.00000000	44.15322416	78.15242797	55.38211942
 131	0.00000000	77.00000000	64.00000000	44.15336095	78.15233678	66.60528839
 132	0.00000000	77.00000000	77.00000000	44.15353954	78.15222278	78.15209359
 133	0.00000000	77.00000000	89.00000000	44.15374093	78.15208599	89.02894914
 134	0.00000000	77.00000000	102.00000000	44.15399551	78.15192640	101.00232705
 135	0.00000000	77.00000000	115.00000000	44.15429190	78.15172881	113.14130008
 136	0.00000000	77.00000000	128.00000000	44.15463768	78.15150842	125.42249948
 137	0.00000000	77.00000000	140.00000000	44.15499486	78.15127283	136.87026680
 138	0.00000000	77.00000000	153.00000000	44.15542804	78.15099165	149.38009232
 139	0.00000000	77.00000000	166.00000000	44.15591441	78.15067247	161.99202597
 140	0.00000000	77.00000000	179.00000000	44.15645018	78.15032288	174.69744980
 141	0.00000000	77.00000000	191.00000000	44.15699355	78.14997330	186.50235236
 142	0.00000000	77.00000000	204.00000000	44.15763572	78.14955533	199.36852276
 143	0.00000000	77.00000000	217.00000000	44.15832728	78.14909935	212.31029391
 144	0.00000000	77.00000000	230.00000000	44.15908344	78.14860538	225.32316685
 145	0.00000000	77.00000000	242.00000000	44.15982820	78.14811900	237.39470869
 146	0.00000000	77.00000000	255.00000000	44.16069455	78.14755663	250.53358287
 147	0.00000000	89.00000000	0.00000000	50.54194294	89.46135074	20.97332608
 148	0.00000000	89.00000000	13.00000000	50.54196954	89.46132794	28.33748292
 149	0.00000000	89.00000000	26.00000000	50.54201134	89.46130514	36.62812315
 150	0.00000000	89.00000000	38.00000000	50.54207213	89.46126714	45.60245879
 151	0.00000000	89.00000000	51.00000000	50.54215953	89.46120635	56.14113629
 152	0.00000000	89.00000000	64.00000000	50.54228112	89.46113035	67.21527725
 153	0.00000000	89.00000000	77.00000000	50.54243311	89.46103156	78.65647852
 154	0.00000000	89.00000000	89.00000000	50.54260030	89.46091756	89.46077317
 155	0.00000000	89.00000000	102.00000000	50.54281689	89.46078077	101.37377992
 156	0.00000000	89.00000000	115.00000000	50.54307148	89.46061358	113.46563548
 157	0.00000000	89.00000000	128.00000000	50.54336406	89.46042359	125.70923209
 158	0.00000000	89.00000000	140.00000000	50.54366805	89.46022600	137.12854654
 159	0.00000000	89.00000000	153.00000000	50.54403663	89.45998281	149.61270064
 160	0.00000000	89.00000000	166.00000000	50.54445080	89.45971683	162.20311224
 161	0.00000000	89.00000000	179.00000000	50.54490678	89.45942044	174.89029706
 162	0.00000000	89.00000000	191.00000000	50.54536656	89.45911646	186.68065399
 163	0.00000000	89.00000000	204.00000000	50.54591373	89.45876688	199.53314513
 164	0.00000000	89.00000000	217.00000000	50.54650269	89.45837930	212.46296972
 165	0.00000000	89.00000000	230.00000000	50.54714486	89.45796132	225.46532482
 166	0.00000000	89.00000000	242.00000000	50.54777943	89.45754334	237.52824873
 167	0.00000000	89.00000000	255.00000000	50.54851279	89.45706457	250.65877855
 168	0.00000000	102.00000000	0.00000000	57.54036561	101.84884563	23.87745135
 169	0.00000000	102.00000000	13.00000000	57.54038461	101.84883043	30.43762643
 170	0.00000000	102.00000000	26.00000000	57.54042260	101.84880763	38.20028879
 171	0.00000000	102.00000000	38.00000000	57.54047200	101.84877723	46.82286590
 172	0.00000000	102.00000000	51.00000000	57.54055180	101.84872404	57.09773496
 173	0.00000000	102.00000000	64.00000000	57.54065439	101.84865564	67.98866495
 174	0.00000000	102.00000000	77.00000000	57.54078358	101.84857205	79.29827929
 175	0.00000000	102.00000000	89.00000000	57.54092798	101.84848085	90.01143962
 176	0.00000000	102.00000000	102.00000000	57.54111037	101.84835926	101.84819207
 177	0.00000000	102.00000000	115.00000000	57.54132695	101.84821486	113.88034523
 178	0.00000000	102.00000000	128.00000000	57.54157774	101.84805527	126.07614800
 179	0.00000000	102.00000000	140.00000000	57.54183613	101.84788048	137.45921999
 180	0.00000000	102.00000000	153.00000000	57.54215531	101.84767529	149.91065025
 181	0.00000000	102.00000000	166.00000000	57.54250869	101.84744731	162.47359693
 182	0.00000000	102.00000000	179.00000000	57.54290007	101.84718892	175.13746619
 183	0.00000000	102.00000000	191.00000000	57.54329525	101.84693813	186.90924972
 184	0.00000000	102.00000000	204.00000000	57.54376262	101.84662655	199.74421620
 185	0.00000000	102.00000000	217.00000000	57.54426800	101.84629977	212.65875041
 186	0.00000000	102.00000000	230.00000000	57.54481517	101.84594259	225.64765424
 187	0.00000000	102.00000000	242.00000000	57.54535854	101.84559301	237.69954354
 188	0.00000000	102.00000000	255.00000000	57.54598930	101.84518263	250.81937313
 189	0.00000000	115.00000000	0.00000000	64.61088941	114.36396807	26.81149811
 190	0.00000000	115.00000000	13.00000000	64.61091220	114.36395288	32.69283772
 191	0.00000000	115.00000000	26.00000000	64.61093500	114.36393768	39.94637869
 192	0.00000000	115.00000000	38.00000000	64.61098060	114.36390728	48.20393600
 193	0.00000000	115.00000000	51.00000000	64.61104900	114.36386168	58.19306418
 194	0.00000000	115.00000000	64.00000000	64.61114019	114.36380848	68.88030991
 195	0.00000000	115.00000000	77.00000000	64.61125419	114.36373249	80.04132941
 196	0.00000000	115.00000000	89.00000000	64.61137578	114.36364889	90.65060332
 197	0.00000000	115.00000000	102.00000000	64.61154297	114.36354250	102.39989206
 198	0.00000000	115.00000000	115.00000000	64.61172536	114.36342090	114.36323851
 199	0.00000000	115.00000000	128.00000000	64.61194575	114.36328411	126.50379226
 200	0.00000000	115.00000000	140.00000000	64.61217374	114.36313212	137.84489930
 201	0.00000000	115.00000000	153.00000000	64.61244732	114.36294973	150.25833160
 202	0.00000000	115.00000000	166.00000000	64.61275890	114.36275214	162.78937519
 203	0.00000000	115.00000000	179.00000000	64.61309329	114.36253175	175.42609870
 204	0.00000000	115.00000000	191.00000000	64.61344287	114.36230376	187.17626899
 205	0.00000000	115.00000000	204.00000000	64.61384565	114.36204538	199.99080777
 206	0.00000000	115.00000000	217.00000000	64.61428642	114.36175659	212.88751334
 207	0.00000000	115.00000000	230.00000000	64.61476520	114.36144501	225.86074680
 208	0.00000000	115.00000000	242.00000000	64.61523637	114.36113343	237.89976239
 209	0.00000000	115.00000000	255.00000000	64.61578354	114.36077625	251.00709826
 210	0.00000000	128.00000000	0.00000000	71.74686089	126.99493870	29.77270391
 211	0.00000000	128.00000000	13.00000000	71.74687609	126.99493110	35.07810652
 212	0.00000000	128.00000000	26.00000000	71.74690649	126.99490830	41.85001954
 213	0.00000000	128.00000000	38.00000000	71.74694449	126.99488550	49.73774269
 214	0.00000000	128.00000000	51.00000000	71.74700528	126.99484751	59.42455150
 215	0.00000000	128.00000000	64.00000000	71.74708128	126.99479431	69.89025772
 216	0.00000000	128.00000000	77.00000000	71.74718007	126.99472591	80.88689804
 217	0.00000000	128.00000000	89.00000000	71.74729407	126.99465752	91.38001218
 218	0.00000000	128.00000000	102.00000000	71.74743846	126.99456632	103.03084061
 219	0.00000000	128.00000000	115.00000000	71.74759805	126.99445233	114.91631404
 220	0.00000000	128.00000000	128.00000000	71.74779564	126.99433073	126.99412555
 221	0.00000000	128.00000000	140.00000000	71.74799323	126.99420154	138.28743875
 222	0.00000000	128.00000000	153.00000000	71.74823642	126.99404195	150.65752298
 223	0.00000000	128.00000000	166.00000000	71.74851000	126.99386716	163.15208852
 224	0.00000000	128.00000000	179.00000000	71.74880639	126.99366957	175.75779051
 225	0.00000000	128.00000000	191.00000000	71.74911037	126.99347198	187.48318613
 226	0.00000000	128.00000000	204.00000000	71.74946755	126.99323639	200.27434856
 227	0.00000000	128.00000000	217.00000000	71.74985513	126.99298561	213.15059602
 228	0.00000000	128.00000000	230.00000000	71.75028071	126.99271202	226.10583365
 229	0.00000000	128.00000000	242.00000000	71.75069109	126.99243844	238.13006043
 230	0.00000000	128.00000000	255.00000000	71.75117746	126.99212685	251.22309387
 231	0.00000000	140.00000000	0.00000000	78.38724017	138.74868840	32.52825335
 232	0.00000000	140.00000000	13.00000000	78.38725537	138.74867320	37.37734795
 233	0.00000000	140.00000000	26.00000000	78.38728577	138.74865800	43.73310350
 234	0.00000000	140.00000000	38.00000000	78.38731617	138.74864280	51.28126167
 235	0.00000000	140.00000000	51.00000000	78.38736936	138.74859720	60.67881860
 236	0.00000000	140.00000000	64.00000000	78.38743776	138.74855161	70.92665210
 237	0.00000000	140.00000000	77.00000000	78.38752896	138.74850601	81.75879925
 238	0.00000000	140.00000000	89.00000000	78.38762775	138.74843001	92.13440850
 239	0.00000000	140.00000000	102.00000000	78.38775694	138.74835402	103.68486151
 240	0.00000000	140.00000000	115.00000000	78.38790894	138.74826282	115.49054682
 241	0.00000000	140.00000000	128.00000000	78.38807613	138.74814123	127.50379980
 242	0.00000000	140.00000000	140.00000000	78.38825852	138.74801964	138.74779165
 243	0.00000000	140.00000000	153.00000000	78.38847890	138.74788284	151.07306868
 244	0.00000000	140.00000000	166.00000000	78.38872209	138.74773085	163.52987945
 245	0.00000000	140.00000000	179.00000000	78.38898808	138.74754846	176.10338956
 246	0.00000000	140.00000000	191.00000000	78.38926166	138.74736607	187.80308336
 247	0.00000000	140.00000000	204.00000000	78.38958845	138.74715328	200.56994230
 248	0.00000000	140.00000000	217.00000000	78.38993043	138.74692529	213.42495650
 249	0.00000000	140.00000000	230.00000000	78.39031041	138.74668211	226.36146873
 250	0.00000000	140.00000000	242.00000000	78.39069039	138.74643892	238.37031394
 251	0.00000000	140.00000000	255.00000000	78.39112356	138.74615014	251.44840658
 252	0.00000000	153.00000000	0.00000000	85.63442409	151.57651126	35.53560957
 253	0.00000000	153.00000000	13.00000000	85.63443929	151.57649606	39.95776668
 254	0.00000000	153.00000000	26.00000000	85.63446209	151.57648087	45.89516088
 255	0.00000000	153.00000000	38.00000000	85.63449249	151.57646567	53.08261201
 256	0.00000000	153.00000000	51.00000000	85.63453808	151.57642007	62.16035150
 257	0.00000000	153.00000000	64.00000000	85.63460648	151.57638967	72.16046110
 258	0.00000000	153.00000000	77.00000000	85.63468248	151.57634407	82.80213967
 259	0.00000000	153.00000000	89.00000000	85.63477367	151.57628328	93.04005951
 260	0.00000000	153.00000000	102.00000000	85.63488767	151.57620728	104.47195888
 261	0.00000000	153.00000000	115.00000000	85.63502446	151.57611609	116.18282408
 262	0.00000000	153.00000000	128.00000000	85.63517645	151.57600969	128.11904758
 263	0.00000000	153.00000000	140.00000000	85.63533604	151.57590330	139.30402100
 264	0.00000000	153.00000000	153.00000000	85.63553363	151.57578170	151.57552332
 265	0.00000000	153.00000000	166.00000000	85.63575402	151.57562971	163.98693413
 266	0.00000000	153.00000000	179.00000000	85.63599721	151.57547772	176.52170151
 267	0.00000000	153.00000000	191.00000000	85.63624039	151.57531053	188.19041938
 268	0.00000000	153.00000000	204.00000000	85.63652918	151.57512814	200.92795908
 269	0.00000000	153.00000000	217.00000000	85.63684836	151.57493055	213.75730187
 270	0.00000000	153.00000000	230.00000000	85.63719034	151.57470256	226.67121291
 271	0.00000000	153.00000000	242.00000000	85.63752472	151.57447457	238.66146952
 272	0.00000000	153.00000000	255.00000000	85.63791230	151.57423139	251.72152072
 273	0.00000000	166.00000000	0.00000000	92.93333843	164.49589401	38.56443085
 274	0.00000000	166.00000000	13.00000000	92.93335363	164.49587882	42.61776835
 275	0.00000000	166.00000000	26.00000000	92.93337643	164.49586362	48.17045979
 276	0.00000000	166.00000000	38.00000000	92.93339923	164.49584842	55.00862226
 277	0.00000000	166.00000000	51.00000000	92.93344483	164.49581802	63.76408204
 278	0.00000000	166.00000000	64.00000000	92.93350562	164.49578762	73.50717723
 279	0.00000000	166.00000000	77.00000000	92.93357402	164.49574202	83.94733742
 280	0.00000000	166.00000000	89.00000000	92.93365762	164.49568123	94.03769597
 281	0.00000000	166.00000000	102.00000000	92.93376401	164.49562043	105.34139022
 282	0.00000000	166.00000000	115.00000000	92.93388560	164.49554443	116.94903776
 283	0.00000000	166.00000000	128.00000000	92.93402240	164.49545324	128.80098939
 284	0.00000000	166.00000000	140.00000000	92.93416679	164.49534684	139.92116868
 285	0.00000000	166.00000000	153.00000000	92.93434918	164.49524045	152.13350058
 286	0.00000000	166.00000000	166.00000000	92.93454677	164.49510366	164.49484527
 287	0.00000000	166.00000000	179.00000000	92.93476716	164.49496686	176.98679656
 288	0.00000000	166.00000000	191.00000000	92.93498755	164.49481487	188.62122506
 289	0.00000000	166.00000000	204.00000000	92.93525353	164.49464768	201.32629931
 290	0.00000000	166.00000000	217.00000000	92.93554232	164.49446529	214.12720442
 291	0.00000000	166.00000000	230.00000000	92.93584630	164.49426770	227.01603681
 292	0.00000000	166.00000000	242.00000000	92.93615028	164.49405491	238.98563772
 293	0.00000000	166.00000000	255.00000000	92.93650746	164.49382693	252.02565640
 294	0.00000000	179.00000000	0.00000000	100.28057858	177.50080258	41.61330365
 295	0.00000000	179.00000000	13.00000000	100.28058618	177.50078738	45.34598395
 296	0.00000000	179.00000000	26.00000000	100.28060138	177.50078738	50.54631650
 297	0.00000000	179.00000000	38.00000000	100.28063178	177.50077218	57.04944335
 298	0.00000000	179.00000000	51.00000000	100.28066978	177.50074178	65.48388496
 299	0.00000000	179.00000000	64.00000000	100.28072298	177.50071138	74.96353269
 300	0.00000000	179.00000000	77.00000000	100.28079137	177.50066578	85.19295618
 301	0.00000000	179.00000000	89.00000000	100.28086737	177.50062019	95.12689993
 302	0.00000000	179.00000000	102.00000000	100.28095856	177.50055939	106.29342914
 303	0.00000000	179.00000000	115.00000000	100.28107256	177.50048339	117.78984144
 304	0.00000000	179.00000000	128.00000000	100.28119415	177.50039220	129.55049157
 305	0.00000000	179.00000000	140.00000000	100.28133094	177.50030100	140.60020745
