bench/lcms_compat/reference/srgb_to_sRGB_v4_ICC_preference.icc_Relative_BPC.it8
CGATS.17
ORIGINATOR	"icctrans"
#
# Data follows
#
NUMBER_OF_SETS	9261.00000000
NUMBER_OF_FIELDS	7.00000000
BEGIN_DATA_FORMAT
 SAMPLE_ID	IN_RGB_R	IN_RGB_G	IN_RGB_B	OUT_RGB_R	OUT_RGB_G	OUT_RGB_B
END_DATA_FORMAT
BEGIN_DATA
 0	0.00000000	0.00000000	0.00000000	-0.30433606	-0.00868735	0.00213830
 1	0.00000000	0.00000000	13.00000000	-0.30433606	-0.00868735	12.94387054
 2	0.00000000	0.00000000	26.00000000	-0.30433606	-0.00868735	25.92191074
 3	0.00000000	0.00000000	38.00000000	-0.30433606	-0.00868735	37.96806805
 4	0.00000000	0.00000000	51.00000000	0.22952348	-0.00868735	50.96962519
 5	0.00000000	0.00000000	64.00000000	0.22952348	-0.00868735	64.03050095
 6	0.00000000	0.00000000	77.00000000	-0.30433606	-0.30691001	76.99770793
 7	0.00000000	0.00000000	89.00000000	-0.83819560	-0.00868735	88.99888515
 8	0.00000000	0.00000000	102.00000000	-0.30433606	-0.30691001	101.99771404
 9	0.00000000	0.00000000	115.00000000	-0.30433606	-0.00868735	114.99305472
 10	0.00000000	0.00000000	128.00000000	-0.30433606	-0.00868735	128.00628483
 11	0.00000000	0.00000000	140.00000000	-0.30433606	-0.00868735	139.99904931
 12	0.00000000	0.00000000	153.00000000	-0.30433606	-0.00868735	153.00707370
 13	0.00000000	0.00000000	166.00000000	-0.30433606	-0.30691001	166.00403309
 14	0.00000000	0.00000000	179.00000000	-0.30433606	0.28953532	179.00477707
 15	0.00000000	0.00000000	191.00000000	0.22952348	-0.30691001	191.00356042
 16	0.00000000	0.00000000	204.00000000	-0.30433606	-0.00868735	204.00013983
 17	0.00000000	0.00000000	217.00000000	-0.30433606	0.28953532	216.99913591
 18	0.00000000	0.00000000	230.00000000	-0.30433606	-0.00868735	230.00541240
 19	0.00000000	0.00000000	242.00000000	-0.83819560	-0.30691001	242.00571567
 20	0.00000000	0.00000000	255.00000000	-0.30433606	-0.00868735	255.00629246
 21	0.00000000	13.00000000	0.00000000	-0.30433606	12.85863636	0.00213830
 22	0.00000000	13.00000000	13.00000000	-0.30433606	12.85863636	12.94387054
 23	0.00000000	13.00000000	26.00000000	0.22952348	12.85863636	26.00717247
 24	0.00000000	13.00000000	38.00000000	-0.30433606	12.85863636	37.96806805
 25	0.00000000	13.00000000	51.00000000	0.22952348	13.11203051	50.96962519
 26	0.00000000	13.00000000	64.00000000	-0.30433606	13.11203051	63.99706274
 27	0.00000000	13.00000000	77.00000000	-0.30433606	13.11203051	76.99770793
 28	0.00000000	13.00000000	89.00000000	-0.83819560	12.85863636	88.97621557
 29	0.00000000	13.00000000	102.00000000	-0.30433606	13.11203051	101.99771404
 30	0.00000000	13.00000000	115.00000000	0.22952348	12.85863636	114.99305472
 31	0.00000000	13.00000000	128.00000000	-0.83819560	12.85863636	128.00628483
 32	0.00000000	13.00000000	140.00000000	-0.30433606	12.85863636	140.01196861
 33	0.00000000	13.00000000	153.00000000	-0.83819560	13.11203051	153.00707370
 34	0.00000000	13.00000000	166.00000000	-0.30433606	13.11203051	166.00403309
 35	0.00000000	13.00000000	179.00000000	-0.83819560	13.11203051	179.00477707
 36	0.00000000	13.00000000	191.00000000	0.22952348	12.85863636	190.99491209
 37	0.00000000	13.00000000	204.00000000	0.22952348	12.85863636	204.00807381
 38	0.00000000	13.00000000	217.00000000	-0.30433606	13.11203051	216.99913591
 39	0.00000000	13.00000000	230.00000000	-0.30433606	13.11203051	229.99863356
 40	0.00000000	13.00000000	242.00000000	-0.30433606	12.85863636	242.00571567
 41	0.00000000	13.00000000	255.00000000	0.22952348	12.85863636	255.00036478
 42	0.00000000	26.00000000	0.00000000	-0.30433606	25.96684523	0.00213830
 43	0.00000000	26.00000000	13.00000000	-0.30433606	25.96684523	12.94387054
 44	0.00000000	26.00000000	26.00000000	-0.30433606	25.96684523	26.00717247
 45	0.00000000	26.00000000	38.00000000	-0.30433606	25.96684523	38.02705988
 46	0.00000000	26.00000000	51.00000000	0.22952348	25.96684523	51.01280227
 47	0.00000000	26.00000000	64.00000000	-0.30433606	26.11274790	63.99706274
 48	0.00000000	26.00000000	77.00000000	-0.30433606	25.96684523	76.99770793
 49	0.00000000	26.00000000	89.00000000	-0.30433606	25.96684523	89.02153954
 50	0.00000000	26.00000000	102.00000000	-0.30433606	25.82019400	101.99771404
 51	0.00000000	26.00000000	115.00000000	-0.30433606	25.96684523	115.00959903
 52	0.00000000	26.00000000	128.00000000	0.22952348	25.96684523	127.99183041
 53	0.00000000	26.00000000	140.00000000	-0.30433606	25.96684523	139.99904931
 54	0.00000000	26.00000000	153.00000000	0.22952348	25.96684523	152.99555272
 55	0.00000000	26.00000000	166.00000000	0.22952348	25.96684523	166.01439893
 56	0.00000000	26.00000000	179.00000000	-0.30433606	25.96684523	178.99536878
 57	0.00000000	26.00000000	191.00000000	0.22952348	25.96684523	191.00356042
 58	0.00000000	26.00000000	204.00000000	-0.30433606	25.96684523	204.00807381
 59	0.00000000	26.00000000	217.00000000	-0.30433606	25.96684523	216.99913591
 60	0.00000000	26.00000000	230.00000000	-0.30433606	25.96684523	230.00541240
 61	0.00000000	26.00000000	242.00000000	-0.83819560	26.11274790	241.99937761
 62	0.00000000	26.00000000	255.00000000	-0.30433606	25.96684523	255.00036478
 63	0.00000000	38.00000000	0.00000000	-0.30433606	37.97415532	0.17595201
 64	0.00000000	38.00000000	13.00000000	0.22952348	37.97415532	13.09131023
 65	0.00000000	38.00000000	26.00000000	-0.30433606	37.87273496	26.00717247
 66	0.00000000	38.00000000	38.00000000	-0.30433606	37.97415532	38.02705988
 67	0.00000000	38.00000000	51.00000000	-0.30433606	37.97415532	51.01280227
 68	0.00000000	38.00000000	64.00000000	0.22952348	37.97415532	63.99706274
 69	0.00000000	38.00000000	77.00000000	-0.30433606	37.97415532	76.97075218
 70	0.00000000	38.00000000	89.00000000	0.22952348	37.97415532	88.99888515
 71	0.00000000	38.00000000	102.00000000	-0.83819560	38.07529829	101.99771404
 72	0.00000000	38.00000000	115.00000000	-0.30433606	37.97415532	114.99305472
 73	0.00000000	38.00000000	128.00000000	-0.30433606	38.07529829	128.00628483
 74	0.00000000	38.00000000	140.00000000	-0.30433606	38.07529829	139.99904931
 75	0.00000000	38.00000000	153.00000000	-0.30433606	37.97415532	153.00707370
 76	0.00000000	38.00000000	166.00000000	-0.30433606	38.07529829	165.99365205
 77	0.00000000	38.00000000	179.00000000	-0.30433606	37.97415532	179.00477707
 78	0.00000000	38.00000000	191.00000000	-0.30433606	37.97415532	191.01220876
 79	0.00000000	38.00000000	204.00000000	-0.83819560	37.97415532	204.00807381
 80	0.00000000	38.00000000	217.00000000	-0.30433606	38.07529829	217.00644672
 81	0.00000000	38.00000000	230.00000000	-0.30433606	37.97415532	230.00541240
 82	0.00000000	38.00000000	242.00000000	-0.30433606	38.07529829	241.99937761
 83	0.00000000	38.00000000	255.00000000	-0.30433606	37.97415532	255.00629246
 84	0.00000000	51.00000000	0.00000000	-0.30433606	51.00840591	0.00213830
 85	0.00000000	51.00000000	13.00000000	-0.30433606	50.93429469	13.09131023
 86	0.00000000	51.00000000	26.00000000	-0.83819560	51.00840591	25.92191074
 87	0.00000000	51.00000000	38.00000000	-0.30433606	51.00840591	38.02705988
 88	0.00000000	51.00000000	51.00000000	0.22952348	51.00840591	51.01280227
 89	0.00000000	51.00000000	64.00000000	0.22952348	51.00840591	63.99706274
 90	0.00000000	51.00000000	77.00000000	-0.30433606	51.00840591	76.99770793
 91	0.00000000	51.00000000	89.00000000	-0.30433606	51.00840591	89.02153954
 92	0.00000000	51.00000000	102.00000000	-0.83819560	51.00840591	101.99771404
 93	0.00000000	51.00000000	115.00000000	-0.30433606	51.00840591	114.99305472
 94	0.00000000	51.00000000	128.00000000	-0.30433606	51.00840591	128.00628483
 95	0.00000000	51.00000000	140.00000000	-0.30433606	51.00840591	139.99904931
 96	0.00000000	51.00000000	153.00000000	-0.30433606	50.93429469	152.99555272
 97	0.00000000	51.00000000	166.00000000	-0.30433606	51.00840591	165.99365205
 98	0.00000000	51.00000000	179.00000000	-0.30433606	51.00840591	178.99536878
 99	0.00000000	51.00000000	191.00000000	0.22952348	50.93429469	191.00356042
 100	0.00000000	51.00000000	204.00000000	-0.30433606	51.00840591	204.00013983
 101	0.00000000	51.00000000	217.00000000	-0.30433606	51.00840591	216.99913591
 102	0.00000000	51.00000000	230.00000000	-0.30433606	51.00840591	229.99863356
 103	0.00000000	51.00000000	242.00000000	-0.30433606	51.00840591	241.99937761
 104	0.00000000	51.00000000	255.00000000	-0.30433606	51.00840591	255.00629246
 105	0.00000000	64.00000000	0.00000000	-0.30433606	63.96534204	0.00213830
 106	0.00000000	64.00000000	13.00000000	-0.30433606	64.02273417	12.94387054
 107	0.00000000	64.00000000	26.00000000	0.22952348	63.90789673	26.09217960
 108	0.00000000	64.00000000	38.00000000	-0.83819560	64.02273417	37.96806805
 109	0.00000000	64.00000000	51.00000000	0.22952348	63.96534204	51.01280227
 110	0.00000000	64.00000000	64.00000000	-0.30433606	63.96534204	63.99706274
 111	0.00000000	64.00000000	77.00000000	-0.30433606	64.02273417	76.99770793
 112	0.00000000	64.00000000	89.00000000	-0.83819560	64.02273417	88.99888515
 113	0.00000000	64.00000000	102.00000000	-0.30433606	64.02273417	101.99771404
 114	0.00000000	64.00000000	115.00000000	-0.30433606	63.96534204	114.99305472
 115	0.00000000	64.00000000	128.00000000	-0.30433606	64.02273417	128.00628483
 116	0.00000000	64.00000000	140.00000000	-0.30433606	64.02273417	139.99904931
 117	0.00000000	64.00000000	153.00000000	-0.30433606	64.02273417	153.00707370
 118	0.00000000	64.00000000	166.00000000	-0.30433606	63.96534204	165.99365205
 119	0.00000000	64.00000000	179.00000000	-0.30433606	64.02273417	179.00477707
 120	0.00000000	64.00000000	191.00000000	-0.30433606	64.02273417	190.99491209
 121	0.00000000	64.00000000	204.00000000	-0.30433606	63.96534204	204.00013983
 122	0.00000000	64.00000000	217.00000000	-0.30433606	64.02273417	217.00644672
 123	0.00000000	64.00000000	230.00000000	-0.30433606	63.96534204	229.99863356
 124	0.00000000	64.00000000	242.00000000	-0.30433606	64.02273417	242.00571567
 125	0.00000000	64.00000000	255.00000000	-0.30433606	63.96534204	255.00629246
 126	0.00000000	77.00000000	0.00000000	0.22952348	76.99380174	0.00213830
 127	0.00000000	77.00000000	13.00000000	-0.30433606	77.04003766	12.94387054
 128	0.00000000	77.00000000	26.00000000	-0.83819560	76.99380174	26.00717247
 129	0.00000000	77.00000000	38.00000000	-0.30433606	76.99380174	37.96806805
 130	0.00000000	77.00000000	51.00000000	0.22952348	76.99380174	50.96962519
 131	0.00000000	77.00000000	64.00000000	-0.30433606	76.99380174	63.99706274
 132	0.00000000	77.00000000	77.00000000	-0.30433606	76.99380174	76.97075218
 133	0.00000000	77.00000000	89.00000000	-0.30433606	76.99380174	88.99888515
 134	0.00000000	77.00000000	102.00000000	-0.30433606	76.99380174	101.99771404
 135	0.00000000	77.00000000	115.00000000	-0.30433606	77.04003766	115.00959903
 136	0.00000000	77.00000000	128.00000000	-0.30433606	76.99380174	128.00628483
 137	0.00000000	77.00000000	140.00000000	-0.30433606	76.99380174	139.99904931
 138	0.00000000	77.00000000	153.00000000	-0.30433606	76.99380174	152.99555272
 139	0.00000000	77.00000000	166.00000000	-0.30433606	76.99380174	166.00403309
 140	0.00000000	77.00000000	179.00000000	-0.30433606	76.99380174	179.00477707
 141	0.00000000	77.00000000	191.00000000	-0.30433606	76.99380174	191.00356042
 142	0.00000000	77.00000000	204.00000000	-0.30433606	77.04003766	204.00013983
 143	0.00000000	77.00000000	217.00000000	-0.30433606	76.99380174	216.99913591
 144	0.00000000	77.00000000	230.00000000	0.22952348	76.99380174	229.99863356
 145	0.00000000	77.00000000	242.00000000	-0.30433606	76.99380174	242.00571567
 146	0.00000000	77.00000000	255.00000000	-0.83819560	76.99380174	255.00629246
 147	0.00000000	89.00000000	0.00000000	0.22952348	88.96292388	0.00213830
 148	0.00000000	89.00000000	13.00000000	-0.83819560	89.04069811	13.09131023
 149	0.00000000	89.00000000	26.00000000	0.22952348	88.96292388	25.92191074
 150	0.00000000	89.00000000	38.00000000	-0.30433606	89.00182620	37.96806805
 151	0.00000000	89.00000000	51.00000000	-0.30433606	89.00182620	50.96962519
 152	0.00000000	89.00000000	64.00000000	-0.30433606	89.00182620	63.99706274
 153	0.00000000	89.00000000	77.00000000	0.22952348	89.00182620	77.02466369
 154	0.00000000	89.00000000	89.00000000	-0.30433606	89.00182620	88.99888515
 155	0.00000000	89.00000000	102.00000000	-0.30433606	88.96292388	101.99771404
 156	0.00000000	89.00000000	115.00000000	-0.30433606	89.00182620	115.00959903
 157	0.00000000	89.00000000	128.00000000	-0.30433606	89.00182620	127.99183041
 158	0.00000000	89.00000000	140.00000000	-0.30433606	89.00182620	139.99904931
 159	0.00000000	89.00000000	153.00000000	-0.30433606	88.96292388	152.99555272
 160	0.00000000	89.00000000	166.00000000	-0.30433606	89.00182620	166.00403309
 161	0.00000000	89.00000000	179.00000000	-0.30433606	89.00182620	179.00477707
 162	0.00000000	89.00000000	191.00000000	-0.83819560	89.00182620	191.00356042
 163	0.00000000	89.00000000	204.00000000	0.22952348	89.00182620	204.00013983
 164	0.00000000	89.00000000	217.00000000	-0.30433606	89.00182620	217.00644672
 165	0.00000000	89.00000000	230.00000000	-0.30433606	89.00182620	230.00541240
 166	0.00000000	89.00000000	242.00000000	-0.30433606	89.00182620	241.99937761
 167	0.00000000	89.00000000	255.00000000	-0.30433606	89.00182620	255.00629246
 168	0.00000000	102.00000000	0.00000000	-0.30433606	101.99132279	-0.17167543
 169	0.00000000	102.00000000	13.00000000	-0.30433606	101.99132279	12.79529376
 170	0.00000000	102.00000000	26.00000000	-0.30433606	101.99132279	26.00717247
 171	0.00000000	102.00000000	38.00000000	-0.83819560	102.02424422	37.96806805
 172	0.00000000	102.00000000	51.00000000	0.22952348	101.95838615	51.01280227
 173	0.00000000	102.00000000	64.00000000	-0.30433606	101.99132279	63.99706274
 174	0.00000000	102.00000000	77.00000000	-0.30433606	101.99132279	76.99770793
 175	0.00000000	102.00000000	89.00000000	-0.83819560	101.99132279	88.99888515
 176	0.00000000	102.00000000	102.00000000	-0.30433606	102.02424422	101.97850227
 177	0.00000000	102.00000000	115.00000000	-0.30433606	101.99132279	114.99305472
 178	0.00000000	102.00000000	128.00000000	0.22952348	102.02424422	128.00628483
 179	0.00000000	102.00000000	140.00000000	-0.83819560	101.99132279	140.01196861
 180	0.00000000	102.00000000	153.00000000	-0.30433606	102.02424422	153.00707370
 181	0.00000000	102.00000000	166.00000000	0.22952348	101.99132279	166.00403309
 182	0.00000000	102.00000000	179.00000000	-0.30433606	101.95838615	178.99536878
 183	0.00000000	102.00000000	191.00000000	-0.30433606	102.02424422	190.99491209
 184	0.00000000	102.00000000	204.00000000	-0.30433606	102.02424422	204.00807381
 185	0.00000000	102.00000000	217.00000000	-0.30433606	102.02424422	217.00644672
 186	0.00000000	102.00000000	230.00000000	-0.30433606	102.02424422	230.00541240
 187	0.00000000	102.00000000	242.00000000	-0.83819560	102.02424422	242.00571567
 188	0.00000000	102.00000000	255.00000000	-0.30433606	101.99132279	255.00629246
 189	0.00000000	115.00000000	0.00000000	-0.30433606	115.01448557	0.00213830
 190	0.00000000	115.00000000	13.00000000	-0.30433606	115.01448557	12.94387054
 191	0.00000000	115.00000000	26.00000000	-0.30433606	115.01448557	26.00717247
 192	0.00000000	115.00000000	38.00000000	-0.30433606	114.98610869	37.96806805
 193	0.00000000	115.00000000	51.00000000	-0.30433606	115.01448557	51.01280227
 194	0.00000000	115.00000000	64.00000000	0.22952348	115.01448557	64.03050095
 195	0.00000000	115.00000000	77.00000000	-0.30433606	114.98610869	76.99770793
 196	0.00000000	115.00000000	89.00000000	-0.30433606	114.98610869	88.97621557
 197	0.00000000	115.00000000	102.00000000	-0.30433606	115.01448557	102.01690301
 198	0.00000000	115.00000000	115.00000000	-0.30433606	114.98610869	114.99305472
 199	0.00000000	115.00000000	128.00000000	-0.30433606	114.98610869	128.00628483
 200	0.00000000	115.00000000	140.00000000	-0.30433606	114.98610869	139.99904931
 201	0.00000000	115.00000000	153.00000000	-0.30433606	115.01448557	153.00707370
 202	0.00000000	115.00000000	166.00000000	-0.30433606	115.01448557	166.00403309
 203	0.00000000	115.00000000	179.00000000	-0.30433606	115.01448557	179.00477707
 204	0.00000000	115.00000000	191.00000000	-0.83819560	114.98610869	190.99491209
 205	0.00000000	115.00000000	204.00000000	-0.83819560	114.98610869	204.00807381
 206	0.00000000	115.00000000	217.00000000	0.22952348	115.01448557	216.99913591
 207	0.00000000	115.00000000	230.00000000	-0.30433606	115.01448557	229.99863356
 208	0.00000000	115.00000000	242.00000000	-0.30433606	114.98610869	242.00571567
 209	0.00000000	115.00000000	255.00000000	0.22952348	115.01448557	255.00036478
 210	0.00000000	128.00000000	0.00000000	-0.30433606	128.01690906	0.00213830
 211	0.00000000	128.00000000	13.00000000	-0.83819560	128.01690906	12.94387054
 212	0.00000000	128.00000000	26.00000000	-0.30433606	127.99210399	26.00717247
 213	0.00000000	128.00000000	38.00000000	-0.30433606	127.99210399	38.02705988
 214	0.00000000	128.00000000	51.00000000	-0.30433606	127.99210399	51.01280227
 215	0.00000000	128.00000000	64.00000000	-0.30433606	128.01690906	63.99706274
 216	0.00000000	128.00000000	77.00000000	-0.30433606	127.99210399	77.02466369
 217	0.00000000	128.00000000	89.00000000	-0.30433606	127.99210399	89.02153954
 218	0.00000000	128.00000000	102.00000000	-0.30433606	127.99210399	101.99771404
 219	0.00000000	128.00000000	115.00000000	-0.30433606	128.01690906	114.99305472
 220	0.00000000	128.00000000	128.00000000	-0.30433606	128.01690906	127.99183041
 221	0.00000000	128.00000000	140.00000000	-0.30433606	128.01690906	139.98614520
 222	0.00000000	128.00000000	153.00000000	-0.30433606	128.01690906	152.99555272
 223	0.00000000	128.00000000	166.00000000	-0.30433606	127.99210399	165.99365205
 224	0.00000000	128.00000000	179.00000000	-0.30433606	128.01690906	178.99536878
 225	0.00000000	128.00000000	191.00000000	-0.30433606	127.99210399	191.00356042
 226	0.00000000	128.00000000	204.00000000	-0.30433606	128.01690906	204.00013983
 227	0.00000000	128.00000000	217.00000000	-0.30433606	128.01690906	217.00644672
 228	0.00000000	128.00000000	230.00000000	-0.30433606	127.99210399	229.99863356
 229	0.00000000	128.00000000	242.00000000	0.22952348	127.99210399	241.99937761
 230	0.00000000	128.00000000	255.00000000	-0.30433606	127.99210399	255.00629246
 231	0.00000000	140.00000000	0.00000000	-0.30433606	140.00169396	0.00213830
 232	0.00000000	140.00000000	13.00000000	0.22952348	140.00169396	13.09131023
 233	0.00000000	140.00000000	26.00000000	0.22952348	140.00169396	25.92191074
 234	0.00000000	140.00000000	38.00000000	-0.30433606	140.00169396	37.96806805
 235	0.00000000	140.00000000	51.00000000	0.22952348	140.00169396	50.96962519
 236	0.00000000	140.00000000	64.00000000	-0.30433606	140.02383918	63.96360174
 237	0.00000000	140.00000000	77.00000000	-0.30433606	140.00169396	76.99770793
 238	0.00000000	140.00000000	89.00000000	-0.30433606	140.00169396	88.99888515
 239	0.00000000	140.00000000	102.00000000	-0.30433606	139.97953355	101.99771404
 240	0.00000000	140.00000000	115.00000000	-0.30433606	140.00169396	115.00959903
 241	0.00000000	140.00000000	128.00000000	-0.30433606	140.00169396	128.00628483
 242	0.00000000	140.00000000	140.00000000	-0.30433606	140.00169396	140.01196861
 243	0.00000000	140.00000000	153.00000000	-0.83819560	140.00169396	153.00707370
 244	0.00000000	140.00000000	166.00000000	-0.30433606	140.00169396	166.00403309
 245	0.00000000	140.00000000	179.00000000	-0.30433606	140.02383918	178.99536878
 246	0.00000000	140.00000000	191.00000000	-0.30433606	140.00169396	191.00356042
 247	0.00000000	140.00000000	204.00000000	-0.30433606	140.00169396	204.00013983
 248	0.00000000	140.00000000	217.00000000	-0.30433606	139.97953355	216.99913591
 249	0.00000000	140.00000000	230.00000000	-0.30433606	140.02383918	229.99863356
 250	0.00000000	140.00000000	242.00000000	-0.30433606	140.00169396	242.00571567
 251	0.00000000	140.00000000	255.00000000	-0.30433606	140.00169396	255.00629246
 252	0.00000000	153.00000000	0.00000000	-0.30433606	153.00023407	-0.17167543
 253	0.00000000	153.00000000	13.00000000	0.22952348	152.98045993	13.09131023
 254	0.00000000	153.00000000	26.00000000	-0.30433606	153.00023407	26.00717247
 255	0.00000000	153.00000000	38.00000000	-0.30433606	153.00023407	37.96806805
 256	0.00000000	153.00000000	51.00000000	-0.30433606	153.00023407	50.96962519
 257	0.00000000	153.00000000	64.00000000	-0.30433606	153.00023407	63.99706274
 258	0.00000000	153.00000000	77.00000000	-0.30433606	153.00023407	76.99770793
 259	0.00000000	153.00000000	89.00000000	-0.30433606	153.02000821	88.99888515
 260	0.00000000	153.00000000	102.00000000	-0.30433606	153.00023407	102.01690301
 261	0.00000000	153.00000000	115.00000000	-0.30433606	153.00023407	114.99305472
 262	0.00000000	153.00000000	128.00000000	-0.83819560	153.02000821	128.00628483
 263	0.00000000	153.00000000	140.00000000	-0.30433606	153.00023407	139.99904931
 264	0.00000000	153.00000000	153.00000000	-0.30433606	152.98045993	152.99555272
 265	0.00000000	153.00000000	166.00000000	-0.83819560	153.02000821	165.99365205
 266	0.00000000	153.00000000	179.00000000	-0.30433606	153.00023407	178.99536878
 267	0.00000000	153.00000000	191.00000000	-0.30433606	153.00023407	191.00356042
 268	0.00000000	153.00000000	204.00000000	-0.30433606	153.00023407	204.00807381
 269	0.00000000	153.00000000	217.00000000	-0.30433606	153.00023407	216.99913591
 270	0.00000000	153.00000000	230.00000000	-0.30433606	153.00023407	229.99863356
 271	0.00000000	153.00000000	242.00000000	-0.30433606	153.00023407	241.99937761
 272	0.00000000	153.00000000	255.00000000	-0.30433606	153.00023407	255.00036478
 273	0.00000000	166.00000000	0.00000000	-0.30433606	166.02332085	0.00213830
 274	0.00000000	166.00000000	13.00000000	-0.30433606	166.02332085	13.09131023
 275	0.00000000	166.00000000	26.00000000	-0.83819560	166.00552261	25.92191074
 276	0.00000000	166.00000000	38.00000000	-0.30433606	166.00552261	37.96806805
 277	0.00000000	166.00000000	51.00000000	0.22952348	166.00552261	50.92641011
 278	0.00000000	166.00000000	64.00000000	-0.83819560	166.02332085	63.99706274
 279	0.00000000	166.00000000	77.00000000	-0.30433606	166.00552261	76.99770793
 280	0.00000000	166.00000000	89.00000000	-0.30433606	166.00552261	88.97621557
 281	0.00000000	166.00000000	102.00000000	-0.30433606	166.00552261	101.99771404
 282	0.00000000	166.00000000	115.00000000	-0.30433606	166.00552261	114.99305472
 283	0.00000000	166.00000000	128.00000000	0.22952348	165.98772436	127.99183041
 284	0.00000000	166.00000000	140.00000000	-0.30433606	166.00552261	139.99904931
 285	0.00000000	166.00000000	153.00000000	-0.30433606	166.02332085	152.99555272
 286	0.00000000	166.00000000	166.00000000	0.22952348	166.00552261	166.00403309
 287	0.00000000	166.00000000	179.00000000	-0.30433606	166.00552261	179.00477707
 288	0.00000000	166.00000000	191.00000000	-0.30433606	166.00552261	191.00356042
 289	0.00000000	166.00000000	204.00000000	-0.30433606	166.00552261	204.00013983
 290	0.00000000	166.00000000	217.00000000	-0.30433606	166.00552261	216.99913591
 291	0.00000000	166.00000000	230.00000000	-0.30433606	166.00552261	230.00541240
 292	0.00000000	166.00000000	242.00000000	-0.30433606	166.00552261	241.99937761
 293	0.00000000	166.00000000	255.00000000	-0.30433606	166.00552261	255.00036478
 294	0.00000000	179.00000000	0.00000000	-0.30433606	179.01277184	0.00213830
 295	0.00000000	179.00000000	13.00000000	-0.30433606	178.99661511	12.94387054
 296	0.00000000	179.00000000	26.00000000	-0.30433606	179.01277184	25.92191074
 297	0.00000000	179.00000000	38.00000000	-0.30433606	179.01277184	38.02705988
 298	0.00000000	179.00000000	51.00000000	-0.30433606	178.99661511	51.01280227
 299	0.00000000	179.00000000	64.00000000	0.22952348	179.01277184	63.99706274
 300	0.00000000	179.00000000	77.00000000	-0.30433606	179.01277184	76.97075218
 301	0.00000000	179.00000000	89.00000000	-0.30433606	178.99661511	89.02153954
 302	0.00000000	179.00000000	102.00000000	-0.30433606	179.01277184	101.97850227
 303	0.00000000	179.00000000	115.00000000	-0.30433606	178.99661511	114.99305472
 304	0.00000000	179.00000000	128.00000000	-0.30433606	179.01277184	128.00628483
 305	0.00000000	179.00000000	140.00000000	-0.30433606	179.01277184	139.99904931
 306	0.00000000	179.00000000	153.00000000	-0.30433606	179.01277184	153.00707370
