bench/lcms_compat/reference/srgb_to_RISO_MZ770_Black.icc_Absolute.it8
CGATS.17
ORIGINATOR	"icctrans"
#
# Data follows
#
NUMBER_OF_SETS	9261.00000000
NUMBER_OF_FIELDS	5.00000000
BEGIN_DATA_FORMAT
 SAMPLE_ID	IN_RGB_R	IN_RGB_G	IN_RGB_B	OUT_GRAY
END_DATA_FORMAT
BEGIN_DATA
 0	0.00000000	0.00000000	0.00000000	0.00000000
 1	0.00000000	0.00000000	13.00000000	0.00000000
 2	0.00000000	0.00000000	26.00000000	0.00000000
 3	0.00000000	0.00000000	38.00000000	0.00000000
 4	0.00000000	0.00000000	51.00000000	0.00000000
 5	0.00000000	0.00000000	64.00000000	0.00000000
 6	0.00000000	0.00000000	77.00000000	0.00000000
 7	0.00000000	0.00000000	89.00000000	0.00000000
 8	0.00000000	0.00000000	102.00000000	0.00000000
 9	0.00000000	0.00000000	115.00000000	0.00000000
 10	0.00000000	0.00000000	128.00000000	0.00000000
 11	0.00000000	0.00000000	140.00000000	0.00000000
 12	0.00000000	0.00000000	153.00000000	0.00000000
 13	0.00000000	0.00000000	166.00000000	0.00000000
 14	0.00000000	0.00000000	179.00000000	0.00000000
 15	0.00000000	0.00000000	191.00000000	0.00000000
 16	0.00000000	0.00000000	204.00000000	0.00000000
 17	0.00000000	0.00000000	217.00000000	0.00000000
 18	0.00000000	0.00000000	230.00000000	0.00000000
 19	0.00000000	0.00000000	242.00000000	3.27626471
 20	0.00000000	0.00000000	255.00000000	12.90272349
 21	0.00000000	13.00000000	0.00000000	0.00000000
 22	0.00000000	13.00000000	13.00000000	0.00000000
 23	0.00000000	13.00000000	26.00000000	0.00000000
 24	0.00000000	13.00000000	38.00000000	0.00000000
 25	0.00000000	13.00000000	51.00000000	0.00000000
 26	0.00000000	13.00000000	64.00000000	0.00000000
 27	0.00000000	13.00000000	77.00000000	0.00000000
 28	0.00000000	13.00000000	89.00000000	0.00000000
 29	0.00000000	13.00000000	102.00000000	0.00000000
 30	0.00000000	13.00000000	115.00000000	0.00000000
 31	0.00000000	13.00000000	128.00000000	0.00000000
 32	0.00000000	13.00000000	140.00000000	0.00000000
 33	0.00000000	13.00000000	153.00000000	0.00000000
 34	0.00000000	13.00000000	166.00000000	0.00000000
 35	0.00000000	13.00000000	179.00000000	0.00000000
 36	0.00000000	13.00000000	191.00000000	0.00000000
 37	0.00000000	13.00000000	204.00000000	0.00000000
 38	0.00000000	13.00000000	217.00000000	0.00000000
 39	0.00000000	13.00000000	230.00000000	0.00000000
 40	0.00000000	13.00000000	242.00000000	7.41245130
 41	0.00000000	13.00000000	255.00000000	16.83657546
 42	0.00000000	26.00000000	0.00000000	0.00000000
 43	0.00000000	26.00000000	13.00000000	0.00000000
 44	0.00000000	26.00000000	26.00000000	0.00000000
 45	0.00000000	26.00000000	38.00000000	0.00000000
 46	0.00000000	26.00000000	51.00000000	0.00000000
 47	0.00000000	26.00000000	64.00000000	0.00000000
 48	0.00000000	26.00000000	77.00000000	0.00000000
 49	0.00000000	26.00000000	89.00000000	0.00000000
 50	0.00000000	26.00000000	102.00000000	0.00000000
 51	0.00000000	26.00000000	115.00000000	0.00000000
 52	0.00000000	26.00000000	128.00000000	0.00000000
 53	0.00000000	26.00000000	140.00000000	0.00000000
 54	0.00000000	26.00000000	153.00000000	0.00000000
 55	0.00000000	26.00000000	166.00000000	0.00000000
 56	0.00000000	26.00000000	179.00000000	0.00000000
 57	0.00000000	26.00000000	191.00000000	0.00000000
 58	0.00000000	26.00000000	204.00000000	0.00000000
 59	0.00000000	26.00000000	217.00000000	0.00000000
 60	0.00000000	26.00000000	230.00000000	5.51750961
 61	0.00000000	26.00000000	242.00000000	13.74319090
 62	0.00000000	26.00000000	255.00000000	22.77042825
 63	0.00000000	38.00000000	0.00000000	0.00000000
 64	0.00000000	38.00000000	13.00000000	0.00000000
 65	0.00000000	38.00000000	26.00000000	0.00000000
 66	0.00000000	38.00000000	38.00000000	0.00000000
 67	0.00000000	38.00000000	51.00000000	0.00000000
 68	0.00000000	38.00000000	64.00000000	0.00000000
 69	0.00000000	38.00000000	77.00000000	0.00000000
 70	0.00000000	38.00000000	89.00000000	0.00000000
 71	0.00000000	38.00000000	102.00000000	0.00000000
 72	0.00000000	38.00000000	115.00000000	0.00000000
 73	0.00000000	38.00000000	128.00000000	0.00000000
 74	0.00000000	38.00000000	140.00000000	0.00000000
 75	0.00000000	38.00000000	153.00000000	0.00000000
 76	0.00000000	38.00000000	166.00000000	0.00000000
 77	0.00000000	38.00000000	179.00000000	0.00000000
 78	0.00000000	38.00000000	191.00000000	0.00000000
 79	0.00000000	38.00000000	204.00000000	0.00000000
 80	0.00000000	38.00000000	217.00000000	6.35797653
 81	0.00000000	38.00000000	230.00000000	14.61867722
 82	0.00000000	38.00000000	242.00000000	22.36575946
 83	0.00000000	38.00000000	255.00000000	28.79377384
 84	0.00000000	51.00000000	0.00000000	0.00000000
 85	0.00000000	51.00000000	13.00000000	0.00000000
 86	0.00000000	51.00000000	26.00000000	0.00000000
 87	0.00000000	51.00000000	38.00000000	0.00000000
 88	0.00000000	51.00000000	51.00000000	0.00000000
 89	0.00000000	51.00000000	64.00000000	0.00000000
 90	0.00000000	51.00000000	77.00000000	0.00000000
 91	0.00000000	51.00000000	89.00000000	0.00000000
 92	0.00000000	51.00000000	102.00000000	0.00000000
 93	0.00000000	51.00000000	115.00000000	0.00000000
 94	0.00000000	51.00000000	128.00000000	0.00000000
 95	0.00000000	51.00000000	140.00000000	0.00000000
 96	0.00000000	51.00000000	153.00000000	0.00000000
 97	0.00000000	51.00000000	166.00000000	0.00000000
 98	0.00000000	51.00000000	179.00000000	0.00000000
 99	0.00000000	51.00000000	191.00000000	5.43968883
 100	0.00000000	51.00000000	204.00000000	12.51361867
 101	0.00000000	51.00000000	217.00000000	19.87937808
 102	0.00000000	51.00000000	230.00000000	26.72762711
 103	0.00000000	51.00000000	242.00000000	30.96498113
 104	0.00000000	51.00000000	255.00000000	35.60311295
 105	0.00000000	64.00000000	0.00000000	0.00000000
 106	0.00000000	64.00000000	13.00000000	0.00000000
 107	0.00000000	64.00000000	26.00000000	0.00000000
 108	0.00000000	64.00000000	38.00000000	0.00000000
 109	0.00000000	64.00000000	51.00000000	0.00000000
 110	0.00000000	64.00000000	64.00000000	0.00000000
 111	0.00000000	64.00000000	77.00000000	0.00000000
 112	0.00000000	64.00000000	89.00000000	0.00000000
 113	0.00000000	64.00000000	102.00000000	0.00000000
 114	0.00000000	64.00000000	115.00000000	0.00000000
 115	0.00000000	64.00000000	128.00000000	0.00000000
 116	0.00000000	64.00000000	140.00000000	1.56031134
 117	0.00000000	64.00000000	153.00000000	6.51361856
 118	0.00000000	64.00000000	166.00000000	11.85992265
 119	0.00000000	64.00000000	179.00000000	17.60700312
 120	0.00000000	64.00000000	191.00000000	23.17120604
 121	0.00000000	64.00000000	204.00000000	27.95330834
 122	0.00000000	64.00000000	217.00000000	31.85603142
 123	0.00000000	64.00000000	230.00000000	35.73930144
 124	0.00000000	64.00000000	242.00000000	37.80544817
 125	0.00000000	64.00000000	255.00000000	40.10505818
 126	0.00000000	77.00000000	0.00000000	2.37743197
 127	0.00000000	77.00000000	13.00000000	2.73540862
 128	0.00000000	77.00000000	26.00000000	3.30350189
 129	0.00000000	77.00000000	38.00000000	4.08949398
 130	0.00000000	77.00000000	51.00000000	5.28793780
 131	0.00000000	77.00000000	64.00000000	6.86381347
 132	0.00000000	77.00000000	77.00000000	8.81712098
 133	0.00000000	77.00000000	89.00000000	11.00778228
 134	0.00000000	77.00000000	102.00000000	13.79377473
 135	0.00000000	77.00000000	115.00000000	16.96498007
 136	0.00000000	77.00000000	128.00000000	20.52529212
 137	0.00000000	77.00000000	140.00000000	24.14396904
 138	0.00000000	77.00000000	153.00000000	27.32684735
 139	0.00000000	77.00000000	166.00000000	30.09727679
 140	0.00000000	77.00000000	179.00000000	33.03891174
 141	0.00000000	77.00000000	191.00000000	35.76653838
 142	0.00000000	77.00000000	204.00000000	37.54085697
 143	0.00000000	77.00000000	217.00000000	39.40466836
 144	0.00000000	77.00000000	230.00000000	41.21011488
 145	0.00000000	77.00000000	242.00000000	42.45136008
 146	0.00000000	77.00000000	255.00000000	43.84824872
 147	0.00000000	89.00000000	0.00000000	26.66926034
 148	0.00000000	89.00000000	13.00000000	26.84824973
 149	0.00000000	89.00000000	26.00000000	27.13229589
 150	0.00000000	89.00000000	38.00000000	27.53696468
 151	0.00000000	89.00000000	51.00000000	28.14785980
 152	0.00000000	89.00000000	64.00000000	28.95330828
 153	0.00000000	89.00000000	77.00000000	29.94552623
 154	0.00000000	89.00000000	89.00000000	31.05447393
 155	0.00000000	89.00000000	102.00000000	32.44746968
 156	0.00000000	89.00000000	115.00000000	34.06225763
 157	0.00000000	89.00000000	128.00000000	35.73541045
 158	0.00000000	89.00000000	140.00000000	36.73930138
 159	0.00000000	89.00000000	153.00000000	37.92995989
 160	0.00000000	89.00000000	166.00000000	39.22568277
 161	0.00000000	89.00000000	179.00000000	40.61867662
 162	0.00000000	89.00000000	191.00000000	41.64591350
 163	0.00000000	89.00000000	204.00000000	42.70038731
 164	0.00000000	89.00000000	217.00000000	43.81712079
 165	0.00000000	89.00000000	230.00000000	45.07392995
 166	0.00000000	89.00000000	242.00000000	46.40855893
 167	0.00000000	89.00000000	255.00000000	47.91050434
 168	0.00000000	102.00000000	0.00000000	39.40466836
 169	0.00000000	102.00000000	13.00000000	39.48249198
 170	0.00000000	102.00000000	26.00000000	39.61089469
 171	0.00000000	102.00000000	38.00000000	39.79377508
 172	0.00000000	102.00000000	51.00000000	40.06614827
 173	0.00000000	102.00000000	64.00000000	40.42801425
 174	0.00000000	102.00000000	77.00000000	40.87937683
 175	0.00000000	102.00000000	89.00000000	41.23735562
 176	0.00000000	102.00000000	102.00000000	41.66925944
 177	0.00000000	102.00000000	115.00000000	42.16731392
 178	0.00000000	102.00000000	128.00000000	42.72762805
 179	0.00000000	102.00000000	140.00000000	43.30739334
 180	0.00000000	102.00000000	153.00000000	43.99611019
 181	0.00000000	102.00000000	166.00000000	44.78988379
 182	0.00000000	102.00000000	179.00000000	45.76264679
 183	0.00000000	102.00000000	191.00000000	46.72373682
 184	0.00000000	102.00000000	204.00000000	47.82879353
 185	0.00000000	102.00000000	217.00000000	49.04280178
 186	0.00000000	102.00000000	230.00000000	50.75097352
 187	0.00000000	102.00000000	242.00000000	52.39299461
 188	0.00000000	102.00000000	255.00000000	54.24124584
 189	0.00000000	115.00000000	0.00000000	45.83657563
 190	0.00000000	115.00000000	13.00000000	45.89104950
 191	0.00000000	115.00000000	26.00000000	45.98443709
 192	0.00000000	115.00000000	38.00000000	46.10505782
 193	0.00000000	115.00000000	51.00000000	46.29572019
 194	0.00000000	115.00000000	64.00000000	46.54085644
 195	0.00000000	115.00000000	77.00000000	46.84824854
 196	0.00000000	115.00000000	89.00000000	47.19455436
 197	0.00000000	115.00000000	102.00000000	47.63424017
 198	0.00000000	115.00000000	115.00000000	48.14396761
 199	0.00000000	115.00000000	128.00000000	48.71984571
 200	0.00000000	115.00000000	140.00000000	49.48249139
 201	0.00000000	115.00000000	153.00000000	50.46303637
 202	0.00000000	115.00000000	166.00000000	51.54085614
 203	0.00000000	115.00000000	179.00000000	52.71206349
 204	0.00000000	115.00000000	191.00000000	53.87159407
 205	0.00000000	115.00000000	204.00000000	55.48249103
 206	0.00000000	115.00000000	217.00000000	57.99610935
 207	0.00000000	115.00000000	230.00000000	60.66148013
 208	0.00000000	115.00000000	242.00000000	63.24513629
 209	0.00000000	115.00000000	255.00000000	66.22179016
 210	0.00000000	128.00000000	0.00000000	53.94552670
 211	0.00000000	128.00000000	13.00000000	54.01167355
 212	0.00000000	128.00000000	26.00000000	54.11283933
 213	0.00000000	128.00000000	38.00000000	54.26070079
 214	0.00000000	128.00000000	51.00000000	54.48249109
 215	0.00000000	128.00000000	64.00000000	54.77821022
 216	0.00000000	128.00000000	77.00000000	55.36186650
 217	0.00000000	128.00000000	89.00000000	56.08949326
 218	0.00000000	128.00000000	102.00000000	57.00778238
 219	0.00000000	128.00000000	115.00000000	58.07782017
 220	0.00000000	128.00000000	128.00000000	59.29961041
 221	0.00000000	128.00000000	140.00000000	60.56809254
 222	0.00000000	128.00000000	153.00000000	62.08171092
 223	0.00000000	128.00000000	166.00000000	63.74708176
 224	0.00000000	128.00000000	179.00000000	65.57198703
 225	0.00000000	128.00000000	191.00000000	67.47081354
 226	0.00000000	128.00000000	204.00000000	69.68482554
 227	0.00000000	128.00000000	217.00000000	72.04280421
 228	0.00000000	128.00000000	230.00000000	74.54474956
 229	0.00000000	128.00000000	242.00000000	77.02334896
 230	0.00000000	128.00000000	255.00000000	80.05447671
 231	0.00000000	140.00000000	0.00000000	68.21400806
 232	0.00000000	140.00000000	13.00000000	68.32295582
 233	0.00000000	140.00000000	26.00000000	68.49027604
 234	0.00000000	140.00000000	38.00000000	68.73151749
 235	0.00000000	140.00000000	51.00000000	69.10116926
 236	0.00000000	140.00000000	64.00000000	69.57976878
 237	0.00000000	140.00000000	77.00000000	70.18288001
 238	0.00000000	140.00000000	89.00000000	70.86381108
 239	0.00000000	140.00000000	102.00000000	71.72762632
 240	0.00000000	140.00000000	115.00000000	72.72373527
 241	0.00000000	140.00000000	128.00000000	73.85991991
 242	0.00000000	140.00000000	140.00000000	75.04669502
 243	0.00000000	140.00000000	153.00000000	76.46303862
 244	0.00000000	140.00000000	166.00000000	78.16731557
 245	0.00000000	140.00000000	179.00000000	80.03891274
 246	0.00000000	140.00000000	191.00000000	81.91050231
 247	0.00000000	140.00000000	204.00000000	84.08560440
 248	0.00000000	140.00000000	217.00000000	86.40855655
 249	0.00000000	140.00000000	230.00000000	88.91829148
 250	0.00000000	140.00000000	242.00000000	91.95331022
 251	0.00000000	140.00000000	255.00000000	95.40856361
 252	0.00000000	153.00000000	0.00000000	85.69260657
 253	0.00000000	153.00000000	13.00000000	85.78988135
 254	0.00000000	153.00000000	26.00000000	85.95331058
 255	0.00000000	153.00000000	38.00000000	86.18677005
 256	0.00000000	153.00000000	51.00000000	86.54474884
 257	0.00000000	153.00000000	64.00000000	87.00778440
 258	0.00000000	153.00000000	77.00000000	87.58754969
 259	0.00000000	153.00000000	89.00000000	88.24124381
 260	0.00000000	153.00000000	102.00000000	89.14785996
 261	0.00000000	153.00000000	115.00000000	90.36575541
 262	0.00000000	153.00000000	128.00000000	91.76264405
 263	0.00000000	153.00000000	140.00000000	93.19844261
 264	0.00000000	153.00000000	153.00000000	94.93385509
 265	0.00000000	153.00000000	166.00000000	96.84824556
 266	0.00000000	153.00000000	179.00000000	98.94552782
 267	0.00000000	153.00000000	191.00000000	101.03502050
 268	0.00000000	153.00000000	204.00000000	103.48638296
 269	0.00000000	153.00000000	217.00000000	106.79377109
 270	0.00000000	153.00000000	230.00000000	110.52918345
 271	0.00000000	153.00000000	242.00000000	114.17898640
 272	0.00000000	153.00000000	255.00000000	118.36576134
 273	0.00000000	166.00000000	0.00000000	108.66925925
 274	0.00000000	166.00000000	13.00000000	108.82100791
 275	0.00000000	166.00000000	26.00000000	109.06225696
 276	0.00000000	166.00000000	38.00000000	109.40856278
 277	0.00000000	166.00000000	51.00000000	109.92996320
 278	0.00000000	166.00000000	64.00000000	110.63034922
 279	0.00000000	166.00000000	77.00000000	111.49805546
 280	0.00000000	166.00000000	89.00000000	112.47081846
 281	0.00000000	166.00000000	102.00000000	113.71984184
 282	0.00000000	166.00000000	115.00000000	115.15953138
 283	0.00000000	166.00000000	128.00000000	116.82101503
 284	0.00000000	166.00000000	140.00000000	118.54474694
 285	0.00000000	166.00000000	153.00000000	120.60311168
 286	0.00000000	166.00000000	166.00000000	122.90661648
 287	0.00000000	166.00000000	179.00000000	125.32296002
 288	0.00000000	166.00000000	191.00000000	127.56031036
 289	0.00000000	166.00000000	204.00000000	130.17899305
 290	0.00000000	166.00000000	217.00000000	133.00778925
 291	0.00000000	166.00000000	230.00000000	136.01168007
 292	0.00000000	166.00000000	242.00000000	138.95329982
 293	0.00000000	166.00000000	255.00000000	142.34241396
 294	0.00000000	179.00000000	0.00000000	136.93773597
 295	0.00000000	179.00000000	13.00000000	137.05448091
 296	0.00000000	179.00000000	26.00000000	137.25681245
 297	0.00000000	179.00000000	38.00000000	137.53307283
 298	0.00000000	179.00000000	51.00000000	137.95329988
 299	0.00000000	179.00000000	64.00000000	138.50194484
 300	0.00000000	179.00000000	77.00000000	139.19455647
 301	0.00000000	179.00000000	89.00000000	139.97666091
 302	0.00000000	179.00000000	102.00000000	140.96887887
 303	0.00000000	179.00000000	115.00000000	142.12840945
 304	0.00000000	179.00000000	128.00000000	143.33463192
 305	0.00000000	179.00000000	140.00000000	144.45525259
 306	0.00000000	179.00000000	153.00000000	145.79376876
 307	0.00000000	179.00000000	166.00000000	147.28015780
 308	0.00000000	179.00000000	179.00000000	148.91829550
 309	0.00000000	179.00000000	191.00000000	150.55641800
 310	0.00000000	179.00000000	204.00000000	152.47081608
 311	0.00000000	179.00000000	217.00000000	154.53696281
 312	0.00000000	179.00000000	230.00000000	156.75485820
 313	0.00000000	179.00000000	242.00000000	158.31906706
 314	0.00000000	179.00000000	255.00000000	159.67314720
 315	0.00000000	191.00000000	0.00000000	157.61089146
 316	0.00000000	191.00000000	13.00000000	157.66536534
 317	0.00000000	191.00000000	26.00000000	157.73929417
 318	0.00000000	191.00000000	38.00000000	157.84824193
 319	0.00000000	191.00000000	51.00000000	158.01946074
 320	0.00000000	191.00000000	64.00000000	158.24513823
 321	0.00000000	191.00000000	77.00000000	158.51750761
 322	0.00000000	191.00000000	89.00000000	158.83267790
 323	0.00000000	191.00000000	102.00000000	159.23346519
 324	0.00000000	191.00000000	115.00000000	159.70038414
 325	0.00000000	191.00000000	128.00000000	160.22957414
 326	0.00000000	191.00000000	140.00000000	160.78598589
 327	0.00000000	191.00000000	153.00000000	161.45136058
 328	0.00000000	191.00000000	166.00000000	162.19455510
 329	0.00000000	191.00000000	179.00000000	163.00389647
 330	0.00000000	191.00000000	191.00000000	163.82489562
 331	0.00000000	191.00000000	204.00000000	164.78598565
 332	0.00000000	191.00000000	217.00000000	165.75096667
 333	0.00000000	191.00000000	230.00000000	166.42801434
 334	0.00000000	191.00000000	242.00000000	167.09338903
 335	0.00000000	191.00000000	255.00000000	167.86382049
 336	0.00000000	204.00000000	0.00000000	167.72372961
 337	0.00000000	204.00000000	13.00000000	167.75485754
 338	0.00000000	204.00000000	26.00000000	167.78987646
 339	0.00000000	204.00000000	38.00000000	167.85992950
 340	0.00000000	204.00000000	51.00000000	167.94942230
 341	0.00000000	204.00000000	64.00000000	168.07393402
 342	0.00000000	204.00000000	77.00000000	168.22568268
 343	0.00000000	204.00000000	89.00000000	168.40077728
 344	0.00000000	204.00000000	102.00000000	168.62645477
 345	0.00000000	204.00000000	115.00000000	168.88327539
 346	0.00000000	204.00000000	128.00000000	169.18288171
 347	0.00000000	204.00000000	140.00000000	169.49027002
 348	0.00000000	204.00000000	153.00000000	169.86771137
 349	0.00000000	204.00000000	166.00000000	170.28015643
 350	0.00000000	204.00000000	179.00000000	170.72372943
 351	0.00000000	204.00000000	191.00000000	171.14008069
 352	0.00000000	204.00000000	204.00000000	171.63034558
 353	0.00000000	204.00000000	217.00000000	172.15564460
 354	0.00000000	204.00000000	230.00000000	172.71594733
 355	0.00000000	204.00000000	242.00000000	173.27626526
 356	0.00000000	204.00000000	255.00000000	173.91051203
 357	0.00000000	217.00000000	0.00000000	174.28015620
 358	0.00000000	217.00000000	13.00000000	174.30350214
 359	0.00000000	217.00000000	26.00000000	174.33852106
 360	0.00000000	217.00000000	38.00000000	174.38910395
 361	0.00000000	217.00000000	51.00000000	174.46692377
 362	0.00000000	217.00000000	64.00000000	174.56808954
 363	0.00000000	217.00000000	77.00000000	174.69649225
 364	0.00000000	217.00000000	89.00000000	174.84436512
 365	0.00000000	217.00000000	102.00000000	175.03113270
 366	0.00000000	217.00000000	115.00000000	175.36186695
 367	0.00000000	217.00000000	128.00000000	175.79765797
 368	0.00000000	217.00000000	140.00000000	176.24124616
 369	0.00000000	217.00000000	153.00000000	176.78598493
 370	0.00000000	217.00000000	166.00000000	177.38521278
 371	0.00000000	217.00000000	179.00000000	178.05058748
 372	0.00000000	217.00000000	191.00000000	178.71983796
 373	0.00000000	217.00000000	204.00000000	179.50194240
 374	0.00000000	217.00000000	217.00000000	180.34241170
 375	0.00000000	217.00000000	230.00000000	181.25291884
 376	0.00000000	217.00000000	242.00000000	182.14786202
 377	0.00000000	217.00000000	255.00000000	183.27237368
 378	0.00000000	230.00000000	0.00000000	185.23735464
 379	0.00000000	230.00000000	13.00000000	185.28793752
 380	0.00000000	230.00000000	26.00000000	185.36575735
 381	0.00000000	230.00000000	38.00000000	185.48248708
 382	0.00000000	230.00000000	51.00000000	185.66147268
 383	0.00000000	230.00000000	64.00000000	185.89105636
 384	0.00000000	230.00000000	77.00000000	186.17898971
 385	0.00000000	230.00000000	89.00000000	186.51361495
 386	0.00000000	230.00000000	102.00000000	186.92996621
 387	0.00000000	230.00000000	115.00000000	187.41244912
 388	0.00000000	230.00000000	128.00000000	187.97665805
 389	0.00000000	230.00000000	140.00000000	188.55641574
 390	0.00000000	230.00000000	153.00000000	189.26848233
 391	0.00000000	230.00000000	166.00000000	190.04669577
 392	0.00000000	230.00000000	179.00000000	190.91440201
 393	0.00000000	230.00000000	191.00000000	191.78210825
 394	0.00000000	230.00000000	204.00000000	192.80156314
 395	0.00000000	230.00000000	217.00000000	193.90661985
 396	0.00000000	230.00000000	230.00000000	194.95331168
 397	0.00000000	230.00000000	242.00000000	195.97665757
 398	0.00000000	230.00000000	255.00000000	197.14007914
 399	0.00000000	242.00000000	0.00000000	198.61867100
 400	0.00000000	242.00000000	13.00000000	198.65758091
 401	0.00000000	242.00000000	26.00000000	198.71983677
 402	0.00000000	242.00000000	38.00000000	198.81712675
 403	0.00000000	242.00000000	51.00000000	198.95720243
 404	0.00000000	242.00000000	64.00000000	199.14007902
 405	0.00000000	242.00000000	77.00000000	199.37742949
 406	0.00000000	242.00000000	89.00000000	199.64201689
 407	0.00000000	242.00000000	102.00000000	199.98443931
 408	0.00000000	242.00000000	115.00000000	200.37353843
 409	0.00000000	242.00000000	128.00000000	200.82879961
 410	0.00000000	242.00000000	140.00000000	201.29960954
 411	0.00000000	242.00000000	153.00000000	201.86381847
 412	0.00000000	242.00000000	166.00000000	202.49805003
 413	0.00000000	242.00000000	179.00000000	203.20233464
 414	0.00000000	242.00000000	191.00000000	203.80156249
 415	0.00000000	242.00000000	204.00000000	204.19844359
 416	0.00000000	242.00000000	217.00000000	204.61867064
 417	0.00000000	242.00000000	230.00000000	205.07782280
 418	0.00000000	242.00000000	242.00000000	205.52528679
 419	0.00000000	242.00000000	255.00000000	206.05058581
 420	0.00000000	255.00000000	0.00000000	207.54085064
 421	0.00000000	255.00000000	13.00000000	207.55641460
 422	0.00000000	255.00000000	26.00000000	207.58754253
 423	0.00000000	255.00000000	38.00000000	207.62645245
 424	0.00000000	255.00000000	51.00000000	207.68872350
 425	0.00000000	255.00000000	64.00000000	207.77432531
 426	0.00000000	255.00000000	77.00000000	207.87160009
 427	0.00000000	255.00000000	89.00000000	207.98832983
 428	0.00000000	255.00000000	102.00000000	208.14007849
 429	0.00000000	255.00000000	115.00000000	208.31128210
 430	0.00000000	255.00000000	128.00000000	208.52917761
 431	0.00000000	255.00000000	140.00000000	208.75097930
 432	0.00000000	255.00000000	153.00000000	209.01945770
 433	0.00000000	255.00000000	166.00000000	209.32295501
 434	0.00000000	255.00000000	179.00000000	209.65758026
 435	0.00000000	255.00000000	191.00000000	209.98832971
 436	0.00000000	255.00000000	204.00000000	210.38131982
 437	0.00000000	255.00000000	217.00000000	210.81323504
 438	0.00000000	255.00000000	230.00000000	211.26848102
 439	0.00000000	255.00000000	242.00000000	211.71985120
 440	0.00000000	255.00000000	255.00000000	212.24513501
 441	13.00000000	0.00000000	0.00000000	0.00000000
 442	13.00000000	0.00000000	13.00000000	0.00000000
 443	13.00000000	0.00000000	26.00000000	0.00000000
 444	13.00000000	0.00000000	38.00000000	0.00000000
 445	13.00000000	0.00000000	51.00000000	0.00000000
 446	13.00000000	0.00000000	64.00000000	0.00000000
 447	13.00000000	0.00000000	77.00000000	0.00000000
 448	13.00000000	0.00000000	89.00000000	0.00000000
