bench/lcms_compat/reference/srgb_to_sRGB_v4_ICC_preference.icc_Perceptual_BPC.it8
CGATS.17
ORIGINATOR	"icctrans"
#
# Data follows
#
NUMBER_OF_SETS	9261.00000000
NUMBER_OF_FIELDS	7.00000000
BEGIN_DATA_FORMAT
 SAMPLE_ID	IN_RGB_R	IN_RGB_G	IN_RGB_B	OUT_RGB_R	OUT_RGB_G	OUT_RGB_B
END_DATA_FORMAT
BEGIN_DATA
 0	0.00000000	0.00000000	0.00000000	0.38769723	0.00000000	0.00000000
 1	0.00000000	0.00000000	13.00000000	0.00000000	1.26518914	9.29812197
 2	0.00000000	0.00000000	26.00000000	0.00000000	3.39439847	23.43478650
 3	0.00000000	0.00000000	38.00000000	0.00000000	4.08478081	37.37143546
 4	0.00000000	0.00000000	51.00000000	0.87160756	3.09115194	52.05008581
 5	0.00000000	0.00000000	64.00000000	3.75571966	1.37488034	67.00617447
 6	0.00000000	0.00000000	77.00000000	6.43981797	0.98129877	82.89781854
 7	0.00000000	0.00000000	89.00000000	9.85300524	1.50392142	96.42152846
 8	0.00000000	0.00000000	102.00000000	12.21449492	2.10396871	111.48085758
 9	0.00000000	0.00000000	115.00000000	14.91794251	2.78144695	127.72736460
 10	0.00000000	0.00000000	128.00000000	18.94408677	3.61377447	145.19334018
 11	0.00000000	0.00000000	140.00000000	21.26041207	3.83315071	166.20800614
 12	0.00000000	0.00000000	153.00000000	24.01547704	3.23309713	189.39705223
 13	0.00000000	0.00000000	166.00000000	26.65441073	1.55553785	213.02482277
 14	0.00000000	0.00000000	179.00000000	31.62902020	0.32317670	234.85889196
 15	0.00000000	0.00000000	191.00000000	36.10681012	0.00000000	256.82204783
 16	0.00000000	0.00000000	204.00000000	40.41040599	0.00000000	282.72097170
 17	0.00000000	0.00000000	217.00000000	43.17837507	0.00000000	300.93540072
 18	0.00000000	0.00000000	230.00000000	37.72629842	0.00000000	295.45752347
 19	0.00000000	0.00000000	242.00000000	26.89313672	0.00000000	286.21158600
 20	0.00000000	0.00000000	255.00000000	22.22178139	0.00000000	277.34632730
 21	0.00000000	13.00000000	0.00000000	5.00743685	14.67921652	4.12994519
 22	0.00000000	13.00000000	13.00000000	3.83315071	13.11779480	11.55637214
 23	0.00000000	13.00000000	26.00000000	2.42657782	14.09851933	23.86707980
 24	0.00000000	13.00000000	38.00000000	2.88467981	14.82116170	37.18432590
 25	0.00000000	13.00000000	51.00000000	4.50417048	14.15659446	51.45003341
 26	0.00000000	13.00000000	64.00000000	7.02050946	13.34362239	65.30280948
 27	0.00000000	13.00000000	77.00000000	8.70452067	13.10489070	79.39430773
 28	0.00000000	13.00000000	89.00000000	11.90478969	13.47266346	93.31160054
 29	0.00000000	13.00000000	102.00000000	15.55670913	13.65977302	107.86119461
 30	0.00000000	13.00000000	115.00000000	17.30524041	13.36943060	123.53347644
 31	0.00000000	13.00000000	128.00000000	19.82803144	13.16941123	139.12188917
 32	0.00000000	13.00000000	140.00000000	22.82828774	13.30490436	157.81377017
 33	0.00000000	13.00000000	153.00000000	24.98330411	12.58871974	182.27387846
 34	0.00000000	13.00000000	166.00000000	27.30607577	10.67888048	206.93400800
 35	0.00000000	13.00000000	179.00000000	30.62248841	7.83993264	230.60049087
 36	0.00000000	13.00000000	191.00000000	34.98413756	5.93655160	252.66684920
 37	0.00000000	13.00000000	204.00000000	39.30062614	3.38794642	279.14001346
 38	0.00000000	13.00000000	217.00000000	44.76560310	0.86515551	304.82605755
 39	0.00000000	13.00000000	230.00000000	41.22982822	0.00000000	299.79336441
 40	0.00000000	13.00000000	242.00000000	30.40310528	0.00000000	290.74100375
 41	0.00000000	13.00000000	255.00000000	18.02788373	0.00000000	278.49480808
 42	0.00000000	26.00000000	0.00000000	7.92380934	31.90645851	5.33649825
 43	0.00000000	26.00000000	13.00000000	8.04640453	31.12574860	13.99528647
 44	0.00000000	26.00000000	26.00000000	8.11092507	29.95146152	25.62206313
 45	0.00000000	26.00000000	38.00000000	8.22706204	29.56432499	37.49402449
 46	0.00000000	26.00000000	51.00000000	9.03358206	28.78361508	50.68867587
 47	0.00000000	26.00000000	64.00000000	10.82727771	28.42875212	64.42531496
 48	0.00000000	26.00000000	77.00000000	13.45330730	27.67384853	77.89740086
 49	0.00000000	26.00000000	89.00000000	14.93084662	27.47383486	90.80171362
 50	0.00000000	26.00000000	102.00000000	18.10530838	27.17703469	105.04160911
 51	0.00000000	26.00000000	115.00000000	20.96361190	26.77054770	120.41062921
 52	0.00000000	26.00000000	128.00000000	22.84119185	26.21566538	135.99904954
 53	0.00000000	26.00000000	140.00000000	25.13815340	25.58980286	149.22595739
 54	0.00000000	26.00000000	153.00000000	26.77699976	24.90587946	172.35692739
 55	0.00000000	26.00000000	166.00000000	28.38358775	23.28638926	197.90098071
 56	0.00000000	26.00000000	179.00000000	30.66765279	20.31194117	223.36763978
 57	0.00000000	26.00000000	191.00000000	33.91308524	16.86649505	246.51151389
 58	0.00000000	26.00000000	204.00000000	38.51991624	13.76301253	272.42334187
 59	0.00000000	26.00000000	217.00000000	44.37201641	11.16279116	298.25131595
 60	0.00000000	26.00000000	230.00000000	45.65599792	7.47861145	306.49714708
 61	0.00000000	26.00000000	242.00000000	37.17142180	4.23317805	297.72223234
 62	0.00000000	26.00000000	255.00000000	19.55704518	1.45875704	283.78558338
 63	0.00000000	38.00000000	0.00000000	12.80163752	46.12054579	5.60749068
 64	0.00000000	38.00000000	13.00000000	12.91132243	46.06247731	14.67276447
 65	0.00000000	38.00000000	26.00000000	13.51137578	45.48824452	26.54472582
 66	0.00000000	38.00000000	38.00000000	14.29853965	44.63010997	38.60379294
 67	0.00000000	38.00000000	51.00000000	15.15022309	44.03650962	51.65649913
 68	0.00000000	38.00000000	64.00000000	16.17611200	43.16547096	64.58661631
 69	0.00000000	38.00000000	77.00000000	17.34395273	42.59767503	77.45220155
 70	0.00000000	38.00000000	89.00000000	19.76351090	42.06215456	89.72419783
 71	0.00000000	38.00000000	102.00000000	21.85400862	41.84922539	103.59632626
 72	0.00000000	38.00000000	115.00000000	24.71876420	41.10077575	117.34586567
 73	0.00000000	38.00000000	128.00000000	26.58989020	40.55880323	133.34720224
 74	0.00000000	38.00000000	140.00000000	28.42230007	39.95229498	147.76776284
 75	0.00000000	38.00000000	153.00000000	31.22898147	39.08125632	162.94968098
 76	0.00000000	38.00000000	166.00000000	30.51280349	38.33280668	186.51937544
 77	0.00000000	38.00000000	179.00000000	31.60321198	36.24230325	212.19895989
 78	0.00000000	38.00000000	191.00000000	34.22923587	32.86137387	236.49774402
 79	0.00000000	38.00000000	204.00000000	38.48120391	28.71909454	262.78380632
 80	0.00000000	38.00000000	217.00000000	43.77197541	24.47357856	289.15375292
 81	0.00000000	38.00000000	230.00000000	50.10152757	21.06039271	315.91729760
 82	0.00000000	38.00000000	242.00000000	44.66882229	13.72429356	307.12946355
 83	0.00000000	38.00000000	255.00000000	30.25470804	6.91727660	293.53479624
 84	0.00000000	51.00000000	0.00000000	19.10538811	61.89607188	7.91735728
 85	0.00000000	51.00000000	13.00000000	19.09248400	60.84436052	16.56969298
 86	0.00000000	51.00000000	26.00000000	19.28605322	60.67015506	27.50609513
 87	0.00000000	51.00000000	38.00000000	19.67963420	59.99267802	39.15868096
 88	0.00000000	51.00000000	51.00000000	20.73778432	59.27648865	52.14041457
 89	0.00000000	51.00000000	64.00000000	22.46696513	58.85065310	65.18667251
 90	0.00000000	51.00000000	77.00000000	23.80901132	58.27640511	78.10386658
 91	0.00000000	51.00000000	89.00000000	24.69295599	57.76024081	89.74355400
 92	0.00000000	51.00000000	102.00000000	26.54472582	57.15373635	102.62850299
 93	0.00000000	51.00000000	115.00000000	28.68038222	56.95372269	116.57805607
 94	0.00000000	51.00000000	128.00000000	31.55159555	56.23108126	130.32113582
 95	0.00000000	51.00000000	140.00000000	32.31940135	55.85684694	144.44490194
 96	0.00000000	51.00000000	153.00000000	34.34537284	55.39229907	160.29783368
 97	0.00000000	51.00000000	166.00000000	36.66815020	54.48900014	177.40250945
 98	0.00000000	51.00000000	179.00000000	35.66161841	53.68248202	200.93995124
 99	0.00000000	51.00000000	191.00000000	35.86808413	52.15331867	223.63862604
 100	0.00000000	51.00000000	204.00000000	38.99737962	48.72722872	249.83435959
 101	0.00000000	51.00000000	217.00000000	43.20418328	44.32039998	276.57852530
 102	0.00000000	51.00000000	230.00000000	48.42396699	39.42966722	302.89685547
 103	0.00000000	51.00000000	242.00000000	52.14041457	32.87427798	319.76278245
 104	0.00000000	51.00000000	255.00000000	42.72026405	19.91836019	306.93588674
 105	0.00000000	64.00000000	0.00000000	24.36389364	75.60043171	10.91116106
 106	0.00000000	64.00000000	13.00000000	24.33163337	75.05845159	19.24734090
 107	0.00000000	64.00000000	26.00000000	24.59617518	74.14224476	29.46754418
 108	0.00000000	64.00000000	38.00000000	25.46076179	74.12288859	40.66848814
 109	0.00000000	64.00000000	51.00000000	26.57053404	73.53575170	53.50180931
 110	0.00000000	64.00000000	64.00000000	27.29317166	73.05828452	65.67702860
 111	0.00000000	64.00000000	77.00000000	29.03525658	72.75503799	78.25871587
 112	0.00000000	64.00000000	89.00000000	30.71281716	72.56146878	90.23391768
 113	0.00000000	64.00000000	102.00000000	32.12583974	72.23241404	103.11885908
 114	0.00000000	64.00000000	115.00000000	33.53240266	71.58074141	115.91348693
 115	0.00000000	64.00000000	128.00000000	35.26802793	71.51622087	129.77916330
 116	0.00000000	64.00000000	140.00000000	37.81017512	71.02586478	142.60604382
 117	0.00000000	64.00000000	153.00000000	38.78446184	70.93553603	158.44607145
 118	0.00000000	64.00000000	166.00000000	39.95229498	70.57420582	174.50548410
 119	0.00000000	64.00000000	179.00000000	41.91374592	69.90963668	192.37148702
 120	0.00000000	64.00000000	191.00000000	41.52017064	69.32249978	213.57972980
 121	0.00000000	64.00000000	204.00000000	41.70728020	67.90947720	237.18169212
 122	0.00000000	64.00000000	217.00000000	43.67518321	65.04471213	262.38379419
 123	0.00000000	64.00000000	230.00000000	47.25613385	60.86371668	288.37306201
 124	0.00000000	64.00000000	242.00000000	51.80489637	56.36657439	312.16860116
 125	0.00000000	64.00000000	255.00000000	53.55342574	45.33339523	321.91133916
 126	0.00000000	77.00000000	0.00000000	29.35140721	88.44022393	13.16295918
 127	0.00000000	77.00000000	13.00000000	29.39657159	88.22729096	20.87328315
 128	0.00000000	77.00000000	26.00000000	29.69337936	87.81435952	30.73217332
 129	0.00000000	77.00000000	38.00000000	30.35148885	87.07881778	41.95245825
 130	0.00000000	77.00000000	51.00000000	31.72580101	87.34980404	54.42447960
 131	0.00000000	77.00000000	64.00000000	33.27432051	87.04655752	67.20618814
 132	0.00000000	77.00000000	77.00000000	34.37118106	86.98203698	79.26526666
 133	0.00000000	77.00000000	89.00000000	35.66807047	86.64653018	90.39521903
 134	0.00000000	77.00000000	102.00000000	37.30691493	86.56263828	103.40276465
 135	0.00000000	77.00000000	115.00000000	38.79736595	86.34972051	116.56515196
 136	0.00000000	77.00000000	128.00000000	40.57170734	85.84000826	129.69527900
 137	0.00000000	77.00000000	140.00000000	41.54597886	85.66578761	142.06405610
 138	0.00000000	77.00000000	153.00000000	43.99779730	85.38189724	156.01360917
 139	0.00000000	77.00000000	166.00000000	44.84302774	85.66578761	172.06654698
 140	0.00000000	77.00000000	179.00000000	45.89472391	85.43996572	188.24209660
 141	0.00000000	77.00000000	191.00000000	47.15935305	84.91088971	204.43700999
 142	0.00000000	77.00000000	204.00000000	47.39807904	84.47215006	227.08406836
 143	0.00000000	77.00000000	217.00000000	48.50784369	83.14299658	250.47956496
 144	0.00000000	77.00000000	230.00000000	49.44985874	80.70408225	273.16533566
 145	0.00000000	77.00000000	242.00000000	51.30163617	76.89732492	292.94765174
 146	0.00000000	77.00000000	255.00000000	55.12130141	71.41944006	312.25247025
 147	0.00000000	89.00000000	0.00000000	35.43579653	101.33806944	17.41492532
 148	0.00000000	89.00000000	13.00000000	34.57119472	100.33153385	23.08636989
 149	0.00000000	89.00000000	26.00000000	34.71960336	100.09280786	31.93871878
 150	0.00000000	89.00000000	38.00000000	35.00349373	99.58954006	42.35894904
 151	0.00000000	89.00000000	51.00000000	36.08100191	99.19596478	55.25035389
 152	0.00000000	89.00000000	64.00000000	37.57790118	99.69922498	67.61266753
 153	0.00000000	89.00000000	77.00000000	39.32643436	99.55082774	80.23953438
 154	0.00000000	89.00000000	89.00000000	40.49428269	99.81536195	91.35013819
 155	0.00000000	89.00000000	102.00000000	42.18474358	99.63470444	103.59632626
 156	0.00000000	89.00000000	115.00000000	43.38484079	99.57663596	116.60386428
 157	0.00000000	89.00000000	128.00000000	45.15272632	99.43469077	129.99853313
 158	0.00000000	89.00000000	140.00000000	46.72060199	99.19596478	142.36729503
 159	0.00000000	89.00000000	153.00000000	47.74003789	99.05401960	155.94264418
 160	0.00000000	89.00000000	166.00000000	49.55310300	98.44105929	169.58248347
 161	0.00000000	89.00000000	179.00000000	50.25637686	98.97657976	185.69997221
 162	0.00000000	89.00000000	191.00000000	51.44358136	98.87979895	200.62379301
 163	0.00000000	89.00000000	204.00000000	52.49527752	98.45396340	218.46400291
 164	0.00000000	89.00000000	217.00000000	53.30179565	98.11198935	239.83998388
 165	0.00000000	89.00000000	230.00000000	55.36649086	96.87318742	261.23528302
 166	0.00000000	89.00000000	242.00000000	56.21817715	93.95680591	279.00452793
 167	0.00000000	89.00000000	255.00000000	55.90846337	89.40804720	295.84464669
 168	0.00000000	102.00000000	0.00000000	41.83632128	115.01663625	22.06693210
 169	0.00000000	102.00000000	13.00000000	41.17174834	114.31979924	27.36414425
 170	0.00000000	102.00000000	26.00000000	40.35877436	113.24875072	34.57119472
 171	0.00000000	102.00000000	38.00000000	40.71365252	113.20358634	44.17845480
 172	0.00000000	102.00000000	51.00000000	41.48791037	113.06164116	56.20527305
 173	0.00000000	102.00000000	64.00000000	42.46863395	112.85516024	68.56114224
 174	0.00000000	102.00000000	77.00000000	43.81068774	113.30681920	80.45890421
 175	0.00000000	102.00000000	89.00000000	45.52050479	113.31327125	91.96309850
 176	0.00000000	102.00000000	102.00000000	47.04321608	113.73910680	104.17701870
 177	0.00000000	102.00000000	115.00000000	48.88853006	113.68103832	116.53289169
 178	0.00000000	102.00000000	128.00000000	50.04345909	113.64232600	129.56623793
 179	0.00000000	102.00000000	140.00000000	51.48874573	113.41650411	141.98663145
 180	0.00000000	102.00000000	153.00000000	53.05661760	113.23584661	155.57485431
 181	0.00000000	102.00000000	166.00000000	54.05670114	113.19068223	169.44699794
 182	0.00000000	102.00000000	179.00000000	55.70844971	112.48739317	183.26103508
 183	0.00000000	102.00000000	191.00000000	56.20527305	113.08099732	197.91388482
 184	0.00000000	102.00000000	204.00000000	57.60538012	113.17777812	213.98620158
 185	0.00000000	102.00000000	217.00000000	58.93452980	112.90032461	231.43925786
 186	0.00000000	102.00000000	230.00000000	59.88944516	112.46158496	250.78281909
 187	0.00000000	102.00000000	242.00000000	62.60579780	111.40343294	268.53915989
 188	0.00000000	102.00000000	255.00000000	63.45102824	107.62892067	284.41142499
 189	0.00000000	115.00000000	0.00000000	46.32057466	127.99192160	23.93160034
 190	0.00000000	115.00000000	13.00000000	45.99150471	127.59187907	29.08687301
 191	0.00000000	115.00000000	26.00000000	45.63018970	126.96601465	36.25521876
 192	0.00000000	115.00000000	38.00000000	45.35920344	126.06917158	45.11401400
 193	0.00000000	115.00000000	51.00000000	46.26895823	126.25628114	56.73434146
 194	0.00000000	115.00000000	64.00000000	47.63680503	126.39178187	69.39347237
 195	0.00000000	115.00000000	77.00000000	49.15951632	126.54663116	81.85903028
 196	0.00000000	115.00000000	89.00000000	50.52737452	126.91439822	92.69218817
 197	0.00000000	115.00000000	102.00000000	52.28235975	127.06924751	104.93837625
 198	0.00000000	115.00000000	115.00000000	53.77281077	127.54670709	116.98453546
 199	0.00000000	115.00000000	128.00000000	55.56650452	127.57251531	129.19846326
 200	0.00000000	115.00000000	140.00000000	56.64401270	127.58541942	141.28980964
 201	0.00000000	115.00000000	153.00000000	57.87637778	127.27572843	154.74899143
 202	0.00000000	115.00000000	166.00000000	59.21842016	127.19830379	168.60820055
 203	0.00000000	115.00000000	179.00000000	60.29593594	127.19830379	182.77713865
 204	0.00000000	115.00000000	191.00000000	61.94768831	126.55308321	195.77823222
 205	0.00000000	115.00000000	204.00000000	62.42514029	126.90794617	211.45049125
 206	0.00000000	115.00000000	217.00000000	63.96075189	127.17249557	227.31634229
 207	0.00000000	115.00000000	230.00000000	65.57379574	126.95956260	243.94999534
 208	0.00000000	115.00000000	242.00000000	67.14811966	126.44985035	259.91906404
 209	0.00000000	115.00000000	255.00000000	70.04512981	125.09489626	276.70756638
 210	0.00000000	128.00000000	0.00000000	51.06289499	141.09624803	25.38978919
 211	0.00000000	128.00000000	13.00000000	50.87578543	140.90913087	30.34503680
 212	0.00000000	128.00000000	26.00000000	50.68222381	140.59295744	37.37143546
 213	0.00000000	128.00000000	38.00000000	50.58544300	140.11550546	46.24315001
 214	0.00000000	128.00000000	51.00000000	50.72093613	139.34770346	57.66990066
 215	0.00000000	128.00000000	64.00000000	52.12105840	139.82515544	70.14191821
 216	0.00000000	128.00000000	77.00000000	53.82442720	140.05742937	83.23332533
 217	0.00000000	128.00000000	89.00000000	55.50843604	140.28325886	94.78268400
 218	0.00000000	128.00000000	102.00000000	57.29568154	140.62521011	106.58367276
 219	0.00000000	128.00000000	115.00000000	58.87646131	140.88978231	118.12012732
 220	0.00000000	128.00000000	128.00000000	60.39916880	141.34142607	129.75335509
 221	0.00000000	128.00000000	140.00000000	62.08318144	141.37367874	140.83816588
 222	0.00000000	128.00000000	153.00000000	63.16068582	141.38013840	154.02636141
 223	0.00000000	128.00000000	166.00000000	64.30916280	141.12850070	167.61458427
 224	0.00000000	128.00000000	179.00000000	65.12213677	141.14140481	181.70606732
 225	0.00000000	128.00000000	191.00000000	66.23191282	141.11559659	194.88137394
 226	0.00000000	128.00000000	204.00000000	68.03851828	140.36712795	209.04385239
 227	0.00000000	128.00000000	217.00000000	68.56114224	140.93493909	224.69676286
 228	0.00000000	128.00000000	230.00000000	69.78059560	141.28980964	240.20775855
 229	0.00000000	128.00000000	242.00000000	71.40653595	141.41239107	255.02188683
 230	0.00000000	128.00000000	255.00000000	73.07118863	140.94784319	271.50069058
 231	0.00000000	140.00000000	0.00000000	55.99234007	154.19411480	28.66102606
 232	0.00000000	140.00000000	13.00000000	55.62457301	153.74244064	32.26133287
 233	0.00000000	140.00000000	26.00000000	55.53424425	153.41339350	38.39732721
 234	0.00000000	140.00000000	38.00000000	55.64392917	153.11659902	46.72060199
 235	0.00000000	140.00000000	51.00000000	55.80523051	152.72947580	58.19252841
 236	0.00000000	140.00000000	64.00000000	56.45045109	152.36816078	70.85809618
 237	0.00000000	140.00000000	77.00000000	58.05058323	152.80044079	83.83338153
 238	0.00000000	140.00000000	89.00000000	59.76685613	152.95529008	96.14409015
 239	0.00000000	140.00000000	102.00000000	61.76701561	153.16175580	108.41608644
 240	0.00000000	140.00000000	115.00000000	63.74783412	153.35531741	120.14609501
 241	0.00000000	140.00000000	128.00000000	65.25119305	153.67147565	131.41155571
 242	0.00000000	140.00000000	140.00000000	66.45773470	154.11023051	141.41885072
 243	0.00000000	140.00000000	153.00000000	68.37402508	154.12313461	153.32950920
 244	0.00000000	140.00000000	166.00000000	69.16763529	154.12313461	166.65964991
 245	0.00000000	140.00000000	179.00000000	70.21934286	153.80696118	180.13175100
 246	0.00000000	140.00000000	191.00000000	70.75486332	153.71018797	193.22961777
 247	0.00000000	140.00000000	204.00000000	71.67107016	153.41339350	207.65663803
 248	0.00000000	140.00000000	217.00000000	73.23894203	152.78753668	221.96106166
 249	0.00000000	140.00000000	230.00000000	73.76802564	153.87148172	237.45267838
 250	0.00000000	140.00000000	242.00000000	74.93586257	154.39412087	251.45386308
 251	0.00000000	140.00000000	255.00000000	76.67148784	154.17475104	266.45510852
 252	0.00000000	153.00000000	0.00000000	60.43142907	169.58248347	31.52578734
 253	0.00000000	153.00000000	13.00000000	60.30238800	169.25988078	35.48741296
 254	0.00000000	153.00000000	26.00000000	60.14752731	168.75660539	41.22337617
 255	0.00000000	153.00000000	38.00000000	60.33464827	168.31140608	48.92724238
 256	0.00000000	153.00000000	51.00000000	61.12181023	168.02107126	59.72169176
 257	0.00000000	153.00000000	64.00000000	61.98640063	167.52425551	71.96142778
 258	0.00000000	153.00000000	77.00000000	63.04454885	167.11129367	84.65925962
 259	0.00000000	153.00000000	89.00000000	64.54145193	167.36940622	96.78285867
 260	0.00000000	153.00000000	102.00000000	66.40611827	167.33715355	110.19687608
 261	0.00000000	153.00000000	115.00000000	68.50307375	167.37586588	122.05592573
 262	0.00000000	153.00000000	128.00000000	70.61937019	167.38231033	133.61172885
 263	0.00000000	153.00000000	140.00000000	71.90981135	167.62748837	143.90935868
 264	0.00000000	153.00000000	153.00000000	73.06473657	168.07268769	154.63285446
 265	0.00000000	153.00000000	166.00000000	74.83908176	168.10494035	165.98219186
 266	0.00000000	153.00000000	179.00000000	75.49074680	168.09203625	179.28007990
 267	0.00000000	153.00000000	191.00000000	76.40695363	167.75652945	191.69399858
 268	0.00000000	153.00000000	204.00000000	77.05862626	167.45329052	205.88874489
 269	0.00000000	153.00000000	217.00000000	77.85868853	166.49189651	219.90926296
 270	0.00000000	153.00000000	230.00000000	79.36849952	165.75636238	233.76850247
 271	0.00000000	153.00000000	242.00000000	79.95563641	166.70482188	247.09219873
 272	0.00000000	153.00000000	255.00000000	81.34930283	166.98225260	261.29984915
 273	0.00000000	166.00000000	0.00000000	63.80590260	186.62260830	31.98388316
 274	0.00000000	166.00000000	13.00000000	63.85751903	186.33871794	36.14552245
 275	0.00000000	166.00000000	26.00000000	63.96075189	185.89353383	42.24926412
 276	0.00000000	166.00000000	38.00000000	64.12850529	185.28056592	50.24347275
 277	0.00000000	166.00000000	51.00000000	64.79308203	184.62890089	60.95404543
 278	0.00000000	166.00000000	64.00000000	66.25126898	184.22887355	73.24539408
 279	0.00000000	166.00000000	77.00000000	67.81269640	183.57719332	86.50456980
 280	0.00000000	166.00000000	89.00000000	69.39347237	183.07393312	98.57655242
 281	0.00000000	166.00000000	102.00000000	71.38717979	182.74487078	111.17760345
 282	0.00000000	166.00000000	115.00000000	73.49058732	182.34484345	124.35289487
 283	0.00000000	166.00000000	128.00000000	75.45203447	182.41582364	135.89581668
 284	0.00000000	166.00000000	140.00000000	77.31025636	182.31903523	146.54830188
 285	0.00000000	166.00000000	153.00000000	78.51036116	182.49324828	157.69117355
 286	0.00000000	166.00000000	166.00000000	79.55560908	182.69325435	168.45981091
 287	0.00000000	166.00000000	179.00000000	81.15574121	182.47388452	179.28007990
 288	0.00000000	166.00000000	191.00000000	81.73644125	182.46098042	191.22945070
 289	0.00000000	166.00000000	204.00000000	82.71716103	182.08031684	204.66928393
 290	0.00000000	166.00000000	217.00000000	83.34302545	181.66735500	218.64466041
 291	0.00000000	166.00000000	230.00000000	84.13017601	180.42211622	232.02641755
 292	0.00000000	166.00000000	242.00000000	85.29156849	178.63484412	243.64674121
 293	0.00000000	166.00000000	255.00000000	86.07228220	179.50589418	256.96397781
 294	0.00000000	179.00000000	0.00000000	66.72872096	205.74035525	30.00307795
 295	0.00000000	179.00000000	13.00000000	66.94810599	205.45646489	34.32601668
 296	0.00000000	179.00000000	26.00000000	67.30296895	204.99834627	40.70720047
 297	0.00000000	179.00000000	38.00000000	67.78043613	204.36604500	49.14661221
 298	0.00000000	179.00000000	51.00000000	68.48371759	203.43045920	60.59273042
 299	0.00000000	179.00000000	64.00000000	69.76769149	202.61105597	73.43897089
 300	0.00000000	179.00000000	77.00000000	71.76141411	202.01746702	87.02074930
 301	0.00000000	179.00000000	89.00000000	73.72286126	201.22384161	100.07990375
 302	0.00000000	179.00000000	102.00000000	75.90369344	200.47540337	113.57780546
 303	0.00000000	179.00000000	115.00000000	78.22645560	199.72693473	126.57243937
 304	0.00000000	179.00000000	128.00000000	80.60084939	198.75912666	139.19931382
 305	0.00000000	179.00000000	140.00000000	82.46552333	198.59783292	149.50338811
