bench/lcms_compat/reference/srgb_to_RISO_MZ770_RedGreen.icc_Relative.it8
CGATS.17
ORIGINATOR	"icctrans"
#
# Data follows
#
NUMBER_OF_SETS	9261.00000000
NUMBER_OF_FIELDS	6.00000000
BEGIN_DATA_FORMAT
 SAMPLE_ID	IN_RGB_R	IN_RGB_G	IN_RGB_B	OUT_CH1	OUT_CH2
END_DATA_FORMAT
BEGIN_DATA
 0	0.00000000	0.00000000	0.00000000	1.00000000	1.00000000
 1	0.00000000	0.00000000	13.00000000	1.00000000	1.00000000
 2	0.00000000	0.00000000	26.00000000	0.99725336	1.00000000
 3	0.00000000	0.00000000	38.00000000	0.98660260	1.00000000
 4	0.00000000	0.00000000	51.00000000	0.97042799	1.00000000
 5	0.00000000	0.00000000	64.00000000	0.88264287	1.00000000
 6	0.00000000	0.00000000	77.00000000	0.85517663	1.00000000
 7	0.00000000	0.00000000	89.00000000	0.75092697	1.00000000
 8	0.00000000	0.00000000	102.00000000	0.61933321	1.00000000
 9	0.00000000	0.00000000	115.00000000	0.59563589	1.00000000
 10	0.00000000	0.00000000	128.00000000	0.54349583	1.00000000
 11	0.00000000	0.00000000	140.00000000	0.52184331	1.00000000
 12	0.00000000	0.00000000	153.00000000	0.52037841	1.00000000
 13	0.00000000	0.00000000	166.00000000	0.49550623	0.93463033
 14	0.00000000	0.00000000	179.00000000	0.48235294	0.85926604
 15	0.00000000	0.00000000	191.00000000	0.45363545	0.82819867
 16	0.00000000	0.00000000	204.00000000	0.42220187	0.80393684
 17	0.00000000	0.00000000	217.00000000	0.38736552	0.78388649
 18	0.00000000	0.00000000	230.00000000	0.36791027	0.75834286
 19	0.00000000	0.00000000	242.00000000	0.34798199	0.73298240
 20	0.00000000	0.00000000	255.00000000	0.32121766	0.70328832
 21	0.00000000	13.00000000	0.00000000	1.00000000	1.00000000
 22	0.00000000	13.00000000	13.00000000	1.00000000	1.00000000
 23	0.00000000	13.00000000	26.00000000	0.99253833	1.00000000
 24	0.00000000	13.00000000	38.00000000	0.96038759	1.00000000
 25	0.00000000	13.00000000	51.00000000	0.93060195	1.00000000
 26	0.00000000	13.00000000	64.00000000	0.88287175	1.00000000
 27	0.00000000	13.00000000	77.00000000	0.82391089	1.00000000
 28	0.00000000	13.00000000	89.00000000	0.69486535	1.00000000
 29	0.00000000	13.00000000	102.00000000	0.61799037	1.00000000
 30	0.00000000	13.00000000	115.00000000	0.58953232	1.00000000
 31	0.00000000	13.00000000	128.00000000	0.53688866	1.00000000
 32	0.00000000	13.00000000	140.00000000	0.53284502	0.99114978
 33	0.00000000	13.00000000	153.00000000	0.51738763	0.95362782
 34	0.00000000	13.00000000	166.00000000	0.49430075	0.89646751
 35	0.00000000	13.00000000	179.00000000	0.46829939	0.84571606
 36	0.00000000	13.00000000	191.00000000	0.44446480	0.81382465
 37	0.00000000	13.00000000	204.00000000	0.40836194	0.79523921
 38	0.00000000	13.00000000	217.00000000	0.37431908	0.77341878
 39	0.00000000	13.00000000	230.00000000	0.35796139	0.74731058
 40	0.00000000	13.00000000	242.00000000	0.33658350	0.72449833
 41	0.00000000	13.00000000	255.00000000	0.31483939	0.68986040
 42	0.00000000	26.00000000	0.00000000	0.92275882	1.00000000
 43	0.00000000	26.00000000	13.00000000	0.85511559	1.00000000
 44	0.00000000	26.00000000	26.00000000	0.79394215	1.00000000
 45	0.00000000	26.00000000	38.00000000	0.77627224	1.00000000
 46	0.00000000	26.00000000	51.00000000	0.83314258	1.00000000
 47	0.00000000	26.00000000	64.00000000	0.78669411	1.00000000
 48	0.00000000	26.00000000	77.00000000	0.76746774	1.00000000
 49	0.00000000	26.00000000	89.00000000	0.69700158	1.00000000
 50	0.00000000	26.00000000	102.00000000	0.57796597	1.00000000
 51	0.00000000	26.00000000	115.00000000	0.55542839	1.00000000
 52	0.00000000	26.00000000	128.00000000	0.55747312	1.00000000
 53	0.00000000	26.00000000	140.00000000	0.50287634	0.98684675
 54	0.00000000	26.00000000	153.00000000	0.51789123	0.92095828
 55	0.00000000	26.00000000	166.00000000	0.48740369	0.85955596
 56	0.00000000	26.00000000	179.00000000	0.46350804	0.82401770
 57	0.00000000	26.00000000	191.00000000	0.42398718	0.80083925
 58	0.00000000	26.00000000	204.00000000	0.39794004	0.77656215
 59	0.00000000	26.00000000	217.00000000	0.36629283	0.75469595
 60	0.00000000	26.00000000	230.00000000	0.34482339	0.73186845
 61	0.00000000	26.00000000	242.00000000	0.32318607	0.70574504
 62	0.00000000	26.00000000	255.00000000	0.30165559	0.67338061
 63	0.00000000	38.00000000	0.00000000	0.55199510	1.00000000
 64	0.00000000	38.00000000	13.00000000	0.55551994	1.00000000
 65	0.00000000	38.00000000	26.00000000	0.54168004	1.00000000
 66	0.00000000	38.00000000	38.00000000	0.56577402	1.00000000
 67	0.00000000	38.00000000	51.00000000	0.62384987	1.00000000
 68	0.00000000	38.00000000	64.00000000	0.66506445	1.00000000
 69	0.00000000	38.00000000	77.00000000	0.62659645	1.00000000
 70	0.00000000	38.00000000	89.00000000	0.62796980	1.00000000
 71	0.00000000	38.00000000	102.00000000	0.59250784	1.00000000
 72	0.00000000	38.00000000	115.00000000	0.52875561	1.00000000
 73	0.00000000	38.00000000	128.00000000	0.57143509	0.96568245
 74	0.00000000	38.00000000	140.00000000	0.54613566	0.92620736
 75	0.00000000	38.00000000	153.00000000	0.49663538	0.88363469
 76	0.00000000	38.00000000	166.00000000	0.46459144	0.83421075
 77	0.00000000	38.00000000	179.00000000	0.42824444	0.79882503
 78	0.00000000	38.00000000	191.00000000	0.39165333	0.77747768
 79	0.00000000	38.00000000	204.00000000	0.37616542	0.75143051
 80	0.00000000	38.00000000	217.00000000	0.35234606	0.72913712
 81	0.00000000	38.00000000	230.00000000	0.32712290	0.70423436
 82	0.00000000	38.00000000	242.00000000	0.30672160	0.68067443
 83	0.00000000	38.00000000	255.00000000	0.29018083	0.64019227
 84	0.00000000	51.00000000	0.00000000	0.49590296	1.00000000
 85	0.00000000	51.00000000	13.00000000	0.49010453	1.00000000
 86	0.00000000	51.00000000	26.00000000	0.49193561	1.00000000
 87	0.00000000	51.00000000	38.00000000	0.49868008	1.00000000
 88	0.00000000	51.00000000	51.00000000	0.51657891	1.00000000
 89	0.00000000	51.00000000	64.00000000	0.56131840	1.00000000
 90	0.00000000	51.00000000	77.00000000	0.56931412	1.00000000
 91	0.00000000	51.00000000	89.00000000	0.57990384	1.00000000
 92	0.00000000	51.00000000	102.00000000	0.56340885	0.99597162
 93	0.00000000	51.00000000	115.00000000	0.55675596	0.96195924
 94	0.00000000	51.00000000	128.00000000	0.51165026	0.89500266
 95	0.00000000	51.00000000	140.00000000	0.48068970	0.84312201
 96	0.00000000	51.00000000	153.00000000	0.45067522	0.80352485
 97	0.00000000	51.00000000	166.00000000	0.41544214	0.77737087
 98	0.00000000	51.00000000	179.00000000	0.38478675	0.76275271
 99	0.00000000	51.00000000	191.00000000	0.36488900	0.74287021
 100	0.00000000	51.00000000	204.00000000	0.34837872	0.71644157
 101	0.00000000	51.00000000	217.00000000	0.32504767	0.69324785
 102	0.00000000	51.00000000	230.00000000	0.30730143	0.66019684
 103	0.00000000	51.00000000	242.00000000	0.29016557	0.62963301
 104	0.00000000	51.00000000	255.00000000	0.27571526	0.58931869
 105	0.00000000	64.00000000	0.00000000	0.47785154	1.00000000
 106	0.00000000	64.00000000	13.00000000	0.47087815	1.00000000
 107	0.00000000	64.00000000	26.00000000	0.46005952	1.00000000
 108	0.00000000	64.00000000	38.00000000	0.45595482	1.00000000
 109	0.00000000	64.00000000	51.00000000	0.45452049	1.00000000
 110	0.00000000	64.00000000	64.00000000	0.47745478	1.00000000
 111	0.00000000	64.00000000	77.00000000	0.50565344	1.00000000
 112	0.00000000	64.00000000	89.00000000	0.53386742	1.00000000
 113	0.00000000	64.00000000	102.00000000	0.53446251	1.00000000
 114	0.00000000	64.00000000	115.00000000	0.50173187	0.95068282
 115	0.00000000	64.00000000	128.00000000	0.49759671	0.88241398
 116	0.00000000	64.00000000	140.00000000	0.43955138	0.83233386
 117	0.00000000	64.00000000	153.00000000	0.40766004	0.78704506
 118	0.00000000	64.00000000	166.00000000	0.38300145	0.74923325
 119	0.00000000	64.00000000	179.00000000	0.36275274	0.71651787
 120	0.00000000	64.00000000	191.00000000	0.34561685	0.68783092
 121	0.00000000	64.00000000	204.00000000	0.32733655	0.66066986
 122	0.00000000	64.00000000	217.00000000	0.30817121	0.62548256
 123	0.00000000	64.00000000	230.00000000	0.29178300	0.58667886
 124	0.00000000	64.00000000	242.00000000	0.27899596	0.55214769
 125	0.00000000	64.00000000	255.00000000	0.26671246	0.51216906
 126	0.00000000	77.00000000	0.00000000	0.45682460	1.00000000
 127	0.00000000	77.00000000	13.00000000	0.45383382	1.00000000
 128	0.00000000	77.00000000	26.00000000	0.44386968	1.00000000
 129	0.00000000	77.00000000	38.00000000	0.42243075	1.00000000
 130	0.00000000	77.00000000	51.00000000	0.40614939	1.00000000
 131	0.00000000	77.00000000	64.00000000	0.42536050	1.00000000
 132	0.00000000	77.00000000	77.00000000	0.45642787	1.00000000
 133	0.00000000	77.00000000	89.00000000	0.47209889	1.00000000
 134	0.00000000	77.00000000	102.00000000	0.47927061	0.98971540
 135	0.00000000	77.00000000	115.00000000	0.47618830	0.92649728
 136	0.00000000	77.00000000	128.00000000	0.46265355	0.85894561
 137	0.00000000	77.00000000	140.00000000	0.43105212	0.78553444
 138	0.00000000	77.00000000	153.00000000	0.38365757	0.76345462
 139	0.00000000	77.00000000	166.00000000	0.34378576	0.72455937
 140	0.00000000	77.00000000	179.00000000	0.33032730	0.68509954
 141	0.00000000	77.00000000	191.00000000	0.31123826	0.64927137
 142	0.00000000	77.00000000	204.00000000	0.28532845	0.61116958
 143	0.00000000	77.00000000	217.00000000	0.27392995	0.56542307
 144	0.00000000	77.00000000	230.00000000	0.26448461	0.52227056
 145	0.00000000	77.00000000	242.00000000	0.25745022	0.48543528
 146	0.00000000	77.00000000	255.00000000	0.25264362	0.44431219
 147	0.00000000	89.00000000	0.00000000	0.42310217	1.00000000
 148	0.00000000	89.00000000	13.00000000	0.42555887	1.00000000
 149	0.00000000	89.00000000	26.00000000	0.41998932	1.00000000
 150	0.00000000	89.00000000	38.00000000	0.40689707	1.00000000
 151	0.00000000	89.00000000	51.00000000	0.38670939	1.00000000
 152	0.00000000	89.00000000	64.00000000	0.38889143	1.00000000
 153	0.00000000	89.00000000	77.00000000	0.40265507	1.00000000
 154	0.00000000	89.00000000	89.00000000	0.42475012	1.00000000
 155	0.00000000	89.00000000	102.00000000	0.43498895	0.96621650
 156	0.00000000	89.00000000	115.00000000	0.43265432	0.90009916
 157	0.00000000	89.00000000	128.00000000	0.42037079	0.84075683
 158	0.00000000	89.00000000	140.00000000	0.39731440	0.79003584
 159	0.00000000	89.00000000	153.00000000	0.36536202	0.74294651
 160	0.00000000	89.00000000	166.00000000	0.33614099	0.69950408
 161	0.00000000	89.00000000	179.00000000	0.30208287	0.64876783
 162	0.00000000	89.00000000	191.00000000	0.28325322	0.60161746
 163	0.00000000	89.00000000	204.00000000	0.26878768	0.55054551
 164	0.00000000	89.00000000	217.00000000	0.26178378	0.49526209
 165	0.00000000	89.00000000	230.00000000	0.25239947	0.45903715
 166	0.00000000	89.00000000	242.00000000	0.24541084	0.42932785
 167	0.00000000	89.00000000	255.00000000	0.23855954	0.39751279
 168	0.00000000	102.00000000	0.00000000	0.38709086	1.00000000
 169	0.00000000	102.00000000	13.00000000	0.38699931	1.00000000
 170	0.00000000	102.00000000	26.00000000	0.38487831	1.00000000
 171	0.00000000	102.00000000	38.00000000	0.37500572	1.00000000
 172	0.00000000	102.00000000	51.00000000	0.35742733	1.00000000
 173	0.00000000	102.00000000	64.00000000	0.34493020	1.00000000
 174	0.00000000	102.00000000	77.00000000	0.35646603	1.00000000
 175	0.00000000	102.00000000	89.00000000	0.36609444	0.98844892
 176	0.00000000	102.00000000	102.00000000	0.38692302	0.98280311
 177	0.00000000	102.00000000	115.00000000	0.38770124	0.88387883
 178	0.00000000	102.00000000	128.00000000	0.38133821	0.81956208
 179	0.00000000	102.00000000	140.00000000	0.36253911	0.77401388
 180	0.00000000	102.00000000	153.00000000	0.33199054	0.72285038
 181	0.00000000	102.00000000	166.00000000	0.30406654	0.66930646
 182	0.00000000	102.00000000	179.00000000	0.27190050	0.62180513
 183	0.00000000	102.00000000	191.00000000	0.25641260	0.56122684
 184	0.00000000	102.00000000	204.00000000	0.25360495	0.48471808
 185	0.00000000	102.00000000	217.00000000	0.24745555	0.42189670
 186	0.00000000	102.00000000	230.00000000	0.24051270	0.38922712
 187	0.00000000	102.00000000	242.00000000	0.23495843	0.37486839
 188	0.00000000	102.00000000	255.00000000	0.23006028	0.36153200
 189	0.00000000	115.00000000	0.00000000	0.35069811	0.92693979
 190	0.00000000	115.00000000	13.00000000	0.34956893	0.93900967
 191	0.00000000	115.00000000	26.00000000	0.34512857	0.95251393
 192	0.00000000	115.00000000	38.00000000	0.33559167	0.96585029
 193	0.00000000	115.00000000	51.00000000	0.31625849	0.97372395
 194	0.00000000	115.00000000	64.00000000	0.29597926	0.98113984
 195	0.00000000	115.00000000	77.00000000	0.28726634	0.97238117
 196	0.00000000	115.00000000	89.00000000	0.29475853	0.93008316
 197	0.00000000	115.00000000	102.00000000	0.31226063	0.87060350
 198	0.00000000	115.00000000	115.00000000	0.31831846	0.84605175
 199	0.00000000	115.00000000	128.00000000	0.31552607	0.80140382
 200	0.00000000	115.00000000	140.00000000	0.30768293	0.76321048
 201	0.00000000	115.00000000	153.00000000	0.29411766	0.71606010
 202	0.00000000	115.00000000	166.00000000	0.27815670	0.65662622
 203	0.00000000	115.00000000	179.00000000	0.26161593	0.58699930
 204	0.00000000	115.00000000	191.00000000	0.24489205	0.52524602
 205	0.00000000	115.00000000	204.00000000	0.23341726	0.46478981
 206	0.00000000	115.00000000	217.00000000	0.23155566	0.40196842
 207	0.00000000	115.00000000	230.00000000	0.22780193	0.36816970
 208	0.00000000	115.00000000	242.00000000	0.22368200	0.35771725
 209	0.00000000	115.00000000	255.00000000	0.21989776	0.35280386
 210	0.00000000	128.00000000	0.00000000	0.29922941	0.85242999
 211	0.00000000	128.00000000	13.00000000	0.29858854	0.85778594
 212	0.00000000	128.00000000	26.00000000	0.29707789	0.86434728
 213	0.00000000	128.00000000	38.00000000	0.28783092	0.87974364
 214	0.00000000	128.00000000	51.00000000	0.26308081	0.91425955
 215	0.00000000	128.00000000	64.00000000	0.22807661	0.97337300
 216	0.00000000	128.00000000	77.00000000	0.21692225	0.93722439
 217	0.00000000	128.00000000	89.00000000	0.22789349	0.87135118
 218	0.00000000	128.00000000	102.00000000	0.24483101	0.81432819
 219	0.00000000	128.00000000	115.00000000	0.25140765	0.78521401
 220	0.00000000	128.00000000	128.00000000	0.24927138	0.77431905
 221	0.00000000	128.00000000	140.00000000	0.25249103	0.74535745
 222	0.00000000	128.00000000	153.00000000	0.24716564	0.70701152
 223	0.00000000	128.00000000	166.00000000	0.24510567	0.64592963
 224	0.00000000	128.00000000	179.00000000	0.23987183	0.57061112
 225	0.00000000	128.00000000	191.00000000	0.23486687	0.49071488
 226	0.00000000	128.00000000	204.00000000	0.23260853	0.39888608
 227	0.00000000	128.00000000	217.00000000	0.22642863	0.36467537
 228	0.00000000	128.00000000	230.00000000	0.22066072	0.35442129
 229	0.00000000	128.00000000	242.00000000	0.21480125	0.34612039
 230	0.00000000	128.00000000	255.00000000	0.21010147	0.33708706
 231	0.00000000	140.00000000	0.00000000	0.25937286	0.81899750
 232	0.00000000	140.00000000	13.00000000	0.25670251	0.82017243
 233	0.00000000	140.00000000	26.00000000	0.25145343	0.82247657
 234	0.00000000	140.00000000	38.00000000	0.24448004	0.82526892
 235	0.00000000	140.00000000	51.00000000	0.23192187	0.82980084
 236	0.00000000	140.00000000	64.00000000	0.19983216	0.84298468
 237	0.00000000	140.00000000	77.00000000	0.13324177	0.86906230
 238	0.00000000	140.00000000	89.00000000	0.18164340	0.82261389
 239	0.00000000	140.00000000	102.00000000	0.21029983	0.78445107
 240	0.00000000	140.00000000	115.00000000	0.21821927	0.76801711
 241	0.00000000	140.00000000	128.00000000	0.21812771	0.75414664
 242	0.00000000	140.00000000	140.00000000	0.21998931	0.72727549
 243	0.00000000	140.00000000	153.00000000	0.22302586	0.68297857
 244	0.00000000	140.00000000	166.00000000	0.22259861	0.62191194
 245	0.00000000	140.00000000	179.00000000	0.22233921	0.54836345
 246	0.00000000	140.00000000	191.00000000	0.22175936	0.47974366
 247	0.00000000	140.00000000	204.00000000	0.22102693	0.41341269
 248	0.00000000	140.00000000	217.00000000	0.21947052	0.36145571
 249	0.00000000	140.00000000	230.00000000	0.21434347	0.33978790
 250	0.00000000	140.00000000	242.00000000	0.20889601	0.33418784
 251	0.00000000	140.00000000	255.00000000	0.20393683	0.32315555
 252	0.00000000	153.00000000	0.00000000	0.23533989	0.79806209
 253	0.00000000	153.00000000	13.00000000	0.23260853	0.79757380
 254	0.00000000	153.00000000	26.00000000	0.22873273	0.79674983
 255	0.00000000	153.00000000	38.00000000	0.21960784	0.79723811
 256	0.00000000	153.00000000	51.00000000	0.19949645	0.80140382
 257	0.00000000	153.00000000	64.00000000	0.18091096	0.80344856
 258	0.00000000	153.00000000	77.00000000	0.16356145	0.80050355
 259	0.00000000	153.00000000	89.00000000	0.14108491	0.79278249
 260	0.00000000	153.00000000	102.00000000	0.15098803	0.77071792
 261	0.00000000	153.00000000	115.00000000	0.17871366	0.73580527
 262	0.00000000	153.00000000	128.00000000	0.19836728	0.70687419
 263	0.00000000	153.00000000	140.00000000	0.20204471	0.68474859
 264	0.00000000	153.00000000	153.00000000	0.20369269	0.64689100
 265	0.00000000	153.00000000	166.00000000	0.20451666	0.59407949
 266	0.00000000	153.00000000	179.00000000	0.20474556	0.53664452
 267	0.00000000	153.00000000	191.00000000	0.20529488	0.47074082
 268	0.00000000	153.00000000	204.00000000	0.20700389	0.40314335
 269	0.00000000	153.00000000	217.00000000	0.20994888	0.35759518
 270	0.00000000	153.00000000	230.00000000	0.20697337	0.34061188
 271	0.00000000	153.00000000	242.00000000	0.20286870	0.32036316
 272	0.00000000	153.00000000	255.00000000	0.19685665	0.30215916
 273	0.00000000	166.00000000	0.00000000	0.22195773	0.78371865
 274	0.00000000	166.00000000	13.00000000	0.22127108	0.78147554
 275	0.00000000	166.00000000	26.00000000	0.21583886	0.77953768
 276	0.00000000	166.00000000	38.00000000	0.20534065	0.77799648
 277	0.00000000	166.00000000	51.00000000	0.18638895	0.77729458
 278	0.00000000	166.00000000	64.00000000	0.15413138	0.78028536
 279	0.00000000	166.00000000	77.00000000	0.12092775	0.77941561
 280	0.00000000	166.00000000	89.00000000	0.07736324	0.78135347
 281	0.00000000	166.00000000	102.00000000	0.00721752	0.79005110
 282	0.00000000	166.00000000	115.00000000	0.01791409	0.75579458
 283	0.00000000	166.00000000	128.00000000	0.14265659	0.66593421
 284	0.00000000	166.00000000	140.00000000	0.17575341	0.62603188
 285	0.00000000	166.00000000	153.00000000	0.18957809	0.58664834
 286	0.00000000	166.00000000	166.00000000	0.19035630	0.54233617
 287	0.00000000	166.00000000	179.00000000	0.19118029	0.49326316
 288	0.00000000	166.00000000	191.00000000	0.19383535	0.44847792
 289	0.00000000	166.00000000	204.00000000	0.19598688	0.39908445
 290	0.00000000	166.00000000	217.00000000	0.19652094	0.36354619
 291	0.00000000	166.00000000	230.00000000	0.19528496	0.33446249
 292	0.00000000	166.00000000	242.00000000	0.19417106	0.31221485
 293	0.00000000	166.00000000	255.00000000	0.19124132	0.28975356
 294	0.00000000	179.00000000	0.00000000	0.20801099	0.77462423
 295	0.00000000	179.00000000	13.00000000	0.20590524	0.77183187
 296	0.00000000	179.00000000	26.00000000	0.20276189	0.76757455
 297	0.00000000	179.00000000	38.00000000	0.19902343	0.76165408
 298	0.00000000	179.00000000	51.00000000	0.19703975	0.75269705
 299	0.00000000	179.00000000	64.00000000	0.17265584	0.75049973
 300	0.00000000	179.00000000	77.00000000	0.11372549	0.75957882
 301	0.00000000	179.00000000	89.00000000	0.03743038	0.76845962
 302	0.00000000	179.00000000	102.00000000	0.02264439	0.73749906
 303	0.00000000	179.00000000	115.00000000	0.04690623	0.68154418
 304	0.00000000	179.00000000	128.00000000	0.08227665	0.61976045
 305	0.00000000	179.00000000	140.00000000	0.11123827	0.57444113
 306	0.00000000	179.00000000	153.00000000	0.15884642	0.52341497
 307	0.00000000	179.00000000	166.00000000	0.17514305	0.48033875
 308	0.00000000	179.00000000	179.00000000	0.17511253	0.44362554
 309	0.00000000	179.00000000	191.00000000	0.17608911	0.41402304
 310	0.00000000	179.00000000	204.00000000	0.17984283	0.38393226
 311	0.00000000	179.00000000	217.00000000	0.18065156	0.36366826
 312	0.00000000	179.00000000	230.00000000	0.17920196	0.34270236
 313	0.00000000	179.00000000	242.00000000	0.17697413	0.31862363
 314	0.00000000	179.00000000	255.00000000	0.17833219	0.28165102
 315	0.00000000	191.00000000	0.00000000	0.20189212	0.76882583
 316	0.00000000	191.00000000	13.00000000	0.19926757	0.76620126
 317	0.00000000	191.00000000	26.00000000	0.19482720	0.76073855
 318	0.00000000	191.00000000	38.00000000	0.18916610	0.75321585
 319	0.00000000	191.00000000	51.00000000	0.17891203	0.74328220
 320	0.00000000	191.00000000	64.00000000	0.16000611	0.73313498
 321	0.00000000	191.00000000	77.00000000	0.11715877	0.73199052
 322	0.00000000	191.00000000	89.00000000	0.06486610	0.73340964
 323	0.00000000	191.00000000	102.00000000	0.01240558	0.72285038
 324	0.00000000	191.00000000	115.00000000	0.00581369	0.67153430
 325	0.00000000	191.00000000	128.00000000	0.02250706	0.60093081
 326	0.00000000	191.00000000	140.00000000	0.04327459	0.53655297
 327	0.00000000	191.00000000	153.00000000	0.06536965	0.48763257
 328	0.00000000	191.00000000	166.00000000	0.11010911	0.44534981
 329	0.00000000	191.00000000	179.00000000	0.12619211	0.41568628
 330	0.00000000	191.00000000	191.00000000	0.13519493	0.39262989
 331	0.00000000	191.00000000	204.00000000	0.14236668	0.37261006
 332	0.00000000	191.00000000	217.00000000	0.14793621	0.35558099
 333	0.00000000	191.00000000	230.00000000	0.15164416	0.33995575
 334	0.00000000	191.00000000	242.00000000	0.15121691	0.31946290
 335	0.00000000	191.00000000	255.00000000	0.15532158	0.29155412
 336	0.00000000	204.00000000	0.00000000	0.19670404	0.75962460
 337	0.00000000	204.00000000	13.00000000	0.19465934	0.75681698
 338	0.00000000	204.00000000	26.00000000	0.19153124	0.75248343
 339	0.00000000	204.00000000	38.00000000	0.18384069	0.74605936
 340	0.00000000	204.00000000	51.00000000	0.16972610	0.73617148
 341	0.00000000	204.00000000	64.00000000	0.14341955	0.72576487
 342	0.00000000	204.00000000	77.00000000	0.09765774	0.71548027
 343	0.00000000	204.00000000	89.00000000	0.05680934	0.70673686
 344	0.00000000	204.00000000	102.00000000	0.02183566	0.69564354
 345	0.00000000	204.00000000	115.00000000	0.00152590	0.68644238
 346	0.00000000	204.00000000	128.00000000	0.00000000	0.61947054
 347	0.00000000	204.00000000	140.00000000	0.00433356	0.52915233
 348	0.00000000	204.00000000	153.00000000	0.01802091	0.44568551
 349	0.00000000	204.00000000	166.00000000	0.03271534	0.40431830
 350	0.00000000	204.00000000	179.00000000	0.06028840	0.38921186
 351	0.00000000	204.00000000	191.00000000	0.07162585	0.37680629
 352	0.00000000	204.00000000	204.00000000	0.08261234	0.36423284
 353	0.00000000	204.00000000	217.00000000	0.09416343	0.35240710
 354	0.00000000	204.00000000	230.00000000	0.10673686	0.34131381
 355	0.00000000	204.00000000	242.00000000	0.11067369	0.32579538
 356	0.00000000	204.00000000	255.00000000	0.11012436	0.29900053
 357	0.00000000	217.00000000	0.00000000	0.18814375	0.74686807
 358	0.00000000	217.00000000	13.00000000	0.18501563	0.74422830
 359	0.00000000	217.00000000	26.00000000	0.18027009	0.74013883
 360	0.00000000	217.00000000	38.00000000	0.17373922	0.73435569
 361	0.00000000	217.00000000	51.00000000	0.15716793	0.72603953
 362	0.00000000	217.00000000	64.00000000	0.12191959	0.71549553
 363	0.00000000	217.00000000	77.00000000	0.08506905	0.70124364
 364	0.00000000	217.00000000	89.00000000	0.04963760	0.68519109
 365	0.00000000	217.00000000	102.00000000	0.02618448	0.67420465
 366	0.00000000	217.00000000	115.00000000	0.00927749	0.64911878
 367	0.00000000	217.00000000	128.00000000	0.00000000	0.59995425
 368	0.00000000	217.00000000	140.00000000	0.00000000	0.52587169
 369	0.00000000	217.00000000	153.00000000	0.00000000	0.44672313
 370	0.00000000	217.00000000	166.00000000	0.00245670	0.39226368
 371	0.00000000	217.00000000	179.00000000	0.01158160	0.36710155
 372	0.00000000	217.00000000	191.00000000	0.02555886	0.36314946
 373	0.00000000	217.00000000	204.00000000	0.03611811	0.35667965
 374	0.00000000	217.00000000	217.00000000	0.04661631	0.34778363
 375	0.00000000	217.00000000	230.00000000	0.05503929	0.33551538
 376	0.00000000	217.00000000	242.00000000	0.06196689	0.32034791
 377	0.00000000	217.00000000	255.00000000	0.06887922	0.29797819
 378	0.00000000	230.00000000	0.00000000	0.17557031	0.72744334
