bench/lcms_compat/reference/srgb_to_sRGB_v4_ICC_preference.icc_Absolute.it8
CGATS.17
ORIGINATOR	"icctrans"
#
# Data follows
#
NUMBER_OF_SETS	9261.00000000
NUMBER_OF_FIELDS	7.00000000
BEGIN_DATA_FORMAT
 SAMPLE_ID	IN_RGB_R	IN_RGB_G	IN_RGB_B	OUT_RGB_R	OUT_RGB_G	OUT_RGB_B
END_DATA_FORMAT
BEGIN_DATA
 0	0.00000000	0.00000000	0.00000000	-41.94537923	-41.76044315	-41.71383105
 1	0.00000000	0.00000000	13.00000000	-41.94537923	-41.76044315	-28.32983773
 2	0.00000000	0.00000000	26.00000000	-41.94537923	-41.46221995	-7.29820758
 3	0.00000000	0.00000000	38.00000000	-41.94537923	-41.76044315	19.92509723
 4	0.00000000	0.00000000	51.00000000	-41.41151927	-41.76044315	39.58581224
 5	0.00000000	0.00000000	64.00000000	-41.94537923	-41.46221995	55.77273086
 6	0.00000000	0.00000000	77.00000000	-41.41151927	-41.76044315	70.71235880
 7	0.00000000	0.00000000	89.00000000	-41.94537923	-41.46221995	83.92970636
 8	0.00000000	0.00000000	102.00000000	-41.94537923	-41.76044315	97.90523484
 9	0.00000000	0.00000000	115.00000000	-41.41151927	-41.76044315	111.65776089
 10	0.00000000	0.00000000	128.00000000	-41.94537923	-41.46221995	125.23580030
 11	0.00000000	0.00000000	140.00000000	-41.94537923	-41.76044315	137.69018680
 12	0.00000000	0.00000000	153.00000000	-41.41151927	-41.76044315	151.10214472
 13	0.00000000	0.00000000	166.00000000	-42.47923918	-41.76044315	164.44871575
 14	0.00000000	0.00000000	179.00000000	-41.94537923	-41.76044315	177.75698483
 15	0.00000000	0.00000000	191.00000000	-41.94537923	-41.76044315	190.00559717
 16	0.00000000	0.00000000	204.00000000	-41.94537923	-41.76044315	203.24443638
 17	0.00000000	0.00000000	217.00000000	-41.94537923	-41.76044315	216.46409422
 18	0.00000000	0.00000000	230.00000000	-41.94537923	-41.76044315	229.65941817
 19	0.00000000	0.00000000	242.00000000	-41.94537923	-41.76044315	241.82820439
 20	0.00000000	0.00000000	255.00000000	-42.47923918	-41.76044315	255.00629246
 21	0.00000000	13.00000000	0.00000000	-41.94537923	-28.34042206	-41.71383105
 22	0.00000000	13.00000000	13.00000000	-41.94537923	-28.34042206	-28.32983773
 23	0.00000000	13.00000000	26.00000000	-41.94537923	-28.34042206	-7.29820758
 24	0.00000000	13.00000000	38.00000000	-41.94537923	-28.34042206	19.92509723
 25	0.00000000	13.00000000	51.00000000	-41.94537923	-28.34042206	39.64233041
 26	0.00000000	13.00000000	64.00000000	-41.41151927	-28.34042206	55.77273086
 27	0.00000000	13.00000000	77.00000000	-41.94537923	-28.34042206	70.74214920
 28	0.00000000	13.00000000	89.00000000	-41.94537923	-28.04220077	83.95402506
 29	0.00000000	13.00000000	102.00000000	-41.41151927	-28.34042206	97.90523484
 30	0.00000000	13.00000000	115.00000000	-41.94537923	-28.04220077	111.65776089
 31	0.00000000	13.00000000	128.00000000	-41.41151927	-28.34042206	125.25065750
 32	0.00000000	13.00000000	140.00000000	-41.94537923	-28.63864526	137.69018680
 33	0.00000000	13.00000000	153.00000000	-41.94537923	-28.34042206	151.09044135
 34	0.00000000	13.00000000	166.00000000	-41.94537923	-28.34042206	164.45921838
 35	0.00000000	13.00000000	179.00000000	-41.41151927	-28.04220077	177.75698483
 36	0.00000000	13.00000000	191.00000000	-41.41151927	-28.34042206	190.00559717
 37	0.00000000	13.00000000	204.00000000	-41.94537923	-28.34042206	203.24443638
 38	0.00000000	13.00000000	217.00000000	-41.41151927	-28.34042206	216.45675302
 39	0.00000000	13.00000000	230.00000000	-41.94537923	-28.63864526	229.66621220
 40	0.00000000	13.00000000	242.00000000	-41.41151927	-28.34042206	241.83454245
 41	0.00000000	13.00000000	255.00000000	-41.94537923	-28.34042206	255.00629246
 42	0.00000000	26.00000000	0.00000000	-41.94537923	-7.16603120	-41.88764513
 43	0.00000000	26.00000000	13.00000000	-41.94537923	-7.46425392	-28.32983773
 44	0.00000000	26.00000000	26.00000000	-41.94537923	-7.46425392	-6.95041034
 45	0.00000000	26.00000000	38.00000000	-41.94537923	-7.16603120	19.81763329
 46	0.00000000	26.00000000	51.00000000	-41.94537923	-7.46425392	39.64233041
 47	0.00000000	26.00000000	64.00000000	-41.41151927	-7.16603120	55.81180416
 48	0.00000000	26.00000000	77.00000000	-41.94537923	-7.46425392	70.71235880
 49	0.00000000	26.00000000	89.00000000	-41.94537923	-7.16603120	83.92970636
 50	0.00000000	26.00000000	102.00000000	-41.94537923	-7.16603120	97.90523484
 51	0.00000000	26.00000000	115.00000000	-42.47923918	-7.46425392	111.65776089
 52	0.00000000	26.00000000	128.00000000	-41.94537923	-7.46425392	125.25065750
 53	0.00000000	26.00000000	140.00000000	-41.94537923	-7.46425392	137.67700911
 54	0.00000000	26.00000000	153.00000000	-42.47923918	-7.16603120	151.10214472
 55	0.00000000	26.00000000	166.00000000	-41.41151927	-7.46425392	164.45921838
 56	0.00000000	26.00000000	179.00000000	-41.94537923	-7.16603120	177.75698483
 57	0.00000000	26.00000000	191.00000000	-41.94537923	-7.46425392	190.00559717
 58	0.00000000	26.00000000	204.00000000	-41.94537923	-7.16603120	203.25241596
 59	0.00000000	26.00000000	217.00000000	-41.41151927	-7.16603120	216.47143543
 60	0.00000000	26.00000000	230.00000000	-42.47923918	-7.16603120	229.66621220
 61	0.00000000	26.00000000	242.00000000	-41.94537923	-7.46425392	241.83454245
 62	0.00000000	26.00000000	255.00000000	-41.94537923	-7.16603120	255.00036478
 63	0.00000000	38.00000000	0.00000000	-41.94537923	19.92986787	-41.71383105
 64	0.00000000	38.00000000	13.00000000	-42.47923918	19.92986787	-28.32983773
 65	0.00000000	38.00000000	26.00000000	-41.94537923	19.74522628	-7.29820758
 66	0.00000000	38.00000000	38.00000000	-41.94537923	19.92986787	19.92509723
 67	0.00000000	38.00000000	51.00000000	-41.94537923	19.92986787	39.64233041
 68	0.00000000	38.00000000	64.00000000	-41.94537923	19.74522628	55.77273086
 69	0.00000000	38.00000000	77.00000000	-41.94537923	20.11311304	70.71235880
 70	0.00000000	38.00000000	89.00000000	-42.47923918	19.92986787	83.92970636
 71	0.00000000	38.00000000	102.00000000	-42.47923918	19.74522628	97.92541176
 72	0.00000000	38.00000000	115.00000000	-41.94537923	19.92986787	111.64060101
 73	0.00000000	38.00000000	128.00000000	-41.94537923	19.74522628	125.23580030
 74	0.00000000	38.00000000	140.00000000	-41.94537923	19.92986787	137.69018680
 75	0.00000000	38.00000000	153.00000000	-41.94537923	19.92986787	151.10214472
 76	0.00000000	38.00000000	166.00000000	-41.94537923	20.11311304	164.45921838
 77	0.00000000	38.00000000	179.00000000	-42.47923918	19.92986787	177.75698483
 78	0.00000000	38.00000000	191.00000000	-41.94537923	19.92986787	190.00559717
 79	0.00000000	38.00000000	204.00000000	-42.47923918	19.92986787	203.25241596
 80	0.00000000	38.00000000	217.00000000	-41.94537923	19.92986787	216.45675302
 81	0.00000000	38.00000000	230.00000000	-41.41151927	19.74522628	229.66621220
 82	0.00000000	38.00000000	242.00000000	-42.47923918	19.92986787	241.83454245
 83	0.00000000	38.00000000	255.00000000	-41.41151927	20.11311304	255.00036478
 84	0.00000000	51.00000000	0.00000000	-41.94537923	39.56064999	-41.71383105
 85	0.00000000	51.00000000	13.00000000	-41.94537923	39.56064999	-28.32983773
 86	0.00000000	51.00000000	26.00000000	-41.41151927	39.56064999	-7.12422394
 87	0.00000000	51.00000000	38.00000000	-41.94537923	39.56064999	19.92509723
 88	0.00000000	51.00000000	51.00000000	-41.41151927	39.56064999	39.64233041
 89	0.00000000	51.00000000	64.00000000	-41.94537923	39.65763599	55.81180416
 90	0.00000000	51.00000000	77.00000000	-41.41151927	39.56064999	70.68255320
 91	0.00000000	51.00000000	89.00000000	-41.94537923	39.65763599	83.90538007
 92	0.00000000	51.00000000	102.00000000	-41.94537923	39.65763599	97.90523484
 93	0.00000000	51.00000000	115.00000000	-41.94537923	39.65763599	111.64060101
 94	0.00000000	51.00000000	128.00000000	-41.94537923	39.56064999	125.23580030
 95	0.00000000	51.00000000	140.00000000	-41.94537923	39.65763599	137.69018680
 96	0.00000000	51.00000000	153.00000000	-41.41151927	39.56064999	151.11384809
 97	0.00000000	51.00000000	166.00000000	-42.47923918	39.56064999	164.44871575
 98	0.00000000	51.00000000	179.00000000	-41.94537923	39.65763599	177.76646912
 99	0.00000000	51.00000000	191.00000000	-41.94537923	39.56064999	190.01429111
 100	0.00000000	51.00000000	204.00000000	-41.94537923	39.56064999	203.24443638
 101	0.00000000	51.00000000	217.00000000	-41.94537923	39.56064999	216.47143543
 102	0.00000000	51.00000000	230.00000000	-42.47923918	39.56064999	229.66621220
 103	0.00000000	51.00000000	242.00000000	-41.94537923	39.56064999	241.83454245
 104	0.00000000	51.00000000	255.00000000	-42.47923918	39.65763599	255.00629246
 105	0.00000000	64.00000000	0.00000000	-41.41151927	55.79505466	-41.88764513
 106	0.00000000	64.00000000	13.00000000	-41.94537923	55.72796546	-28.32983773
 107	0.00000000	64.00000000	26.00000000	-41.94537923	55.86205266	-7.12422394
 108	0.00000000	64.00000000	38.00000000	-41.94537923	55.72796546	19.92509723
 109	0.00000000	64.00000000	51.00000000	-41.94537923	55.79505466	39.69876878
 110	0.00000000	64.00000000	64.00000000	-42.47923918	55.86205266	55.81180416
 111	0.00000000	64.00000000	77.00000000	-41.94537923	55.79505466	70.71235880
 112	0.00000000	64.00000000	89.00000000	-41.94537923	55.79505466	83.92970636
 113	0.00000000	64.00000000	102.00000000	-41.94537923	55.79505466	97.90523484
 114	0.00000000	64.00000000	115.00000000	-41.94537923	55.79505466	111.65776089
 115	0.00000000	64.00000000	128.00000000	-41.94537923	55.79505466	125.25065750
 116	0.00000000	64.00000000	140.00000000	-41.41151927	55.79505466	137.69018680
 117	0.00000000	64.00000000	153.00000000	-42.47923918	55.79505466	151.10214472
 118	0.00000000	64.00000000	166.00000000	-41.94537923	55.79505466	164.45921838
 119	0.00000000	64.00000000	179.00000000	-41.94537923	55.79505466	177.74748534
 120	0.00000000	64.00000000	191.00000000	-41.94537923	55.79505466	190.00559717
 121	0.00000000	64.00000000	204.00000000	-41.94537923	55.79505466	203.24443638
 122	0.00000000	64.00000000	217.00000000	-42.47923918	55.79505466	216.45675302
 123	0.00000000	64.00000000	230.00000000	-41.94537923	55.72796546	229.66621220
 124	0.00000000	64.00000000	242.00000000	-41.94537923	55.79505466	241.83454245
 125	0.00000000	64.00000000	255.00000000	-41.94537923	55.79505466	255.00036478
 126	0.00000000	77.00000000	0.00000000	-41.94537923	70.72789237	-41.88764513
 127	0.00000000	77.00000000	13.00000000	-41.94537923	70.72789237	-28.32983773
 128	0.00000000	77.00000000	26.00000000	-41.94537923	70.67676231	-7.12422394
 129	0.00000000	77.00000000	38.00000000	-42.47923918	70.72789237	19.92509723
 130	0.00000000	77.00000000	51.00000000	-41.94537923	70.72789237	39.64233041
 131	0.00000000	77.00000000	64.00000000	-41.41151927	70.67676231	55.77273086
 132	0.00000000	77.00000000	77.00000000	-41.94537923	70.72789237	70.68255320
 133	0.00000000	77.00000000	89.00000000	-41.94537923	70.67676231	83.90538007
 134	0.00000000	77.00000000	102.00000000	-41.94537923	70.67676231	97.90523484
 135	0.00000000	77.00000000	115.00000000	-42.47923918	70.67676231	111.64060101
 136	0.00000000	77.00000000	128.00000000	-41.94537923	70.67676231	125.25065750
 137	0.00000000	77.00000000	140.00000000	-41.41151927	70.67676231	137.67700911
 138	0.00000000	77.00000000	153.00000000	-41.94537923	70.72789237	151.09044135
 139	0.00000000	77.00000000	166.00000000	-41.94537923	70.77898443	164.44871575
 140	0.00000000	77.00000000	179.00000000	-41.94537923	70.72789237	177.75698483
 141	0.00000000	77.00000000	191.00000000	-41.94537923	70.72789237	189.99688804
 142	0.00000000	77.00000000	204.00000000	-41.94537923	70.72789237	203.24443638
 143	0.00000000	77.00000000	217.00000000	-41.94537923	70.72789237	216.47143543
 144	0.00000000	77.00000000	230.00000000	-42.47923918	70.72789237	229.66621220
 145	0.00000000	77.00000000	242.00000000	-41.94537923	70.72789237	241.82820439
 146	0.00000000	77.00000000	255.00000000	-41.94537923	70.72789237	255.00629246
 147	0.00000000	89.00000000	0.00000000	-41.94537923	83.97008300	-41.71383105
 148	0.00000000	89.00000000	13.00000000	-41.94537923	83.97008300	-28.32983773
 149	0.00000000	89.00000000	26.00000000	-41.41151927	83.88660908	-7.47202118
 150	0.00000000	89.00000000	38.00000000	-41.94537923	83.92836124	19.92509723
 151	0.00000000	89.00000000	51.00000000	-41.41151927	83.92836124	39.58581224
 152	0.00000000	89.00000000	64.00000000	-41.94537923	83.88660908	55.73361956
 153	0.00000000	89.00000000	77.00000000	-41.94537923	83.92836124	70.71235880
 154	0.00000000	89.00000000	89.00000000	-41.94537923	83.88660908	83.95402506
 155	0.00000000	89.00000000	102.00000000	-41.94537923	83.92836124	97.90523484
 156	0.00000000	89.00000000	115.00000000	-41.94537923	83.88660908	111.65776089
 157	0.00000000	89.00000000	128.00000000	-41.94537923	83.92836124	125.25065750
 158	0.00000000	89.00000000	140.00000000	-41.94537923	83.97008300	137.69018680
 159	0.00000000	89.00000000	153.00000000	-41.41151927	83.97008300	151.10214472
 160	0.00000000	89.00000000	166.00000000	-42.47923918	83.88660908	164.46972102
 161	0.00000000	89.00000000	179.00000000	-41.94537923	83.88660908	177.75698483
 162	0.00000000	89.00000000	191.00000000	-41.94537923	83.92836124	189.99688804
 163	0.00000000	89.00000000	204.00000000	-41.94537923	83.92836124	203.24443638
 164	0.00000000	89.00000000	217.00000000	-41.94537923	83.92836124	216.45675302
 165	0.00000000	89.00000000	230.00000000	-41.94537923	83.92836124	229.66621220
 166	0.00000000	89.00000000	242.00000000	-41.94537923	83.97008300	241.83454245
 167	0.00000000	89.00000000	255.00000000	-41.94537923	83.92836124	255.00629246
 168	0.00000000	102.00000000	0.00000000	-41.94537923	97.87181944	-41.71383105
 169	0.00000000	102.00000000	13.00000000	-41.41151927	97.87181944	-28.15602366
 170	0.00000000	102.00000000	26.00000000	-41.94537923	97.90645078	-7.29820758
 171	0.00000000	102.00000000	38.00000000	-42.47923918	97.90645078	19.92509723
 172	0.00000000	102.00000000	51.00000000	-41.94537923	97.90645078	39.58581224
 173	0.00000000	102.00000000	64.00000000	-41.94537923	97.90645078	55.81180416
 174	0.00000000	102.00000000	77.00000000	-41.94537923	97.94106692	70.68255320
 175	0.00000000	102.00000000	89.00000000	-41.94537923	97.90645078	83.92970636
 176	0.00000000	102.00000000	102.00000000	-41.41151927	97.90645078	97.90523484
 177	0.00000000	102.00000000	115.00000000	-41.94537923	97.90645078	111.65776089
 178	0.00000000	102.00000000	128.00000000	-41.94537923	97.90645078	125.25065750
 179	0.00000000	102.00000000	140.00000000	-42.47923918	97.90645078	137.69018680
 180	0.00000000	102.00000000	153.00000000	-41.94537923	97.87181944	151.10214472
 181	0.00000000	102.00000000	166.00000000	-42.47923918	97.90645078	164.45921838
 182	0.00000000	102.00000000	179.00000000	-41.94537923	97.87181944	177.75698483
 183	0.00000000	102.00000000	191.00000000	-41.41151927	97.87181944	190.00559717
 184	0.00000000	102.00000000	204.00000000	-41.94537923	97.90645078	203.24443638
 185	0.00000000	102.00000000	217.00000000	-41.94537923	97.94106692	216.46409422
 186	0.00000000	102.00000000	230.00000000	-41.94537923	97.90645078	229.66621220
 187	0.00000000	102.00000000	242.00000000	-41.94537923	97.87181944	241.83454245
 188	0.00000000	102.00000000	255.00000000	-41.94537923	97.90645078	255.00629246
 189	0.00000000	115.00000000	0.00000000	-42.47923918	111.66235104	-41.71383105
 190	0.00000000	115.00000000	13.00000000	-41.94537923	111.66235104	-28.50364991
 191	0.00000000	115.00000000	26.00000000	-41.94537923	111.66235104	-7.29820758
 192	0.00000000	115.00000000	38.00000000	-41.94537923	111.66235104	19.92509723
 193	0.00000000	115.00000000	51.00000000	-42.47923918	111.63290262	39.64233041
 194	0.00000000	115.00000000	64.00000000	-41.94537923	111.66235104	55.77273086
 195	0.00000000	115.00000000	77.00000000	-42.47923918	111.66235104	70.74214920
 196	0.00000000	115.00000000	89.00000000	-41.94537923	111.63290262	83.92970636
 197	0.00000000	115.00000000	102.00000000	-41.94537923	111.66235104	97.90523484
 198	0.00000000	115.00000000	115.00000000	-41.41151927	111.63290262	111.64060101
 199	0.00000000	115.00000000	128.00000000	-42.47923918	111.66235104	125.23580030
 200	0.00000000	115.00000000	140.00000000	-41.41151927	111.66235104	137.70336449
 201	0.00000000	115.00000000	153.00000000	-42.47923918	111.63290262	151.10214472
 202	0.00000000	115.00000000	166.00000000	-41.94537923	111.63290262	164.45921838
 203	0.00000000	115.00000000	179.00000000	-41.94537923	111.66235104	177.74748534
 204	0.00000000	115.00000000	191.00000000	-42.47923918	111.63290262	190.00559717
 205	0.00000000	115.00000000	204.00000000	-41.41151927	111.63290262	203.25241596
 206	0.00000000	115.00000000	217.00000000	-41.94537923	111.63290262	216.46409422
 207	0.00000000	115.00000000	230.00000000	-41.94537923	111.66235104	229.66621220
 208	0.00000000	115.00000000	242.00000000	-41.94537923	111.63290262	241.83454245
 209	0.00000000	115.00000000	255.00000000	-41.94537923	111.63290262	255.00629246
 210	0.00000000	128.00000000	0.00000000	-41.41151927	125.25067270	-41.54002078
 211	0.00000000	128.00000000	13.00000000	-41.94537923	125.22516847	-28.15602366
 212	0.00000000	128.00000000	26.00000000	-42.47923918	125.27616933	-7.29820758
 213	0.00000000	128.00000000	38.00000000	-41.94537923	125.25067270	19.92509723
 214	0.00000000	128.00000000	51.00000000	-42.47923918	125.25067270	39.58581224
 215	0.00000000	128.00000000	64.00000000	-42.47923918	125.25067270	55.77273086
 216	0.00000000	128.00000000	77.00000000	-41.94537923	125.25067270	70.74214920
 217	0.00000000	128.00000000	89.00000000	-42.47923918	125.25067270	83.95402506
 218	0.00000000	128.00000000	102.00000000	-41.94537923	125.22516847	97.90523484
 219	0.00000000	128.00000000	115.00000000	-42.47923918	125.25067270	111.65776089
 220	0.00000000	128.00000000	128.00000000	-41.94537923	125.22516847	125.25065750
 221	0.00000000	128.00000000	140.00000000	-42.47923918	125.25067270	137.70336449
 222	0.00000000	128.00000000	153.00000000	-42.47923918	125.25067270	151.11384809
 223	0.00000000	128.00000000	166.00000000	-41.94537923	125.25067270	164.44871575
 224	0.00000000	128.00000000	179.00000000	-41.94537923	125.22516847	177.74748534
 225	0.00000000	128.00000000	191.00000000	-41.94537923	125.22516847	190.00559717
 226	0.00000000	128.00000000	204.00000000	-41.94537923	125.25067270	203.25241596
 227	0.00000000	128.00000000	217.00000000	-41.94537923	125.25067270	216.46409422
 228	0.00000000	128.00000000	230.00000000	-41.94537923	125.25067270	229.65941817
 229	0.00000000	128.00000000	242.00000000	-42.47923918	125.25067270	241.82820439
 230	0.00000000	128.00000000	255.00000000	-41.94537923	125.25067270	255.00036478
 231	0.00000000	140.00000000	0.00000000	-42.47923918	137.69652486	-41.71383105
 232	0.00000000	140.00000000	13.00000000	-41.94537923	137.71914124	-28.50364991
 233	0.00000000	140.00000000	26.00000000	-41.94537923	137.69652486	-7.12422394
 234	0.00000000	140.00000000	38.00000000	-42.47923918	137.71914124	19.92509723
 235	0.00000000	140.00000000	51.00000000	-42.47923918	137.69652486	39.64233041
 236	0.00000000	140.00000000	64.00000000	-41.94537923	137.67389327	55.81180416
 237	0.00000000	140.00000000	77.00000000	-42.47923918	137.69652486	70.71235880
 238	0.00000000	140.00000000	89.00000000	-41.94537923	137.67389327	83.92970636
 239	0.00000000	140.00000000	102.00000000	-41.94537923	137.69652486	97.92541176
 240	0.00000000	140.00000000	115.00000000	-41.94537923	137.69652486	111.65776089
 241	0.00000000	140.00000000	128.00000000	-42.47923918	137.69652486	125.23580030
 242	0.00000000	140.00000000	140.00000000	-41.41151927	137.69652486	137.67700911
 243	0.00000000	140.00000000	153.00000000	-42.47923918	137.71914124	151.09044135
 244	0.00000000	140.00000000	166.00000000	-41.94537923	137.67389327	164.45921838
 245	0.00000000	140.00000000	179.00000000	-41.94537923	137.69652486	177.75698483
 246	0.00000000	140.00000000	191.00000000	-42.47923918	137.71914124	190.00559717
 247	0.00000000	140.00000000	204.00000000	-41.41151927	137.69652486	203.25241596
 248	0.00000000	140.00000000	217.00000000	-41.94537923	137.69652486	216.46409422
 249	0.00000000	140.00000000	230.00000000	-42.47923918	137.69652486	229.65941817
 250	0.00000000	140.00000000	242.00000000	-41.94537923	137.71914124	241.83454245
 251	0.00000000	140.00000000	255.00000000	-41.94537923	137.69652486	255.00036478
 252	0.00000000	153.00000000	0.00000000	-42.47923918	151.10693246	-41.88764513
 253	0.00000000	153.00000000	13.00000000	-41.94537923	151.10693246	-28.32983773
 254	0.00000000	153.00000000	26.00000000	-41.94537923	151.08683914	-7.12422394
 255	0.00000000	153.00000000	38.00000000	-41.41151927	151.10693246	19.92509723
 256	0.00000000	153.00000000	51.00000000	-41.94537923	151.10693246	39.64233041
 257	0.00000000	153.00000000	64.00000000	-41.94537923	151.08683914	55.81180416
 258	0.00000000	153.00000000	77.00000000	-41.41151927	151.08683914	70.68255320
 259	0.00000000	153.00000000	89.00000000	-42.47923918	151.10693246	83.90538007
 260	0.00000000	153.00000000	102.00000000	-41.94537923	151.08683914	97.92541176
 261	0.00000000	153.00000000	115.00000000	-41.94537923	151.10693246	111.64060101
 262	0.00000000	153.00000000	128.00000000	-41.94537923	151.08683914	125.23580030
 263	0.00000000	153.00000000	140.00000000	-41.94537923	151.10693246	137.67700911
 264	0.00000000	153.00000000	153.00000000	-41.94537923	151.10693246	151.09044135
 265	0.00000000	153.00000000	166.00000000	-41.94537923	151.08683914	164.44871575
 266	0.00000000	153.00000000	179.00000000	-41.94537923	151.10693246	177.75698483
 267	0.00000000	153.00000000	191.00000000	-41.94537923	151.10693246	190.00559717
 268	0.00000000	153.00000000	204.00000000	-41.94537923	151.12702578	203.24443638
 269	0.00000000	153.00000000	217.00000000	-41.94537923	151.10693246	216.46409422
 270	0.00000000	153.00000000	230.00000000	-41.41151927	151.10693246	229.66621220
 271	0.00000000	153.00000000	242.00000000	-41.94537923	151.10693246	241.83454245
 272	0.00000000	153.00000000	255.00000000	-41.94537923	151.12702578	255.00629246
 273	0.00000000	166.00000000	0.00000000	-41.94537923	164.46538925	-41.71383105
 274	0.00000000	166.00000000	13.00000000	-41.94537923	164.44737822	-28.32983773
 275	0.00000000	166.00000000	26.00000000	-41.94537923	164.46538925	-7.29820758
 276	0.00000000	166.00000000	38.00000000	-41.94537923	164.44737822	19.92509723
 277	0.00000000	166.00000000	51.00000000	-41.94537923	164.46538925	39.58581224
 278	0.00000000	166.00000000	64.00000000	-41.94537923	164.44737822	55.77273086
 279	0.00000000	166.00000000	77.00000000	-41.94537923	164.44737822	70.71235880
 280	0.00000000	166.00000000	89.00000000	-41.94537923	164.46538925	83.92970636
 281	0.00000000	166.00000000	102.00000000	-41.94537923	164.42935199	97.90523484
 282	0.00000000	166.00000000	115.00000000	-41.94537923	164.46538925	111.65776089
 283	0.00000000	166.00000000	128.00000000	-41.94537923	164.42935199	125.25065750
 284	0.00000000	166.00000000	140.00000000	-41.94537923	164.46538925	137.69018680
 285	0.00000000	166.00000000	153.00000000	-41.94537923	164.46538925	151.10214472
 286	0.00000000	166.00000000	166.00000000	-42.47923918	164.46538925	164.44871575
 287	0.00000000	166.00000000	179.00000000	-42.47923918	164.44737822	177.75698483
 288	0.00000000	166.00000000	191.00000000	-41.94537923	164.46538925	190.00559717
 289	0.00000000	166.00000000	204.00000000	-42.47923918	164.46538925	203.24443638
 290	0.00000000	166.00000000	217.00000000	-42.47923918	164.46538925	216.46409422
 291	0.00000000	166.00000000	230.00000000	-41.94537923	164.44737822	229.65941817
 292	0.00000000	166.00000000	242.00000000	-42.47923918	164.46538925	241.82820439
 293	0.00000000	166.00000000	255.00000000	-42.47923918	164.46538925	255.00629246
 294	0.00000000	179.00000000	0.00000000	-41.94537923	177.74768293	-41.71383105
 295	0.00000000	179.00000000	13.00000000	-41.94537923	177.76397645	-28.15602366
 296	0.00000000	179.00000000	26.00000000	-41.94537923	177.76397645	-7.29820758
 297	0.00000000	179.00000000	38.00000000	-42.47923918	177.76397645	19.92509723
 298	0.00000000	179.00000000	51.00000000	-41.94537923	177.76397645	39.58581224
 299	0.00000000	179.00000000	64.00000000	-41.41151927	177.74768293	55.77273086
 300	0.00000000	179.00000000	77.00000000	-42.47923918	177.76397645	70.68255320
 301	0.00000000	179.00000000	89.00000000	-41.94537923	177.76397645	83.92970636
