bench/lcms_compat/reference/sRGB_v4_ICC_preference.icc_to_lab_Relative.it8
CGATS.17
ORIGINATOR	"icctrans"
#
# Data follows
#
NUMBER_OF_SETS	9261.00000000
NUMBER_OF_FIELDS	7.00000000
BEGIN_DATA_FORMAT
 SAMPLE_ID	IN_RGB_R	IN_RGB_G	IN_RGB_B	OUT_LAB_L	OUT_LAB_A	OUT_LAB_B
END_DATA_FORMAT
BEGIN_DATA
 0	0.00000000	0.00000000	0.00000000	10.91935635	0.01946253	-0.00778961
 1	0.00000000	0.00000000	13.00000000	11.09330878	1.05059040	-3.60700208
 2	0.00000000	0.00000000	26.00000000	11.36186793	2.59143811	-8.28794050
 3	0.00000000	0.00000000	38.00000000	11.72808409	4.70816773	-13.68093032
 4	0.00000000	0.00000000	51.00000000	12.27435693	7.55641890	-20.10505560
 5	0.00000000	0.00000000	64.00000000	12.96253949	10.89493495	-26.71984705
 6	0.00000000	0.00000000	77.00000000	13.79110366	14.55641848	-33.31906694
 7	0.00000000	0.00000000	89.00000000	14.66849744	18.07393533	-39.29182965
 8	0.00000000	0.00000000	102.00000000	15.71984440	21.96498734	-45.58755222
 9	0.00000000	0.00000000	115.00000000	16.87037498	25.85602415	-51.67704466
 10	0.00000000	0.00000000	128.00000000	18.10788065	29.66536534	-57.56031457
 11	0.00000000	0.00000000	140.00000000	19.30724084	33.14786327	-62.82879266
 12	0.00000000	0.00000000	153.00000000	20.66224217	36.81322259	-68.36576055
 13	0.00000000	0.00000000	166.00000000	22.06149399	40.39299530	-73.74708119
 14	0.00000000	0.00000000	179.00000000	23.49736840	43.88327521	-78.98443516
 15	0.00000000	0.00000000	191.00000000	24.85542148	47.00000477	-83.70038870
 16	0.00000000	0.00000000	204.00000000	26.34622753	50.30350190	-88.69649741
 17	0.00000000	0.00000000	217.00000000	27.85381973	53.53307021	-93.59144035
 18	0.00000000	0.00000000	230.00000000	29.37819362	56.68092769	-98.38521372
 19	0.00000000	0.00000000	242.00000000	30.79423308	59.51750588	-102.73929938
 20	0.00000000	0.00000000	255.00000000	32.33539462	62.54863364	-107.38132219
 21	0.00000000	13.00000000	0.00000000	12.81910390	-3.47081739	2.70427686
 22	0.00000000	13.00000000	13.00000000	12.97169477	-2.47470844	-0.84825131
 23	0.00000000	13.00000000	26.00000000	13.20668310	-0.94552609	-5.50583619
 24	0.00000000	13.00000000	38.00000000	13.52864951	1.07782733	-10.89883360
 25	0.00000000	13.00000000	51.00000000	14.01235908	3.88715339	-17.36575979
 26	0.00000000	13.00000000	64.00000000	14.62577283	7.21401167	-24.07003644
 27	0.00000000	13.00000000	77.00000000	15.36888629	10.90660793	-30.77821168
 28	0.00000000	13.00000000	89.00000000	16.16388261	14.49027163	-36.85603115
 29	0.00000000	13.00000000	102.00000000	17.13282913	18.45525247	-43.28015643
 30	0.00000000	13.00000000	115.00000000	18.19027960	22.48248917	-49.50972456
 31	0.00000000	13.00000000	128.00000000	19.33318079	26.47081596	-55.54085973
 32	0.00000000	13.00000000	140.00000000	20.45471817	30.10506254	-60.92995855
 33	0.00000000	13.00000000	153.00000000	21.73037380	33.93385869	-66.59922014
 34	0.00000000	13.00000000	166.00000000	23.05485606	37.67703784	-72.09727812
 35	0.00000000	13.00000000	179.00000000	24.42664206	41.30350244	-77.43968885
 36	0.00000000	13.00000000	191.00000000	25.72060823	44.58365363	-82.25680816
 37	0.00000000	13.00000000	204.00000000	27.15342939	48.03113264	-87.35019545
 38	0.00000000	13.00000000	217.00000000	28.60913873	51.39688563	-92.33074020
 39	0.00000000	13.00000000	230.00000000	30.08316159	54.66925484	-97.21011727
 40	0.00000000	13.00000000	242.00000000	31.45952523	57.61478078	-101.63034979
 41	0.00000000	13.00000000	255.00000000	32.96253979	60.73929232	-106.33073936
 42	0.00000000	26.00000000	0.00000000	15.39330184	-7.84435990	6.26459461
 43	0.00000000	26.00000000	13.00000000	15.51384777	-6.84046897	2.78209668
 44	0.00000000	26.00000000	26.00000000	15.71221501	-5.43579835	-1.80934134
 45	0.00000000	26.00000000	38.00000000	15.99450707	-3.51361829	-7.16342124
 46	0.00000000	26.00000000	51.00000000	16.40039682	-0.77432248	-13.64980239
 47	0.00000000	26.00000000	64.00000000	16.93598777	2.43579847	-20.41245151
 48	0.00000000	26.00000000	77.00000000	17.58144498	6.06615406	-27.22957450
 49	0.00000000	26.00000000	89.00000000	18.27115268	9.70038545	-33.45525163
 50	0.00000000	26.00000000	102.00000000	19.12871003	13.73540413	-40.02723458
 51	0.00000000	26.00000000	115.00000000	20.07476985	17.87547958	-46.42412293
 52	0.00000000	26.00000000	128.00000000	21.10627890	22.03113419	-52.63035271
 53	0.00000000	26.00000000	140.00000000	22.12710828	25.80155027	-58.17509878
 54	0.00000000	26.00000000	153.00000000	23.29747528	29.83656895	-64.00389481
 55	0.00000000	26.00000000	166.00000000	24.52429980	33.77042186	-69.66537061
 56	0.00000000	26.00000000	179.00000000	25.80300570	37.59143603	-75.15953380
 57	0.00000000	26.00000000	191.00000000	27.01609731	41.04669702	-80.10505962
 58	0.00000000	26.00000000	204.00000000	28.36804688	44.68092841	-85.33074062
 59	0.00000000	26.00000000	217.00000000	29.74898815	48.21400923	-90.43579708
 60	0.00000000	26.00000000	230.00000000	31.15739822	51.64590907	-95.42023282
 61	0.00000000	26.00000000	242.00000000	32.46967196	54.76263863	-99.94163490
 62	0.00000000	26.00000000	255.00000000	33.91317725	58.03113204	-104.74708124
 63	0.00000000	38.00000000	0.00000000	18.46036464	-12.47859883	10.37354213
 64	0.00000000	38.00000000	13.00000000	18.56565177	-11.63423854	7.00778913
 65	0.00000000	38.00000000	26.00000000	18.73197556	-10.35019624	2.52918226
 66	0.00000000	38.00000000	38.00000000	18.96086037	-8.54085493	-2.76264939
 67	0.00000000	38.00000000	51.00000000	19.30724084	-6.00778165	-9.21400401
 68	0.00000000	38.00000000	64.00000000	19.75432932	-2.92218003	-16.01945403
 69	0.00000000	38.00000000	77.00000000	20.30518055	0.61478418	-22.92217883
 70	0.00000000	38.00000000	89.00000000	20.90333402	4.12841004	-29.24513835
 71	0.00000000	38.00000000	102.00000000	21.64034545	8.20233864	-35.97276095
 72	0.00000000	38.00000000	115.00000000	22.46890962	12.38132399	-42.53696191
 73	0.00000000	38.00000000	128.00000000	23.38445038	16.58365530	-48.90661332
 74	0.00000000	38.00000000	140.00000000	24.29541498	20.49027127	-54.61867961
 75	0.00000000	38.00000000	153.00000000	25.34828782	24.66925663	-60.63035223
 76	0.00000000	38.00000000	166.00000000	26.46066844	28.78598613	-66.47081743
 77	0.00000000	38.00000000	179.00000000	27.62645781	32.82100481	-72.14397001
 78	0.00000000	38.00000000	191.00000000	28.74799669	36.43968743	-77.24124449
 79	0.00000000	38.00000000	204.00000000	30.00076413	40.28015655	-82.62256894
 80	0.00000000	38.00000000	217.00000000	31.28862381	44.02335089	-87.87548687
 81	0.00000000	38.00000000	230.00000000	32.60852993	47.66536427	-93.00778027
 82	0.00000000	38.00000000	242.00000000	33.85061324	50.93385768	-97.64980498
 83	0.00000000	38.00000000	255.00000000	35.21476984	54.39688545	-102.57976684
 84	0.00000000	51.00000000	0.00000000	22.27969766	-17.71206561	15.23735714
 85	0.00000000	51.00000000	13.00000000	22.36667424	-16.96887109	12.06615371
 86	0.00000000	51.00000000	26.00000000	22.50095308	-15.80544952	7.76264143
 87	0.00000000	51.00000000	38.00000000	22.68711329	-14.21790230	2.61089307
 88	0.00000000	51.00000000	51.00000000	22.97093123	-11.89883354	-3.76264933
 89	0.00000000	51.00000000	64.00000000	23.33867401	-9.06225535	-10.53696382
 90	0.00000000	51.00000000	77.00000000	23.79491925	-5.77821317	-17.48638052
 91	0.00000000	51.00000000	89.00000000	24.29541498	-2.40467060	-23.88326886
 92	0.00000000	51.00000000	102.00000000	24.91645664	1.51361835	-30.74708375
 93	0.00000000	51.00000000	115.00000000	25.62447488	5.61089289	-37.45136040
 94	0.00000000	51.00000000	128.00000000	26.40726268	9.83657014	-44.00388840
 95	0.00000000	51.00000000	140.00000000	27.19615400	13.79376900	-49.89104930
 96	0.00000000	51.00000000	153.00000000	28.11627388	18.07004434	-56.10506105
 97	0.00000000	51.00000000	166.00000000	29.09895480	22.32684952	-62.14007962
 98	0.00000000	51.00000000	179.00000000	30.13961911	26.51361686	-68.00389077
 99	0.00000000	51.00000000	191.00000000	31.14366233	30.33852202	-73.28793663
 100	0.00000000	51.00000000	204.00000000	32.27740824	34.36964971	-78.85992344
 101	0.00000000	51.00000000	217.00000000	33.45082700	38.32684857	-84.29571795
 102	0.00000000	51.00000000	230.00000000	34.66086686	42.18288165	-89.60700455
 103	0.00000000	51.00000000	242.00000000	35.80681980	45.66147339	-94.40077792
 104	0.00000000	51.00000000	255.00000000	37.07789779	49.32295692	-99.48249034
 105	0.00000000	64.00000000	0.00000000	26.39047801	-22.80544910	20.22957486
 106	0.00000000	64.00000000	13.00000000	26.45609081	-22.11672845	17.26070297
 107	0.00000000	64.00000000	26.00000000	26.56595707	-21.12451050	13.17899239
 108	0.00000000	64.00000000	38.00000000	26.72312558	-19.72762945	8.22957557
 109	0.00000000	64.00000000	51.00000000	26.95658803	-17.69261065	2.00778943
 110	0.00000000	64.00000000	64.00000000	27.26024389	-15.14007482	-4.68093085
 111	0.00000000	64.00000000	77.00000000	27.63866782	-12.11283806	-11.61089259
 112	0.00000000	64.00000000	89.00000000	28.05523872	-9.00389048	-18.04279986
 113	0.00000000	64.00000000	102.00000000	28.57709527	-5.28404969	-24.98054358
 114	0.00000000	64.00000000	115.00000000	29.17219698	-1.33852381	-31.80933955
 115	0.00000000	64.00000000	128.00000000	29.83901799	2.77820569	-38.49416125
 116	0.00000000	64.00000000	140.00000000	30.51651716	6.67314869	-44.52917981
 117	0.00000000	64.00000000	153.00000000	31.31456375	10.96498799	-50.91439518
 118	0.00000000	64.00000000	166.00000000	32.17059672	15.26459408	-57.12840694
 119	0.00000000	64.00000000	179.00000000	33.08766186	19.54085422	-63.17898947
 120	0.00000000	64.00000000	191.00000000	33.97726417	23.46692514	-68.63813373
 121	0.00000000	64.00000000	204.00000000	34.99046266	27.65369248	-74.39688812
 122	0.00000000	64.00000000	217.00000000	36.04638875	31.77820396	-80.01945402
 123	0.00000000	64.00000000	230.00000000	37.14503646	35.80544066	-85.50194423
 124	0.00000000	64.00000000	242.00000000	38.19028139	39.45136023	-90.45914303
 125	0.00000000	64.00000000	255.00000000	39.35149014	43.32295728	-95.71595195
 126	0.00000000	77.00000000	0.00000000	30.64927161	-27.59532768	25.14397275
 127	0.00000000	77.00000000	13.00000000	30.70725501	-27.01556239	22.40466934
 128	0.00000000	77.00000000	26.00000000	30.79728484	-26.15953672	18.57976419
 129	0.00000000	77.00000000	38.00000000	30.92393279	-24.92606971	13.85602486
 130	0.00000000	77.00000000	51.00000000	31.11772239	-23.13618335	7.84046125
 131	0.00000000	77.00000000	64.00000000	31.37102425	-20.86770508	1.28404987
 132	0.00000000	77.00000000	77.00000000	31.68688416	-18.16342059	-5.56031007
 133	0.00000000	77.00000000	89.00000000	32.03784227	-15.30350405	-11.97276238
 134	0.00000000	77.00000000	102.00000000	32.47730136	-11.87937859	-18.93385205
 135	0.00000000	77.00000000	115.00000000	32.98542798	-8.16731218	-25.82101288
 136	0.00000000	77.00000000	128.00000000	33.55458975	-4.24513984	-32.60310936
 137	0.00000000	77.00000000	140.00000000	34.13595855	-0.48638153	-38.74708328
 138	0.00000000	77.00000000	153.00000000	34.82413888	3.70816779	-45.26459235
 139	0.00000000	77.00000000	166.00000000	35.56877971	7.96108198	-51.63035277
 140	0.00000000	77.00000000	179.00000000	36.36835217	12.25292128	-57.84824792
 141	0.00000000	77.00000000	191.00000000	37.15571761	16.19844717	-63.45135885
 142	0.00000000	77.00000000	204.00000000	38.05447519	20.45914334	-69.38521545
 143	0.00000000	77.00000000	217.00000000	38.99595737	24.67314762	-75.17509776
 144	0.00000000	77.00000000	230.00000000	39.98169005	28.83656901	-80.84046836
 145	0.00000000	77.00000000	242.00000000	40.92622399	32.62645525	-85.95330681
 146	0.00000000	77.00000000	255.00000000	41.98367298	36.64590997	-91.37354116
 147	0.00000000	89.00000000	0.00000000	34.64560807	-31.80155757	29.54863560
 148	0.00000000	89.00000000	13.00000000	34.69443917	-31.29572111	27.00778794
 149	0.00000000	89.00000000	26.00000000	34.76920724	-30.52918065	23.42023325
 150	0.00000000	89.00000000	38.00000000	34.87907350	-29.45914286	18.95331454
 151	0.00000000	89.00000000	51.00000000	35.04539430	-27.87159565	13.16731942
 152	0.00000000	89.00000000	64.00000000	35.26054919	-25.84824982	6.77820545
 153	0.00000000	89.00000000	77.00000000	35.53063273	-23.40856034	0.04669946
 154	0.00000000	89.00000000	89.00000000	35.83123386	-20.80544922	-6.31517756
 155	0.00000000	89.00000000	102.00000000	36.20965779	-17.63423818	-13.24903029
 156	0.00000000	89.00000000	115.00000000	36.64606810	-14.17898479	-20.15952948
 157	0.00000000	89.00000000	128.00000000	37.13893294	-10.48248994	-26.99221644
 158	0.00000000	89.00000000	140.00000000	37.64553368	-6.89883384	-33.20233721
 159	0.00000000	89.00000000	153.00000000	38.24826479	-2.85603318	-39.80933908
 160	0.00000000	89.00000000	166.00000000	38.90745342	1.27626789	-46.28015625
 161	0.00000000	89.00000000	179.00000000	39.61394727	5.49416316	-52.61478874
 162	0.00000000	89.00000000	191.00000000	40.31128287	9.42023408	-58.34241140
 163	0.00000000	89.00000000	204.00000000	41.11391008	13.67703927	-64.40856169
 164	0.00000000	89.00000000	217.00000000	41.96231067	17.91049850	-70.33851969
 165	0.00000000	89.00000000	230.00000000	42.85191000	22.13229996	-76.14396977
 166	0.00000000	89.00000000	242.00000000	43.70794296	25.98833305	-81.38910572
 167	0.00000000	89.00000000	255.00000000	44.66926157	30.11673552	-86.96108873
 168	0.00000000	102.00000000	0.00000000	38.99595737	-36.11673522	34.14008123
 169	0.00000000	102.00000000	13.00000000	39.03563023	-35.68482760	31.81322289
 170	0.00000000	102.00000000	26.00000000	39.10124302	-35.01556191	28.49416178
 171	0.00000000	102.00000000	38.00000000	39.19585049	-34.07781783	24.29961246
 172	0.00000000	102.00000000	51.00000000	39.33623135	-32.68482777	18.78598672
 173	0.00000000	102.00000000	64.00000000	39.51933980	-30.89494142	12.61478347
 174	0.00000000	102.00000000	77.00000000	39.74975348	-28.71984693	6.04280812
 175	0.00000000	102.00000000	89.00000000	40.00457823	-26.36575925	-0.22179413
 176	0.00000000	102.00000000	102.00000000	40.33111930	-23.51361710	-7.09338340
 177	0.00000000	102.00000000	115.00000000	40.70649147	-20.33852267	-13.98054424
 178	0.00000000	102.00000000	128.00000000	41.13374650	-16.89494225	-20.82879516
 179	0.00000000	102.00000000	140.00000000	41.57320559	-13.52918166	-27.07392725
 180	0.00000000	102.00000000	153.00000000	42.09659100	-9.71205848	-33.74319258
 181	0.00000000	102.00000000	166.00000000	42.67032743	-5.73152128	-40.30350256
 182	0.00000000	102.00000000	179.00000000	43.29289794	-1.66147608	-46.73540983
 183	0.00000000	102.00000000	191.00000000	43.90783608	2.17121106	-52.56420586
 184	0.00000000	102.00000000	204.00000000	44.61737871	6.36186939	-58.75097308
 185	0.00000000	102.00000000	217.00000000	45.37117481	10.57587367	-64.81322858
 186	0.00000000	102.00000000	230.00000000	46.16769552	14.78209597	-70.74708137
 187	0.00000000	102.00000000	242.00000000	46.93675041	18.66536599	-76.12062383
 188	0.00000000	102.00000000	255.00000000	47.80499041	22.84046036	-81.83268632
 189	0.00000000	115.00000000	0.00000000	43.34020019	-40.23346472	38.53696209
 190	0.00000000	115.00000000	13.00000000	43.37682128	-39.85213998	36.42801446
 191	0.00000000	115.00000000	26.00000000	43.43327880	-39.27626568	33.36575878
 192	0.00000000	115.00000000	38.00000000	43.51110160	-38.44357836	29.42801487
 193	0.00000000	115.00000000	51.00000000	43.63164604	-37.21790093	24.21011966
 194	0.00000000	115.00000000	64.00000000	43.79034042	-35.63035372	18.28793985
 195	0.00000000	115.00000000	77.00000000	43.98870766	-33.67704573	11.90660787
 196	0.00000000	115.00000000	89.00000000	44.21148896	-31.58754545	5.77431452
 197	0.00000000	115.00000000	102.00000000	44.49225664	-28.98054335	-1.01167294
 198	0.00000000	115.00000000	115.00000000	44.81879771	-26.08170930	-7.84046891
 199	0.00000000	115.00000000	128.00000000	45.19111812	-22.92606983	-14.66147530
 200	0.00000000	115.00000000	140.00000000	45.57564557	-19.79377630	-20.91828796
 201	0.00000000	115.00000000	153.00000000	46.03494406	-16.19844723	-27.62256461
 202	0.00000000	115.00000000	166.00000000	46.53849006	-12.43579793	-34.22957408
 203	0.00000000	115.00000000	179.00000000	47.08476365	-8.53696394	-40.73151919
 204	0.00000000	115.00000000	191.00000000	47.63103724	-4.84825107	-46.63424405
 205	0.00000000	115.00000000	204.00000000	48.26276004	-0.77432248	-52.91439506
 206	0.00000000	115.00000000	217.00000000	48.93415868	3.35797858	-59.08171493
 207	0.00000000	115.00000000	230.00000000	49.64522719	7.50972700	-65.12840647
 208	0.00000000	115.00000000	242.00000000	50.33646226	11.36576009	-70.61089668
 209	0.00000000	115.00000000	255.00000000	51.11925006	15.53696346	-76.44357990
 210	0.00000000	128.00000000	0.00000000	47.66460657	-44.17120862	42.77042133
 211	0.00000000	128.00000000	13.00000000	47.69512415	-43.84824875	40.85214746
 212	0.00000000	128.00000000	26.00000000	47.74395227	-43.34241229	38.03113323
 213	0.00000000	128.00000000	38.00000000	47.81261981	-42.60700735	34.36186773
 214	0.00000000	128.00000000	51.00000000	47.91790545	-41.52139801	29.43190587
 215	0.00000000	128.00000000	64.00000000	48.05523753	-40.10506201	23.77042246
 216	0.00000000	128.00000000	77.00000000	48.22919071	-38.36186755	17.59532821
 217	0.00000000	128.00000000	89.00000000	48.42298031	-36.47859740	11.62256551
 218	0.00000000	128.00000000	102.00000000	48.66864979	-34.12062633	4.96497315
 219	0.00000000	128.00000000	115.00000000	48.95704687	-31.48637968	-1.78210440
 220	0.00000000	128.00000000	128.00000000	49.28206205	-28.57587266	-8.55641890
 221	0.00000000	128.00000000	140.00000000	49.61928725	-25.66926423	-14.78988561
 222	0.00000000	128.00000000	153.00000000	50.02365112	-22.32295859	-21.49805325
 223	0.00000000	128.00000000	166.00000000	50.46921372	-18.78210339	-28.12840107
 224	0.00000000	128.00000000	179.00000000	50.95444918	-15.08560094	-34.67315468
 225	0.00000000	128.00000000	191.00000000	51.43969059	-11.56420070	-40.63035342
 226	0.00000000	128.00000000	204.00000000	52.00274587	-7.64202076	-46.98054227
 227	0.00000000	128.00000000	217.00000000	52.60395408	-3.63813001	-53.22179097
 228	0.00000000	128.00000000	230.00000000	53.24177742	0.42412561	-59.36186630
 229	0.00000000	128.00000000	242.00000000	53.86434793	4.20233887	-64.92996211
 230	0.00000000	128.00000000	255.00000000	54.57084179	8.31906837	-70.86381491
 231	0.00000000	140.00000000	0.00000000	51.62737370	-47.68871787	46.54863459
 232	0.00000000	140.00000000	13.00000000	51.65636539	-47.40077692	44.77431220
 233	0.00000000	140.00000000	26.00000000	51.69909000	-46.94941434	42.16342670
 234	0.00000000	140.00000000	38.00000000	51.76013112	-46.28793824	38.73929363
 235	0.00000000	140.00000000	51.00000000	51.85320973	-45.31128424	34.06615239
 236	0.00000000	140.00000000	64.00000000	51.97528005	-44.03890732	28.64980143
 237	0.00000000	140.00000000	77.00000000	52.12939382	-42.45914209	22.69260269
 238	0.00000000	140.00000000	89.00000000	52.30182409	-40.73541018	16.87937063
 239	0.00000000	140.00000000	102.00000000	52.52002478	-38.59143603	10.35408717
 240	0.00000000	140.00000000	115.00000000	52.77637839	-36.17510009	3.70816779
 241	0.00000000	140.00000000	128.00000000	53.06782722	-33.48637956	-2.99999985
 242	0.00000000	140.00000000	140.00000000	53.36843133	-30.78599367	-9.19844005
 243	0.00000000	140.00000000	153.00000000	53.73159647	-27.65759113	-15.88716033
 244	0.00000000	140.00000000	166.00000000	54.13138270	-24.32684946	-22.51750815
 245	0.00000000	140.00000000	179.00000000	54.56779003	-20.82490417	-29.08170912
 246	0.00000000	140.00000000	191.00000000	55.00419736	-17.47081655	-35.06225380
 247	0.00000000	140.00000000	204.00000000	55.51232100	-13.71206585	-41.45914215
 248	0.00000000	140.00000000	217.00000000	56.05707169	-9.84825078	-47.75486472
 249	0.00000000	140.00000000	230.00000000	56.63538575	-5.90661588	-53.95719591
 250	0.00000000	140.00000000	242.00000000	57.20149279	-2.22178641	-59.59144238
 251	0.00000000	140.00000000	255.00000000	57.84847736	1.81711566	-65.59922020
 252	0.00000000	153.00000000	0.00000000	55.88921905	-51.39688569	50.50583345
 253	0.00000000	153.00000000	13.00000000	55.91210723	-51.13229829	48.89105690
 254	0.00000000	153.00000000	26.00000000	55.95025420	-50.71595463	46.48637873
 255	0.00000000	153.00000000	38.00000000	56.00671172	-50.14397132	43.29572034
 256	0.00000000	153.00000000	51.00000000	56.08758926	-49.25291914	38.90273046
 257	0.00000000	153.00000000	64.00000000	56.19745255	-48.11673450	33.76263988
 258	0.00000000	153.00000000	77.00000000	56.33325577	-46.70039091	28.03891581
 259	0.00000000	153.00000000	89.00000000	56.48584962	-45.14008063	22.40466934
 260	0.00000000	153.00000000	102.00000000	56.68116212	-43.19844562	16.04669851
 261	0.00000000	153.00000000	115.00000000	56.90699816	-40.98443362	9.52139986
 262	0.00000000	153.00000000	128.00000000	57.16639757	-38.50972521	2.90660840
 263	0.00000000	153.00000000	140.00000000	57.43495822	-36.02723482	-3.22956833
 264	0.00000000	153.00000000	153.00000000	57.75997639	-33.12061879	-9.87548772
 265	0.00000000	153.00000000	166.00000000	58.11703801	-30.01556221	-16.49027157
 266	0.00000000	153.00000000	179.00000000	58.50919485	-26.73152003	-23.05058154
 267	0.00000000	153.00000000	191.00000000	58.89982581	-23.54863602	-29.04669020
 268	0.00000000	153.00000000	204.00000000	59.35759544	-19.98054388	-35.47081548
 269	0.00000000	153.00000000	217.00000000	59.84740853	-16.28794003	-41.80544797
 270	0.00000000	153.00000000	230.00000000	60.37079692	-12.49805379	-48.05836204
 271	0.00000000	153.00000000	242.00000000	60.88349819	-8.92996165	-53.75097337
 272	0.00000000	153.00000000	255.00000000	61.46944165	-5.01167271	-59.82101086
 273	0.00000000	166.00000000	0.00000000	60.10986567	-54.98443279	54.34241158
 274	0.00000000	166.00000000	13.00000000	60.13275385	-54.75097331	52.85992873
 275	0.00000000	166.00000000	26.00000000	60.16632318	-54.38910353	50.64201814
 276	0.00000000	166.00000000	38.00000000	60.21362543	-53.85603014	47.68092823
 277	0.00000000	166.00000000	51.00000000	60.28839350	-53.07004231	43.56030774
 278	0.00000000	166.00000000	64.00000000	60.38452983	-52.03890684	38.67314678
 279	0.00000000	166.00000000	77.00000000	60.50660014	-50.74708256	33.19844615
 280	0.00000000	166.00000000	89.00000000	60.64392924	-49.33852094	27.75485826
 281	0.00000000	166.00000000	102.00000000	60.81941128	-47.56809714	21.57587302
 282	0.00000000	166.00000000	115.00000000	61.02235317	-45.54474372	15.19066525
 283	0.00000000	166.00000000	128.00000000	61.25429273	-43.28015643	8.68482155
 284	0.00000000	166.00000000	140.00000000	61.49538159	-40.98054263	2.62256604
 285	0.00000000	166.00000000	153.00000000	61.78683043	-38.28793871	-3.96108988
 286	0.00000000	166.00000000	166.00000000	62.10727096	-35.39299566	-10.53696382
 287	0.00000000	166.00000000	179.00000000	62.46128082	-32.31517601	-17.07781884
 288	0.00000000	166.00000000	191.00000000	62.81376481	-29.32295817	-23.07392749
 289	0.00000000	166.00000000	204.00000000	63.22728395	-25.94163361	-29.50583476
 290	0.00000000	166.00000000	217.00000000	63.67132068	-22.42412436	-35.86770418
 291	0.00000000	166.00000000	230.00000000	64.14587498	-18.80155835	-42.15175378
 292	0.00000000	166.00000000	242.00000000	64.61279988	-15.37354189	-47.87937644
 293	0.00000000	166.00000000	255.00000000	65.14686942	-11.58365566	-54.00388780
 294	0.00000000	179.00000000	0.00000000	64.29389119	-58.49416006	58.07782394
 295	0.00000000	179.00000000	13.00000000	64.31372762	-58.28404653	56.71594661
 296	0.00000000	179.00000000	26.00000000	64.34271932	-57.94163170	54.66536385
 297	0.00000000	179.00000000	38.00000000	64.38696980	-57.47470516	51.90662068
 298	0.00000000	179.00000000	51.00000000	64.45258260	-56.76264617	48.04280561
 299	0.00000000	179.00000000	64.00000000	64.53955770	-55.82490209	43.41634107
 300	0.00000000	179.00000000	77.00000000	64.64942694	-54.65369853	38.17899090
 301	0.00000000	179.00000000	89.00000000	64.77302313	-53.36964864	32.93774974
 302	0.00000000	179.00000000	102.00000000	64.93018866	-51.74708250	26.94164109
 303	0.00000000	179.00000000	115.00000000	65.11177421	-49.89104930	20.70816678
 304	0.00000000	179.00000000	128.00000000	65.32387137	-47.81322959	14.32685000
 305	0.00000000	179.00000000	140.00000000	65.54055214	-45.68482700	8.35797828
