bench/lcms_compat/reference/srgb_to_D50_XYZ.icc_Perceptual_BPC.it8
CGATS.17
ORIGINATOR	"icctrans"
#
# Data follows
#
NUMBER_OF_SETS	9261.00000000
NUMBER_OF_FIELDS	7.00000000
BEGIN_DATA_FORMAT
 SAMPLE_ID	IN_RGB_R	IN_RGB_G	IN_RGB_B	OUT_RGB_R	OUT_RGB_G	OUT_RGB_B
END_DATA_FORMAT
BEGIN_DATA
 0	0.00000000	0.00000000	0.00000000	0.00000000	0.00000000	0.00000000
 1	0.00000000	0.00000000	13.00000000	0.14680834	0.06220461	0.73269052
 2	0.00000000	0.00000000	26.00000000	0.37679773	0.15965410	1.88052064
 3	0.00000000	0.00000000	38.00000000	0.70700443	0.29956696	3.52851465
 4	0.00000000	0.00000000	51.00000000	1.20755228	0.51165561	6.02664666
 5	0.00000000	0.00000000	64.00000000	1.87014031	0.79240277	9.33348857
 6	0.00000000	0.00000000	77.00000000	2.70706546	1.14701880	13.51041064
 7	0.00000000	0.00000000	89.00000000	3.64397502	1.54399953	18.18633523
 8	0.00000000	0.00000000	102.00000000	4.84659623	2.05356584	24.18837346
 9	0.00000000	0.00000000	115.00000000	6.25360373	2.64973319	31.21046126
 10	0.00000000	0.00000000	128.00000000	7.87387717	3.33626420	39.29691374
 11	0.00000000	0.00000000	140.00000000	9.56603704	4.05325438	47.74213538
 12	0.00000000	0.00000000	153.00000000	11.61953235	4.92334689	57.99071364
 13	0.00000000	0.00000000	166.00000000	13.90951177	5.89364097	69.41953138
 14	0.00000000	0.00000000	179.00000000	16.44317307	6.96718644	82.06452325
 15	0.00000000	0.00000000	191.00000000	19.00419574	8.05232462	94.84605700
 16	0.00000000	0.00000000	204.00000000	22.02562261	9.33254242	109.92538825
 17	0.00000000	0.00000000	217.00000000	25.31014547	10.72423769	126.31776944
 18	0.00000000	0.00000000	230.00000000	28.86392947	12.23002184	144.05397892
 19	0.00000000	0.00000000	242.00000000	32.38849685	13.72342626	161.64437503
 20	0.00000000	0.00000000	255.00000000	36.47668988	15.45564691	182.04769939
 21	0.00000000	13.00000000	0.00000000	0.39524247	0.73576170	0.09962038
 22	0.00000000	13.00000000	13.00000000	0.54205083	0.79796633	0.83231090
 23	0.00000000	13.00000000	26.00000000	0.77204020	0.89541584	1.98014096
 24	0.00000000	13.00000000	38.00000000	1.10224687	1.03532866	3.62813509
 25	0.00000000	13.00000000	51.00000000	1.60279473	1.24741725	6.12626734
 26	0.00000000	13.00000000	64.00000000	2.26538287	1.52816447	9.43310877
 27	0.00000000	13.00000000	77.00000000	3.10230791	1.88278045	13.61003084
 28	0.00000000	13.00000000	89.00000000	4.03921746	2.27976129	18.28595638
 29	0.00000000	13.00000000	102.00000000	5.24183867	2.78932749	24.28799272
 30	0.00000000	13.00000000	115.00000000	6.64884618	3.38549507	31.31008051
 31	0.00000000	13.00000000	128.00000000	8.26912008	4.07202585	39.39653300
 32	0.00000000	13.00000000	140.00000000	9.96127948	4.78901602	47.84175843
 33	0.00000000	13.00000000	153.00000000	12.01477479	5.65910853	58.09033670
 34	0.00000000	13.00000000	166.00000000	14.30475421	6.62940262	69.51915443
 35	0.00000000	13.00000000	179.00000000	16.83841646	7.70294809	82.16414630
 36	0.00000000	13.00000000	191.00000000	19.39943723	8.78808578	94.94568005
 37	0.00000000	13.00000000	204.00000000	22.42086411	10.06830454	110.02500370
 38	0.00000000	13.00000000	217.00000000	25.70538696	11.45999981	126.41739249
 39	0.00000000	13.00000000	230.00000000	29.25917286	12.96578396	144.15359437
 40	0.00000000	13.00000000	242.00000000	32.78373644	14.45918838	161.74399048
 41	0.00000000	13.00000000	255.00000000	36.87192947	16.19140808	182.14733005
 42	0.00000000	26.00000000	0.00000000	1.01442777	1.88840319	0.25568528
 43	0.00000000	26.00000000	13.00000000	1.16123609	1.95060776	0.98837577
 44	0.00000000	26.00000000	26.00000000	1.39122552	2.04805733	2.13620595
 45	0.00000000	26.00000000	38.00000000	1.72143220	2.18797009	3.78420008
 46	0.00000000	26.00000000	51.00000000	2.22197993	2.40005880	6.28233209
 47	0.00000000	26.00000000	64.00000000	2.88456819	2.68080602	9.58917400
 48	0.00000000	26.00000000	77.00000000	3.72149323	3.03542200	13.76609607
 49	0.00000000	26.00000000	89.00000000	4.65840278	3.43240284	18.44201971
 50	0.00000000	26.00000000	102.00000000	5.86102400	3.94196904	24.44405794
 51	0.00000000	26.00000000	115.00000000	7.26803150	4.53813639	31.46614574
 52	0.00000000	26.00000000	128.00000000	8.88830541	5.22466740	39.55259822
 53	0.00000000	26.00000000	140.00000000	10.58046481	5.94165710	47.99782366
 54	0.00000000	26.00000000	153.00000000	12.63396012	6.81175008	58.24639812
 55	0.00000000	26.00000000	166.00000000	14.92393954	7.78204417	69.67521966
 56	0.00000000	26.00000000	179.00000000	17.45760083	8.85559011	82.32021153
 57	0.00000000	26.00000000	191.00000000	20.01862351	9.94072733	95.10174528
 58	0.00000000	26.00000000	204.00000000	23.04005038	11.22094609	110.18106893
 59	0.00000000	26.00000000	217.00000000	26.32457323	12.61264041	126.57345772
 60	0.00000000	26.00000000	230.00000000	29.87835724	14.11842551	144.30965960
 61	0.00000000	26.00000000	242.00000000	33.40292461	15.61182993	161.90005571
 62	0.00000000	26.00000000	255.00000000	37.49111764	17.34404963	182.30339527
 63	0.00000000	38.00000000	0.00000000	1.90342153	3.54330512	0.47975507
 64	0.00000000	38.00000000	13.00000000	2.05022986	3.60550992	1.21244559
 65	0.00000000	38.00000000	26.00000000	2.28021941	3.70295925	2.36027565
 66	0.00000000	38.00000000	38.00000000	2.61042596	3.84287226	4.00827002
 67	0.00000000	38.00000000	51.00000000	3.11097382	4.05496096	6.50640179
 68	0.00000000	38.00000000	64.00000000	3.77356184	4.33570795	9.81324323
 69	0.00000000	38.00000000	77.00000000	4.61048688	4.69032392	13.99016529
 70	0.00000000	38.00000000	89.00000000	5.54739643	5.08730477	18.66608988
 71	0.00000000	38.00000000	102.00000000	6.75001812	5.59687120	24.66812812
 72	0.00000000	38.00000000	115.00000000	8.15702515	6.19303831	31.69021592
 73	0.00000000	38.00000000	128.00000000	9.77729905	6.87956932	39.77666840
 74	0.00000000	38.00000000	140.00000000	11.46945845	7.59655950	48.22189383
 75	0.00000000	38.00000000	153.00000000	13.52295376	8.46665248	58.47046830
 76	0.00000000	38.00000000	166.00000000	15.81293318	9.43694657	69.89928603
 77	0.00000000	38.00000000	179.00000000	18.34659543	10.51049156	82.54427791
 78	0.00000000	38.00000000	191.00000000	20.90761621	11.59562973	95.32581165
 79	0.00000000	38.00000000	204.00000000	23.92904498	12.87584754	110.40514290
 80	0.00000000	38.00000000	217.00000000	27.21356783	14.26754281	126.79752409
 81	0.00000000	38.00000000	230.00000000	30.76735184	15.77332791	144.53374118
 82	0.00000000	38.00000000	242.00000000	34.29191731	17.26673137	162.12412208
 83	0.00000000	38.00000000	255.00000000	38.38011034	18.99895202	182.52746165
 84	0.00000000	51.00000000	0.00000000	3.25101364	6.05190866	0.81941398
 85	0.00000000	51.00000000	13.00000000	3.39782185	6.11411322	1.55210450
 86	0.00000000	51.00000000	26.00000000	3.62781140	6.21156279	2.69993467
 87	0.00000000	51.00000000	38.00000000	3.95801795	6.35147556	4.34792857
 88	0.00000000	51.00000000	51.00000000	4.45856581	6.56356403	6.84606082
 89	0.00000000	51.00000000	64.00000000	5.12115383	6.84431149	10.15290225
 90	0.00000000	51.00000000	77.00000000	5.95807887	7.19892746	14.32982432
 91	0.00000000	51.00000000	89.00000000	6.89498842	7.59590831	19.00574986
 92	0.00000000	51.00000000	102.00000000	8.09760964	8.10547426	25.00778619
 93	0.00000000	51.00000000	115.00000000	9.50461714	8.70164232	32.02987589
 94	0.00000000	51.00000000	128.00000000	11.12489104	9.38817238	40.11632837
 95	0.00000000	51.00000000	140.00000000	12.81705044	10.10516256	48.56155001
 96	0.00000000	51.00000000	153.00000000	14.87054575	10.97525602	58.81012827
 97	0.00000000	51.00000000	166.00000000	17.16052517	11.94554916	70.23894981
 98	0.00000000	51.00000000	179.00000000	19.69418742	13.01909510	82.88393408
 99	0.00000000	51.00000000	191.00000000	22.25520819	14.10423327	95.66546783
 100	0.00000000	51.00000000	204.00000000	25.27663697	15.38445108	110.74479908
 101	0.00000000	51.00000000	217.00000000	28.56115982	16.77614540	127.13718027
 102	0.00000000	51.00000000	230.00000000	32.11494192	18.28193050	144.87339735
 103	0.00000000	51.00000000	242.00000000	35.63950740	19.77533586	162.46377826
 104	0.00000000	51.00000000	255.00000000	39.72770043	21.50755651	182.86711782
 105	0.00000000	64.00000000	0.00000000	5.03485571	9.37261127	1.26902930
 106	0.00000000	64.00000000	13.00000000	5.18166415	9.43481583	2.00171976
 107	0.00000000	64.00000000	26.00000000	5.41165346	9.53226540	3.14954982
 108	0.00000000	64.00000000	38.00000000	5.74186002	9.67217864	4.79754419
 109	0.00000000	64.00000000	51.00000000	6.24240811	9.88426711	7.29567597
 110	0.00000000	64.00000000	64.00000000	6.90499613	10.16501410	10.60251787
 111	0.00000000	64.00000000	77.00000000	7.74192117	10.51963007	14.77943994
 112	0.00000000	64.00000000	89.00000000	8.67883120	10.91661092	19.45536453
 113	0.00000000	64.00000000	102.00000000	9.88145242	11.42617783	25.45740277
 114	0.00000000	64.00000000	115.00000000	11.28845992	12.02234494	32.47949056
 115	0.00000000	64.00000000	128.00000000	12.90873287	12.70887595	40.56594305
 116	0.00000000	64.00000000	140.00000000	14.60089227	13.42586612	49.01116468
 117	0.00000000	64.00000000	153.00000000	16.65438853	14.29595863	59.25974295
 118	0.00000000	64.00000000	166.00000000	18.94436795	15.26625272	70.68856448
 119	0.00000000	64.00000000	179.00000000	21.47803020	16.33979771	83.33355635
 120	0.00000000	64.00000000	191.00000000	24.03905097	17.42493588	96.11509010
 121	0.00000000	64.00000000	204.00000000	27.06047785	18.70515369	111.19441375
 122	0.00000000	64.00000000	217.00000000	30.34500070	20.09684991	127.58680254
 123	0.00000000	64.00000000	230.00000000	33.89878660	21.60263311	145.32300442
 124	0.00000000	64.00000000	242.00000000	37.42335208	23.09603848	162.91340053
 125	0.00000000	64.00000000	255.00000000	41.51154511	24.82825913	183.31674010
 126	0.00000000	77.00000000	0.00000000	7.28805405	13.56704185	1.83694517
 127	0.00000000	77.00000000	13.00000000	7.43486250	13.62924641	2.56963563
 128	0.00000000	77.00000000	26.00000000	7.66485181	13.72669598	3.71746568
 129	0.00000000	77.00000000	38.00000000	7.99505884	13.86660922	5.36545982
 130	0.00000000	77.00000000	51.00000000	8.49560598	14.07869769	7.86359207
 131	0.00000000	77.00000000	64.00000000	9.15819447	14.35944468	11.17043350
 132	0.00000000	77.00000000	77.00000000	9.99511952	14.71406065	15.34735557
 133	0.00000000	77.00000000	89.00000000	10.93202954	15.11104150	20.02328016
 134	0.00000000	77.00000000	102.00000000	12.13465076	15.62060840	26.02531839
 135	0.00000000	77.00000000	115.00000000	13.54165826	16.21677551	33.04740429
 136	0.00000000	77.00000000	128.00000000	15.16193122	16.90330558	41.13386057
 137	0.00000000	77.00000000	140.00000000	16.85409062	17.62029670	49.57908221
 138	0.00000000	77.00000000	153.00000000	18.90758593	18.49038921	59.82766047
 139	0.00000000	77.00000000	166.00000000	21.19756535	19.46068235	71.25647441
 140	0.00000000	77.00000000	179.00000000	23.73122759	20.53422924	83.90146628
 141	0.00000000	77.00000000	191.00000000	26.29224837	21.61936741	96.68300003
 142	0.00000000	77.00000000	204.00000000	29.31367714	22.89958522	111.76233128
 143	0.00000000	77.00000000	217.00000000	32.59819999	24.29127954	128.15472007
 144	0.00000000	77.00000000	230.00000000	36.15198210	25.79706464	145.89092195
 145	0.00000000	77.00000000	242.00000000	39.67654757	27.29046810	163.48131806
 146	0.00000000	77.00000000	255.00000000	43.76474440	29.02268875	183.88465762
 147	0.00000000	89.00000000	0.00000000	9.81043423	18.26256674	2.47270805
 148	0.00000000	89.00000000	13.00000000	9.95724315	18.32477130	3.20539851
 149	0.00000000	89.00000000	26.00000000	10.18723246	18.42222087	4.35322881
 150	0.00000000	89.00000000	38.00000000	10.51743854	18.56213316	6.00122270
 151	0.00000000	89.00000000	51.00000000	11.01798663	18.77422258	8.49935448
 152	0.00000000	89.00000000	64.00000000	11.68057512	19.05497052	11.80619638
 153	0.00000000	89.00000000	77.00000000	12.51750017	19.40958649	15.98311845
 154	0.00000000	89.00000000	89.00000000	13.45440924	19.80656639	20.65904304
 155	0.00000000	89.00000000	102.00000000	14.65703046	20.31613234	26.66108128
 156	0.00000000	89.00000000	115.00000000	16.06403891	20.91229945	33.68316717
 157	0.00000000	89.00000000	128.00000000	17.68431187	21.59883142	41.76962346
 158	0.00000000	89.00000000	140.00000000	19.37647127	22.31582064	50.21484509
 159	0.00000000	89.00000000	153.00000000	21.42996658	23.18591315	60.46342336
 160	0.00000000	89.00000000	166.00000000	23.71994600	24.15620819	71.89224109
 161	0.00000000	89.00000000	179.00000000	26.25360824	25.22975318	84.53723297
 162	0.00000000	89.00000000	191.00000000	28.81462902	26.31489135	97.31876671
 163	0.00000000	89.00000000	204.00000000	31.83605779	27.59510916	112.39809036
 164	0.00000000	89.00000000	217.00000000	35.12058064	28.98680538	128.79047155
 165	0.00000000	89.00000000	230.00000000	38.67436275	30.49258858	146.52668864
 166	0.00000000	89.00000000	242.00000000	42.19892822	31.98599204	164.11706954
 167	0.00000000	89.00000000	255.00000000	46.28712125	33.71821269	184.52040911
 168	0.00000000	102.00000000	0.00000000	13.04817304	24.28976342	3.28877601
 169	0.00000000	102.00000000	13.00000000	13.19498101	24.35196798	4.02146671
 170	0.00000000	102.00000000	26.00000000	13.42497032	24.44941755	5.16929677
 171	0.00000000	102.00000000	38.00000000	13.75517735	24.58932985	6.81729066
 172	0.00000000	102.00000000	51.00000000	14.25572544	24.80141927	9.31542244
 173	0.00000000	102.00000000	64.00000000	14.91831299	25.08216530	12.62226434
 174	0.00000000	102.00000000	77.00000000	15.75523803	25.43678127	16.79918736
 175	0.00000000	102.00000000	89.00000000	16.69214711	25.83376307	21.47511195
 176	0.00000000	102.00000000	102.00000000	17.89476927	26.34332903	27.47714829
 177	0.00000000	102.00000000	115.00000000	19.30177677	26.93949614	34.49923798
 178	0.00000000	102.00000000	128.00000000	20.92204973	27.62602810	42.58569047
 179	0.00000000	102.00000000	140.00000000	22.61420913	28.34301732	51.03091210
 180	0.00000000	102.00000000	153.00000000	24.66770444	29.21310984	61.27949037
 181	0.00000000	102.00000000	166.00000000	26.95768386	30.18340487	72.70830810
 182	0.00000000	102.00000000	179.00000000	29.49134611	31.25694986	85.35329998
 183	0.00000000	102.00000000	191.00000000	32.05236688	32.34208614	98.13483372
 184	0.00000000	102.00000000	204.00000000	35.07379375	33.62230584	113.21416497
 185	0.00000000	102.00000000	217.00000000	38.35831851	35.01400016	129.60654616
 186	0.00000000	102.00000000	230.00000000	41.91210441	36.51978716	147.34276325
 187	0.00000000	102.00000000	242.00000000	45.43666989	38.01319063	164.93314415
 188	0.00000000	102.00000000	255.00000000	49.52486292	39.74541128	185.33648372
 189	0.00000000	115.00000000	0.00000000	16.83616698	31.34128444	4.24353534
 190	0.00000000	115.00000000	13.00000000	16.98297590	31.40348900	4.97622580
 191	0.00000000	115.00000000	26.00000000	17.21296426	31.50093857	6.12405586
 192	0.00000000	115.00000000	38.00000000	17.54317224	31.64085276	7.77205023
 193	0.00000000	115.00000000	51.00000000	18.04371938	31.85294028	10.27018201
 194	0.00000000	115.00000000	64.00000000	18.70630693	32.13368632	13.57702391
 195	0.00000000	115.00000000	77.00000000	19.54323292	32.48830229	17.75394503
 196	0.00000000	115.00000000	89.00000000	20.48014104	32.88528599	22.42986962
 197	0.00000000	115.00000000	102.00000000	21.68276321	33.39485005	28.43190785
 198	0.00000000	115.00000000	115.00000000	23.08977071	33.99101906	35.45399755
 199	0.00000000	115.00000000	128.00000000	24.71004367	34.67755102	43.54045004
 200	0.00000000	115.00000000	140.00000000	26.40220307	35.39453834	51.98567167
 201	0.00000000	115.00000000	153.00000000	28.45570028	36.26463085	62.23424993
 202	0.00000000	115.00000000	166.00000000	30.74567780	37.23492779	73.66306767
 203	0.00000000	115.00000000	179.00000000	33.27934004	38.30847278	86.30805954
 204	0.00000000	115.00000000	191.00000000	35.84036082	39.39361095	99.08959329
 205	0.00000000	115.00000000	204.00000000	38.86178769	40.67382686	114.16891694
 206	0.00000000	115.00000000	217.00000000	42.14631245	42.06552118	130.56129813
 207	0.00000000	115.00000000	230.00000000	45.70009835	43.57130818	148.29751521
 208	0.00000000	115.00000000	242.00000000	49.22466382	45.06471165	165.88789612
 209	0.00000000	115.00000000	255.00000000	53.31285685	46.79693229	186.29123569
 210	0.00000000	128.00000000	0.00000000	21.19832341	39.46163490	5.34301157
 211	0.00000000	128.00000000	13.00000000	21.34513043	39.52384137	6.07570203
 212	0.00000000	128.00000000	26.00000000	21.57512069	39.62129094	7.22353209
 213	0.00000000	128.00000000	38.00000000	21.90532677	39.76120323	8.87152646
 214	0.00000000	128.00000000	51.00000000	22.40587581	39.97329265	11.36965776
 215	0.00000000	128.00000000	64.00000000	23.06846336	40.25403678	14.67649966
 216	0.00000000	128.00000000	77.00000000	23.90538745	40.60865276	18.85342173
 217	0.00000000	128.00000000	89.00000000	24.84229747	41.00563645	23.52934632
 218	0.00000000	128.00000000	102.00000000	26.04491964	41.51520051	29.53138456
 219	0.00000000	128.00000000	115.00000000	27.45192714	42.11136952	36.55347236
 220	0.00000000	128.00000000	128.00000000	29.07220010	42.79789768	44.63992484
 221	0.00000000	128.00000000	140.00000000	30.76435950	43.51488881	53.08514647
 222	0.00000000	128.00000000	153.00000000	32.81785481	44.38498132	63.33372474
 223	0.00000000	128.00000000	166.00000000	35.10783613	45.35527445	74.76254627
 224	0.00000000	128.00000000	179.00000000	37.64149837	46.42882325	87.40753815
 225	0.00000000	128.00000000	191.00000000	40.20251915	47.51396142	100.18907189
 226	0.00000000	128.00000000	204.00000000	43.22394602	48.79417732	115.26839554
 227	0.00000000	128.00000000	217.00000000	46.50846697	50.18587165	131.66077673
 228	0.00000000	128.00000000	230.00000000	50.06225288	51.69165865	149.39699382
 229	0.00000000	128.00000000	242.00000000	53.58681835	53.18506211	166.98737472
 230	0.00000000	128.00000000	255.00000000	57.67501138	54.91728276	187.39071429
 231	0.00000000	140.00000000	0.00000000	25.75401295	47.94225924	6.49126721
 232	0.00000000	140.00000000	13.00000000	25.90081997	48.00446190	7.22395767
 233	0.00000000	140.00000000	26.00000000	26.13081023	48.10191147	8.37178772
 234	0.00000000	140.00000000	38.00000000	26.46101631	48.24182376	10.01978209
 235	0.00000000	140.00000000	51.00000000	26.96156535	48.45391318	12.51791434
 236	0.00000000	140.00000000	64.00000000	27.62415290	48.73466112	15.82475530
 237	0.00000000	140.00000000	77.00000000	28.46107699	49.08927709	20.00167832
 238	0.00000000	140.00000000	89.00000000	29.39798702	49.48625699	24.67760291
 239	0.00000000	140.00000000	102.00000000	30.60060918	49.99582484	30.67964114
 240	0.00000000	140.00000000	115.00000000	32.00761668	50.59199005	37.70172894
 241	0.00000000	140.00000000	128.00000000	33.62789154	51.27852201	45.78818142
 242	0.00000000	140.00000000	140.00000000	35.32005094	51.99551314	54.23340306
 243	0.00000000	140.00000000	153.00000000	37.37354435	52.86560565	64.48198512
 244	0.00000000	140.00000000	166.00000000	39.66352567	53.83589879	75.91079906
 245	0.00000000	140.00000000	179.00000000	42.19718792	54.90944378	88.55579093
 246	0.00000000	140.00000000	191.00000000	44.75820869	55.99458195	101.33732468
 247	0.00000000	140.00000000	204.00000000	47.77963556	57.27480166	116.41665593
 248	0.00000000	140.00000000	217.00000000	51.06415652	58.66649598	132.80902952
 249	0.00000000	140.00000000	230.00000000	54.61794242	60.17227918	150.54524660
 250	0.00000000	140.00000000	242.00000000	58.14250790	61.66568264	168.13562751
 251	0.00000000	140.00000000	255.00000000	62.23070092	63.39790329	188.53896707
 252	0.00000000	153.00000000	0.00000000	31.28250349	58.23379420	7.88471703
 253	0.00000000	153.00000000	13.00000000	31.42931242	58.29599686	8.61740749
 254	0.00000000	153.00000000	26.00000000	31.65930077	58.39344643	9.76523755
 255	0.00000000	153.00000000	38.00000000	31.98950686	58.53336252	11.41323192
 256	0.00000000	153.00000000	51.00000000	32.49005780	58.74544814	13.91136322
 257	0.00000000	153.00000000	64.00000000	33.15264344	59.02619608	17.21820608
 258	0.00000000	153.00000000	77.00000000	33.98956753	59.38081205	21.39512815
 259	0.00000000	153.00000000	89.00000000	34.92647946	59.77779195	26.07105274
 260	0.00000000	153.00000000	102.00000000	36.12909973	60.28735980	32.07309097
 261	0.00000000	153.00000000	115.00000000	37.53610723	60.88352881	39.09517877
 262	0.00000000	153.00000000	128.00000000	39.15638208	61.57005697	47.18163125
 263	0.00000000	153.00000000	140.00000000	40.84854148	62.28704810	55.62685288
 264	0.00000000	153.00000000	153.00000000	42.90203489	63.15714061	65.87543115
 265	0.00000000	153.00000000	166.00000000	45.19201621	64.12743375	77.30425268
 266	0.00000000	153.00000000	179.00000000	47.72567846	65.20098254	89.94923696
 267	0.00000000	153.00000000	191.00000000	50.28669924	66.28612071	102.73077071
 268	0.00000000	153.00000000	204.00000000	53.30812611	67.56634042	117.81010196
 269	0.00000000	153.00000000	217.00000000	56.59265086	68.95803094	134.20249075
 270	0.00000000	153.00000000	230.00000000	60.14643297	70.46381414	151.93869263
 271	0.00000000	153.00000000	242.00000000	63.67099844	71.95721760	169.52908874
 272	0.00000000	153.00000000	255.00000000	67.75919527	73.68943825	189.93242830
 273	0.00000000	166.00000000	0.00000000	37.44766317	69.71051976	9.43863843
 274	0.00000000	166.00000000	13.00000000	37.59447210	69.77272242	10.17132841
 275	0.00000000	166.00000000	26.00000000	37.82446235	69.87017199	11.31915847
 276	0.00000000	166.00000000	38.00000000	38.15466844	70.01008809	12.96715284
 277	0.00000000	166.00000000	51.00000000	38.65521558	70.22217751	15.46528509
 278	0.00000000	166.00000000	64.00000000	39.31780502	70.50292164	18.77212700
 279	0.00000000	166.00000000	77.00000000	40.15472911	70.85753381	22.94904906
 280	0.00000000	166.00000000	89.00000000	41.09163724	71.25452131	27.62497365
 281	0.00000000	166.00000000	102.00000000	42.29426131	71.76408157	33.62700999
 282	0.00000000	166.00000000	115.00000000	43.70126881	72.36025438	40.64909779
 283	0.00000000	166.00000000	128.00000000	45.32153986	73.04677874	48.73555407
 284	0.00000000	166.00000000	140.00000000	47.01369926	73.76376987	57.18077570
 285	0.00000000	166.00000000	153.00000000	49.06719647	74.63386238	67.42935017
 286	0.00000000	166.00000000	166.00000000	51.35717399	75.60415551	78.85817170
 287	0.00000000	166.00000000	179.00000000	53.89083624	76.67770430	91.50316358
 288	0.00000000	166.00000000	191.00000000	56.45186082	77.76284248	104.28469732
 289	0.00000000	166.00000000	204.00000000	59.47328769	79.04306218	119.36402097
 290	0.00000000	166.00000000	217.00000000	62.75780864	80.43475270	135.75640976
 291	0.00000000	166.00000000	230.00000000	66.31159455	81.94054350	153.49261165
 292	0.00000000	166.00000000	242.00000000	69.83615622	83.43394697	171.08300775
 293	0.00000000	166.00000000	255.00000000	73.92434925	85.16616762	191.48634732
 294	0.00000000	179.00000000	0.00000000	44.26887475	82.40851119	11.15791602
 295	0.00000000	179.00000000	13.00000000	44.41568367	82.47072145	11.89060695
 296	0.00000000	179.00000000	26.00000000	44.64567393	82.56817102	13.03843701
 297	0.00000000	179.00000000	38.00000000	44.97588001	82.70807952	14.68643138
 298	0.00000000	179.00000000	51.00000000	45.47642715	82.92016894	17.18456268
 299	0.00000000	179.00000000	64.00000000	46.13901660	83.20091307	20.49140554
 300	0.00000000	179.00000000	77.00000000	46.97594069	83.55553284	24.66832761
 301	0.00000000	179.00000000	89.00000000	47.91285262	83.95251274	29.34425220
 302	0.00000000	179.00000000	102.00000000	49.11547288	84.46208060	35.34628853
 303	0.00000000	179.00000000	115.00000000	50.52248038	85.05824581	42.36837633
 304	0.00000000	179.00000000	128.00000000	52.14275524	85.74477777	50.45483261
 305	0.00000000	179.00000000	140.00000000	53.83491464	86.46176890	58.90005425
 306	0.00000000	179.00000000	153.00000000	55.88840805	87.33186141	69.14862871
 307	0.00000000	179.00000000	166.00000000	58.17838937	88.30215454	80.57745025
 308	0.00000000	179.00000000	179.00000000	60.71205162	89.37570333	93.22244212
 309	0.00000000	179.00000000	191.00000000	63.27307239	90.46084151	106.00397587
 310	0.00000000	179.00000000	204.00000000	66.29449546	91.74105361	121.08329952
 311	0.00000000	179.00000000	217.00000000	69.57902402	93.13275173	137.47568071
