bench/lcms_compat/reference/USSheetfedCoated.icc_to_lab_Relative.it8
CGATS.17
ORIGINATOR	"icctrans"
#
# Data follows
#
NUMBER_OF_SETS	1296.00000000
NUMBER_OF_FIELDS	8.00000000
BEGIN_DATA_FORMAT
 SAMPLE_ID	IN_CMYK_C	IN_CMYK_M	IN_CMYK_Y	IN_CMYK_K	OUT_LAB_L	OUT_LAB_A	OUT_LAB_B
END_DATA_FORMAT
BEGIN_DATA
 1	0.00000000	0.00000000	0.00000000	0.00000000	100.00000000	-0.00000763	-0.00000763
 2	0.00000000	0.00000000	0.00000000	20.00000000	81.26838207	0.03516328	-0.32812762
 3	0.00000000	0.00000000	0.00000000	40.00000000	64.55882788	0.01172614	-0.50390619
 4	0.00000000	0.00000000	0.00000000	60.00000000	49.08854067	-0.02344477	-0.48046905
 5	0.00000000	0.00000000	0.00000000	80.00000000	33.73008668	-0.05858529	-0.25391001
 6	0.00000000	0.00000000	0.00000000	100.00000000	15.81035554	-0.08202243	0.59766990
 7	0.00000000	0.00000000	20.00000000	0.00000000	98.06066155	-3.34375221	25.19140941
 8	0.00000000	0.00000000	20.00000000	20.00000000	79.90196347	-2.64843512	18.25781506
 9	0.00000000	0.00000000	20.00000000	40.00000000	63.61060143	-2.09765467	13.33593917
 10	0.00000000	0.00000000	20.00000000	60.00000000	48.41452241	-1.66015375	9.97656983
 11	0.00000000	0.00000000	20.00000000	80.00000000	33.27818811	-1.20702806	7.05469382
 12	0.00000000	0.00000000	20.00000000	100.00000000	15.51930159	-0.67968476	4.92188346
 13	0.00000000	0.00000000	40.00000000	0.00000000	96.59773111	-4.66405976	44.74610251
 14	0.00000000	0.00000000	40.00000000	20.00000000	78.89093161	-4.00390598	33.72266603
 15	0.00000000	0.00000000	40.00000000	40.00000000	62.89828420	-3.35547078	25.50001365
 16	0.00000000	0.00000000	40.00000000	60.00000000	47.91666567	-2.69921559	19.23828405
 17	0.00000000	0.00000000	40.00000000	80.00000000	32.94730484	-2.00781229	13.74219817
 18	0.00000000	0.00000000	40.00000000	100.00000000	15.33854157	-1.05468664	8.09375566
 19	0.00000000	0.00000000	60.00000000	0.00000000	95.39521933	-5.17968449	61.46093440
 20	0.00000000	0.00000000	60.00000000	20.00000000	78.00398469	-4.73046499	47.68750948
 21	0.00000000	0.00000000	60.00000000	40.00000000	62.29013801	-4.13671646	36.76172775
 22	0.00000000	0.00000000	60.00000000	60.00000000	47.50612676	-3.43750077	28.14453495
 23	0.00000000	0.00000000	60.00000000	80.00000000	32.69454837	-2.57031131	19.71485448
 24	0.00000000	0.00000000	60.00000000	100.00000000	15.21599293	-1.31250280	10.51954550
 25	0.00000000	0.00000000	80.00000000	0.00000000	94.40410733	-5.41796970	77.53516626
 26	0.00000000	0.00000000	80.00000000	20.00000000	77.28247643	-5.20312163	61.14843917
 27	0.00000000	0.00000000	80.00000000	40.00000000	61.76471114	-4.68749690	47.98047376
 28	0.00000000	0.00000000	80.00000000	60.00000000	47.13847935	-3.94140694	36.82422680
 29	0.00000000	0.00000000	80.00000000	80.00000000	32.48161972	-3.01953080	25.80079031
 30	0.00000000	0.00000000	80.00000000	100.00000000	15.12867659	-1.49999994	12.49218684
 31	0.00000000	0.00000000	100.00000000	0.00000000	93.56464744	-5.47656256	93.37109011
 32	0.00000000	0.00000000	100.00000000	20.00000000	76.64215565	-5.47656256	74.91016072
 33	0.00000000	0.00000000	100.00000000	40.00000000	61.32352948	-5.07421735	59.40234166
 34	0.00000000	0.00000000	100.00000000	60.00000000	46.83976769	-4.32422119	45.72266531
 35	0.00000000	0.00000000	100.00000000	80.00000000	32.29166865	-3.32031506	31.85938281
 36	0.00000000	0.00000000	100.00000000	100.00000000	15.06280750	-1.64452899	14.01953769
 37	0.00000000	20.00000000	0.00000000	0.00000000	85.74755192	19.98828781	-2.09374848
 38	0.00000000	20.00000000	0.00000000	20.00000000	70.83027363	15.08594286	-2.20312181
 39	0.00000000	20.00000000	0.00000000	40.00000000	56.94853067	11.29687738	-2.09374848
 40	0.00000000	20.00000000	0.00000000	60.00000000	43.39154363	8.61329418	-1.76562849
 41	0.00000000	20.00000000	0.00000000	80.00000000	29.82077301	6.03516293	-1.18359092
 42	0.00000000	20.00000000	0.00000000	100.00000000	13.47426474	3.69141829	0.12109947
 43	0.00000000	20.00000000	20.00000000	0.00000000	84.41789150	16.94531989	17.88672698
 44	0.00000000	20.00000000	20.00000000	20.00000000	69.87438798	12.62110633	13.10156775
 45	0.00000000	20.00000000	20.00000000	40.00000000	56.30362034	9.35156417	9.70313650
 46	0.00000000	20.00000000	20.00000000	60.00000000	42.95496345	7.08203715	7.28906524
 47	0.00000000	20.00000000	20.00000000	80.00000000	29.51746583	4.92188346	5.24219108
 48	0.00000000	20.00000000	20.00000000	100.00000000	13.24601769	3.15234882	3.88672781
 49	0.00000000	20.00000000	40.00000000	0.00000000	83.32414031	15.33203286	34.77735263
 50	0.00000000	20.00000000	40.00000000	20.00000000	69.02880073	11.23828453	26.75782216
 51	0.00000000	20.00000000	40.00000000	40.00000000	55.67402244	8.13672376	20.71485442
 52	0.00000000	20.00000000	40.00000000	60.00000000	42.46630073	6.14063007	15.76954138
 53	0.00000000	20.00000000	40.00000000	80.00000000	29.18198705	4.22656637	11.39453214
 54	0.00000000	20.00000000	40.00000000	100.00000000	13.10355514	2.81251025	6.62891906
 55	0.00000000	20.00000000	60.00000000	0.00000000	82.43412971	14.39062577	49.74219602
 56	0.00000000	20.00000000	60.00000000	20.00000000	68.33639741	10.28906506	39.41015524
 57	0.00000000	20.00000000	60.00000000	40.00000000	55.11489511	7.31640857	30.95313144
 58	0.00000000	20.00000000	60.00000000	60.00000000	42.11550355	5.35156441	23.94531947
 59	0.00000000	20.00000000	60.00000000	80.00000000	28.95833552	3.66798115	16.84766513
 60	0.00000000	20.00000000	60.00000000	100.00000000	13.01011145	2.58595121	8.64844990
 61	0.00000000	20.00000000	80.00000000	0.00000000	81.68964386	13.73829198	64.52735466
 62	0.00000000	20.00000000	80.00000000	20.00000000	67.76501536	9.58985698	51.85547543
 63	0.00000000	20.00000000	80.00000000	40.00000000	54.65686321	6.66016859	41.34374988
 64	0.00000000	20.00000000	80.00000000	60.00000000	41.73406959	4.85547823	31.91406947
 65	0.00000000	20.00000000	80.00000000	80.00000000	28.75766158	3.20703548	22.44531196
 66	0.00000000	20.00000000	80.00000000	100.00000000	12.93964535	2.41796982	10.23828459
 67	0.00000000	20.00000000	100.00000000	0.00000000	81.06005192	13.28515869	79.40624666
 68	0.00000000	20.00000000	100.00000000	20.00000000	67.25950241	9.08984941	64.72657037
 69	0.00000000	20.00000000	100.00000000	40.00000000	54.28155661	6.15625483	52.01562923
 70	0.00000000	20.00000000	100.00000000	60.00000000	41.45067334	4.42968827	40.17578375
 71	0.00000000	20.00000000	100.00000000	80.00000000	28.52941453	2.94922692	27.94141304
 72	0.00000000	20.00000000	100.00000000	100.00000000	12.88909316	2.28906554	11.41406310
 73	0.00000000	40.00000000	0.00000000	0.00000000	74.98927712	35.09375405	-2.44531322
 74	0.00000000	40.00000000	0.00000000	20.00000000	62.37898469	27.48827976	-2.92187604
 75	0.00000000	40.00000000	0.00000000	40.00000000	50.30943155	21.41015631	-2.95312557
 76	0.00000000	40.00000000	0.00000000	60.00000000	38.38388622	16.46093708	-2.57031131
 77	0.00000000	40.00000000	0.00000000	80.00000000	26.21630132	11.85938400	-1.87109563
 78	0.00000000	40.00000000	0.00000000	100.00000000	11.74326017	6.72657382	-0.27734715
 79	0.00000000	40.00000000	20.00000000	0.00000000	73.97212386	32.49609184	14.13281721
 80	0.00000000	40.00000000	20.00000000	20.00000000	61.59926653	25.38671893	10.24219078
 81	0.00000000	40.00000000	20.00000000	40.00000000	49.73345697	19.76172876	7.51173329
 82	0.00000000	40.00000000	20.00000000	60.00000000	37.95956075	15.17969143	5.65235627
 83	0.00000000	40.00000000	20.00000000	80.00000000	25.91911852	10.93750787	4.04297543
 84	0.00000000	40.00000000	20.00000000	100.00000000	11.56556383	6.21484768	3.09766215
 85	0.00000000	40.00000000	40.00000000	0.00000000	73.15257788	30.84766430	28.69532299
 86	0.00000000	40.00000000	40.00000000	20.00000000	60.96354127	24.01563090	22.14062911
 87	0.00000000	40.00000000	40.00000000	40.00000000	49.37346876	18.51173264	17.16016036
 88	0.00000000	40.00000000	40.00000000	60.00000000	37.71139681	14.17187911	13.10156775
 89	0.00000000	40.00000000	40.00000000	80.00000000	25.75674057	10.15625459	9.41406322
 90	0.00000000	40.00000000	40.00000000	100.00000000	11.45680174	5.89063388	5.49218726
 91	0.00000000	40.00000000	60.00000000	0.00000000	72.44332433	29.72657245	42.37109315
 92	0.00000000	40.00000000	60.00000000	20.00000000	60.38450003	22.96485049	33.76563412
 93	0.00000000	40.00000000	60.00000000	40.00000000	48.83118868	17.69141746	26.61329311
 94	0.00000000	40.00000000	60.00000000	60.00000000	37.36366630	13.41406298	20.70313585
 95	0.00000000	40.00000000	60.00000000	80.00000000	25.52236617	9.64063746	14.43750006
 96	0.00000000	40.00000000	60.00000000	100.00000000	11.38327196	5.67188722	7.21484762
 97	0.00000000	40.00000000	80.00000000	0.00000000	71.85968161	28.92969441	55.85156900
 98	0.00000000	40.00000000	80.00000000	20.00000000	59.91268754	22.19531578	45.18359584
 99	0.00000000	40.00000000	80.00000000	40.00000000	48.41758609	17.01172513	36.16015923
 100	0.00000000	40.00000000	80.00000000	60.00000000	36.99755073	12.91407061	27.98438114
 101	0.00000000	40.00000000	80.00000000	80.00000000	25.34466982	9.17578560	19.52345115
 102	0.00000000	40.00000000	80.00000000	100.00000000	11.32965684	5.51173341	8.47656232
 103	0.00000000	40.00000000	100.00000000	0.00000000	71.36029601	28.33203208	69.67578959
 104	0.00000000	40.00000000	100.00000000	20.00000000	59.50214863	21.60157484	57.14843941
 105	0.00000000	40.00000000	100.00000000	40.00000000	48.09283018	16.45703089	46.07031626
 106	0.00000000	40.00000000	100.00000000	60.00000000	36.73253655	12.47656208	35.59376162
 107	0.00000000	40.00000000	100.00000000	80.00000000	25.10876060	8.93750799	24.46874899
 108	0.00000000	40.00000000	100.00000000	100.00000000	11.28982827	5.39453250	9.40625083
 109	0.00000000	60.00000000	0.00000000	0.00000000	66.18260145	48.13281518	-1.98828134
 110	0.00000000	60.00000000	0.00000000	20.00000000	55.18535972	38.78907096	-3.08593604
 111	0.00000000	60.00000000	0.00000000	40.00000000	44.55729127	30.84375811	-3.40625125
 112	0.00000000	60.00000000	0.00000000	60.00000000	33.84957314	24.10547328	-3.08984223
 113	0.00000000	60.00000000	0.00000000	80.00000000	23.12500030	17.22265941	-2.34375226
 114	0.00000000	60.00000000	0.00000000	100.00000000	10.42739004	9.21094131	-0.60546714
 115	0.00000000	60.00000000	20.00000000	0.00000000	65.37684202	45.89844388	11.92969543
 116	0.00000000	60.00000000	20.00000000	20.00000000	54.53891158	36.96484965	8.24609709
 117	0.00000000	60.00000000	20.00000000	40.00000000	44.06556487	29.37890631	5.78907293
 118	0.00000000	60.00000000	20.00000000	60.00000000	33.48498940	22.94141334	4.19922304
 119	0.00000000	60.00000000	20.00000000	80.00000000	22.87530601	16.36328232	2.95703930
 120	0.00000000	60.00000000	20.00000000	100.00000000	10.29411778	8.69532418	2.43359458
 121	0.00000000	60.00000000	40.00000000	0.00000000	64.70282078	44.43359208	24.77735323
 122	0.00000000	60.00000000	40.00000000	20.00000000	53.98284793	35.71485353	19.01172501
 123	0.00000000	60.00000000	40.00000000	40.00000000	43.69179010	28.26172066	14.70704240
 124	0.00000000	60.00000000	40.00000000	60.00000000	33.21231604	22.03906816	11.14453596
 125	0.00000000	60.00000000	40.00000000	80.00000000	22.69454598	15.66407424	7.98828852
 126	0.00000000	60.00000000	40.00000000	100.00000000	10.20986512	8.37890756	4.55079538
 127	0.00000000	60.00000000	60.00000000	0.00000000	64.14369345	43.28125072	37.01172394
 128	0.00000000	60.00000000	60.00000000	20.00000000	53.50949764	34.72266597	29.46093631
 129	0.00000000	60.00000000	60.00000000	40.00000000	43.29963326	27.45312405	23.14844143
 130	0.00000000	60.00000000	60.00000000	60.00000000	33.04381371	21.27343965	17.87110221
 131	0.00000000	60.00000000	60.00000000	80.00000000	22.58884758	15.10938001	12.35547018
 132	0.00000000	60.00000000	60.00000000	100.00000000	10.15471816	8.16016090	5.98828864
 133	0.00000000	60.00000000	80.00000000	0.00000000	63.65808845	42.41406125	49.39062369
 134	0.00000000	60.00000000	80.00000000	20.00000000	53.14798355	33.90625697	39.95313090
 135	0.00000000	60.00000000	80.00000000	40.00000000	43.00704598	26.76563454	31.93360043
 136	0.00000000	60.00000000	80.00000000	60.00000000	32.72671700	20.78907204	24.54298180
 137	0.00000000	60.00000000	80.00000000	80.00000000	22.42493927	14.67188668	16.97266322
 138	0.00000000	60.00000000	80.00000000	100.00000000	10.11488959	8.00391328	7.03906906
 139	0.00000000	60.00000000	100.00000000	0.00000000	63.23376298	41.78125840	62.31249911
 140	0.00000000	60.00000000	100.00000000	20.00000000	52.79105902	33.29296988	51.15234596
 141	0.00000000	60.00000000	100.00000000	40.00000000	42.71292984	26.21094030	41.19140846
 142	0.00000000	60.00000000	100.00000000	60.00000000	32.48621523	20.35156351	31.57032472
 143	0.00000000	60.00000000	100.00000000	80.00000000	22.21507430	14.42187530	21.46874917
 144	0.00000000	60.00000000	100.00000000	100.00000000	10.08425280	7.88672757	7.82813472
 145	0.00000000	80.00000000	0.00000000	0.00000000	58.64430666	60.40234160	-1.28515947
 146	0.00000000	80.00000000	0.00000000	20.00000000	48.88939857	49.62110412	-3.07031128
 147	0.00000000	80.00000000	0.00000000	40.00000000	39.28308785	40.25390756	-3.70702791
 148	0.00000000	80.00000000	0.00000000	60.00000000	29.80239093	31.51954424	-3.51562458
 149	0.00000000	80.00000000	0.00000000	80.00000000	20.22977918	22.62501192	-2.75781605
 150	0.00000000	80.00000000	0.00000000	100.00000000	9.39644650	11.25390929	-0.88672045
 151	0.00000000	80.00000000	20.00000000	0.00000000	57.97488093	58.48437172	10.50001454
 152	0.00000000	80.00000000	20.00000000	20.00000000	48.32567275	48.06250376	6.78126049
 153	0.00000000	80.00000000	20.00000000	40.00000000	38.85263503	38.95313096	4.39843875
 154	0.00000000	80.00000000	20.00000000	60.00000000	29.48682606	30.44531149	3.00000739
 155	0.00000000	80.00000000	20.00000000	80.00000000	20.01685053	21.80079055	2.00781983
 156	0.00000000	80.00000000	20.00000000	100.00000000	9.29840729	10.73047978	1.89844650
 157	0.00000000	80.00000000	40.00000000	0.00000000	57.43719339	57.08594036	21.79688436
 158	0.00000000	80.00000000	40.00000000	20.00000000	47.86458313	46.86719429	16.38671947
 159	0.00000000	80.00000000	40.00000000	40.00000000	38.54626417	37.90625674	12.38281351
 160	0.00000000	80.00000000	40.00000000	60.00000000	29.24938798	29.59766817	9.26953417
 161	0.00000000	80.00000000	40.00000000	80.00000000	19.85447407	21.15234774	6.53126431
 162	0.00000000	80.00000000	40.00000000	100.00000000	9.23713222	10.40234458	3.75391734
 163	0.00000000	80.00000000	60.00000000	0.00000000	56.96538091	56.01953518	32.96484989
 164	0.00000000	80.00000000	60.00000000	20.00000000	47.47548997	45.90625626	26.05078650
 165	0.00000000	80.00000000	60.00000000	40.00000000	38.18933964	37.11328489	20.30078304
 166	0.00000000	80.00000000	60.00000000	60.00000000	29.07169163	28.87110156	15.60938758
 167	0.00000000	80.00000000	60.00000000	80.00000000	19.74724233	20.61719966	10.61720026
 168	0.00000000	80.00000000	60.00000000	100.00000000	9.19730440	10.18750411	5.00391346
 169	0.00000000	80.00000000	80.00000000	0.00000000	56.57475591	55.10547143	44.20703304
 170	0.00000000	80.00000000	80.00000000	20.00000000	47.12928832	45.15625250	35.64063591
 171	0.00000000	80.00000000	80.00000000	40.00000000	37.88449764	36.50001299	28.26562685
 172	0.00000000	80.00000000	80.00000000	60.00000000	28.78983021	28.40624970	21.55470055
 173	0.00000000	80.00000000	80.00000000	80.00000000	19.67218220	20.17969114	14.62891859
 174	0.00000000	80.00000000	80.00000000	100.00000000	9.16666687	10.02735031	5.89844626
 175	0.00000000	80.00000000	100.00000000	0.00000000	56.21783137	54.42968529	56.23828185
 176	0.00000000	80.00000000	100.00000000	20.00000000	46.88878655	44.49609113	46.04687911
 177	0.00000000	80.00000000	100.00000000	40.00000000	37.78645992	35.90235066	36.80469584
 178	0.00000000	80.00000000	100.00000000	60.00000000	28.72395813	27.93360066	27.97656876
 179	0.00000000	80.00000000	100.00000000	80.00000000	19.52665448	19.89063305	18.63673073
 180	0.00000000	80.00000000	100.00000000	100.00000000	9.14368927	9.91016459	6.57032621
 181	0.00000000	100.00000000	0.00000000	0.00000000	52.13082433	71.98437852	-0.32422143
 182	0.00000000	100.00000000	0.00000000	20.00000000	43.21537912	60.23828161	-2.77734700
 183	0.00000000	100.00000000	0.00000000	40.00000000	34.55729187	49.47265369	-3.86328313
 184	0.00000000	100.00000000	0.00000000	60.00000000	26.03707314	39.00391144	-3.82422122
 185	0.00000000	100.00000000	0.00000000	80.00000000	17.64859110	27.80860257	-3.09374842
 186	0.00000000	100.00000000	0.00000000	100.00000000	8.58609080	12.92578918	-1.12499806
 187	0.00000000	100.00000000	20.00000000	0.00000000	51.51960850	70.39062244	9.73829222
 188	0.00000000	100.00000000	20.00000000	20.00000000	42.67157018	59.00000405	5.78126055
 189	0.00000000	100.00000000	20.00000000	40.00000000	34.13603008	48.38671756	3.31640881
 190	0.00000000	100.00000000	20.00000000	60.00000000	25.73223114	38.05469197	1.99219507
 191	0.00000000	100.00000000	20.00000000	80.00000000	17.45098084	27.02734929	1.20312941
 192	0.00000000	100.00000000	20.00000000	100.00000000	8.51715729	12.38671970	1.45312560
 193	0.00000000	100.00000000	40.00000000	0.00000000	51.08456016	69.07422107	19.76954114
 194	0.00000000	100.00000000	40.00000000	20.00000000	42.28860438	57.87109983	14.39843816
 195	0.00000000	100.00000000	40.00000000	40.00000000	33.87867808	47.42187333	10.51563931
 196	0.00000000	100.00000000	40.00000000	60.00000000	25.53308904	37.25390774	7.66407472
 197	0.00000000	100.00000000	40.00000000	80.00000000	17.32077301	26.40234363	5.28515917
 198	0.00000000	100.00000000	40.00000000	100.00000000	8.47273320	12.05078733	3.10547453
 199	0.00000000	100.00000000	60.00000000	0.00000000	50.69546700	68.00390971	29.87500769
 200	0.00000000	100.00000000	60.00000000	20.00000000	41.95925295	56.92578655	23.17969096
 201	0.00000000	100.00000000	60.00000000	40.00000000	33.58302712	46.61329192	17.72266698
 202	0.00000000	100.00000000	60.00000000	60.00000000	25.37990212	36.57423061	13.39453202
 203	0.00000000	100.00000000	60.00000000	80.00000000	17.22579747	25.90235126	8.94532037
 204	0.00000000	100.00000000	60.00000000	100.00000000	8.44515935	11.83204067	4.19531685
 205	0.00000000	100.00000000	80.00000000	0.00000000	50.36151409	67.13672024	40.22265804
 206	0.00000000	100.00000000	80.00000000	20.00000000	41.68505073	56.17187661	32.05078614
 207	0.00000000	100.00000000	80.00000000	40.00000000	33.35478008	45.94922435	25.12891036
 208	0.00000000	100.00000000	80.00000000	60.00000000	25.16543865	36.02344257	18.89844549
 209	0.00000000	100.00000000	80.00000000	80.00000000	17.13694930	25.46874893	12.61720014
 210	0.00000000	100.00000000	80.00000000	100.00000000	8.42524543	11.66407448	4.98438251
 211	0.00000000	100.00000000	100.00000000	0.00000000	50.07046461	66.42187220	51.31249976
 212	0.00000000	100.00000000	100.00000000	20.00000000	41.43995047	55.53516757	41.64844793
 213	0.00000000	100.00000000	100.00000000	40.00000000	33.17708373	45.39453012	32.92188179
 214	0.00000000	100.00000000	100.00000000	60.00000000	25.02450943	35.56641829	24.63673037
 215	0.00000000	100.00000000	100.00000000	80.00000000	17.00061262	25.13672274	16.06250566
 216	0.00000000	100.00000000	100.00000000	100.00000000	8.40992704	11.54298258	5.57032627
 217	20.00000000	0.00000000	0.00000000	0.00000000	87.98100352	-10.19530895	-15.33984530
 218	20.00000000	0.00000000	0.00000000	20.00000000	72.49234319	-7.91796955	-11.64843458
 219	20.00000000	0.00000000	0.00000000	40.00000000	58.12346935	-6.19921538	-8.92187569
 220	20.00000000	0.00000000	0.00000000	60.00000000	44.33670342	-4.85156450	-6.78125295
 221	20.00000000	0.00000000	0.00000000	80.00000000	30.42585850	-3.65234125	-4.71093404
 222	20.00000000	0.00000000	0.00000000	100.00000000	13.92156929	-2.48046893	-2.01953086
 223	20.00000000	0.00000000	20.00000000	0.00000000	86.10754013	-14.50781155	8.35156423
 224	20.00000000	0.00000000	20.00000000	20.00000000	71.19332552	-11.24608937	6.00391340
 225	20.00000000	0.00000000	20.00000000	40.00000000	57.22886324	-8.75781569	4.36328304
 226	20.00000000	0.00000000	20.00000000	60.00000000	43.70404482	-6.81250247	3.33203357
 227	20.00000000	0.00000000	20.00000000	80.00000000	29.99387383	-5.01562449	2.40234506
 228	20.00000000	0.00000000	20.00000000	100.00000000	13.62285614	-3.17968461	2.19531697
 229	20.00000000	0.00000000	40.00000000	0.00000000	84.71507430	-16.51171762	27.20312786
 230	20.00000000	0.00000000	40.00000000	20.00000000	70.17463446	-13.10546640	20.96094441
 231	20.00000000	0.00000000	40.00000000	40.00000000	56.53033257	-10.35156417	16.23047185
 232	20.00000000	0.00000000	40.00000000	60.00000000	43.20006073	-8.09374812	12.38281351
 233	20.00000000	0.00000000	40.00000000	80.00000000	29.65073586	-5.97656253	8.94532037
 234	20.00000000	0.00000000	40.00000000	100.00000000	13.43443692	-3.62890410	5.28125298
 235	20.00000000	0.00000000	60.00000000	0.00000000	83.59987736	-17.50390518	43.58204257
 236	20.00000000	0.00000000	60.00000000	20.00000000	69.34589744	-14.19530872	34.67579168
 237	20.00000000	0.00000000	60.00000000	40.00000000	55.89308143	-11.42578173	27.22265881
 238	20.00000000	0.00000000	60.00000000	60.00000000	42.78952181	-9.01562425	21.14453536
 239	20.00000000	0.00000000	60.00000000	80.00000000	29.38419282	-6.65624726	14.80469716
 240	20.00000000	0.00000000	60.00000000	100.00000000	13.31035644	-3.92968836	7.64454377
 241	20.00000000	0.00000000	80.00000000	0.00000000	82.68688917	-18.11327848	59.42968500
 242	20.00000000	0.00000000	80.00000000	20.00000000	68.68413091	-14.94531247	47.92969328
 243	20.00000000	0.00000000	80.00000000	40.00000000	55.37837148	-12.19140264	38.23437673
 244	20.00000000	0.00000000	80.00000000	60.00000000	42.36979187	-9.70312136	29.58985579
 245	20.00000000	0.00000000	80.00000000	80.00000000	29.15135026	-7.20312151	20.76172870
 246	20.00000000	0.00000000	80.00000000	100.00000000	13.21844459	-4.15624741	9.55079508
 247	20.00000000	0.00000000	100.00000000	0.00000000	81.91636205	-18.45703083	75.12500119
 248	20.00000000	0.00000000	100.00000000	20.00000000	68.09896231	-15.44140625	61.48827773
 249	20.00000000	0.00000000	100.00000000	40.00000000	54.95557785	-12.74999547	49.46874750
 250	20.00000000	0.00000000	100.00000000	60.00000000	42.04963148	-10.21483991	38.30078197
 251	20.00000000	0.00000000	100.00000000	80.00000000	28.89552712	-7.62109149	26.61329311
 252	20.00000000	0.00000000	100.00000000	100.00000000	13.14951032	-4.32812738	11.01172549
 253	20.00000000	20.00000000	0.00000000	0.00000000	76.03400946	7.94922662	-15.03124866
 254	20.00000000	20.00000000	0.00000000	20.00000000	63.54320049	5.89454007	-11.94140646
 255	20.00000000	20.00000000	0.00000000	40.00000000	51.44914389	4.25390971	-9.46874994
 256	20.00000000	20.00000000	0.00000000	60.00000000	39.25857842	3.19922310	-7.33203340
 257	20.00000000	20.00000000	0.00000000	80.00000000	26.88419223	2.05860031	-5.16015354
 258	20.00000000	20.00000000	0.00000000	100.00000000	11.78615168	1.09375608	-2.22265276
 259	20.00000000	20.00000000	20.00000000	0.00000000	74.67677593	4.12891161	3.89063400
 260	20.00000000	20.00000000	20.00000000	20.00000000	62.65012622	2.89844644	2.72657406
 261	20.00000000	20.00000000	20.00000000	40.00000000	50.91912150	1.93360221	1.92578983
 262	20.00000000	20.00000000	20.00000000	60.00000000	38.95680308	1.40625131	1.46093798
 263	20.00000000	20.00000000	20.00000000	80.00000000	26.69424117	0.78907323	1.11328703
 264	20.00000000	20.00000000	20.00000000	100.00000000	11.55177727	0.47265661	1.42968845
 265	20.00000000	20.00000000	40.00000000	0.00000000	73.63358140	2.03906935	20.24219018
 266	20.00000000	20.00000000	40.00000000	20.00000000	61.78002954	1.11719322	15.95703852
 267	20.00000000	20.00000000	40.00000000	40.00000000	50.27114153	0.41404855	12.63282490
 268	20.00000000	20.00000000	40.00000000	60.00000000	38.43596876	0.22655141	9.68751174
 269	20.00000000	20.00000000	40.00000000	80.00000000	26.33118927	-0.07421005	7.05469382
 270	20.00000000	20.00000000	40.00000000	100.00000000	11.40625030	0.08203757	4.07813114
 271	20.00000000	20.00000000	60.00000000	0.00000000	72.78646231	0.73438656	34.92578787
 272	20.00000000	20.00000000	60.00000000	20.00000000	61.10600829	-0.12889671	28.37890637
