bench/lcms_compat/reference/USSheetfedCoated.icc_to_srgb_Relative.it8
CGATS.17
ORIGINATOR	"icctrans"
#
# Data follows
#
NUMBER_OF_SETS	1296.00000000
NUMBER_OF_FIELDS	8.00000000
BEGIN_DATA_FORMAT
 SAMPLE_ID	IN_CMYK_C	IN_CMYK_M	IN_CMYK_Y	IN_CMYK_K	OUT_RGB_R	OUT_RGB_G	OUT_RGB_B
END_DATA_FORMAT
BEGIN_DATA
 1	0.00000000	0.00000000	0.00000000	0.00000000	254.99998480	255.00000000	255.00000000
 2	0.00000000	0.00000000	0.00000000	20.00000000	201.69544190	201.83449924	202.45502114
 3	0.00000000	0.00000000	0.00000000	40.00000000	156.23606443	156.54348314	157.42622137
 4	0.00000000	0.00000000	0.00000000	60.00000000	116.29638478	116.65465236	117.43221983
 5	0.00000000	0.00000000	0.00000000	80.00000000	79.06219035	79.33879271	79.69755426
 6	0.00000000	0.00000000	0.00000000	100.00000000	39.53163475	39.37922873	38.51515509
 7	0.00000000	0.00000000	20.00000000	0.00000000	257.47302890	250.46504974	200.00935078
 8	0.00000000	0.00000000	20.00000000	20.00000000	203.44968617	198.92602891	163.82263094
 9	0.00000000	0.00000000	20.00000000	40.00000000	157.59740978	154.71564442	130.16852081
 10	0.00000000	0.00000000	20.00000000	60.00000000	117.35673308	115.47150984	98.01197872
 11	0.00000000	0.00000000	20.00000000	80.00000000	79.81543154	78.61148894	67.05296516
 12	0.00000000	0.00000000	20.00000000	100.00000000	39.94621530	38.91079746	31.77475568
 13	0.00000000	0.00000000	40.00000000	0.00000000	259.12098527	246.45773917	156.63986117
 14	0.00000000	0.00000000	40.00000000	20.00000000	204.92575496	196.45306081	131.57225668
 15	0.00000000	0.00000000	40.00000000	40.00000000	158.81576121	153.17127049	106.26022652
 16	0.00000000	0.00000000	40.00000000	60.00000000	118.31644759	114.50452253	80.89214936
 17	0.00000000	0.00000000	40.00000000	80.00000000	80.51457882	78.04683924	55.57807870
 18	0.00000000	0.00000000	40.00000000	100.00000000	40.20139821	38.61943670	26.86422788
 19	0.00000000	0.00000000	60.00000000	0.00000000	260.05038500	242.91848749	117.51600534
 20	0.00000000	0.00000000	60.00000000	20.00000000	205.85048854	194.09256667	101.21984258
 21	0.00000000	0.00000000	60.00000000	40.00000000	159.72003669	151.72851831	83.47018942
 22	0.00000000	0.00000000	60.00000000	60.00000000	119.10328656	113.65329221	64.09499109
 23	0.00000000	0.00000000	60.00000000	80.00000000	81.05033487	77.59296879	45.18278651
 24	0.00000000	0.00000000	60.00000000	100.00000000	40.36120243	38.42323422	23.09126783
 25	0.00000000	0.00000000	80.00000000	0.00000000	260.57861745	239.93047982	74.01643351
 26	0.00000000	0.00000000	80.00000000	20.00000000	206.44111365	192.12883204	68.81651133
 27	0.00000000	0.00000000	80.00000000	40.00000000	160.35928398	150.43579727	58.87564816
 28	0.00000000	0.00000000	80.00000000	60.00000000	119.67940405	112.83280224	46.58642359
 29	0.00000000	0.00000000	80.00000000	80.00000000	81.51941970	77.19782040	34.13489074
 30	0.00000000	0.00000000	80.00000000	100.00000000	40.48310369	38.28373991	19.99164116
 31	0.00000000	0.00000000	100.00000000	0.00000000	260.74559569	237.35402048	-33.33189122
 32	0.00000000	0.00000000	100.00000000	20.00000000	206.74518853	190.33604264	17.23955523
 33	0.00000000	0.00000000	100.00000000	40.00000000	160.79059124	149.32418972	26.00995962
 34	0.00000000	0.00000000	100.00000000	60.00000000	120.12911752	112.15523019	24.96820752
 35	0.00000000	0.00000000	100.00000000	80.00000000	81.92386240	76.80676818	21.83398180
 36	0.00000000	0.00000000	100.00000000	100.00000000	40.56600764	38.17998648	17.41043396
 37	0.00000000	20.00000000	0.00000000	0.00000000	250.08092076	201.05013013	219.20731902
 38	0.00000000	20.00000000	0.00000000	20.00000000	199.03193682	163.77490550	177.93917745
 39	0.00000000	20.00000000	0.00000000	40.00000000	154.94881511	129.89341557	140.73674172
 40	0.00000000	20.00000000	0.00000000	60.00000000	115.70203587	97.63647527	105.73884130
 41	0.00000000	20.00000000	0.00000000	80.00000000	78.95471692	67.05139965	72.27291226
 42	0.00000000	20.00000000	0.00000000	100.00000000	39.65959288	32.74579167	34.46515001
 43	0.00000000	20.00000000	20.00000000	0.00000000	250.62008142	198.66577327	177.84249544
 44	0.00000000	20.00000000	20.00000000	20.00000000	199.64797497	162.23800957	147.63122857
 45	0.00000000	20.00000000	20.00000000	40.00000000	155.73056996	128.99974912	118.59200880
 46	0.00000000	20.00000000	20.00000000	60.00000000	116.42151207	97.14093626	89.72865120
 47	0.00000000	20.00000000	20.00000000	80.00000000	79.44408506	66.74500689	61.63456611
 48	0.00000000	20.00000000	20.00000000	100.00000000	39.91427802	32.42799573	28.78099322
 49	0.00000000	20.00000000	40.00000000	0.00000000	250.97347766	196.19627059	142.61785358
 50	0.00000000	20.00000000	40.00000000	20.00000000	200.22669911	160.43932289	120.41762084
 51	0.00000000	20.00000000	40.00000000	40.00000000	156.35712594	127.78597265	97.72845313
 52	0.00000000	20.00000000	40.00000000	60.00000000	116.95293635	96.23763353	74.46822926
 53	0.00000000	20.00000000	40.00000000	80.00000000	79.89601001	66.17423192	51.30529918
 54	0.00000000	20.00000000	40.00000000	100.00000000	40.07429123	32.22920179	24.67306785
 55	0.00000000	20.00000000	60.00000000	0.00000000	251.07286513	193.99454713	110.43303341
 56	0.00000000	20.00000000	60.00000000	20.00000000	200.53147316	158.88114810	94.67495978
 57	0.00000000	20.00000000	60.00000000	40.00000000	156.70622081	126.59439459	77.91522950
 58	0.00000000	20.00000000	60.00000000	60.00000000	117.36897603	95.63418031	59.71555889
 59	0.00000000	20.00000000	60.00000000	80.00000000	80.21766275	65.82997039	42.15412103
 60	0.00000000	20.00000000	60.00000000	100.00000000	40.17463624	32.09989093	21.64469115
 61	0.00000000	20.00000000	80.00000000	0.00000000	251.00956053	192.09138125	75.57538345
 62	0.00000000	20.00000000	80.00000000	20.00000000	200.66929936	157.55991340	67.52792448
 63	0.00000000	20.00000000	80.00000000	40.00000000	156.94068342	125.61265647	56.72518775
 64	0.00000000	20.00000000	80.00000000	60.00000000	117.57871717	94.83113140	44.45652388
 65	0.00000000	20.00000000	80.00000000	80.00000000	80.47840476	65.50436586	32.45348096
 66	0.00000000	20.00000000	80.00000000	100.00000000	40.25209509	32.00075045	19.12975051
 67	0.00000000	20.00000000	100.00000000	0.00000000	250.75672209	190.44731587	23.89402796
 68	0.00000000	20.00000000	100.00000000	20.00000000	200.64017773	156.34318829	31.36874937
 69	0.00000000	20.00000000	100.00000000	40.00000000	157.07312912	124.79582950	30.59890117
 70	0.00000000	20.00000000	100.00000000	60.00000000	117.76260450	94.25679222	26.52092960
 71	0.00000000	20.00000000	100.00000000	80.00000000	80.65818071	65.03077447	22.02246118
 72	0.00000000	20.00000000	100.00000000	100.00000000	40.30898944	31.93249851	17.08564639
 73	0.00000000	40.00000000	0.00000000	0.00000000	243.55420858	159.62484419	190.67372292
 74	0.00000000	40.00000000	0.00000000	20.00000000	195.16641945	132.34346330	157.14462608
 75	0.00000000	40.00000000	0.00000000	40.00000000	152.74250150	106.14399835	125.58270648
 76	0.00000000	40.00000000	0.00000000	60.00000000	114.49644417	80.53937629	95.12895942
 77	0.00000000	40.00000000	0.00000000	80.00000000	78.42653766	55.46212412	65.28669074
 78	0.00000000	40.00000000	0.00000000	100.00000000	39.72399943	27.65309975	31.57701809
 79	0.00000000	40.00000000	20.00000000	0.00000000	243.28597337	158.26324046	157.72889793
 80	0.00000000	40.00000000	20.00000000	20.00000000	195.22539228	131.34812951	131.98518813
 81	0.00000000	40.00000000	20.00000000	40.00000000	153.08413357	105.44539064	106.49439275
 82	0.00000000	40.00000000	20.00000000	60.00000000	114.91360098	80.05850449	80.91439337
 83	0.00000000	40.00000000	20.00000000	80.00000000	78.76715899	55.14550991	55.70183426
 84	0.00000000	40.00000000	20.00000000	100.00000000	39.89018351	27.46178381	26.63011864
 85	0.00000000	40.00000000	40.00000000	0.00000000	243.02515537	156.86181486	128.84901881
 86	0.00000000	40.00000000	40.00000000	20.00000000	195.33339769	130.30690938	109.35161904
 87	0.00000000	40.00000000	40.00000000	40.00000000	153.54810387	105.09577140	89.25920919
 88	0.00000000	40.00000000	40.00000000	60.00000000	115.35031155	79.88645732	68.31717253
 89	0.00000000	40.00000000	40.00000000	80.00000000	79.08530071	55.08949332	47.20836662
 90	0.00000000	40.00000000	40.00000000	100.00000000	39.98790666	27.34816611	23.14716093
 91	0.00000000	40.00000000	60.00000000	0.00000000	242.66450912	155.46063244	101.16200209
 92	0.00000000	40.00000000	60.00000000	20.00000000	195.20532936	129.25851524	86.86938062
 93	0.00000000	40.00000000	60.00000000	40.00000000	153.46023738	104.05113146	71.62227318
 94	0.00000000	40.00000000	60.00000000	60.00000000	115.47326535	79.34793502	55.04218206
 95	0.00000000	40.00000000	60.00000000	80.00000000	79.20835331	54.74380307	38.99349242
 96	0.00000000	40.00000000	60.00000000	100.00000000	40.04811443	27.27103595	20.56948565
 97	0.00000000	40.00000000	80.00000000	0.00000000	242.32416898	154.22955930	72.03664854
 98	0.00000000	40.00000000	80.00000000	20.00000000	195.07104456	128.35279584	63.66085678
 99	0.00000000	40.00000000	80.00000000	40.00000000	153.39937985	103.28127757	53.23817946
 100	0.00000000	40.00000000	80.00000000	60.00000000	115.41611642	78.64418238	41.73248805
 101	0.00000000	40.00000000	80.00000000	80.00000000	79.31817502	54.51343283	30.56285631
 102	0.00000000	40.00000000	80.00000000	100.00000000	40.09449095	27.21446458	18.50257706
 103	0.00000000	40.00000000	100.00000000	0.00000000	241.89287692	153.13863784	33.89084123
 104	0.00000000	40.00000000	100.00000000	20.00000000	194.85889435	127.52925843	34.63753916
 105	0.00000000	40.00000000	100.00000000	40.00000000	153.32721412	102.68939093	31.50547933
 106	0.00000000	40.00000000	100.00000000	60.00000000	115.41356295	78.16834152	26.56784948
 107	0.00000000	40.00000000	100.00000000	80.00000000	79.33319181	54.04081799	21.72266107
 108	0.00000000	40.00000000	100.00000000	100.00000000	40.13042182	27.17136160	16.85236171
 109	0.00000000	60.00000000	0.00000000	0.00000000	237.35260695	123.49646643	166.66074425
 110	0.00000000	60.00000000	0.00000000	20.00000000	191.42953277	103.84085074	139.12968636
 111	0.00000000	60.00000000	0.00000000	40.00000000	150.58091909	84.26345766	112.27621570
 112	0.00000000	60.00000000	0.00000000	60.00000000	113.24006438	64.12459910	85.39646566
 113	0.00000000	60.00000000	0.00000000	80.00000000	77.89186835	44.97874506	59.23413992
 114	0.00000000	60.00000000	0.00000000	100.00000000	39.78782840	23.60160705	29.44566116
 115	0.00000000	60.00000000	20.00000000	0.00000000	236.57638460	122.87928075	139.99977887
 116	0.00000000	60.00000000	20.00000000	20.00000000	191.05660558	103.30922127	118.17676708
 117	0.00000000	60.00000000	20.00000000	40.00000000	150.53763181	83.87015596	96.00526839
 118	0.00000000	60.00000000	20.00000000	60.00000000	113.33580405	63.86626616	73.15763399
 119	0.00000000	60.00000000	20.00000000	80.00000000	78.03339556	44.82316241	50.87838449
 120	0.00000000	60.00000000	20.00000000	100.00000000	39.87788737	23.53607196	25.10984112
 121	0.00000000	60.00000000	40.00000000	0.00000000	236.05534136	121.99894398	115.55724084
 122	0.00000000	60.00000000	40.00000000	20.00000000	190.84214509	102.58634806	98.43056425
 123	0.00000000	60.00000000	40.00000000	40.00000000	150.63537776	83.54424745	80.48212856
 124	0.00000000	60.00000000	40.00000000	60.00000000	113.48844945	63.67380649	61.67436138
 125	0.00000000	60.00000000	40.00000000	80.00000000	78.18720371	44.74199116	43.07059005
 126	0.00000000	60.00000000	40.00000000	100.00000000	39.93458033	23.48844152	22.08565939
 127	0.00000000	60.00000000	60.00000000	0.00000000	235.45029223	121.23841479	92.06179440
 128	0.00000000	60.00000000	60.00000000	20.00000000	190.53509116	101.93045765	79.15416822
 129	0.00000000	60.00000000	60.00000000	40.00000000	150.49238384	82.98655897	65.52915573
 130	0.00000000	60.00000000	60.00000000	60.00000000	113.68635044	63.66448179	50.64579897
 131	0.00000000	60.00000000	60.00000000	80.00000000	78.32092613	44.76672404	36.34491295
 132	0.00000000	60.00000000	60.00000000	100.00000000	39.96659361	23.46245661	19.87405457
 133	0.00000000	60.00000000	80.00000000	0.00000000	234.87691820	120.47616050	67.11957559
 134	0.00000000	60.00000000	80.00000000	20.00000000	190.27881771	101.47097871	59.18092377
 135	0.00000000	60.00000000	80.00000000	40.00000000	150.43924749	82.61544809	49.65761259
 136	0.00000000	60.00000000	80.00000000	60.00000000	113.53011042	63.12830396	39.05416757
 137	0.00000000	60.00000000	80.00000000	80.00000000	78.33728045	44.59378392	28.98265600
 138	0.00000000	60.00000000	80.00000000	100.00000000	39.99718957	23.44165653	18.12121242
 139	0.00000000	60.00000000	100.00000000	0.00000000	234.32538539	119.71880794	36.10857703
 140	0.00000000	60.00000000	100.00000000	20.00000000	189.92628783	100.89185178	34.79784496
 141	0.00000000	60.00000000	100.00000000	40.00000000	150.22670209	82.17298463	31.09022811
 142	0.00000000	60.00000000	100.00000000	60.00000000	113.40960369	62.76338674	26.09082688
 143	0.00000000	60.00000000	100.00000000	80.00000000	78.27364147	44.21291515	21.40263274
 144	0.00000000	60.00000000	100.00000000	100.00000000	40.01993515	23.42416417	16.70947418
 145	0.00000000	80.00000000	0.00000000	0.00000000	232.02495843	87.65767112	146.19660795
 146	0.00000000	80.00000000	0.00000000	20.00000000	188.10132176	75.34284353	123.52555767
 147	0.00000000	80.00000000	0.00000000	40.00000000	148.48875135	61.62240297	100.19135177
 148	0.00000000	80.00000000	0.00000000	60.00000000	112.04368338	47.76822858	76.84631646
 149	0.00000000	80.00000000	0.00000000	80.00000000	77.32697546	34.23922174	53.63321006
 150	0.00000000	80.00000000	0.00000000	100.00000000	39.82199997	20.27703054	27.82558959
 151	0.00000000	80.00000000	20.00000000	0.00000000	230.90883672	87.67163917	124.36748609
 152	0.00000000	80.00000000	20.00000000	20.00000000	187.43891090	75.16880527	105.85255399
 153	0.00000000	80.00000000	20.00000000	40.00000000	148.15332055	61.52755246	86.27200708
 154	0.00000000	80.00000000	20.00000000	60.00000000	111.90485403	47.75301419	66.22080982
 155	0.00000000	80.00000000	20.00000000	80.00000000	77.28861272	34.26054239	46.32474303
 156	0.00000000	80.00000000	20.00000000	100.00000000	39.86537844	20.31869911	23.94756138
 157	0.00000000	80.00000000	40.00000000	0.00000000	230.13203681	87.47512132	103.76873061
 158	0.00000000	80.00000000	40.00000000	20.00000000	186.96051657	74.91881669	88.90683129
 159	0.00000000	80.00000000	40.00000000	40.00000000	148.03611964	61.53104827	72.89102510
 160	0.00000000	80.00000000	40.00000000	60.00000000	111.86775282	47.75069632	56.18348882
 161	0.00000000	80.00000000	40.00000000	80.00000000	77.30774090	34.27582897	39.49280083
 162	0.00000000	80.00000000	40.00000000	100.00000000	39.88542236	20.34396015	21.28190752
 163	0.00000000	80.00000000	60.00000000	0.00000000	229.42642987	87.12239385	83.33987162
 164	0.00000000	80.00000000	60.00000000	20.00000000	186.54269099	74.65534642	71.90916538
 165	0.00000000	80.00000000	60.00000000	40.00000000	147.70500541	61.19033195	59.42814991
 166	0.00000000	80.00000000	60.00000000	60.00000000	111.87489644	47.80815303	46.11731976
 167	0.00000000	80.00000000	60.00000000	80.00000000	77.32770503	34.35312822	33.37865911
 168	0.00000000	80.00000000	60.00000000	100.00000000	39.91153076	20.35858557	19.32070736
 169	0.00000000	80.00000000	80.00000000	0.00000000	228.70518297	86.88906357	62.13538304
 170	0.00000000	80.00000000	80.00000000	20.00000000	186.08864576	74.33236375	54.60158050
 171	0.00000000	80.00000000	80.00000000	40.00000000	147.41220832	60.84228963	45.67770995
 172	0.00000000	80.00000000	80.00000000	60.00000000	111.59408391	47.41454735	36.25035882
 173	0.00000000	80.00000000	80.00000000	80.00000000	77.39224836	34.43799287	27.35806078
 174	0.00000000	80.00000000	80.00000000	100.00000000	39.92029689	20.36826175	17.80590344
 175	0.00000000	80.00000000	100.00000000	0.00000000	228.04547757	86.50280669	36.45309694
 176	0.00000000	80.00000000	100.00000000	20.00000000	185.78490525	74.23419222	34.18309495
 177	0.00000000	80.00000000	100.00000000	40.00000000	147.49711096	61.03577144	30.28704051
 178	0.00000000	80.00000000	100.00000000	60.00000000	111.74225315	47.56121188	25.52365981
 179	0.00000000	80.00000000	100.00000000	80.00000000	77.32533395	34.26109716	21.03241101
 180	0.00000000	80.00000000	100.00000000	100.00000000	39.93122511	20.37326038	16.59836054
 181	0.00000000	100.00000000	0.00000000	0.00000000	227.44509459	43.59674022	128.48619908
 182	0.00000000	100.00000000	0.00000000	20.00000000	185.07498175	40.63455977	109.41166341
 183	0.00000000	100.00000000	0.00000000	40.00000000	146.62470818	35.11379041	89.47024986
 184	0.00000000	100.00000000	0.00000000	60.00000000	110.90793952	28.74920223	68.94693553
 185	0.00000000	100.00000000	0.00000000	80.00000000	76.79995134	23.00240010	48.69187541
 186	0.00000000	100.00000000	0.00000000	100.00000000	39.84265186	17.52912059	26.58561923
 187	0.00000000	100.00000000	20.00000000	0.00000000	226.06798768	44.41471852	110.35693869
 188	0.00000000	100.00000000	20.00000000	20.00000000	184.17832106	40.67652471	94.41734880
 189	0.00000000	100.00000000	20.00000000	40.00000000	146.05583310	35.22896983	77.42016166
 190	0.00000000	100.00000000	20.00000000	60.00000000	110.55837348	28.95364646	59.67804350
 191	0.00000000	100.00000000	20.00000000	80.00000000	76.60511300	23.19894455	42.24592410
 192	0.00000000	100.00000000	20.00000000	100.00000000	39.85103041	17.67078839	23.06352552
 193	0.00000000	100.00000000	40.00000000	0.00000000	225.13975829	45.31484082	92.82990038
 194	0.00000000	100.00000000	40.00000000	20.00000000	183.53013664	41.14885457	79.82317552
 195	0.00000000	100.00000000	40.00000000	40.00000000	145.79144329	35.70027374	65.80592528
 196	0.00000000	100.00000000	40.00000000	60.00000000	110.39240599	29.27492872	50.91781877
 197	0.00000000	100.00000000	40.00000000	80.00000000	76.54140562	23.40575416	36.27576046
 198	0.00000000	100.00000000	40.00000000	100.00000000	39.85249713	17.75342066	20.64057603
 199	0.00000000	100.00000000	60.00000000	0.00000000	224.27182406	45.86856611	75.23040757
 200	0.00000000	100.00000000	60.00000000	20.00000000	182.94396490	41.49707548	65.08107617
 201	0.00000000	100.00000000	60.00000000	40.00000000	145.31794310	35.84338926	54.09832411
 202	0.00000000	100.00000000	60.00000000	60.00000000	110.28784320	29.57822274	42.17343159
 203	0.00000000	100.00000000	60.00000000	80.00000000	76.48828447	23.59145209	30.96670814
 204	0.00000000	100.00000000	60.00000000	100.00000000	39.86271098	17.80785464	18.90731804
 205	0.00000000	100.00000000	80.00000000	0.00000000	223.48988682	46.23231679	56.90193146
 206	0.00000000	100.00000000	80.00000000	20.00000000	182.44018793	41.72166243	50.04848622
 207	0.00000000	100.00000000	80.00000000	40.00000000	144.97255683	35.99384978	42.07430251
 208	0.00000000	100.00000000	80.00000000	60.00000000	109.93280545	29.58330307	33.54674309
 209	0.00000000	100.00000000	80.00000000	80.00000000	76.42160565	23.73342007	25.61780926
 210	0.00000000	100.00000000	80.00000000	100.00000000	39.86129366	17.85322800	17.56760113
 211	0.00000000	100.00000000	100.00000000	0.00000000	222.75435269	46.47826999	35.58957428
 212	0.00000000	100.00000000	100.00000000	20.00000000	181.93662375	41.87175058	32.79545121
 213	0.00000000	100.00000000	100.00000000	40.00000000	144.69465494	36.15970708	28.93120866
 214	0.00000000	100.00000000	100.00000000	60.00000000	109.74343881	29.67959180	24.43381939
 215	0.00000000	100.00000000	100.00000000	80.00000000	76.21720701	23.67772266	20.40194884
 216	0.00000000	100.00000000	100.00000000	100.00000000	39.86366853	17.88293861	16.51761487
 217	20.00000000	0.00000000	0.00000000	0.00000000	186.44570500	227.39083350	249.33298409
 218	20.00000000	0.00000000	0.00000000	20.00000000	152.82559544	182.82744795	198.70456159
 219	20.00000000	0.00000000	0.00000000	40.00000000	121.29380822	143.45286638	154.99830365
 220	20.00000000	0.00000000	0.00000000	60.00000000	91.36243433	107.61568978	115.86928770
 221	20.00000000	0.00000000	0.00000000	80.00000000	62.43458658	73.57666031	78.79819572
 222	20.00000000	0.00000000	0.00000000	100.00000000	30.55451006	36.58002533	38.15917119
 223	20.00000000	0.00000000	20.00000000	0.00000000	191.21440351	223.41908902	198.85548949
 224	20.00000000	0.00000000	20.00000000	20.00000000	156.04870409	180.32678694	162.83766299
 225	20.00000000	0.00000000	20.00000000	40.00000000	123.62131253	141.90490544	129.38647717
 226	20.00000000	0.00000000	20.00000000	60.00000000	93.08419794	106.62673965	97.46790111
 227	20.00000000	0.00000000	20.00000000	80.00000000	63.58657837	72.95068190	66.70650735
 228	20.00000000	0.00000000	20.00000000	100.00000000	31.15969218	36.11795492	31.65403996
 229	20.00000000	0.00000000	40.00000000	0.00000000	194.61383790	219.92014557	158.80787283
 230	20.00000000	0.00000000	40.00000000	20.00000000	158.47946405	178.02933902	132.57181585
 231	20.00000000	0.00000000	40.00000000	40.00000000	125.60111269	140.50346464	106.69909537
 232	20.00000000	0.00000000	40.00000000	60.00000000	94.50792834	105.71323827	81.10582709
 233	20.00000000	0.00000000	40.00000000	80.00000000	64.56352115	72.39650443	55.67920268
 234	20.00000000	0.00000000	40.00000000	100.00000000	31.51122462	35.82804948	26.94164492
 235	20.00000000	0.00000000	60.00000000	0.00000000	196.97577596	216.86840773	123.21298644
 236	20.00000000	0.00000000	60.00000000	20.00000000	160.39820910	175.97922742	104.41034138
 237	20.00000000	0.00000000	60.00000000	40.00000000	126.92145064	139.09325391	85.27042642
 238	20.00000000	0.00000000	60.00000000	60.00000000	95.71208373	104.91273522	65.15679091
 239	20.00000000	0.00000000	60.00000000	80.00000000	65.30739963	71.93830222	45.74914232
 240	20.00000000	0.00000000	60.00000000	100.00000000	31.75583079	35.63669175	23.34469143
 241	20.00000000	0.00000000	80.00000000	0.00000000	198.60468775	214.29922879	86.07969180
 242	20.00000000	0.00000000	80.00000000	20.00000000	161.78247482	174.29720968	75.58212429
 243	20.00000000	0.00000000	80.00000000	40.00000000	128.03166747	137.90679038	62.83934467
 244	20.00000000	0.00000000	80.00000000	60.00000000	96.39477029	104.02792990	48.95892888
 245	20.00000000	0.00000000	80.00000000	80.00000000	65.92903867	71.52024105	35.37175477
 246	20.00000000	0.00000000	80.00000000	100.00000000	31.91928282	35.49655527	20.41326463
 247	20.00000000	0.00000000	100.00000000	0.00000000	199.61529672	212.08122700	36.41831741
 248	20.00000000	0.00000000	100.00000000	20.00000000	162.71912456	172.75798827	39.07846726
 249	20.00000000	0.00000000	100.00000000	40.00000000	128.85389775	136.90774798	36.01042069
 250	20.00000000	0.00000000	100.00000000	60.00000000	97.02354535	103.33936885	30.25351301
 251	20.00000000	0.00000000	100.00000000	80.00000000	66.26600459	71.01676807	24.25987422
 252	20.00000000	0.00000000	100.00000000	100.00000000	32.03951597	35.39184429	17.97851488
 253	20.00000000	20.00000000	0.00000000	0.00000000	192.29419917	183.22283953	215.37472308
 254	20.00000000	20.00000000	0.00000000	20.00000000	156.84017122	150.89478225	175.24431646
 255	20.00000000	20.00000000	0.00000000	40.00000000	124.12241444	120.57458282	138.84012669
 256	20.00000000	20.00000000	0.00000000	60.00000000	93.43863532	91.02502763	104.42510739
 257	20.00000000	20.00000000	0.00000000	80.00000000	63.89055446	62.69014947	71.43581718
 258	20.00000000	20.00000000	0.00000000	100.00000000	31.51531130	30.63995037	34.12086569
 259	20.00000000	20.00000000	20.00000000	0.00000000	193.75634551	181.03192270	176.76946342
 260	20.00000000	20.00000000	20.00000000	20.00000000	158.33533019	149.68276888	146.79585099
 261	20.00000000	20.00000000	20.00000000	40.00000000	125.69902584	120.07118583	118.03998962
 262	20.00000000	20.00000000	20.00000000	60.00000000	94.84927922	90.91234088	89.40951392
 263	20.00000000	20.00000000	20.00000000	80.00000000	64.90372449	62.66455024	61.43617876
 264	20.00000000	20.00000000	20.00000000	100.00000000	31.88793831	30.32622971	28.65168996
 265	20.00000000	20.00000000	40.00000000	0.00000000	195.32120794	178.86948913	143.78305346
 266	20.00000000	20.00000000	40.00000000	20.00000000	159.51367736	147.96349794	120.98229334
 267	20.00000000	20.00000000	40.00000000	40.00000000	126.73872605	118.90997574	98.11512038
