bench/lcms_compat/reference/USSheetfedCoated.icc_to_srgb_Perceptual.it8
CGATS.17
ORIGINATOR	"icctrans"
#
# Data follows
#
NUMBER_OF_SETS	1296.00000000
NUMBER_OF_FIELDS	8.00000000
BEGIN_DATA_FORMAT
 SAMPLE_ID	IN_CMYK_C	IN_CMYK_M	IN_CMYK_Y	IN_CMYK_K	OUT_RGB_R	OUT_RGB_G	OUT_RGB_B
END_DATA_FORMAT
BEGIN_DATA
 1	0.00000000	0.00000000	0.00000000	0.00000000	254.99998480	255.00000000	255.00000000
 2	0.00000000	0.00000000	0.00000000	20.00000000	201.09730840	201.22903973	201.85887873
 3	0.00000000	0.00000000	0.00000000	40.00000000	154.85193551	155.16672581	156.06835663
 4	0.00000000	0.00000000	0.00000000	60.00000000	113.80098268	114.17929038	114.98363882
 5	0.00000000	0.00000000	0.00000000	80.00000000	74.37472388	74.66843292	75.05114838
 6	0.00000000	0.00000000	0.00000000	100.00000000	27.74922319	27.53322188	26.28122136
 7	0.00000000	0.00000000	20.00000000	0.00000000	257.49452055	250.42366236	199.38539386
 8	0.00000000	0.00000000	20.00000000	20.00000000	202.86752701	198.28199387	162.60403633
 9	0.00000000	0.00000000	20.00000000	40.00000000	156.24544233	153.30137551	128.11863720
 10	0.00000000	0.00000000	20.00000000	60.00000000	114.90535542	112.94734329	94.70386863
 11	0.00000000	0.00000000	20.00000000	80.00000000	75.20605847	73.87554467	61.01336025
 12	0.00000000	0.00000000	20.00000000	100.00000000	28.33719984	26.85612481	15.29890437
 13	0.00000000	0.00000000	40.00000000	0.00000000	259.16652203	246.37741148	155.28572023
 14	0.00000000	0.00000000	40.00000000	20.00000000	204.35958534	195.77434123	129.58675683
 15	0.00000000	0.00000000	40.00000000	40.00000000	157.48891801	151.72324419	103.34183112
 16	0.00000000	0.00000000	40.00000000	60.00000000	115.90648010	111.94801971	76.44122019
 17	0.00000000	0.00000000	40.00000000	80.00000000	75.95194325	73.26481104	47.82359920
 18	0.00000000	0.00000000	40.00000000	100.00000000	28.68824780	26.43132471	4.79920090
 19	0.00000000	0.00000000	60.00000000	0.00000000	260.09938717	242.79891551	115.07417277
 20	0.00000000	0.00000000	60.00000000	20.00000000	205.29891014	193.37835699	98.07478175
 21	0.00000000	0.00000000	60.00000000	40.00000000	158.41255724	150.24346679	79.16546121
 22	0.00000000	0.00000000	60.00000000	60.00000000	116.72256231	111.05651915	57.91767016
 23	0.00000000	0.00000000	60.00000000	80.00000000	76.58175185	72.76760012	34.48652767
 24	0.00000000	0.00000000	60.00000000	100.00000000	28.90637510	26.15137663	-2.57450910
 25	0.00000000	0.00000000	80.00000000	0.00000000	260.62749803	239.77488577	69.00090784
 26	0.00000000	0.00000000	80.00000000	20.00000000	205.89997709	191.38205051	63.21028076
 27	0.00000000	0.00000000	80.00000000	40.00000000	159.07394975	148.92116815	51.85135268
 28	0.00000000	0.00000000	80.00000000	60.00000000	117.32851580	110.20629197	36.92861862
 29	0.00000000	0.00000000	80.00000000	80.00000000	77.03043178	72.34200016	18.56548078
 30	0.00000000	0.00000000	80.00000000	100.00000000	28.66760541	25.97159497	-5.39306439
 31	0.00000000	0.00000000	100.00000000	0.00000000	260.79867125	237.17448771	-65.06884083
 32	0.00000000	0.00000000	100.00000000	20.00000000	206.20525271	189.56465364	-12.49853918
 33	0.00000000	0.00000000	100.00000000	40.00000000	159.49446559	147.78825134	2.71049549
 34	0.00000000	0.00000000	100.00000000	60.00000000	117.77898163	109.50562477	0.62393133
 35	0.00000000	0.00000000	100.00000000	80.00000000	77.34469771	71.92381740	-4.04576451
 36	0.00000000	0.00000000	100.00000000	100.00000000	28.14974640	25.86783584	-5.34487205
 37	0.00000000	20.00000000	0.00000000	0.00000000	250.04441231	200.43637186	218.82293165
 38	0.00000000	20.00000000	0.00000000	20.00000000	198.38978648	162.54323959	176.96404338
 39	0.00000000	20.00000000	0.00000000	40.00000000	153.54992777	127.81621903	138.97663057
 40	0.00000000	20.00000000	0.00000000	60.00000000	113.19327369	94.30256456	102.80934289
 41	0.00000000	20.00000000	0.00000000	80.00000000	74.27535921	60.97815134	66.85253352
 42	0.00000000	20.00000000	0.00000000	100.00000000	27.91690439	17.08107144	20.01440763
 43	0.00000000	20.00000000	20.00000000	0.00000000	250.58120191	198.01740646	176.87363863
 44	0.00000000	20.00000000	20.00000000	20.00000000	199.01819676	160.97938031	146.06124401
 45	0.00000000	20.00000000	20.00000000	40.00000000	154.34644103	126.89672157	116.12929255
 46	0.00000000	20.00000000	20.00000000	60.00000000	113.93998682	93.77411172	85.91585219
 47	0.00000000	20.00000000	20.00000000	80.00000000	74.83080581	60.62708817	54.73174632
 48	0.00000000	20.00000000	20.00000000	100.00000000	28.28578100	16.51375238	9.04438868
 49	0.00000000	20.00000000	40.00000000	0.00000000	250.93703002	195.51609188	140.94162673
 50	0.00000000	20.00000000	40.00000000	20.00000000	199.60953623	159.14792418	118.06362435
 51	0.00000000	20.00000000	40.00000000	40.00000000	154.98691946	125.64807817	94.36670512
 52	0.00000000	20.00000000	40.00000000	60.00000000	114.50064674	92.82369152	69.43925992
 53	0.00000000	20.00000000	40.00000000	80.00000000	75.32056153	59.98433366	42.49572270
 54	0.00000000	20.00000000	40.00000000	100.00000000	28.50963268	16.14688966	0.33237294
 55	0.00000000	20.00000000	60.00000000	0.00000000	251.04076445	193.28197896	107.69667864
 56	0.00000000	20.00000000	60.00000000	20.00000000	199.91300315	157.55538404	91.15133286
 57	0.00000000	20.00000000	60.00000000	40.00000000	155.34397870	124.41508234	73.10157180
 58	0.00000000	20.00000000	60.00000000	60.00000000	114.93361071	92.18236953	52.84870036
 59	0.00000000	20.00000000	60.00000000	80.00000000	75.66736892	59.58951965	30.43545105
 60	0.00000000	20.00000000	60.00000000	100.00000000	28.29814553	15.95045730	-3.06741224
 61	0.00000000	20.00000000	80.00000000	0.00000000	250.97756624	191.34906828	70.68964362
 62	0.00000000	20.00000000	80.00000000	20.00000000	200.05497873	156.21016502	61.74499959
 63	0.00000000	20.00000000	80.00000000	40.00000000	155.58432341	123.40465575	49.26890105
 64	0.00000000	20.00000000	80.00000000	60.00000000	115.15454605	91.34253100	34.08939958
 65	0.00000000	20.00000000	80.00000000	80.00000000	75.84035844	59.23662499	16.46204475
 66	0.00000000	20.00000000	80.00000000	100.00000000	27.73104686	15.84131766	-3.03242538
 67	0.00000000	20.00000000	100.00000000	0.00000000	250.71451396	189.68080580	-1.26513024
 68	0.00000000	20.00000000	100.00000000	20.00000000	200.02255887	154.97038275	14.39099818
 69	0.00000000	20.00000000	100.00000000	40.00000000	155.71032465	122.56020427	12.54751001
 70	0.00000000	20.00000000	100.00000000	60.00000000	115.32737598	90.73489040	3.71436481
 71	0.00000000	20.00000000	100.00000000	80.00000000	75.98013014	58.70938048	-3.47572432
 72	0.00000000	20.00000000	100.00000000	100.00000000	27.30921060	15.76453803	-2.99229241
 73	0.00000000	40.00000000	0.00000000	0.00000000	243.43314707	158.34060431	189.91732031
 74	0.00000000	40.00000000	0.00000000	20.00000000	194.46584344	130.38828582	155.79601765
 75	0.00000000	40.00000000	0.00000000	40.00000000	151.28733158	103.23694915	123.40744480
 76	0.00000000	40.00000000	0.00000000	60.00000000	111.94288239	76.11294061	91.68192878
 77	0.00000000	40.00000000	0.00000000	80.00000000	73.69066939	47.76112296	59.12757464
 78	0.00000000	40.00000000	0.00000000	100.00000000	28.02749746	6.45416362	14.87801425
 79	0.00000000	40.00000000	20.00000000	0.00000000	243.17392498	156.94592714	156.39579266
 80	0.00000000	40.00000000	20.00000000	20.00000000	194.53454375	129.36994046	130.01782089
 81	0.00000000	40.00000000	20.00000000	40.00000000	151.63478494	102.50164300	103.58289018
 82	0.00000000	40.00000000	20.00000000	60.00000000	112.37470642	75.58836356	76.50105178
 83	0.00000000	40.00000000	20.00000000	80.00000000	74.08092365	47.37455070	47.89404362
 84	0.00000000	40.00000000	20.00000000	100.00000000	28.25328324	6.04653195	4.29391827
 85	0.00000000	40.00000000	40.00000000	0.00000000	242.90822804	155.51130652	126.79361030
 86	0.00000000	40.00000000	40.00000000	20.00000000	194.64432746	128.29506934	106.58801973
 87	0.00000000	40.00000000	40.00000000	40.00000000	152.11492717	102.14170352	85.42711481
 88	0.00000000	40.00000000	40.00000000	60.00000000	112.82828808	75.40939316	62.66478583
 89	0.00000000	40.00000000	40.00000000	80.00000000	74.42454681	47.31159948	37.46720552
 90	0.00000000	40.00000000	40.00000000	100.00000000	28.16946354	5.83466624	-1.18824362
 91	0.00000000	40.00000000	60.00000000	0.00000000	242.54939049	154.08566862	98.03563625
 92	0.00000000	40.00000000	60.00000000	20.00000000	194.51952696	127.21804753	82.89461151
 93	0.00000000	40.00000000	60.00000000	40.00000000	152.02514559	101.04426160	66.26133844
 94	0.00000000	40.00000000	60.00000000	60.00000000	112.96126574	74.82249185	47.43716754
 95	0.00000000	40.00000000	60.00000000	80.00000000	74.51392561	46.90291621	26.46910418
 96	0.00000000	40.00000000	60.00000000	100.00000000	27.58069653	5.76789575	-1.50361352
 97	0.00000000	40.00000000	80.00000000	0.00000000	242.20233232	152.82287478	66.82987154
 98	0.00000000	40.00000000	80.00000000	20.00000000	194.37802255	126.28352568	57.42346488
 99	0.00000000	40.00000000	80.00000000	40.00000000	151.96412086	100.23919880	45.17981127
 100	0.00000000	40.00000000	80.00000000	60.00000000	112.90972531	74.05477345	30.44926520
 101	0.00000000	40.00000000	80.00000000	80.00000000	74.52353910	46.63538016	13.74041514
 102	0.00000000	40.00000000	80.00000000	100.00000000	27.10502096	5.72359250	-1.48829511
 103	0.00000000	40.00000000	100.00000000	0.00000000	241.75464034	151.71277195	19.00885239
 104	0.00000000	40.00000000	100.00000000	20.00000000	194.15702641	125.43496281	20.23804653
 105	0.00000000	40.00000000	100.00000000	40.00000000	151.88367158	99.62267429	14.52750491
 106	0.00000000	40.00000000	100.00000000	60.00000000	112.88945720	73.54635313	3.88632625
 107	0.00000000	40.00000000	100.00000000	80.00000000	74.56931144	46.06980331	-4.42310706
 108	0.00000000	40.00000000	100.00000000	100.00000000	26.74604852	5.69172551	-1.46910769
 109	0.00000000	60.00000000	0.00000000	0.00000000	237.18316644	121.26853958	165.50525665
 110	0.00000000	60.00000000	0.00000000	20.00000000	190.68240166	100.81341639	137.34413177
 111	0.00000000	60.00000000	0.00000000	40.00000000	149.09358770	80.01167580	109.59140897
 112	0.00000000	60.00000000	0.00000000	60.00000000	110.64563960	57.94306800	81.30617514
 113	0.00000000	60.00000000	0.00000000	80.00000000	73.18253785	34.34600741	52.08214469
 114	0.00000000	60.00000000	0.00000000	100.00000000	28.10108811	-1.73236005	10.50713729
 115	0.00000000	60.00000000	20.00000000	0.00000000	236.40230834	120.62502131	138.24659854
 116	0.00000000	60.00000000	20.00000000	20.00000000	190.30713379	100.25261968	115.73532209
 117	0.00000000	60.00000000	20.00000000	40.00000000	149.05031562	79.58992884	92.51441091
 118	0.00000000	60.00000000	20.00000000	60.00000000	110.75968668	57.64634572	68.01646426
 119	0.00000000	60.00000000	20.00000000	80.00000000	73.36473048	34.12400052	41.85096189
 120	0.00000000	60.00000000	20.00000000	100.00000000	28.15579757	-1.84636557	1.64807250
 121	0.00000000	60.00000000	40.00000000	0.00000000	235.87343752	119.71557051	113.03828001
 122	0.00000000	60.00000000	40.00000000	20.00000000	190.09176135	99.49392959	95.12168661
 123	0.00000000	60.00000000	40.00000000	40.00000000	149.15750027	79.23977762	75.96156433
 124	0.00000000	60.00000000	40.00000000	60.00000000	110.92076004	57.43050210	55.11450738
 125	0.00000000	60.00000000	40.00000000	80.00000000	73.49244922	34.02006090	32.01939225
 126	0.00000000	60.00000000	40.00000000	100.00000000	27.66218316	-1.84751620	-0.47551839
 127	0.00000000	60.00000000	60.00000000	0.00000000	235.26241511	118.93289611	88.39463398
 128	0.00000000	60.00000000	60.00000000	20.00000000	189.78364348	98.80868956	74.53712717
 129	0.00000000	60.00000000	60.00000000	40.00000000	149.01643664	78.62977356	59.35281135
 130	0.00000000	60.00000000	60.00000000	60.00000000	111.13488615	57.42148899	42.01311819
 131	0.00000000	60.00000000	60.00000000	80.00000000	73.50713924	34.07255128	23.26354109
 132	0.00000000	60.00000000	60.00000000	100.00000000	27.09846631	-1.80976819	-0.45783829
 133	0.00000000	60.00000000	80.00000000	0.00000000	234.68907148	118.14327568	61.30875260
 134	0.00000000	60.00000000	80.00000000	20.00000000	189.52680767	98.32735419	52.19014250
 135	0.00000000	60.00000000	80.00000000	40.00000000	148.96591455	78.23774099	40.62667139
 136	0.00000000	60.00000000	80.00000000	60.00000000	110.97314402	56.80889726	26.44215602
 137	0.00000000	60.00000000	80.00000000	80.00000000	73.45781788	33.86265434	11.21649558
 138	0.00000000	60.00000000	80.00000000	100.00000000	26.67633176	-1.78413999	-0.45008030
 139	0.00000000	60.00000000	100.00000000	0.00000000	234.11586463	117.36288875	22.59231471
 140	0.00000000	60.00000000	100.00000000	20.00000000	189.15834904	97.72023037	20.40998541
 141	0.00000000	60.00000000	100.00000000	40.00000000	148.72818410	77.76949972	13.41524569
 142	0.00000000	60.00000000	100.00000000	60.00000000	110.81543729	56.40275605	3.18757319
 143	0.00000000	60.00000000	100.00000000	80.00000000	73.37570429	33.36627178	-3.43377457
 144	0.00000000	60.00000000	100.00000000	100.00000000	26.35847311	-1.76775147	-0.43205490
 145	0.00000000	80.00000000	0.00000000	0.00000000	231.79273009	83.76608714	144.60757881
 146	0.00000000	80.00000000	0.00000000	20.00000000	187.30956584	70.42662174	121.28426313
 147	0.00000000	80.00000000	0.00000000	40.00000000	146.94392145	55.08967571	96.98664933
 148	0.00000000	80.00000000	0.00000000	60.00000000	109.41202059	38.47389691	72.06849083
 149	0.00000000	80.00000000	0.00000000	80.00000000	72.54228741	18.55433598	45.52645907
 150	0.00000000	80.00000000	0.00000000	100.00000000	28.15771837	-7.64989486	6.85615783
 151	0.00000000	80.00000000	20.00000000	0.00000000	230.66909999	83.77989560	122.16216043
 152	0.00000000	80.00000000	20.00000000	20.00000000	186.63484365	70.24349436	102.92654380
 153	0.00000000	80.00000000	20.00000000	40.00000000	146.61259443	54.97462548	82.21152976
 154	0.00000000	80.00000000	20.00000000	60.00000000	109.27197531	38.45861413	60.31570248
 155	0.00000000	80.00000000	20.00000000	80.00000000	72.51932144	18.57604612	36.27898648
 156	0.00000000	80.00000000	20.00000000	100.00000000	27.96355259	-7.54689046	0.46889472
 157	0.00000000	80.00000000	40.00000000	0.00000000	229.88232940	83.56336042	100.75341761
 158	0.00000000	80.00000000	40.00000000	20.00000000	186.15438223	69.95762810	85.03883645
 159	0.00000000	80.00000000	40.00000000	40.00000000	146.48445010	54.97843288	67.70425782
 160	0.00000000	80.00000000	40.00000000	60.00000000	109.23381776	38.45459774	48.69405270
 161	0.00000000	80.00000000	40.00000000	80.00000000	72.46413320	18.62562206	27.48501766
 162	0.00000000	80.00000000	40.00000000	100.00000000	27.24567801	-7.39430062	0.28975327
 163	0.00000000	80.00000000	60.00000000	0.00000000	229.17321146	83.19269791	79.11637545
 164	0.00000000	80.00000000	60.00000000	20.00000000	185.73803097	69.67291698	66.63332328
 165	0.00000000	80.00000000	60.00000000	40.00000000	146.15476459	54.58320469	52.43277848
 166	0.00000000	80.00000000	60.00000000	60.00000000	109.25147921	38.53198059	36.31652087
 167	0.00000000	80.00000000	60.00000000	80.00000000	72.35578582	18.79372124	19.25759844
 168	0.00000000	80.00000000	60.00000000	100.00000000	26.73093293	-7.29198019	0.30386863
 169	0.00000000	80.00000000	80.00000000	0.00000000	228.45027745	82.94539958	55.68519495
 170	0.00000000	80.00000000	80.00000000	20.00000000	185.27675092	69.31686088	46.78021319
 171	0.00000000	80.00000000	80.00000000	40.00000000	145.86248428	54.19032857	35.58549330
 172	0.00000000	80.00000000	80.00000000	60.00000000	108.97320494	38.01771618	22.09100001
 173	0.00000000	80.00000000	80.00000000	80.00000000	72.40744784	18.95211004	7.99732637
 174	0.00000000	80.00000000	80.00000000	100.00000000	26.35902029	-7.21584510	0.30669814
 175	0.00000000	80.00000000	100.00000000	0.00000000	227.76698291	82.53496081	23.13687868
 176	0.00000000	80.00000000	100.00000000	20.00000000	184.95723367	69.21883374	19.36914906
 177	0.00000000	80.00000000	100.00000000	40.00000000	145.93203574	54.41862412	11.92247774
 178	0.00000000	80.00000000	100.00000000	60.00000000	109.06740949	38.23513672	2.45823415
 179	0.00000000	80.00000000	100.00000000	80.00000000	72.31646553	18.66913542	-3.82146468
 180	0.00000000	80.00000000	100.00000000	100.00000000	26.07906841	-7.16236630	0.31238670
 181	0.00000000	100.00000000	0.00000000	0.00000000	227.16436565	33.33662957	126.42588124
 182	0.00000000	100.00000000	0.00000000	20.00000000	184.22980070	29.25721787	106.66965455
 183	0.00000000	100.00000000	0.00000000	40.00000000	145.02809465	20.85891422	85.67775697
 184	0.00000000	100.00000000	0.00000000	60.00000000	108.21014509	8.62717867	63.43593165
 185	0.00000000	100.00000000	0.00000000	80.00000000	71.90189257	-3.83549329	39.51040149
 186	0.00000000	100.00000000	0.00000000	100.00000000	28.19581512	-11.98488275	4.17361435
 187	0.00000000	100.00000000	20.00000000	0.00000000	225.77444583	34.41622764	107.66248047
 188	0.00000000	100.00000000	20.00000000	20.00000000	183.31427783	29.33677420	90.94347641
 189	0.00000000	100.00000000	20.00000000	40.00000000	144.44842815	21.06041171	72.70346716
 190	0.00000000	100.00000000	20.00000000	60.00000000	107.84313038	9.09076804	52.92669877
 191	0.00000000	100.00000000	20.00000000	80.00000000	71.64162934	-3.35495516	31.19852420
 192	0.00000000	100.00000000	20.00000000	100.00000000	27.60756679	-11.66487342	0.85049388
 193	0.00000000	100.00000000	40.00000000	0.00000000	224.82942134	35.59943095	89.26699117
 194	0.00000000	100.00000000	40.00000000	20.00000000	182.65350848	29.96661320	75.34051806
 195	0.00000000	100.00000000	40.00000000	40.00000000	144.18011695	21.81967936	59.88053843
 196	0.00000000	100.00000000	40.00000000	60.00000000	107.67698810	9.82592504	42.46730402
 197	0.00000000	100.00000000	40.00000000	80.00000000	71.47807091	-2.87701396	23.33113376
 198	0.00000000	100.00000000	40.00000000	100.00000000	26.80563692	-11.14842413	0.81972307
 199	0.00000000	100.00000000	60.00000000	0.00000000	223.95902485	36.30940385	70.35653830
 200	0.00000000	100.00000000	60.00000000	20.00000000	182.07200289	30.45779765	59.08484593
 201	0.00000000	100.00000000	60.00000000	40.00000000	143.70009631	22.04105929	46.21609546
 202	0.00000000	100.00000000	60.00000000	60.00000000	107.57610351	10.52642126	31.18319772
 203	0.00000000	100.00000000	60.00000000	80.00000000	71.35517031	-2.44256855	14.89080247
 204	0.00000000	100.00000000	60.00000000	100.00000000	26.25300217	-10.78970913	0.79334803
 205	0.00000000	100.00000000	80.00000000	0.00000000	223.16470027	36.77661918	49.68344741
 206	0.00000000	100.00000000	80.00000000	20.00000000	181.55922800	30.76743163	41.36763923
 207	0.00000000	100.00000000	80.00000000	40.00000000	143.34747523	22.28127290	30.89278501
 208	0.00000000	100.00000000	80.00000000	60.00000000	107.18394935	10.55000089	18.41036931
 209	0.00000000	100.00000000	80.00000000	80.00000000	71.23919293	-2.10899798	4.48155172
 210	0.00000000	100.00000000	80.00000000	100.00000000	25.84743284	-10.53079767	0.77431117
 211	0.00000000	100.00000000	100.00000000	0.00000000	222.41477251	37.10279748	21.81922339
 212	0.00000000	100.00000000	100.00000000	20.00000000	181.03912711	30.97910117	17.10099567
 213	0.00000000	100.00000000	100.00000000	40.00000000	143.03643912	22.55072214	9.56958225
 214	0.00000000	100.00000000	100.00000000	60.00000000	106.98068306	10.77075765	-0.00342074
 215	0.00000000	100.00000000	100.00000000	80.00000000	70.92491180	-2.11639476	-3.75169900
 216	0.00000000	100.00000000	100.00000000	100.00000000	25.54068100	-10.33740325	0.76009156
 217	20.00000000	0.00000000	0.00000000	0.00000000	185.62897682	227.10495204	249.27609354
 218	20.00000000	0.00000000	0.00000000	20.00000000	151.37956023	181.94361538	198.06111932
 219	20.00000000	0.00000000	0.00000000	40.00000000	118.96418363	141.77343249	153.58155727
 220	20.00000000	0.00000000	0.00000000	60.00000000	87.67078042	104.77600336	113.35944638
 221	20.00000000	0.00000000	0.00000000	80.00000000	55.86983085	68.37201878	74.07071739
 222	20.00000000	0.00000000	0.00000000	100.00000000	12.95766000	23.38491037	25.75821552
 223	20.00000000	0.00000000	20.00000000	0.00000000	190.47566235	223.09216976	198.21572542
 224	20.00000000	0.00000000	20.00000000	20.00000000	154.66010660	179.40331489	161.59005314
 225	20.00000000	0.00000000	20.00000000	40.00000000	121.37307197	140.19153178	127.30759352
 226	20.00000000	0.00000000	20.00000000	60.00000000	89.49991867	103.74047533	94.13048699
 227	20.00000000	0.00000000	20.00000000	80.00000000	57.20129840	67.68485606	60.61939359
 228	20.00000000	0.00000000	20.00000000	100.00000000	14.13842574	22.66276103	15.06280499
 229	20.00000000	0.00000000	40.00000000	0.00000000	193.91209155	219.55322206	157.50039339
 230	20.00000000	0.00000000	40.00000000	20.00000000	157.15576708	177.06653148	130.60975313
 231	20.00000000	0.00000000	40.00000000	40.00000000	123.41988534	138.75613600	103.79694790
 232	20.00000000	0.00000000	40.00000000	60.00000000	91.01308867	102.78961435	76.67001352
 233	20.00000000	0.00000000	40.00000000	80.00000000	58.28916863	67.07712427	47.93719411
 234	20.00000000	0.00000000	40.00000000	100.00000000	14.83327830	22.20896278	4.95747001
 235	20.00000000	0.00000000	60.00000000	0.00000000	196.29992902	216.46015763	120.95904619
 236	20.00000000	0.00000000	60.00000000	20.00000000	159.11436439	174.98404562	101.41682401
 237	20.00000000	0.00000000	60.00000000	40.00000000	124.78754595	137.30418831	81.09414652
 238	20.00000000	0.00000000	60.00000000	60.00000000	92.29190245	101.95346162	59.13043588
 239	20.00000000	0.00000000	60.00000000	80.00000000	59.18987229	66.56358942	35.24110258
 240	20.00000000	0.00000000	60.00000000	100.00000000	15.18750479	21.91069018	-1.84660567
 241	20.00000000	0.00000000	80.00000000	0.00000000	197.96600282	213.86681199	82.06142262
 242	20.00000000	0.00000000	80.00000000	20.00000000	160.52045614	173.27314943	70.67121461
 243	20.00000000	0.00000000	80.00000000	40.00000000	125.93296409	136.08851194	56.41475961
 244	20.00000000	0.00000000	80.00000000	60.00000000	93.01684275	101.02591619	39.94996950
 245	20.00000000	0.00000000	80.00000000	80.00000000	59.81129475	66.10661834	20.79351213
 246	20.00000000	0.00000000	80.00000000	100.00000000	14.63940606	21.73163809	-3.83203785
 247	20.00000000	0.00000000	100.00000000	0.00000000	198.97323757	211.61341131	23.11674546
 248	20.00000000	0.00000000	100.00000000	20.00000000	161.46970600	171.70971572	27.05080926
 249	20.00000000	0.00000000	100.00000000	40.00000000	126.77034795	135.06510526	22.34317727
 250	20.00000000	0.00000000	100.00000000	60.00000000	93.65534529	100.30608281	12.00681517
 251	20.00000000	0.00000000	100.00000000	80.00000000	60.03865555	65.56374148	0.50021496
 252	20.00000000	0.00000000	100.00000000	100.00000000	13.80230052	21.62054535	-3.78174874
 253	20.00000000	20.00000000	0.00000000	0.00000000	191.55620277	182.34455466	214.93873447
 254	20.00000000	20.00000000	0.00000000	20.00000000	155.47563404	149.39945608	174.23268914
 255	20.00000000	20.00000000	0.00000000	40.00000000	121.90524861	118.20091099	137.03836977
 256	20.00000000	20.00000000	0.00000000	60.00000000	89.88245934	87.31499791	101.43740371
 257	20.00000000	20.00000000	0.00000000	80.00000000	57.55016528	56.02104373	65.93305886
 258	20.00000000	20.00000000	0.00000000	100.00000000	14.80154051	13.08437180	19.44567885
 259	20.00000000	20.00000000	20.00000000	0.00000000	193.04593563	180.11934847	175.78201801
 260	20.00000000	20.00000000	20.00000000	20.00000000	157.00994611	148.16341281	145.19882709
 261	20.00000000	20.00000000	20.00000000	40.00000000	123.52658361	117.67403126	115.56034908
 262	20.00000000	20.00000000	20.00000000	60.00000000	91.36947155	87.19000742	85.58269367
 263	20.00000000	20.00000000	20.00000000	80.00000000	58.71642530	55.97599335	54.49643254
 264	20.00000000	20.00000000	20.00000000	100.00000000	15.51383698	12.44214736	8.75828208
 265	20.00000000	20.00000000	40.00000000	0.00000000	194.63324726	177.91847616	142.12839425
 266	20.00000000	20.00000000	40.00000000	20.00000000	158.20504278	146.40105218	118.64459038
 267	20.00000000	20.00000000	40.00000000	40.00000000	124.60348383	116.47603154	94.77657393
