bench/lcms_compat/reference/USSheetfedCoated.icc_to_srgb_Relative_BPC.it8
CGATS.17
ORIGINATOR	"icctrans"
#
# Data follows
#
NUMBER_OF_SETS	1296.00000000
NUMBER_OF_FIELDS	8.00000000
BEGIN_DATA_FORMAT
 SAMPLE_ID	IN_CMYK_C	IN_CMYK_M	IN_CMYK_Y	IN_CMYK_K	OUT_RGB_R	OUT_RGB_G	OUT_RGB_B
END_DATA_FORMAT
BEGIN_DATA
 1	0.00000000	0.00000000	0.00000000	0.00000000	254.99998480	255.00000000	255.00000000
 2	0.00000000	0.00000000	0.00000000	20.00000000	201.07832462	201.21928185	201.84839129
 3	0.00000000	0.00000000	0.00000000	40.00000000	154.83834743	155.15236259	156.05394781
 4	0.00000000	0.00000000	0.00000000	60.00000000	113.76261994	114.13442239	114.94113430
 5	0.00000000	0.00000000	0.00000000	80.00000000	74.42599073	74.72592384	75.11468858
 6	0.00000000	0.00000000	0.00000000	100.00000000	27.34003074	27.11869832	25.84847018
 7	0.00000000	0.00000000	20.00000000	0.00000000	257.49713480	250.42004496	199.36868995
 8	0.00000000	0.00000000	20.00000000	20.00000000	202.85672039	198.27007771	162.58134395
 9	0.00000000	0.00000000	20.00000000	40.00000000	156.22876883	153.28489959	128.10552031
 10	0.00000000	0.00000000	20.00000000	60.00000000	114.86284330	112.90620670	94.65308055
 11	0.00000000	0.00000000	20.00000000	80.00000000	75.24236172	73.93688858	61.19934127
 12	0.00000000	0.00000000	20.00000000	100.00000000	27.93825734	26.43340699	14.57340455
 13	0.00000000	0.00000000	40.00000000	0.00000000	259.16098952	246.37203097	155.25082290
 14	0.00000000	0.00000000	40.00000000	20.00000000	204.35283691	195.76168031	129.55146432
 15	0.00000000	0.00000000	40.00000000	40.00000000	157.47276127	151.70637310	103.30937326
 16	0.00000000	0.00000000	40.00000000	60.00000000	115.85801750	111.90167740	76.40712842
 17	0.00000000	0.00000000	40.00000000	80.00000000	75.99896193	73.32345709	47.99785405
 18	0.00000000	0.00000000	40.00000000	100.00000000	28.30376163	26.00320928	3.87213995
 19	0.00000000	0.00000000	60.00000000	0.00000000	260.09923518	242.79605806	115.02802804
 20	0.00000000	0.00000000	60.00000000	20.00000000	205.29001862	193.36669922	98.02777827
 21	0.00000000	0.00000000	60.00000000	40.00000000	158.39582294	150.23114026	79.18610930
 22	0.00000000	0.00000000	60.00000000	60.00000000	116.67352974	111.01687968	57.86333308
 23	0.00000000	0.00000000	60.00000000	80.00000000	76.57803565	72.82981038	35.10188185
 24	0.00000000	0.00000000	60.00000000	100.00000000	28.53163350	25.71172502	-3.62782636
 25	0.00000000	0.00000000	80.00000000	0.00000000	260.63254416	239.77648169	68.92134011
 26	0.00000000	0.00000000	80.00000000	20.00000000	205.88854730	191.37376696	63.17105547
 27	0.00000000	0.00000000	80.00000000	40.00000000	159.04824793	148.90881121	51.87100142
 28	0.00000000	0.00000000	80.00000000	60.00000000	117.27038652	110.16354427	36.92557119
 29	0.00000000	0.00000000	80.00000000	80.00000000	77.08454087	72.39962786	18.88474915
 30	0.00000000	0.00000000	80.00000000	100.00000000	28.70493840	25.50360449	-9.04274622
 31	0.00000000	0.00000000	100.00000000	0.00000000	260.80107272	237.17232943	-65.96075177
 32	0.00000000	0.00000000	100.00000000	20.00000000	206.19669557	189.55384701	-13.30602150
 33	0.00000000	0.00000000	100.00000000	40.00000000	159.48838592	147.77138025	2.08476217
 34	0.00000000	0.00000000	100.00000000	60.00000000	117.73615792	109.45849970	-0.02372824
 35	0.00000000	0.00000000	100.00000000	80.00000000	77.52087146	71.97352633	-5.90396502
 36	0.00000000	0.00000000	100.00000000	100.00000000	28.82255729	25.34830302	-13.05589898
 37	0.00000000	20.00000000	0.00000000	0.00000000	250.03204018	200.42401493	218.81747514
 38	0.00000000	20.00000000	0.00000000	20.00000000	198.37749034	162.53266096	176.95705175
 39	0.00000000	20.00000000	0.00000000	40.00000000	153.52317721	127.82204032	138.97153884
 40	0.00000000	20.00000000	0.00000000	60.00000000	113.14558625	94.25730899	102.76413292
 41	0.00000000	20.00000000	0.00000000	80.00000000	74.30939779	61.19759336	67.00298265
 42	0.00000000	20.00000000	0.00000000	100.00000000	27.52527080	16.41385004	19.44902077
 43	0.00000000	20.00000000	20.00000000	0.00000000	250.57662696	198.00614387	176.85871303
 44	0.00000000	20.00000000	20.00000000	20.00000000	199.00222242	160.96512347	146.03838444
 45	0.00000000	20.00000000	20.00000000	40.00000000	154.32193995	126.90091655	116.14366338
 46	0.00000000	20.00000000	20.00000000	60.00000000	113.89248177	93.73476863	85.88143364
 47	0.00000000	20.00000000	20.00000000	80.00000000	74.84005451	60.85377641	55.05712286
 48	0.00000000	20.00000000	20.00000000	100.00000000	27.89237291	15.82309859	8.07629088
 49	0.00000000	20.00000000	40.00000000	0.00000000	250.93356460	195.50118148	140.90124249
 50	0.00000000	20.00000000	40.00000000	20.00000000	199.58907813	159.12992835	118.03489789
 51	0.00000000	20.00000000	40.00000000	40.00000000	154.96202320	125.64926371	94.35425699
 52	0.00000000	20.00000000	40.00000000	60.00000000	114.44393858	92.78150618	69.41697791
 53	0.00000000	20.00000000	40.00000000	80.00000000	75.32961264	60.21225683	42.84735203
 54	0.00000000	20.00000000	40.00000000	100.00000000	28.12195849	15.44803116	-0.60698341
 55	0.00000000	20.00000000	60.00000000	0.00000000	251.03395522	193.26723576	107.66490474
 56	0.00000000	20.00000000	60.00000000	20.00000000	199.89812315	157.53950089	91.13006160
 57	0.00000000	20.00000000	60.00000000	40.00000000	155.31859607	124.41980928	73.18035677
 58	0.00000000	20.00000000	60.00000000	60.00000000	114.87553462	92.14413598	52.84577072
 59	0.00000000	20.00000000	60.00000000	80.00000000	75.67778036	59.82466243	31.03886437
 60	0.00000000	20.00000000	60.00000000	100.00000000	28.26552238	15.20166473	-6.23716677
 61	0.00000000	20.00000000	80.00000000	0.00000000	250.97002745	191.33573860	70.62917367
 62	0.00000000	20.00000000	80.00000000	20.00000000	200.03787965	156.19046688	61.73155591
 63	0.00000000	20.00000000	80.00000000	40.00000000	155.55807441	123.40633526	49.35406208
 64	0.00000000	20.00000000	80.00000000	60.00000000	115.09307295	91.29524633	34.14463721
 65	0.00000000	20.00000000	80.00000000	80.00000000	75.95984682	59.45760593	15.87086393
 66	0.00000000	20.00000000	80.00000000	100.00000000	28.37614015	15.01145549	-10.43213502
 67	0.00000000	20.00000000	100.00000000	0.00000000	250.71463555	189.66682255	-2.11683625
 68	0.00000000	20.00000000	100.00000000	20.00000000	200.00834763	154.94776636	13.76988446
 69	0.00000000	20.00000000	100.00000000	40.00000000	155.69334716	122.56272733	12.18018372
 70	0.00000000	20.00000000	100.00000000	60.00000000	115.28376952	90.68762854	3.14751527
 71	0.00000000	20.00000000	100.00000000	80.00000000	76.15423679	58.92289482	-5.56973686
 72	0.00000000	20.00000000	100.00000000	100.00000000	28.45726769	14.87982390	-13.52968985
 73	0.00000000	40.00000000	0.00000000	0.00000000	243.43843639	158.29865456	189.89667982
 74	0.00000000	40.00000000	0.00000000	20.00000000	194.45634395	130.34548491	155.76636404
 75	0.00000000	40.00000000	0.00000000	40.00000000	151.26799822	103.18785578	123.37540492
 76	0.00000000	40.00000000	0.00000000	60.00000000	111.89328745	76.02578849	91.61017343
 77	0.00000000	40.00000000	0.00000000	80.00000000	73.73603895	47.86019884	59.21195671
 78	0.00000000	40.00000000	0.00000000	100.00000000	27.61829931	5.56978910	14.18481935
 79	0.00000000	40.00000000	20.00000000	0.00000000	243.16738933	156.90865874	156.36303842
 80	0.00000000	40.00000000	20.00000000	20.00000000	194.51616794	129.32064950	129.97664630
 81	0.00000000	40.00000000	20.00000000	40.00000000	151.61729068	102.45714739	103.55417892
 82	0.00000000	40.00000000	20.00000000	60.00000000	112.32672259	75.50553560	76.43116593
 83	0.00000000	40.00000000	20.00000000	80.00000000	74.10587311	47.48376824	48.14465538
 84	0.00000000	40.00000000	20.00000000	100.00000000	27.85772827	5.15390569	3.37705858
 85	0.00000000	40.00000000	40.00000000	0.00000000	242.90385067	155.47751874	126.74552009
 86	0.00000000	40.00000000	40.00000000	20.00000000	194.62573886	128.24810386	106.53749004
 87	0.00000000	40.00000000	40.00000000	40.00000000	152.09159642	102.09130302	85.38147926
 88	0.00000000	40.00000000	40.00000000	60.00000000	112.78034225	75.31926200	62.61399396
 89	0.00000000	40.00000000	40.00000000	80.00000000	74.45105419	47.41708182	37.72342198
 90	0.00000000	40.00000000	40.00000000	100.00000000	27.99811173	4.90818760	-3.52408052
 91	0.00000000	40.00000000	60.00000000	0.00000000	242.53941983	154.04615074	97.96701953
 92	0.00000000	40.00000000	60.00000000	20.00000000	194.49580103	127.16769263	82.83085853
 93	0.00000000	40.00000000	60.00000000	40.00000000	152.00178444	100.99750891	66.28469959
 94	0.00000000	40.00000000	60.00000000	60.00000000	112.90803060	74.73584130	47.36074604
 95	0.00000000	40.00000000	60.00000000	80.00000000	74.58449543	47.00500153	26.55494347
 96	0.00000000	40.00000000	60.00000000	100.00000000	28.08445260	4.74192135	-8.08318276
 97	0.00000000	40.00000000	80.00000000	0.00000000	242.19552308	152.78812945	66.74230143
 98	0.00000000	40.00000000	80.00000000	20.00000000	194.35957074	126.23387754	57.37038173
 99	0.00000000	40.00000000	80.00000000	40.00000000	151.93957418	100.19077420	45.19819468
 100	0.00000000	40.00000000	80.00000000	60.00000000	112.84868538	73.97237107	30.45693509
 101	0.00000000	40.00000000	80.00000000	80.00000000	74.70356584	46.72983170	12.10338129
 102	0.00000000	40.00000000	80.00000000	100.00000000	28.15088633	4.62024665	-11.41190959
 103	0.00000000	40.00000000	100.00000000	0.00000000	241.75968647	151.67301089	18.46247211
 104	0.00000000	40.00000000	100.00000000	20.00000000	194.14430469	125.38444832	19.74042714
 105	0.00000000	40.00000000	100.00000000	40.00000000	151.86579734	99.57016110	14.04296251
 106	0.00000000	40.00000000	100.00000000	60.00000000	112.84603313	73.45550761	3.24604517
 107	0.00000000	40.00000000	100.00000000	80.00000000	74.71984416	46.16387486	-6.10021689
 108	0.00000000	40.00000000	100.00000000	100.00000000	28.20230518	4.52769217	-13.86575712
 109	0.00000000	60.00000000	0.00000000	0.00000000	237.17090070	121.22004658	165.47466069
 110	0.00000000	60.00000000	0.00000000	20.00000000	190.66393465	100.77721193	137.32198656
 111	0.00000000	60.00000000	0.00000000	40.00000000	149.05727684	80.03857076	109.58440974
 112	0.00000000	60.00000000	0.00000000	60.00000000	110.58717594	57.89692707	81.25409514
 113	0.00000000	60.00000000	0.00000000	80.00000000	73.15495893	34.83393162	52.28759587
 114	0.00000000	60.00000000	0.00000000	100.00000000	27.71036457	-2.67246951	9.59741196
 115	0.00000000	60.00000000	20.00000000	0.00000000	236.38625801	120.58198482	138.21522743
 116	0.00000000	60.00000000	20.00000000	20.00000000	190.28535336	100.22007823	115.71320727
 117	0.00000000	60.00000000	20.00000000	40.00000000	149.01301682	79.61606383	92.53613055
 118	0.00000000	60.00000000	20.00000000	60.00000000	110.68673819	57.60373861	67.97755435
 119	0.00000000	60.00000000	20.00000000	80.00000000	73.30882788	34.62911502	42.32290797
 120	0.00000000	60.00000000	20.00000000	100.00000000	27.84004021	-2.79617377	0.25836734
 121	0.00000000	60.00000000	40.00000000	0.00000000	235.85954547	119.67149287	112.99523592
 122	0.00000000	60.00000000	40.00000000	20.00000000	190.06765544	99.46206450	95.09407729
 123	0.00000000	60.00000000	40.00000000	40.00000000	149.11299706	79.26575303	75.96387461
 124	0.00000000	60.00000000	40.00000000	60.00000000	110.84548607	57.38510214	55.10275461
 125	0.00000000	60.00000000	40.00000000	80.00000000	73.47601131	34.52207096	32.28900298
 126	0.00000000	60.00000000	40.00000000	100.00000000	27.92154584	-2.88589147	-5.45711517
 127	0.00000000	60.00000000	60.00000000	0.00000000	235.24786949	118.88455510	88.36142376
 128	0.00000000	60.00000000	60.00000000	20.00000000	189.75593537	98.77387583	74.52574298
 129	0.00000000	60.00000000	60.00000000	40.00000000	148.96670491	78.66579562	59.48556863
 130	0.00000000	60.00000000	60.00000000	60.00000000	111.05125263	57.37450831	42.03634635
 131	0.00000000	60.00000000	60.00000000	80.00000000	73.62131551	34.55469221	22.52483983
 132	0.00000000	60.00000000	60.00000000	100.00000000	27.96751957	-2.93477133	-9.23524199
 133	0.00000000	60.00000000	80.00000000	0.00000000	234.66820300	118.09551224	61.27403766
 134	0.00000000	60.00000000	80.00000000	20.00000000	189.49575573	98.29151452	52.22579978
 135	0.00000000	60.00000000	80.00000000	40.00000000	148.91235262	78.26623946	40.81187345
 136	0.00000000	60.00000000	80.00000000	60.00000000	110.88880375	56.76443204	26.64396700
 137	0.00000000	60.00000000	80.00000000	80.00000000	73.63908336	34.32630546	8.53433730
 138	0.00000000	60.00000000	80.00000000	100.00000000	28.01143572	-2.97386079	-11.99491041
 139	0.00000000	60.00000000	100.00000000	0.00000000	234.11060572	117.31119633	22.14946937
 140	0.00000000	60.00000000	100.00000000	20.00000000	189.13784534	97.68322036	20.00957239
 141	0.00000000	60.00000000	100.00000000	40.00000000	148.69489789	77.78948665	13.20537915
 142	0.00000000	60.00000000	100.00000000	60.00000000	110.76348647	56.34840377	2.25170099
 143	0.00000000	60.00000000	100.00000000	80.00000000	73.56993467	33.82130116	-6.65966087
 144	0.00000000	60.00000000	100.00000000	100.00000000	28.04405507	-3.00671264	-14.06984892
 145	0.00000000	80.00000000	0.00000000	0.00000000	231.78462893	83.67322013	144.56915528
 146	0.00000000	80.00000000	0.00000000	20.00000000	187.28474557	70.37485331	121.25011817
 147	0.00000000	80.00000000	0.00000000	40.00000000	146.91628933	55.04316621	96.94699466
 148	0.00000000	80.00000000	0.00000000	60.00000000	109.34239313	38.43667030	72.01663122
 149	0.00000000	80.00000000	0.00000000	80.00000000	72.54028112	19.06387914	45.67419894
 150	0.00000000	80.00000000	0.00000000	100.00000000	27.75960233	-8.57165700	5.94705091
 151	0.00000000	80.00000000	20.00000000	0.00000000	230.65598309	83.68811533	122.12020308
 152	0.00000000	80.00000000	20.00000000	20.00000000	186.61201447	70.18441513	102.88306653
 153	0.00000000	80.00000000	20.00000000	40.00000000	146.57290936	54.93435904	82.19181642
 154	0.00000000	80.00000000	20.00000000	60.00000000	109.19787169	38.41734834	60.26465982
 155	0.00000000	80.00000000	20.00000000	80.00000000	72.49851376	19.10037998	36.58806190
 156	0.00000000	80.00000000	20.00000000	100.00000000	27.82204818	-8.50241806	-2.01443246
 157	0.00000000	80.00000000	40.00000000	0.00000000	229.87039804	83.47822979	100.70164919
 158	0.00000000	80.00000000	40.00000000	20.00000000	186.12611175	69.91072342	85.00595301
 159	0.00000000	80.00000000	40.00000000	40.00000000	146.45292699	54.93836403	67.68411890
 160	0.00000000	80.00000000	40.00000000	60.00000000	109.15925056	38.41441110	48.71486418
 161	0.00000000	80.00000000	40.00000000	80.00000000	72.51932904	19.12653968	27.28371397
 162	0.00000000	80.00000000	40.00000000	100.00000000	27.85088673	-8.46038282	-6.86887527
 163	0.00000000	80.00000000	60.00000000	0.00000000	229.15678114	83.10132042	79.04595003
 164	0.00000000	80.00000000	60.00000000	20.00000000	185.70172012	69.62209851	66.60157979
 165	0.00000000	80.00000000	60.00000000	40.00000000	146.11390918	54.54708762	52.51271099
 166	0.00000000	80.00000000	60.00000000	60.00000000	109.16669056	38.48735958	36.31975450
 167	0.00000000	80.00000000	60.00000000	80.00000000	72.54107147	19.25852560	17.56056771
 168	0.00000000	80.00000000	60.00000000	100.00000000	27.88842112	-8.43602518	-10.12860920
 169	0.00000000	80.00000000	80.00000000	0.00000000	228.42731148	82.85190180	55.63084647
 170	0.00000000	80.00000000	80.00000000	20.00000000	185.24050087	69.26798031	46.83517344
 171	0.00000000	80.00000000	80.00000000	40.00000000	145.81412047	54.14670311	35.74873254
 172	0.00000000	80.00000000	80.00000000	60.00000000	108.87432665	37.98663005	22.37501197
 173	0.00000000	80.00000000	80.00000000	80.00000000	72.61133730	19.40291975	4.92955291
 174	0.00000000	80.00000000	80.00000000	100.00000000	27.90102314	-8.41990074	-12.46967308
 175	0.00000000	80.00000000	100.00000000	0.00000000	227.76006728	82.43879557	22.69569956
 176	0.00000000	80.00000000	100.00000000	20.00000000	184.93192703	69.16031688	18.96761131
 177	0.00000000	80.00000000	100.00000000	40.00000000	145.90105981	54.36936356	11.50788294
 178	0.00000000	80.00000000	100.00000000	60.00000000	109.02859077	38.17346603	1.09081281
 179	0.00000000	80.00000000	100.00000000	80.00000000	72.53848761	19.10133373	-7.29808076
 180	0.00000000	80.00000000	100.00000000	100.00000000	27.91672770	-8.41157254	-14.22764590
 181	0.00000000	100.00000000	0.00000000	0.00000000	227.15276867	32.99817033	126.37143776
 182	0.00000000	100.00000000	0.00000000	20.00000000	184.21071053	28.91965158	106.60011828
 183	0.00000000	100.00000000	0.00000000	40.00000000	145.00765175	20.53500250	85.60627520
 184	0.00000000	100.00000000	0.00000000	60.00000000	108.15971419	8.00437024	63.31640907
 185	0.00000000	100.00000000	0.00000000	80.00000000	71.96608633	-3.79232024	39.60370168
 186	0.00000000	100.00000000	0.00000000	100.00000000	27.78934143	-12.88103901	3.28340381
 187	0.00000000	100.00000000	20.00000000	0.00000000	225.75973302	34.08920959	107.58560300
 188	0.00000000	100.00000000	20.00000000	20.00000000	183.29967141	28.97903480	90.85752502
 189	0.00000000	100.00000000	20.00000000	40.00000000	144.42494541	20.72495431	72.64172807
 190	0.00000000	100.00000000	20.00000000	60.00000000	107.79551134	8.46824460	52.80233145
 191	0.00000000	100.00000000	20.00000000	80.00000000	71.75363973	-3.42777540	31.16498340
 192	0.00000000	100.00000000	20.00000000	100.00000000	27.80139819	-12.67111547	-3.67923475
 193	0.00000000	100.00000000	40.00000000	0.00000000	224.82069701	35.27487516	89.17618364
 194	0.00000000	100.00000000	40.00000000	20.00000000	182.64102995	29.64385472	75.25073647
 195	0.00000000	100.00000000	40.00000000	40.00000000	144.15409595	21.49380695	59.79757369
 196	0.00000000	100.00000000	40.00000000	60.00000000	107.62255982	9.20354979	42.37143517
 197	0.00000000	100.00000000	40.00000000	80.00000000	71.68414906	-3.04126442	22.41531260
 198	0.00000000	100.00000000	40.00000000	100.00000000	27.80351467	-12.54806193	-7.96356518
 199	0.00000000	100.00000000	60.00000000	0.00000000	223.94257933	35.99705681	70.25183111
 200	0.00000000	100.00000000	60.00000000	20.00000000	182.04531312	30.13007853	58.97972837
 201	0.00000000	100.00000000	60.00000000	40.00000000	143.66896838	21.72468256	46.23284496
 202	0.00000000	100.00000000	60.00000000	60.00000000	107.51358166	9.90473662	31.06541164
 203	0.00000000	100.00000000	60.00000000	80.00000000	71.62619457	-2.69166085	12.95130484
 204	0.00000000	100.00000000	60.00000000	100.00000000	27.81821229	-12.46675864	-10.78261871
 205	0.00000000	100.00000000	80.00000000	0.00000000	223.15140098	36.46862291	49.56213892
 206	0.00000000	100.00000000	80.00000000	20.00000000	181.53331339	30.44194490	41.29758239
 207	0.00000000	100.00000000	80.00000000	40.00000000	143.31507057	21.96613871	30.92904456
 208	0.00000000	100.00000000	80.00000000	60.00000000	107.14351192	9.91653403	17.85898849
 209	0.00000000	100.00000000	80.00000000	80.00000000	71.55345127	-2.42274525	1.28191999
 210	0.00000000	100.00000000	80.00000000	100.00000000	27.81617180	-12.39883443	-12.82414941
 211	0.00000000	100.00000000	100.00000000	0.00000000	222.40717292	36.78620987	21.31439958
 212	0.00000000	100.00000000	100.00000000	20.00000000	181.02148086	30.64964745	16.50522564
 213	0.00000000	100.00000000	100.00000000	40.00000000	143.03029865	22.23093510	8.41719149
 214	0.00000000	100.00000000	100.00000000	60.00000000	106.94608212	10.14059376	-1.07523662
 215	0.00000000	100.00000000	100.00000000	80.00000000	71.33037284	-2.52841781	-8.36372171
 216	0.00000000	100.00000000	100.00000000	100.00000000	27.81958971	-12.35428562	-14.34181362
 217	20.00000000	0.00000000	0.00000000	0.00000000	185.60318381	227.09789962	249.27657992
 218	20.00000000	0.00000000	0.00000000	20.00000000	151.35296166	181.92689627	198.04544896
 219	20.00000000	0.00000000	0.00000000	40.00000000	118.94187883	141.75742775	153.57376009
 220	20.00000000	0.00000000	0.00000000	60.00000000	87.61887521	104.72577766	113.31923693
 221	20.00000000	0.00000000	0.00000000	80.00000000	55.97297631	68.43831763	74.13955450
 222	20.00000000	0.00000000	0.00000000	100.00000000	12.08556784	22.89539974	25.31709339
 223	20.00000000	0.00000000	20.00000000	0.00000000	190.44553757	223.07978243	198.19851995
 224	20.00000000	0.00000000	20.00000000	20.00000000	154.64695930	179.38496947	161.57679945
 225	20.00000000	0.00000000	20.00000000	40.00000000	121.34909526	140.17002493	127.29956836
 226	20.00000000	0.00000000	20.00000000	60.00000000	89.44574878	103.69252950	94.07957733
 227	20.00000000	0.00000000	20.00000000	80.00000000	57.28595406	67.74979457	60.81053853
 228	20.00000000	0.00000000	20.00000000	100.00000000	13.34724169	22.16441777	14.33678554
 229	20.00000000	0.00000000	40.00000000	0.00000000	193.89564604	219.53896523	157.46470571
 230	20.00000000	0.00000000	40.00000000	20.00000000	157.12941170	177.04874843	130.58054030
 231	20.00000000	0.00000000	40.00000000	40.00000000	123.39441150	138.73216689	103.76814544
 232	20.00000000	0.00000000	40.00000000	60.00000000	90.95337108	102.73735195	76.63798124
 233	20.00000000	0.00000000	40.00000000	80.00000000	58.39433938	67.13926613	48.11782122
 234	20.00000000	0.00000000	40.00000000	100.00000000	14.05438280	21.69998199	4.03673524
 235	20.00000000	0.00000000	60.00000000	0.00000000	196.29194945	216.44985259	120.92699870
 236	20.00000000	0.00000000	60.00000000	20.00000000	159.08796340	174.96329874	101.37374192
 237	20.00000000	0.00000000	60.00000000	40.00000000	124.75733757	137.28459656	81.11898959
 238	20.00000000	0.00000000	60.00000000	60.00000000	92.22643957	101.89972490	59.06526558
 239	20.00000000	0.00000000	60.00000000	80.00000000	59.23533306	66.63375646	35.84174015
 240	20.00000000	0.00000000	60.00000000	100.00000000	14.53643633	21.39084008	-3.15569789
 241	20.00000000	0.00000000	80.00000000	0.00000000	197.94416159	213.84860337	81.98595107
 242	20.00000000	0.00000000	80.00000000	20.00000000	160.50043881	173.25174898	70.63653767
 243	20.00000000	0.00000000	80.00000000	40.00000000	125.90267971	136.06612355	56.43505052
 244	20.00000000	0.00000000	80.00000000	60.00000000	92.94741288	100.97320542	39.93898809
 245	20.00000000	0.00000000	80.00000000	80.00000000	59.93625864	66.17192924	20.95929343
 246	20.00000000	0.00000000	80.00000000	100.00000000	14.85427218	21.16309740	-8.34483577
 247	20.00000000	0.00000000	100.00000000	0.00000000	198.96907300	211.60243750	22.64082480
 248	20.00000000	0.00000000	100.00000000	20.00000000	161.45588994	171.68506265	26.67958248
 249	20.00000000	0.00000000	100.00000000	40.00000000	126.75055861	135.03975302	21.99268028
 250	20.00000000	0.00000000	100.00000000	60.00000000	93.61093327	100.25167733	11.43451648
 251	20.00000000	0.00000000	100.00000000	80.00000000	60.31549349	65.61501592	-1.41312933
 252	20.00000000	0.00000000	100.00000000	100.00000000	15.08597139	20.99216547	-12.21058208
 253	20.00000000	20.00000000	0.00000000	0.00000000	191.54159635	182.32873231	214.93759453
 254	20.00000000	20.00000000	0.00000000	20.00000000	155.45541912	149.37835962	174.21554446
 255	20.00000000	20.00000000	0.00000000	40.00000000	121.86698467	118.19739997	137.02467531
 256	20.00000000	20.00000000	0.00000000	60.00000000	89.82132062	87.26037964	101.38919190
 257	20.00000000	20.00000000	0.00000000	80.00000000	57.63131753	56.26482725	66.07860625
 258	20.00000000	20.00000000	0.00000000	100.00000000	14.06250201	12.26737289	18.86061095
 259	20.00000000	20.00000000	20.00000000	0.00000000	193.02550793	180.10185421	175.76724440
 260	20.00000000	20.00000000	20.00000000	20.00000000	156.98226839	148.13831896	145.18292874
 261	20.00000000	20.00000000	20.00000000	40.00000000	123.49552408	117.67615154	115.57139888
 262	20.00000000	20.00000000	20.00000000	60.00000000	91.31443530	87.14061767	85.54159507
 263	20.00000000	20.00000000	20.00000000	80.00000000	58.77927393	56.23560682	54.82948087
 264	20.00000000	20.00000000	20.00000000	100.00000000	14.79357708	11.59335745	7.78417823
 265	20.00000000	20.00000000	40.00000000	0.00000000	194.61338192	177.90318578	142.09592879
 266	20.00000000	20.00000000	40.00000000	20.00000000	158.18519264	146.37858778	118.61945853
 267	20.00000000	20.00000000	40.00000000	40.00000000	124.56876889	116.47319689	94.76176232
