bench/lcms_compat/reference/USSheetfedCoated.icc_to_lab_Absolute.it8
CGATS.17
ORIGINATOR	"icctrans"
#
# Data follows
#
NUMBER_OF_SETS	1296.00000000
NUMBER_OF_FIELDS	8.00000000
BEGIN_DATA_FORMAT
 SAMPLE_ID	IN_CMYK_C	IN_CMYK_M	IN_CMYK_Y	IN_CMYK_K	OUT_LAB_L	OUT_LAB_A	OUT_LAB_B
END_DATA_FORMAT
BEGIN_DATA
 1	0.00000000	0.00000000	0.00000000	0.00000000	97.19013572	-0.59133950	1.79010671
 2	0.00000000	0.00000000	0.00000000	20.00000000	78.91225815	-0.46159166	1.18381125
 3	0.00000000	0.00000000	0.00000000	40.00000000	62.60745525	-0.39924461	0.75599980
 4	0.00000000	0.00000000	0.00000000	60.00000000	47.51190245	-0.35465020	0.53991300
 5	0.00000000	0.00000000	0.00000000	80.00000000	32.52547681	-0.31060296	0.52194756
 6	0.00000000	0.00000000	0.00000000	100.00000000	15.03981501	-0.24210024	1.06873822
 7	0.00000000	0.00000000	20.00000000	0.00000000	95.29777765	-3.84025636	26.11591500
 8	0.00000000	0.00000000	20.00000000	20.00000000	77.57893205	-3.07002249	19.13210255
 9	0.00000000	0.00000000	20.00000000	40.00000000	61.68219447	-2.45019215	14.12208658
 10	0.00000000	0.00000000	20.00000000	60.00000000	46.85420990	-1.94633919	10.63966465
 11	0.00000000	0.00000000	20.00000000	80.00000000	32.08452463	-1.42756823	7.58111757
 12	0.00000000	0.00000000	20.00000000	100.00000000	14.75581080	-0.82309666	5.24501812
 13	0.00000000	0.00000000	40.00000000	0.00000000	93.87028217	-5.11956412	44.99933612
 14	0.00000000	0.00000000	40.00000000	20.00000000	76.59239173	-4.38590708	34.06832588
 15	0.00000000	0.00000000	40.00000000	40.00000000	60.98713279	-3.67241937	25.87164891
 16	0.00000000	0.00000000	40.00000000	60.00000000	46.36841416	-2.95646939	19.58645177
 17	0.00000000	0.00000000	40.00000000	80.00000000	31.76165521	-2.20631364	14.04166770
 18	0.00000000	0.00000000	40.00000000	100.00000000	14.57942873	-1.18764910	8.30886972
 19	0.00000000	0.00000000	60.00000000	0.00000000	92.69689918	-5.61596188	61.14111316
 20	0.00000000	0.00000000	60.00000000	20.00000000	75.72692633	-5.08948493	47.55621892
 21	0.00000000	0.00000000	60.00000000	40.00000000	60.39372087	-4.43072948	36.75038916
 22	0.00000000	0.00000000	60.00000000	60.00000000	45.96782029	-3.67390129	28.19090766
 23	0.00000000	0.00000000	60.00000000	80.00000000	31.51502311	-2.75324109	19.81229645
 24	0.00000000	0.00000000	60.00000000	100.00000000	14.45984840	-1.43828365	10.65229517
 25	0.00000000	0.00000000	80.00000000	0.00000000	91.72979593	-5.84313649	76.66680646
 26	0.00000000	0.00000000	80.00000000	20.00000000	75.02289414	-5.54646361	60.55947077
 27	0.00000000	0.00000000	80.00000000	40.00000000	59.88101959	-4.96482882	47.58886677
 28	0.00000000	0.00000000	80.00000000	60.00000000	45.60907781	-4.16313264	36.57699686
 29	0.00000000	0.00000000	80.00000000	80.00000000	31.30725324	-3.18996686	25.69305849
 30	0.00000000	0.00000000	80.00000000	100.00000000	14.37464803	-1.62057507	12.50042480
 31	0.00000000	0.00000000	100.00000000	0.00000000	90.91066718	-5.89595366	91.96445119
 32	0.00000000	0.00000000	100.00000000	20.00000000	74.39808846	-5.80968308	73.85477495
 33	0.00000000	0.00000000	100.00000000	40.00000000	59.45052505	-5.33948871	58.62500978
 34	0.00000000	0.00000000	100.00000000	60.00000000	45.31760216	-4.53469950	45.17563146
 35	0.00000000	0.00000000	100.00000000	80.00000000	31.12190068	-3.48213318	31.54773873
 36	0.00000000	0.00000000	100.00000000	100.00000000	14.31037486	-1.76109913	13.87257677
 37	0.00000000	20.00000000	0.00000000	0.00000000	83.28292370	18.96181089	-0.45411366
 38	0.00000000	20.00000000	0.00000000	20.00000000	68.72698665	14.26003438	-0.79006884
 39	0.00000000	20.00000000	0.00000000	40.00000000	55.18150330	10.63800794	-0.89854541
 40	0.00000000	20.00000000	0.00000000	60.00000000	41.95290506	8.09171897	-0.79052481
 41	0.00000000	20.00000000	0.00000000	80.00000000	28.71085703	5.64825249	-0.43722737
 42	0.00000000	20.00000000	0.00000000	100.00000000	12.76031137	3.44738019	0.57193768
 43	0.00000000	20.00000000	20.00000000	0.00000000	81.98547363	16.00290966	18.84301406
 44	0.00000000	20.00000000	20.00000000	20.00000000	67.79425740	11.86269742	13.99216396
 45	0.00000000	20.00000000	20.00000000	40.00000000	54.55220938	8.74540550	10.49705070
 46	0.00000000	20.00000000	20.00000000	60.00000000	41.52690172	6.60157573	7.95705420
 47	0.00000000	20.00000000	20.00000000	80.00000000	28.41489911	4.56479383	5.77071232
 48	0.00000000	20.00000000	20.00000000	100.00000000	12.53759116	2.92317551	4.20911771
 49	0.00000000	20.00000000	40.00000000	0.00000000	80.91821671	14.43619293	35.15643549
 50	0.00000000	20.00000000	40.00000000	20.00000000	66.96915030	10.51931751	27.18233538
 51	0.00000000	20.00000000	40.00000000	40.00000000	53.93786430	7.56464165	21.13374394
 52	0.00000000	20.00000000	40.00000000	60.00000000	41.05007350	5.68658483	16.14866984
 53	0.00000000	20.00000000	40.00000000	80.00000000	28.08754444	3.88887089	11.71379101
 54	0.00000000	20.00000000	40.00000000	100.00000000	12.39857972	2.59269965	6.85813797
 55	0.00000000	20.00000000	60.00000000	0.00000000	80.04976511	13.52323872	49.61110306
 56	0.00000000	20.00000000	60.00000000	20.00000000	66.29351974	9.59774536	39.40425795
 57	0.00000000	20.00000000	60.00000000	40.00000000	53.39227915	6.76800680	31.02376205
 58	0.00000000	20.00000000	60.00000000	60.00000000	40.70777297	4.91934520	24.04780757
 59	0.00000000	20.00000000	60.00000000	80.00000000	27.86931098	3.34560645	16.98257309
 60	0.00000000	20.00000000	60.00000000	100.00000000	12.30740100	2.37235707	8.76355332
 61	0.00000000	20.00000000	80.00000000	0.00000000	79.32330966	12.89127183	63.89430863
 62	0.00000000	20.00000000	80.00000000	20.00000000	65.73597789	8.91920817	51.42790717
 63	0.00000000	20.00000000	80.00000000	40.00000000	52.94534564	6.13076580	41.06261057
 64	0.00000000	20.00000000	80.00000000	60.00000000	40.33557773	4.43781984	31.74631608
 65	0.00000000	20.00000000	80.00000000	80.00000000	27.67349780	2.89739770	22.39143085
 66	0.00000000	20.00000000	80.00000000	100.00000000	12.23864108	2.20901144	10.19160789
 67	0.00000000	20.00000000	100.00000000	0.00000000	78.70897055	12.45283616	78.26989484
 68	0.00000000	20.00000000	100.00000000	20.00000000	65.24270773	8.43449098	63.86421424
 69	0.00000000	20.00000000	100.00000000	40.00000000	52.57912874	5.64156485	51.37467963
 70	0.00000000	20.00000000	100.00000000	60.00000000	40.05904794	4.02428043	39.72959650
 71	0.00000000	20.00000000	100.00000000	80.00000000	27.45077908	2.64731032	27.70167631
 72	0.00000000	20.00000000	100.00000000	100.00000000	12.18931377	2.08364856	11.24792081
 73	0.00000000	40.00000000	0.00000000	0.00000000	72.78524637	33.73833638	-0.96004131
 74	0.00000000	40.00000000	0.00000000	20.00000000	60.48041582	26.39036667	-1.61539975
 75	0.00000000	40.00000000	0.00000000	40.00000000	48.70322049	20.52819324	-1.83187413
 76	0.00000000	40.00000000	0.00000000	60.00000000	37.06654906	15.76549840	-1.64579052
 77	0.00000000	40.00000000	0.00000000	80.00000000	25.19369721	11.34288532	-1.15753952
 78	0.00000000	40.00000000	0.00000000	100.00000000	11.07123643	6.41424578	0.15999418
 79	0.00000000	40.00000000	20.00000000	0.00000000	71.79273367	31.21186715	15.05242866
 80	0.00000000	40.00000000	20.00000000	20.00000000	59.71958041	24.34616756	11.09994155
 81	0.00000000	40.00000000	20.00000000	40.00000000	48.14119935	18.92457289	8.27695143
 82	0.00000000	40.00000000	20.00000000	60.00000000	36.65249944	14.51896769	6.29754645
 83	0.00000000	40.00000000	20.00000000	80.00000000	24.90371168	10.44595104	4.55575031
 84	0.00000000	40.00000000	20.00000000	100.00000000	10.89784428	5.91644210	3.42029524
 85	0.00000000	40.00000000	40.00000000	0.00000000	70.99303603	29.60949314	29.11921304
 86	0.00000000	40.00000000	40.00000000	20.00000000	59.09925699	23.01316869	22.59385359
 87	0.00000000	40.00000000	40.00000000	40.00000000	47.78992832	17.70818216	17.59973598
 88	0.00000000	40.00000000	40.00000000	60.00000000	36.41034663	13.53802752	13.49581939
 89	0.00000000	40.00000000	40.00000000	80.00000000	24.74526763	9.68536866	9.74615020
 90	0.00000000	40.00000000	40.00000000	100.00000000	10.79171672	5.60101342	5.71338099
 91	0.00000000	40.00000000	60.00000000	0.00000000	70.30096650	28.52048677	42.33035934
 92	0.00000000	40.00000000	60.00000000	20.00000000	58.53424072	21.99202669	33.82428777
 93	0.00000000	40.00000000	60.00000000	40.00000000	47.26078510	16.91147131	26.73090440
 94	0.00000000	40.00000000	60.00000000	60.00000000	36.07103825	12.80123186	20.83985251
 95	0.00000000	40.00000000	60.00000000	80.00000000	24.51657057	9.18403876	14.59932578
 96	0.00000000	40.00000000	60.00000000	100.00000000	10.71996838	5.38819444	7.26590168
 97	0.00000000	40.00000000	80.00000000	0.00000000	69.73145604	27.74684829	55.35463166
 98	0.00000000	40.00000000	80.00000000	20.00000000	58.07386041	21.24443960	44.85619020
 99	0.00000000	40.00000000	80.00000000	40.00000000	46.85720205	16.25114274	35.95469666
 100	0.00000000	40.00000000	80.00000000	60.00000000	35.71379483	12.31581551	27.87389827
 101	0.00000000	40.00000000	80.00000000	80.00000000	24.34317917	8.73190862	19.51383007
 102	0.00000000	40.00000000	80.00000000	100.00000000	10.66765115	5.23238760	8.39950246
 103	0.00000000	40.00000000	100.00000000	0.00000000	69.24417019	27.16690820	68.71254128
 104	0.00000000	40.00000000	100.00000000	20.00000000	57.67326355	20.66788894	56.41776901
 105	0.00000000	40.00000000	100.00000000	40.00000000	46.54031396	15.71219486	45.53107959
 106	0.00000000	40.00000000	100.00000000	60.00000000	35.45520008	11.89077032	35.22676212
 107	0.00000000	40.00000000	100.00000000	80.00000000	24.11298454	8.50088102	24.29142010
 108	0.00000000	40.00000000	100.00000000	100.00000000	10.62878743	5.11836332	9.23475844
 109	0.00000000	60.00000000	0.00000000	0.00000000	64.19189572	46.49102968	-0.65407413
 110	0.00000000	60.00000000	0.00000000	20.00000000	53.46103907	37.44072092	-1.88503328
 111	0.00000000	60.00000000	0.00000000	40.00000000	43.09041202	29.75145352	-2.35873106
 112	0.00000000	60.00000000	0.00000000	60.00000000	32.64206946	23.23893738	-2.21806261
 113	0.00000000	60.00000000	0.00000000	80.00000000	22.17727602	16.58566159	-1.66222844
 114	0.00000000	60.00000000	0.00000000	100.00000000	9.78724062	8.84220910	-0.17754930
 115	0.00000000	60.00000000	20.00000000	0.00000000	63.40565681	44.31751591	12.78975648
 116	0.00000000	60.00000000	20.00000000	20.00000000	52.83024907	35.66615534	9.06110775
 117	0.00000000	60.00000000	20.00000000	40.00000000	42.61060059	28.32631719	6.52396870
 118	0.00000000	60.00000000	20.00000000	60.00000000	32.28631616	22.10630935	4.82357514
 119	0.00000000	60.00000000	20.00000000	80.00000000	21.93363011	15.74938726	3.45887077
 120	0.00000000	60.00000000	20.00000000	100.00000000	9.65719596	8.34037763	2.75862914
 121	0.00000000	60.00000000	40.00000000	0.00000000	62.74796128	42.89332193	25.20081770
 122	0.00000000	60.00000000	40.00000000	20.00000000	52.28765607	34.45073736	19.46101290
 123	0.00000000	60.00000000	40.00000000	40.00000000	42.24587679	27.23942351	15.14032555
 124	0.00000000	60.00000000	40.00000000	60.00000000	32.02024698	21.22828287	11.53427345
 125	0.00000000	60.00000000	40.00000000	80.00000000	21.75724953	15.06885898	8.32042110
 126	0.00000000	60.00000000	40.00000000	100.00000000	9.57498476	8.03242695	4.71254510
 127	0.00000000	60.00000000	60.00000000	0.00000000	62.20237613	41.77311164	37.02069145
 128	0.00000000	60.00000000	60.00000000	20.00000000	51.82577372	33.48616672	29.55628079
 129	0.00000000	60.00000000	60.00000000	40.00000000	41.86322093	26.45336729	23.29564553
 130	0.00000000	60.00000000	60.00000000	60.00000000	31.85582757	20.48296046	18.03510141
 131	0.00000000	60.00000000	60.00000000	80.00000000	21.65410966	14.52880156	12.54109782
 132	0.00000000	60.00000000	60.00000000	100.00000000	9.52117294	7.81951678	6.00482535
 133	0.00000000	60.00000000	80.00000000	0.00000000	61.72853112	40.93043846	48.98144644
 134	0.00000000	60.00000000	80.00000000	20.00000000	51.47301555	32.69234371	39.69483596
 135	0.00000000	60.00000000	80.00000000	40.00000000	41.57772064	25.78483117	31.78484601
 136	0.00000000	60.00000000	80.00000000	60.00000000	31.54641092	20.01251531	24.48075634
 137	0.00000000	60.00000000	80.00000000	80.00000000	21.49417251	14.10325480	17.00259042
 138	0.00000000	60.00000000	80.00000000	100.00000000	9.48230922	7.66744894	6.94951546
 139	0.00000000	60.00000000	100.00000000	0.00000000	61.31448746	40.31585944	61.46810842
 140	0.00000000	60.00000000	100.00000000	20.00000000	51.12473369	32.09647489	50.51702005
 141	0.00000000	60.00000000	100.00000000	40.00000000	41.29072726	25.24574649	40.73100996
 142	0.00000000	60.00000000	100.00000000	60.00000000	31.31173551	19.58734852	31.27126557
 143	0.00000000	60.00000000	100.00000000	80.00000000	21.28939182	13.86067581	21.34628934
 144	0.00000000	60.00000000	100.00000000	100.00000000	9.45241451	7.55339426	7.65881580
 145	0.00000000	80.00000000	0.00000000	0.00000000	56.83619976	58.48725957	-0.09060997
 146	0.00000000	80.00000000	0.00000000	20.00000000	47.31758535	48.02965832	-1.96707848
 147	0.00000000	80.00000000	0.00000000	40.00000000	37.94396818	38.94940716	-2.73092109
 148	0.00000000	80.00000000	0.00000000	60.00000000	28.69292200	30.48528534	-2.69217837
 149	0.00000000	80.00000000	0.00000000	80.00000000	19.35218722	21.86552387	-2.10723016
 150	0.00000000	80.00000000	0.00000000	100.00000000	8.78126919	10.83853078	-0.46539146
 151	0.00000000	80.00000000	20.00000000	0.00000000	56.18299246	56.62142289	11.29327518
 152	0.00000000	80.00000000	20.00000000	20.00000000	46.76751494	46.51353967	7.54898649
 153	0.00000000	80.00000000	20.00000000	40.00000000	37.52394319	37.68386227	5.09901476
 154	0.00000000	80.00000000	20.00000000	60.00000000	28.38500142	29.43994623	3.60244226
 155	0.00000000	80.00000000	20.00000000	80.00000000	19.14441586	21.06332612	2.49703598
 156	0.00000000	80.00000000	20.00000000	100.00000000	8.68560523	10.32890213	2.19977033
 157	0.00000000	80.00000000	40.00000000	0.00000000	55.65832853	55.26127827	22.20709515
 158	0.00000000	80.00000000	40.00000000	20.00000000	46.31759226	45.35093886	16.82868135
 159	0.00000000	80.00000000	40.00000000	40.00000000	37.22499311	36.66515213	12.81378639
 160	0.00000000	80.00000000	40.00000000	60.00000000	28.15331221	28.61505610	9.66032040
 161	0.00000000	80.00000000	40.00000000	80.00000000	18.98597181	20.43217999	6.86791104
 162	0.00000000	80.00000000	40.00000000	100.00000000	8.62581432	10.00941527	3.87155902
 163	0.00000000	80.00000000	60.00000000	0.00000000	55.19794226	54.22437471	32.99730015
 164	0.00000000	80.00000000	60.00000000	20.00000000	45.93792558	44.41640180	26.16614830
 165	0.00000000	80.00000000	60.00000000	40.00000000	36.87671125	35.89415830	20.46358150
 166	0.00000000	80.00000000	60.00000000	60.00000000	27.97992229	27.90785325	15.78711164
 167	0.00000000	80.00000000	60.00000000	80.00000000	18.88133734	19.91118234	10.81664395
 168	0.00000000	80.00000000	60.00000000	100.00000000	8.58695135	9.80022889	4.99629867
 169	0.00000000	80.00000000	80.00000000	0.00000000	54.81677651	53.33551121	43.86050683
 170	0.00000000	80.00000000	80.00000000	20.00000000	45.60011029	43.68722093	35.43252867
 171	0.00000000	80.00000000	80.00000000	40.00000000	36.57925427	35.29801589	28.15950614
 172	0.00000000	80.00000000	80.00000000	60.00000000	27.70488858	27.45623988	21.53085303
 173	0.00000000	80.00000000	80.00000000	80.00000000	18.80809516	19.48516440	14.69412309
 174	0.00000000	80.00000000	80.00000000	100.00000000	8.55705515	9.64430046	5.80091310
 175	0.00000000	80.00000000	100.00000000	0.00000000	54.46850061	52.67872405	55.48712295
 176	0.00000000	80.00000000	100.00000000	20.00000000	45.36543190	43.04505539	45.48984420
 177	0.00000000	80.00000000	100.00000000	40.00000000	36.48359478	34.71603912	36.41378802
 178	0.00000000	80.00000000	100.00000000	60.00000000	27.64061093	26.99593258	27.73867112
 179	0.00000000	80.00000000	100.00000000	80.00000000	18.66609305	19.20419228	18.56597853
 180	0.00000000	80.00000000	100.00000000	100.00000000	8.53463486	9.53021538	6.40526307
 181	0.00000000	100.00000000	0.00000000	0.00000000	50.48049092	69.80826569	0.73792797
 182	0.00000000	100.00000000	0.00000000	20.00000000	41.78100824	58.40601993	-1.77139658
 183	0.00000000	100.00000000	0.00000000	40.00000000	33.33264291	47.95803976	-2.95491907
 184	0.00000000	100.00000000	0.00000000	60.00000000	25.01881123	37.79869211	-3.04863724
 185	0.00000000	100.00000000	0.00000000	80.00000000	16.83352143	26.93057609	-2.47185099
 186	0.00000000	100.00000000	0.00000000	100.00000000	7.99054652	12.47204792	-0.70825922
 187	0.00000000	100.00000000	20.00000000	0.00000000	49.88408387	68.25810087	10.45719844
 188	0.00000000	100.00000000	20.00000000	20.00000000	41.25036895	57.20198613	6.49489266
 189	0.00000000	100.00000000	20.00000000	40.00000000	32.92158842	46.90183324	3.98009640
 190	0.00000000	100.00000000	20.00000000	60.00000000	24.72135425	36.87514406	2.57012886
 191	0.00000000	100.00000000	20.00000000	80.00000000	16.64069891	26.17017609	1.67942625
 192	0.00000000	100.00000000	20.00000000	100.00000000	7.92352408	11.94598895	1.70324337
 193	0.00000000	100.00000000	40.00000000	0.00000000	49.45957363	66.97737199	20.14897358
 194	0.00000000	100.00000000	40.00000000	20.00000000	40.87668359	56.10370827	14.82030672
 195	0.00000000	100.00000000	40.00000000	40.00000000	32.67046809	45.96282762	10.93653512
 196	0.00000000	100.00000000	40.00000000	60.00000000	24.52703416	36.09572989	8.05077237
 197	0.00000000	100.00000000	40.00000000	80.00000000	16.51364565	25.56170714	5.62404019
 198	0.00000000	100.00000000	40.00000000	100.00000000	7.88053051	11.61729139	3.19163871
 199	0.00000000	100.00000000	60.00000000	0.00000000	49.07990396	65.93622786	29.91318804
 200	0.00000000	100.00000000	60.00000000	20.00000000	40.55530727	55.18408161	23.30517542
 201	0.00000000	100.00000000	60.00000000	40.00000000	32.38197863	45.17628503	17.89991987
 202	0.00000000	100.00000000	60.00000000	60.00000000	24.37755764	35.43409419	13.58876240
 203	0.00000000	100.00000000	60.00000000	80.00000000	16.42097086	25.07490766	9.16131598
 204	0.00000000	100.00000000	60.00000000	100.00000000	7.85392299	11.40295249	4.17365801
 205	0.00000000	100.00000000	80.00000000	0.00000000	48.75404239	65.09277952	39.91242748
 206	0.00000000	100.00000000	80.00000000	20.00000000	40.28774798	54.45073617	31.87774342
 207	0.00000000	100.00000000	80.00000000	40.00000000	32.15925992	44.53025889	25.05694222
 208	0.00000000	100.00000000	80.00000000	60.00000000	24.16828871	34.89839894	18.90678984
 209	0.00000000	100.00000000	80.00000000	80.00000000	16.33427441	24.65276551	12.71002156
 210	0.00000000	100.00000000	80.00000000	100.00000000	7.83474445	11.23826933	4.88473666
 211	0.00000000	100.00000000	100.00000000	0.00000000	48.47004116	64.39756882	50.62988919
 212	0.00000000	100.00000000	100.00000000	20.00000000	40.04858434	53.83144540	41.15324330
 213	0.00000000	100.00000000	100.00000000	40.00000000	31.98586702	43.99056625	32.58865488
 214	0.00000000	100.00000000	100.00000000	60.00000000	24.03077334	34.45370120	24.45253146
 215	0.00000000	100.00000000	100.00000000	80.00000000	16.20123982	24.32987404	15.95956159
 216	0.00000000	100.00000000	100.00000000	100.00000000	7.82001391	11.11939651	5.41275632
 217	20.00000000	0.00000000	0.00000000	0.00000000	85.46227813	-10.46635601	-13.22633031
 218	20.00000000	0.00000000	0.00000000	20.00000000	70.34879327	-8.16791254	-9.89639419
 219	20.00000000	0.00000000	0.00000000	40.00000000	56.32798076	-6.41957316	-7.48203415
 220	20.00000000	0.00000000	0.00000000	60.00000000	42.87517071	-5.03589261	-5.62517259
 221	20.00000000	0.00000000	0.00000000	80.00000000	29.30128574	-3.79621673	-3.83821207
 222	20.00000000	0.00000000	0.00000000	100.00000000	13.19678128	-2.56998453	-1.49078164
 223	20.00000000	0.00000000	20.00000000	0.00000000	83.63419175	-14.65974259	9.65024334
 224	20.00000000	0.00000000	20.00000000	20.00000000	69.08124685	-11.40485245	7.15031189
 225	20.00000000	0.00000000	20.00000000	40.00000000	55.45504093	-8.90862200	5.34861577
 226	20.00000000	0.00000000	20.00000000	60.00000000	42.25783646	-6.94378543	4.14284927
 227	20.00000000	0.00000000	20.00000000	80.00000000	28.87976468	-5.12265715	3.03242725
 228	20.00000000	0.00000000	20.00000000	100.00000000	12.90530264	-3.24991244	2.57962835
 229	20.00000000	0.00000000	40.00000000	0.00000000	82.27545619	-16.60564858	27.85494488
 230	20.00000000	0.00000000	40.00000000	20.00000000	68.08723211	-13.21180749	21.59544957
 231	20.00000000	0.00000000	40.00000000	40.00000000	54.77343202	-10.45831564	16.81133908
 232	20.00000000	0.00000000	40.00000000	60.00000000	41.76605940	-8.18990576	12.88560253
 233	20.00000000	0.00000000	40.00000000	80.00000000	28.54493856	-6.05743739	9.35305369
 234	20.00000000	0.00000000	40.00000000	100.00000000	12.72144765	-3.68675220	5.56029481
 235	20.00000000	0.00000000	60.00000000	0.00000000	81.18727207	-17.56694379	43.67329848
 236	20.00000000	0.00000000	60.00000000	20.00000000	67.27856398	-14.26972392	34.84252673
 237	20.00000000	0.00000000	60.00000000	40.00000000	54.15161848	-11.50198284	27.42904854
 238	20.00000000	0.00000000	60.00000000	60.00000000	41.36546552	-9.08627006	21.35033232
 239	20.00000000	0.00000000	60.00000000	80.00000000	28.28485370	-6.71849552	15.01394433
 240	20.00000000	0.00000000	60.00000000	100.00000000	12.60037273	-3.97926810	7.84327310
 241	20.00000000	0.00000000	80.00000000	0.00000000	80.29639721	-18.15617058	58.98112667
 242	20.00000000	0.00000000	80.00000000	20.00000000	66.63283110	-14.99731648	47.64654768
 243	20.00000000	0.00000000	80.00000000	40.00000000	53.64937782	-12.24553454	38.06752008
 244	20.00000000	0.00000000	80.00000000	60.00000000	40.95590413	-9.75416023	29.50902653
 245	20.00000000	0.00000000	80.00000000	80.00000000	28.05764973	-7.25028458	20.76976907
 246	20.00000000	0.00000000	80.00000000	100.00000000	12.51068711	-4.19960308	9.60491937
 247	20.00000000	0.00000000	100.00000000	0.00000000	79.54453826	-18.48726961	74.14389384
 248	20.00000000	0.00000000	100.00000000	20.00000000	66.06183648	-15.47780830	60.74631435
 249	20.00000000	0.00000000	100.00000000	40.00000000	53.23682427	-12.78778064	48.92268640
 250	20.00000000	0.00000000	100.00000000	60.00000000	40.64349830	-10.25125715	37.92603087
 251	20.00000000	0.00000000	100.00000000	80.00000000	27.80802548	-7.65633839	26.42327291
 252	20.00000000	0.00000000	100.00000000	100.00000000	12.44342253	-4.36676371	10.91665459
 253	20.00000000	20.00000000	0.00000000	0.00000000	73.80467057	7.27810663	-13.11233643
 254	20.00000000	20.00000000	0.00000000	20.00000000	61.61643267	5.33929867	-10.31775358
 255	20.00000000	20.00000000	0.00000000	40.00000000	49.81532693	3.80199236	-8.11375785
 256	20.00000000	20.00000000	0.00000000	60.00000000	37.92005181	2.83625138	-6.23605061
 257	20.00000000	20.00000000	0.00000000	80.00000000	25.84541142	1.78769004	-4.32717744
 258	20.00000000	20.00000000	0.00000000	100.00000000	11.11308858	0.92431557	-1.72012213
 259	20.00000000	20.00000000	20.00000000	0.00000000	72.48031497	3.56176925	5.16089064
 260	20.00000000	20.00000000	20.00000000	20.00000000	60.74498892	2.42386711	3.84985459
 261	20.00000000	20.00000000	20.00000000	40.00000000	49.29814339	1.54333276	2.89460105
 262	20.00000000	20.00000000	20.00000000	60.00000000	37.62558699	1.09036666	2.26056707
 263	20.00000000	20.00000000	20.00000000	80.00000000	25.66006184	0.55138838	1.73522246
 264	20.00000000	20.00000000	20.00000000	100.00000000	10.88439152	0.32019359	1.80744898
 265	20.00000000	20.00000000	40.00000000	0.00000000	71.46239281	1.53033745	20.95392239
 266	20.00000000	20.00000000	40.00000000	20.00000000	59.89596844	0.69230002	16.62799132
 267	20.00000000	20.00000000	40.00000000	40.00000000	48.66585732	0.06569844	13.23644531
 268	20.00000000	20.00000000	40.00000000	60.00000000	37.11736798	-0.05670059	10.20619911
 269	20.00000000	20.00000000	40.00000000	80.00000000	25.30580163	-0.28810817	7.47391772
 270	20.00000000	20.00000000	40.00000000	100.00000000	10.74239016	-0.05975562	4.36577570
 271	20.00000000	20.00000000	60.00000000	0.00000000	70.63578963	0.26312065	35.13733011
 272	20.00000000	20.00000000	60.00000000	20.00000000	59.23827291	-0.51867980	28.62738264
