bench/lcms_compat/reference/USSheetfedCoated.icc_to_lab_Perceptual_BPC.it8
CGATS.17
ORIGINATOR	"icctrans"
#
# Data follows
#
NUMBER_OF_SETS	1296.00000000
NUMBER_OF_FIELDS	8.00000000
BEGIN_DATA_FORMAT
 SAMPLE_ID	IN_CMYK_C	IN_CMYK_M	IN_CMYK_Y	IN_CMYK_K	OUT_LAB_L	OUT_LAB_A	OUT_LAB_B
END_DATA_FORMAT
BEGIN_DATA
 1	0.00000000	0.00000000	0.00000000	0.00000000	100.00000000	-0.00000763	-0.00000763
 2	0.00000000	0.00000000	0.00000000	20.00000000	81.05086088	0.03905427	-0.33203381
 3	0.00000000	0.00000000	0.00000000	40.00000000	64.03799057	0.01172614	-0.51562476
 4	0.00000000	0.00000000	0.00000000	60.00000000	48.09895754	-0.02733576	-0.50000000
 5	0.00000000	0.00000000	0.00000000	80.00000000	31.72794282	-0.06250668	-0.27344096
 6	0.00000000	0.00000000	0.00000000	100.00000000	10.02144590	-0.12500572	0.91016513
 7	0.00000000	0.00000000	20.00000000	0.00000000	98.04227948	-3.37890792	25.48046750
 8	0.00000000	0.00000000	20.00000000	20.00000000	79.66452241	-2.68749702	18.56641930
 9	0.00000000	0.00000000	20.00000000	40.00000000	63.06832433	-2.14843515	13.70313627
 10	0.00000000	0.00000000	20.00000000	60.00000000	47.39583433	-1.73046517	10.46484363
 11	0.00000000	0.00000000	20.00000000	80.00000000	31.23008609	-1.33203375	7.93360186
 12	0.00000000	0.00000000	20.00000000	100.00000000	9.57873762	-1.04296806	7.61329424
 13	0.00000000	0.00000000	40.00000000	0.00000000	96.56556249	-4.71093404	45.35937440
 14	0.00000000	0.00000000	40.00000000	20.00000000	78.63817811	-4.06640503	34.40234315
 15	0.00000000	0.00000000	40.00000000	40.00000000	62.33915687	-3.43750077	26.32421982
 16	0.00000000	0.00000000	40.00000000	60.00000000	46.87806368	-2.82031509	20.37890685
 17	0.00000000	0.00000000	40.00000000	80.00000000	30.86703420	-2.21874657	15.68360519
 18	0.00000000	0.00000000	40.00000000	100.00000000	9.29840729	-1.64843518	11.80860353
 19	0.00000000	0.00000000	60.00000000	0.00000000	95.34926414	-5.23437116	62.47655910
 20	0.00000000	0.00000000	60.00000000	20.00000000	77.73743868	-4.80469021	48.85156941
 21	0.00000000	0.00000000	60.00000000	40.00000000	61.71415448	-4.24218360	38.22656435
 22	0.00000000	0.00000000	60.00000000	60.00000000	46.44761086	-3.58984220	30.14844102
 23	0.00000000	0.00000000	60.00000000	80.00000000	30.58823645	-2.84765843	23.27343953
 24	0.00000000	0.00000000	60.00000000	100.00000000	9.11151990	-2.06640515	14.53126383
 25	0.00000000	0.00000000	80.00000000	0.00000000	94.34589744	-5.47656256	79.12109476
 26	0.00000000	0.00000000	80.00000000	20.00000000	77.00367570	-5.28515923	63.01172239
 27	0.00000000	0.00000000	80.00000000	40.00000000	61.17647290	-4.80469021	50.34765553
 28	0.00000000	0.00000000	80.00000000	60.00000000	46.06464505	-4.12109169	40.12500328
 29	0.00000000	0.00000000	80.00000000	80.00000000	30.35386205	-3.34765840	31.25000191
 30	0.00000000	0.00000000	80.00000000	100.00000000	8.97212029	-2.37890798	15.46874952
 31	0.00000000	0.00000000	100.00000000	0.00000000	93.49877238	-5.53515542	95.80859852
 32	0.00000000	0.00000000	100.00000000	20.00000000	76.35416985	-5.56249875	77.82422435
 33	0.00000000	0.00000000	100.00000000	40.00000000	60.72457433	-5.20702782	63.12890810
 34	0.00000000	0.00000000	100.00000000	60.00000000	45.75367570	-4.52343690	50.96094263
 35	0.00000000	0.00000000	100.00000000	80.00000000	30.14399707	-3.68359077	39.80860186
 36	0.00000000	0.00000000	100.00000000	100.00000000	8.86948556	-2.62109178	15.29297096
 37	0.00000000	20.00000000	0.00000000	0.00000000	85.59129834	20.23437780	-2.11718562
 38	0.00000000	20.00000000	0.00000000	20.00000000	70.43964863	15.35937619	-2.24218372
 39	0.00000000	20.00000000	0.00000000	40.00000000	56.22242689	11.63673115	-2.15624753
 40	0.00000000	20.00000000	0.00000000	60.00000000	42.13082194	9.06250608	-1.85937706
 41	0.00000000	20.00000000	0.00000000	80.00000000	27.34375000	6.84766573	-1.33593994
 42	0.00000000	20.00000000	0.00000000	100.00000000	6.35876283	5.75782341	0.18748951
 43	0.00000000	20.00000000	20.00000000	0.00000000	84.24326181	17.16016036	18.15625411
 44	0.00000000	20.00000000	20.00000000	20.00000000	69.46691275	12.85938394	13.38671964
 45	0.00000000	20.00000000	20.00000000	40.00000000	55.55760264	9.64063746	10.05078745
 46	0.00000000	20.00000000	20.00000000	60.00000000	41.66820049	7.46484381	7.75001091
 47	0.00000000	20.00000000	20.00000000	80.00000000	26.99908316	5.61720055	6.10156816
 48	0.00000000	20.00000000	20.00000000	100.00000000	6.01715706	4.82422870	5.37500155
 49	0.00000000	20.00000000	40.00000000	0.00000000	83.13572407	15.53126377	35.39453071
 50	0.00000000	20.00000000	40.00000000	20.00000000	68.60600710	11.45703119	27.45703024
 51	0.00000000	20.00000000	40.00000000	40.00000000	54.90962267	8.39843851	21.57032531
 52	0.00000000	20.00000000	40.00000000	60.00000000	41.15349352	6.48437482	16.96485084
 53	0.00000000	20.00000000	40.00000000	80.00000000	26.62071288	4.85938442	13.50001436
 54	0.00000000	20.00000000	40.00000000	100.00000000	5.80269620	4.24609733	8.59376323
 55	0.00000000	20.00000000	60.00000000	0.00000000	82.23345876	14.58204430	50.82031977
 56	0.00000000	20.00000000	60.00000000	20.00000000	67.89828539	10.49218696	40.66016656
 57	0.00000000	20.00000000	60.00000000	40.00000000	54.33058143	7.55470139	32.54688752
 58	0.00000000	20.00000000	60.00000000	60.00000000	40.78125060	5.66016865	26.14453506
 59	0.00000000	20.00000000	60.00000000	80.00000000	26.36335790	4.23437876	20.66407394
 60	0.00000000	20.00000000	60.00000000	100.00000000	5.66482842	3.86719686	9.76563555
 61	0.00000000	20.00000000	80.00000000	0.00000000	81.47825003	13.92578912	66.26171839
 62	0.00000000	20.00000000	80.00000000	20.00000000	67.31618047	9.78126031	53.90625578
 63	0.00000000	20.00000000	80.00000000	40.00000000	53.85876298	6.88282144	43.97266161
 64	0.00000000	20.00000000	80.00000000	60.00000000	40.37990272	5.13672394	35.60938638
 65	0.00000000	20.00000000	80.00000000	80.00000000	26.13817453	3.72657400	28.10156685
 66	0.00000000	20.00000000	80.00000000	100.00000000	5.56066185	3.58985734	9.58985698
 67	0.00000000	20.00000000	100.00000000	0.00000000	80.83946109	13.46874964	82.14843792
 68	0.00000000	20.00000000	100.00000000	20.00000000	66.80147052	9.27734655	68.00000352
 69	0.00000000	20.00000000	100.00000000	40.00000000	53.47120166	6.37109530	56.24218804
 70	0.00000000	20.00000000	100.00000000	60.00000000	40.07965624	4.69532442	46.16406482
 71	0.00000000	20.00000000	100.00000000	80.00000000	25.88082254	3.44921929	36.20703351
 72	0.00000000	20.00000000	100.00000000	100.00000000	5.48560061	3.38672024	9.45703131
 73	0.00000000	40.00000000	0.00000000	0.00000000	74.67830777	35.60938638	-2.48437512
 74	0.00000000	40.00000000	0.00000000	20.00000000	61.81219816	28.08984828	-2.99218747
 75	0.00000000	40.00000000	0.00000000	40.00000000	49.36734140	22.16016006	-3.06249890
 76	0.00000000	40.00000000	0.00000000	60.00000000	36.82138622	17.50392032	-2.74608988
 77	0.00000000	40.00000000	0.00000000	80.00000000	23.25827181	13.64844960	-2.16405991
 78	0.00000000	40.00000000	0.00000000	100.00000000	3.86488996	9.59766936	-0.37500191
 79	0.00000000	40.00000000	20.00000000	0.00000000	73.64430428	32.99609941	14.40625054
 80	0.00000000	40.00000000	20.00000000	20.00000000	61.01562977	25.96094412	10.53126407
 81	0.00000000	40.00000000	20.00000000	40.00000000	48.76685143	20.47656161	7.85157186
 82	0.00000000	40.00000000	20.00000000	60.00000000	36.36488914	16.17187899	6.10938054
 83	0.00000000	40.00000000	20.00000000	80.00000000	22.90747613	12.64063728	4.91797727
 84	0.00000000	40.00000000	20.00000000	100.00000000	3.62745114	8.71485513	3.85157210
 85	0.00000000	40.00000000	40.00000000	0.00000000	72.80943990	31.33593810	29.35156298
 86	0.00000000	40.00000000	40.00000000	20.00000000	60.36305428	24.57423133	22.87891430
 87	0.00000000	40.00000000	40.00000000	40.00000000	48.39460850	19.19531596	18.06250554
 88	0.00000000	40.00000000	40.00000000	60.00000000	36.09987795	15.10938001	14.36328244
 89	0.00000000	40.00000000	40.00000000	80.00000000	22.71905690	11.77344781	11.64844972
 90	0.00000000	40.00000000	40.00000000	100.00000000	3.48345600	8.17578566	5.85938436
 91	0.00000000	40.00000000	60.00000000	0.00000000	72.08946347	30.20703387	43.54688686
 92	0.00000000	40.00000000	60.00000000	20.00000000	59.77022052	23.51173234	35.13281596
 93	0.00000000	40.00000000	60.00000000	40.00000000	47.82781899	18.35937601	28.35546923
 94	0.00000000	40.00000000	60.00000000	60.00000000	35.72610319	14.32812673	23.11328572
 95	0.00000000	40.00000000	60.00000000	80.00000000	22.44178951	11.20703501	18.42578125
 96	0.00000000	40.00000000	60.00000000	100.00000000	3.38694863	7.82032233	5.83594722
 97	0.00000000	40.00000000	80.00000000	0.00000000	71.49356604	29.40624964	57.79297602
 98	0.00000000	40.00000000	80.00000000	20.00000000	59.28462148	22.73047906	47.48046619
 99	0.00000000	40.00000000	80.00000000	40.00000000	47.39736617	17.66798031	39.10547239
 100	0.00000000	40.00000000	80.00000000	60.00000000	35.33088267	13.81641579	32.15234709
 101	0.00000000	40.00000000	80.00000000	80.00000000	22.23192453	10.70313644	25.58204365
 102	0.00000000	40.00000000	80.00000000	100.00000000	3.31648290	7.56251377	5.71876150
 103	0.00000000	40.00000000	100.00000000	0.00000000	70.98498940	28.80079013	72.83203703
 104	0.00000000	40.00000000	100.00000000	20.00000000	58.86335969	22.13281673	60.91016155
 105	0.00000000	40.00000000	100.00000000	40.00000000	47.06035554	17.10547370	50.92188072
 106	0.00000000	40.00000000	100.00000000	60.00000000	35.04748940	13.36328250	42.53126216
 107	0.00000000	40.00000000	100.00000000	80.00000000	21.95618898	10.46484363	32.81641465
 108	0.00000000	40.00000000	100.00000000	100.00000000	3.26439962	7.37109524	5.62891912
 109	0.00000000	60.00000000	0.00000000	0.00000000	65.70466161	49.01562941	-2.03124943
 110	0.00000000	60.00000000	0.00000000	20.00000000	54.41330075	39.84766376	-3.17968461
 111	0.00000000	60.00000000	0.00000000	40.00000000	43.33946109	32.22656471	-3.57812363
 112	0.00000000	60.00000000	0.00000000	60.00000000	31.90410733	26.03516173	-3.36718935
 113	0.00000000	60.00000000	0.00000000	80.00000000	19.49601769	20.65235537	-2.85547081
 114	0.00000000	60.00000000	0.00000000	100.00000000	2.18137261	12.18750399	-0.74999619
 115	0.00000000	60.00000000	20.00000000	0.00000000	64.88051414	46.76953954	12.23047209
 116	0.00000000	60.00000000	20.00000000	20.00000000	53.74540687	38.00781769	8.55079514
 117	0.00000000	60.00000000	20.00000000	40.00000000	42.82169044	30.73438478	6.13672388
 118	0.00000000	60.00000000	20.00000000	60.00000000	31.50582314	24.83985227	4.64845014
 119	0.00000000	60.00000000	20.00000000	80.00000000	19.18504983	19.73047924	3.83594733
 120	0.00000000	60.00000000	20.00000000	100.00000000	2.01899521	11.34375167	2.60157597
 121	0.00000000	60.00000000	40.00000000	0.00000000	64.19118047	45.29687536	25.51563841
 122	0.00000000	60.00000000	40.00000000	20.00000000	53.17096114	36.75000918	19.83985257
 123	0.00000000	60.00000000	40.00000000	40.00000000	42.42953360	29.60157436	15.71876091
 124	0.00000000	60.00000000	40.00000000	60.00000000	31.20710850	23.90235138	12.56251347
 125	0.00000000	60.00000000	40.00000000	80.00000000	18.96292865	18.97656929	10.37500125
 126	0.00000000	60.00000000	40.00000000	100.00000000	1.91789232	10.83204073	3.30469024
 127	0.00000000	60.00000000	60.00000000	0.00000000	63.61979246	44.13672161	38.35937482
 128	0.00000000	60.00000000	60.00000000	20.00000000	52.68229246	35.75000924	31.02734905
 129	0.00000000	60.00000000	60.00000000	40.00000000	42.01286733	28.78516537	25.14453512
 130	0.00000000	60.00000000	60.00000000	60.00000000	31.02328479	23.10156715	20.61719966
 131	0.00000000	60.00000000	60.00000000	80.00000000	18.82965714	18.35156363	16.15625423
 132	0.00000000	60.00000000	60.00000000	100.00000000	1.85202211	10.49218696	3.19141072
 133	0.00000000	60.00000000	80.00000000	0.00000000	63.12347054	43.26953214	51.65235353
 134	0.00000000	60.00000000	80.00000000	20.00000000	52.30851769	34.92578787	42.62891692
 135	0.00000000	60.00000000	80.00000000	40.00000000	41.70649648	28.08594209	35.36328119
 136	0.00000000	60.00000000	80.00000000	60.00000000	30.67248762	22.61329335	29.40624964
 137	0.00000000	60.00000000	80.00000000	80.00000000	18.63051504	17.88672698	22.83204001
 138	0.00000000	60.00000000	80.00000000	100.00000000	1.80300251	10.24219078	3.10938072
 139	0.00000000	60.00000000	100.00000000	0.00000000	62.68842220	42.63282311	66.04297173
 140	0.00000000	60.00000000	100.00000000	20.00000000	51.93933845	34.31250077	55.60547900
 141	0.00000000	60.00000000	100.00000000	40.00000000	41.39705896	27.52345067	46.96094286
 142	0.00000000	60.00000000	100.00000000	60.00000000	30.41054010	22.17578483	39.61719853
 143	0.00000000	60.00000000	100.00000000	80.00000000	18.37469339	17.65626174	28.47656113
 144	0.00000000	60.00000000	100.00000000	100.00000000	1.76623780	10.05859983	3.04297549
 145	0.00000000	80.00000000	0.00000000	0.00000000	57.98254013	61.73828912	-1.32031518
 146	0.00000000	80.00000000	0.00000000	20.00000000	47.88756073	51.27343786	-3.19530937
 147	0.00000000	80.00000000	0.00000000	40.00000000	37.76654601	42.41796744	-3.94921932
 148	0.00000000	80.00000000	0.00000000	60.00000000	27.41728127	34.62891740	-3.92578217
 149	0.00000000	80.00000000	0.00000000	80.00000000	15.89154452	28.00781828	-3.53515553
 150	0.00000000	80.00000000	0.00000000	100.00000000	0.96507361	14.06250578	-1.02343711
 151	0.00000000	80.00000000	20.00000000	0.00000000	57.29473233	59.81641304	10.84375930
 152	0.00000000	80.00000000	20.00000000	20.00000000	47.30085731	49.70704031	7.09766191
 153	0.00000000	80.00000000	20.00000000	40.00000000	37.30698526	41.11328465	4.73829252
 154	0.00000000	80.00000000	20.00000000	60.00000000	27.06342041	33.53516889	3.41015738
 155	0.00000000	80.00000000	20.00000000	80.00000000	15.61121345	27.15234739	2.75001121
 156	0.00000000	80.00000000	20.00000000	100.00000000	0.85324757	13.24609679	1.39453274
 157	0.00000000	80.00000000	40.00000000	0.00000000	56.74020052	58.41796649	22.63673049
 158	0.00000000	80.00000000	40.00000000	20.00000000	46.81832194	48.51563704	17.30859560
 159	0.00000000	80.00000000	40.00000000	40.00000000	36.97763681	40.05078566	13.49218678
 160	0.00000000	80.00000000	40.00000000	60.00000000	26.79381371	32.66407323	10.82422835
 161	0.00000000	80.00000000	40.00000000	80.00000000	15.39828479	26.46874887	8.84766561
 162	0.00000000	80.00000000	40.00000000	100.00000000	0.78584552	12.75001061	1.35547084
 163	0.00000000	80.00000000	60.00000000	0.00000000	56.25612736	57.35156131	34.50782549
 164	0.00000000	80.00000000	60.00000000	20.00000000	46.41391039	47.55469900	27.83985209
 165	0.00000000	80.00000000	60.00000000	40.00000000	36.59467101	39.26172000	22.57813764
 166	0.00000000	80.00000000	60.00000000	60.00000000	26.59620345	31.91797566	18.76563501
 167	0.00000000	80.00000000	60.00000000	80.00000000	15.25582224	25.88672650	14.46484339
 168	0.00000000	80.00000000	60.00000000	100.00000000	0.73988973	12.41796923	1.27344084
 169	0.00000000	80.00000000	80.00000000	0.00000000	55.85477948	56.43749756	46.83985096
 170	0.00000000	80.00000000	80.00000000	20.00000000	46.05085850	46.80469525	38.77344620
 171	0.00000000	80.00000000	80.00000000	40.00000000	36.26991510	38.65235430	32.28906375
 172	0.00000000	80.00000000	80.00000000	60.00000000	26.27451122	31.47656095	27.29297024
 173	0.00000000	80.00000000	80.00000000	80.00000000	15.15931487	25.40624988	19.95313209
 174	0.00000000	80.00000000	80.00000000	100.00000000	0.70772059	12.17969161	1.21875417
 175	0.00000000	80.00000000	100.00000000	0.00000000	55.48560023	55.76172662	60.69141489
 176	0.00000000	80.00000000	100.00000000	20.00000000	45.80116570	46.14062768	51.35937405
 177	0.00000000	80.00000000	100.00000000	40.00000000	36.16574705	38.03906721	43.63672924
 178	0.00000000	80.00000000	100.00000000	60.00000000	26.20404661	30.97266239	36.55860585
 179	0.00000000	80.00000000	100.00000000	80.00000000	14.97089565	25.13281655	24.49218613
 180	0.00000000	80.00000000	100.00000000	100.00000000	0.68321079	12.00391304	1.17578608
 181	0.00000000	100.00000000	0.00000000	0.00000000	51.26838684	73.88672364	-0.33203381
 182	0.00000000	100.00000000	0.00000000	20.00000000	41.95772111	62.62891573	-2.92187604
 183	0.00000000	100.00000000	0.00000000	40.00000000	32.68842101	52.67579061	-4.18749693
 184	0.00000000	100.00000000	0.00000000	60.00000000	23.14644605	43.62891686	-4.40234500
 185	0.00000000	100.00000000	0.00000000	80.00000000	12.48161793	35.71094733	-4.18749693
 186	0.00000000	100.00000000	0.00000000	100.00000000	0.07352941	15.43359381	-1.22265282
 187	0.00000000	100.00000000	20.00000000	0.00000000	50.63572526	72.30468613	10.14453602
 188	0.00000000	100.00000000	20.00000000	20.00000000	41.38480425	61.40624774	6.13281769
 189	0.00000000	100.00000000	20.00000000	40.00000000	32.23039210	51.60938543	3.65235639
 190	0.00000000	100.00000000	20.00000000	60.00000000	22.78952152	42.69922835	2.35547078
 191	0.00000000	100.00000000	20.00000000	80.00000000	12.21047789	34.89844453	1.67579365
 192	0.00000000	100.00000000	20.00000000	100.00000000	0.00306373	14.62110621	0.00780475
 193	0.00000000	100.00000000	40.00000000	0.00000000	50.18382072	70.98828477	20.75001013
 194	0.00000000	100.00000000	40.00000000	20.00000000	40.97732902	60.28906208	15.44531238
 195	0.00000000	100.00000000	40.00000000	40.00000000	31.95006251	50.64454120	11.74219829
 196	0.00000000	100.00000000	40.00000000	60.00000000	22.55667895	41.89453793	9.34765798
 197	0.00000000	100.00000000	40.00000000	80.00000000	12.03278154	34.23828316	7.42968810
 198	0.00000000	100.00000000	40.00000000	100.00000000	0.00000000	13.96094483	-0.00000763
 199	0.00000000	100.00000000	60.00000000	0.00000000	49.78094399	69.92578578	31.69141662
 200	0.00000000	100.00000000	60.00000000	20.00000000	40.63265920	59.35156119	25.25000226
 201	0.00000000	100.00000000	60.00000000	40.00000000	31.62530661	49.84766316	20.32812637
 202	0.00000000	100.00000000	60.00000000	60.00000000	22.37898260	41.20703322	17.00000656
 203	0.00000000	100.00000000	60.00000000	80.00000000	11.90104187	33.68360412	12.60157537
 204	0.00000000	100.00000000	60.00000000	100.00000000	0.00000000	13.51173294	-0.00000763
 205	0.00000000	100.00000000	80.00000000	0.00000000	49.43321049	69.06250250	43.34765595
 206	0.00000000	100.00000000	80.00000000	20.00000000	40.34160674	58.60157263	35.73438448
 207	0.00000000	100.00000000	80.00000000	40.00000000	31.37561381	49.19140798	29.84375817
 208	0.00000000	100.00000000	80.00000000	60.00000000	22.12622613	40.67969751	25.27734560
 209	0.00000000	100.00000000	80.00000000	80.00000000	11.78155616	33.21875226	16.92969513
 210	0.00000000	100.00000000	80.00000000	100.00000000	0.00000000	13.18750393	-0.00000763
 211	0.00000000	100.00000000	100.00000000	0.00000000	49.13143516	68.35156065	56.74610180
 212	0.00000000	100.00000000	100.00000000	20.00000000	40.08271992	57.97266078	48.14843994
 213	0.00000000	100.00000000	100.00000000	40.00000000	31.18106723	48.64454132	41.09765989
 214	0.00000000	100.00000000	100.00000000	60.00000000	21.96078449	40.23047042	33.40234321
 215	0.00000000	100.00000000	100.00000000	80.00000000	11.59313768	32.91016322	19.98828781
 216	0.00000000	100.00000000	100.00000000	100.00000000	0.00000000	12.94532013	-0.00000763
 217	20.00000000	0.00000000	0.00000000	0.00000000	87.85232902	-10.32031465	-15.50781149
 218	20.00000000	0.00000000	0.00000000	20.00000000	72.13541865	-8.06249860	-11.83984551
 219	20.00000000	0.00000000	0.00000000	40.00000000	57.43719339	-6.38281393	-9.15234092
 220	20.00000000	0.00000000	0.00000000	60.00000000	43.12806427	-5.11327925	-7.09765437
 221	20.00000000	0.00000000	0.00000000	80.00000000	28.06372643	-4.11718550	-5.22655877
 222	20.00000000	0.00000000	0.00000000	100.00000000	7.05116466	-3.79297170	-3.21874651
 223	20.00000000	0.00000000	20.00000000	0.00000000	85.95741391	-14.69530869	8.46484375
 224	20.00000000	0.00000000	20.00000000	20.00000000	70.81189156	-11.46874982	6.12500530
 225	20.00000000	0.00000000	20.00000000	40.00000000	56.51807785	-9.03124902	4.50782728
 226	20.00000000	0.00000000	20.00000000	60.00000000	42.46170521	-7.19140294	3.51954591
 227	20.00000000	0.00000000	20.00000000	80.00000000	27.57812738	-5.69140303	2.78907311
 228	20.00000000	0.00000000	20.00000000	100.00000000	6.58394620	-4.74608976	3.22656643
 229	20.00000000	0.00000000	40.00000000	0.00000000	84.54657197	-16.73827666	27.63673019
 230	20.00000000	0.00000000	40.00000000	20.00000000	69.77481842	-13.36718875	21.45312440
 231	20.00000000	0.00000000	40.00000000	40.00000000	55.79963326	-10.68359035	16.83594656
 232	20.00000000	0.00000000	40.00000000	60.00000000	41.93167984	-8.56249857	13.23047203
 233	20.00000000	0.00000000	40.00000000	80.00000000	27.19209790	-6.80859628	10.41015697
 234	20.00000000	0.00000000	40.00000000	100.00000000	6.29748702	-5.32812732	7.21484762
 235	20.00000000	0.00000000	60.00000000	0.00000000	83.41452479	-17.75390896	44.42968589
 236	20.00000000	0.00000000	60.00000000	20.00000000	68.93076301	-14.48828059	35.66016686
 237	20.00000000	0.00000000	60.00000000	40.00000000	55.14093637	-11.80468979	28.48046732
 238	20.00000000	0.00000000	60.00000000	60.00000000	41.49969518	-9.54687375	22.87110192
 239	20.00000000	0.00000000	60.00000000	80.00000000	26.88878775	-7.60937291	17.92188269
 240	20.00000000	0.00000000	60.00000000	100.00000000	6.10906854	-5.71093398	9.69923031
 241	20.00000000	0.00000000	80.00000000	0.00000000	82.49233961	-18.37500083	60.85938108
 242	20.00000000	0.00000000	80.00000000	20.00000000	68.25520992	-15.26562768	49.62891650
 243	20.00000000	0.00000000	80.00000000	40.00000000	54.61090803	-12.60546643	40.41406137
 244	20.00000000	0.00000000	80.00000000	60.00000000	41.05545282	-10.29297131	32.64454228
 245	20.00000000	0.00000000	80.00000000	80.00000000	26.62684023	-8.24608955	25.76954079
 246	20.00000000	0.00000000	80.00000000	100.00000000	5.97120114	-5.99218729	10.29687744
 247	20.00000000	0.00000000	100.00000000	0.00000000	81.70802593	-18.73046416	77.44140249
 248	20.00000000	0.00000000	100.00000000	20.00000000	67.65931845	-15.77734622	64.26953089
 249	20.00000000	0.00000000	100.00000000	40.00000000	54.17585969	-13.18749639	53.04687870
 250	20.00000000	0.00000000	100.00000000	60.00000000	40.71691334	-10.84765795	43.36328071
 251	20.00000000	0.00000000	100.00000000	80.00000000	26.33884847	-8.74999571	34.16406554
 252	20.00000000	0.00000000	100.00000000	100.00000000	5.87009825	-6.19921538	10.12109888
 253	20.00000000	20.00000000	0.00000000	0.00000000	75.73682666	8.07422471	-15.24608913
 254	20.00000000	20.00000000	0.00000000	20.00000000	63.00092340	6.03125674	-12.19530883
 255	20.00000000	20.00000000	0.00000000	40.00000000	50.54075122	4.42578208	-9.78906515
 256	20.00000000	20.00000000	0.00000000	60.00000000	37.74969578	3.41406357	-7.77344051
 257	20.00000000	20.00000000	0.00000000	80.00000000	23.97978008	2.46484411	-5.91796967
 258	20.00000000	20.00000000	0.00000000	100.00000000	3.93841937	1.48828131	-3.14062271
 259	20.00000000	20.00000000	20.00000000	0.00000000	74.35815334	4.19922304	3.96094543
 260	20.00000000	20.00000000	20.00000000	20.00000000	62.08792925	2.96875787	2.80079168
 261	20.00000000	20.00000000	20.00000000	40.00000000	49.98774529	2.01953840	2.01172602
 262	20.00000000	20.00000000	20.00000000	60.00000000	37.42493987	1.50392127	1.57032651
 263	20.00000000	20.00000000	20.00000000	80.00000000	23.75153154	0.99219513	1.37500179
 264	20.00000000	20.00000000	20.00000000	100.00000000	3.62591930	0.63282561	1.83594745
 265	20.00000000	20.00000000	40.00000000	0.00000000	73.29657078	2.07813126	20.66016775
 266	20.00000000	20.00000000	40.00000000	20.00000000	61.19485497	1.14453655	16.43749994
 267	20.00000000	20.00000000	40.00000000	40.00000000	49.31679070	0.44529808	13.22656584
 268	20.00000000	20.00000000	40.00000000	60.00000000	36.86734140	0.24609756	10.52345169
 269	20.00000000	20.00000000	40.00000000	80.00000000	23.33026975	-0.00000763	8.54688895
 270	20.00000000	20.00000000	40.00000000	100.00000000	3.42984088	0.10547471	4.91407108
 271	20.00000000	20.00000000	60.00000000	0.00000000	72.43413329	0.74610513	35.80860209
 272	20.00000000	20.00000000	60.00000000	20.00000000	60.50398350	-0.12889671	29.42187440
