bench/lcms_compat/reference/USSheetfedCoated.icc_to_srgb_Absolute.it8
CGATS.17
ORIGINATOR	"icctrans"
#
# Data follows
#
NUMBER_OF_SETS	1296.00000000
NUMBER_OF_FIELDS	8.00000000
BEGIN_DATA_FORMAT
 SAMPLE_ID	IN_CMYK_C	IN_CMYK_M	IN_CMYK_Y	IN_CMYK_K	OUT_RGB_R	OUT_RGB_G	OUT_RGB_B
END_DATA_FORMAT
BEGIN_DATA
 1	0.00000000	0.00000000	0.00000000	0.00000000	246.88580900	247.16969937	243.38168263
 2	0.00000000	0.00000000	0.00000000	20.00000000	195.19444674	195.55135399	193.10876906
 3	0.00000000	0.00000000	0.00000000	40.00000000	151.10899955	151.57828957	150.02587527
 4	0.00000000	0.00000000	0.00000000	60.00000000	112.37341449	112.85041049	111.75865307
 5	0.00000000	0.00000000	0.00000000	80.00000000	76.25862479	76.62086695	75.65173656
 6	0.00000000	0.00000000	0.00000000	100.00000000	37.90903442	37.82517672	36.24215506
 7	0.00000000	0.00000000	20.00000000	0.00000000	248.92646670	242.78341234	190.49876511
 8	0.00000000	0.00000000	20.00000000	20.00000000	196.63684934	192.73894250	155.96105039
 9	0.00000000	0.00000000	20.00000000	40.00000000	152.24173397	149.81161237	123.81724522
 10	0.00000000	0.00000000	20.00000000	60.00000000	113.26592579	111.70737103	93.08622703
 11	0.00000000	0.00000000	20.00000000	80.00000000	76.89968079	75.91845185	63.49426232
 12	0.00000000	0.00000000	20.00000000	100.00000000	38.26510951	37.37248801	29.76094354
 13	0.00000000	0.00000000	40.00000000	0.00000000	250.32667637	238.90509725	148.70047599
 14	0.00000000	0.00000000	40.00000000	20.00000000	197.90827632	190.34687966	124.89333987
 15	0.00000000	0.00000000	40.00000000	40.00000000	153.29719573	148.31864208	100.79263911
 16	0.00000000	0.00000000	40.00000000	60.00000000	114.10284609	110.77310756	76.60198957
 17	0.00000000	0.00000000	40.00000000	80.00000000	77.51267150	75.37329510	52.44702011
 18	0.00000000	0.00000000	40.00000000	100.00000000	38.48495431	37.09093831	25.03405418
 19	0.00000000	0.00000000	60.00000000	0.00000000	251.10485941	235.47830433	110.83512023
 20	0.00000000	0.00000000	60.00000000	20.00000000	198.69708359	188.06229025	95.55791840
 21	0.00000000	0.00000000	60.00000000	40.00000000	154.08484787	146.92322016	78.78507122
 22	0.00000000	0.00000000	60.00000000	60.00000000	114.79567811	109.95048210	60.38942233
 23	0.00000000	0.00000000	60.00000000	80.00000000	77.98577651	74.93501142	42.41936579
 24	0.00000000	0.00000000	60.00000000	100.00000000	38.62183817	36.90131709	21.39779560
 25	0.00000000	0.00000000	80.00000000	0.00000000	251.53133333	232.58471400	68.22244361
 26	0.00000000	0.00000000	80.00000000	20.00000000	199.19275939	186.16132826	63.98345947
 27	0.00000000	0.00000000	80.00000000	40.00000000	154.63773340	145.67246407	54.88835871
 28	0.00000000	0.00000000	80.00000000	60.00000000	115.30181855	109.15706187	43.40722159
 29	0.00000000	0.00000000	80.00000000	80.00000000	78.40294853	74.55342069	31.72445018
 30	0.00000000	0.00000000	80.00000000	100.00000000	38.72705072	36.76653832	18.40640612
 31	0.00000000	0.00000000	100.00000000	0.00000000	251.63397342	230.08903831	-42.14359179
 32	0.00000000	0.00000000	100.00000000	20.00000000	199.43123460	184.42527741	9.71857416
 33	0.00000000	0.00000000	100.00000000	40.00000000	155.00611603	144.59668100	22.05737941
 34	0.00000000	0.00000000	100.00000000	60.00000000	115.69752172	108.50180984	22.10029811
 35	0.00000000	0.00000000	100.00000000	80.00000000	78.76586705	74.17556897	19.71822873
 36	0.00000000	0.00000000	100.00000000	100.00000000	38.79787892	36.66627310	15.91158444
 37	0.00000000	20.00000000	0.00000000	0.00000000	242.02504903	194.87239122	209.17800039
 38	0.00000000	20.00000000	0.00000000	20.00000000	192.54834473	158.65768969	169.68504757
 39	0.00000000	20.00000000	0.00000000	40.00000000	149.81679529	125.74485138	134.08234119
 40	0.00000000	20.00000000	0.00000000	60.00000000	111.76567510	94.41524372	100.58903083
 41	0.00000000	20.00000000	0.00000000	80.00000000	76.13400668	64.71038327	68.56035948
 42	0.00000000	20.00000000	0.00000000	100.00000000	38.02199095	31.39559872	32.37377264
 43	0.00000000	20.00000000	20.00000000	0.00000000	242.31664538	192.56875724	169.41203982
 44	0.00000000	20.00000000	20.00000000	20.00000000	192.96775103	157.17370212	140.54998934
 45	0.00000000	20.00000000	20.00000000	40.00000000	150.43871552	124.88330081	112.79459149
 46	0.00000000	20.00000000	20.00000000	60.00000000	112.36223549	93.93854409	85.19817710
 47	0.00000000	20.00000000	20.00000000	80.00000000	76.54023528	64.41579267	58.33350845
 48	0.00000000	20.00000000	20.00000000	100.00000000	38.23407657	31.08882219	26.90926116
 49	0.00000000	20.00000000	40.00000000	0.00000000	242.51274526	190.18050939	135.49370706
 50	0.00000000	20.00000000	40.00000000	20.00000000	193.40626270	155.43491542	114.35341984
 51	0.00000000	20.00000000	40.00000000	40.00000000	150.94624668	123.71059254	92.71412060
 52	0.00000000	20.00000000	40.00000000	60.00000000	112.80177310	93.06587532	70.51264912
 53	0.00000000	20.00000000	40.00000000	80.00000000	76.92512423	63.86463985	48.39422978
 54	0.00000000	20.00000000	40.00000000	100.00000000	38.36794339	30.89692868	22.95650616
 55	0.00000000	20.00000000	60.00000000	0.00000000	242.51151413	188.05016130	104.40900385
 56	0.00000000	20.00000000	60.00000000	20.00000000	193.61497790	153.92791629	89.50978294
 57	0.00000000	20.00000000	60.00000000	40.00000000	151.21256679	122.55836517	73.60346407
 58	0.00000000	20.00000000	60.00000000	60.00000000	113.14771414	92.48322979	56.28663808
 59	0.00000000	20.00000000	60.00000000	80.00000000	77.19890714	63.53247687	39.57355790
 60	0.00000000	20.00000000	60.00000000	100.00000000	38.45152371	30.77210918	20.03980737
 61	0.00000000	20.00000000	80.00000000	0.00000000	242.37859726	186.20817214	70.49501806
 62	0.00000000	20.00000000	80.00000000	20.00000000	193.68422538	152.64969528	63.16271871
 63	0.00000000	20.00000000	80.00000000	40.00000000	151.38390720	121.60893291	53.07019807
 64	0.00000000	20.00000000	80.00000000	60.00000000	113.30766276	91.70651346	41.51835434
 65	0.00000000	20.00000000	80.00000000	80.00000000	77.42017686	63.21816154	30.19726273
 66	0.00000000	20.00000000	80.00000000	100.00000000	38.51646222	30.67640942	17.61526957
 67	0.00000000	20.00000000	100.00000000	0.00000000	242.08201557	184.61637676	17.40317255
 68	0.00000000	20.00000000	100.00000000	20.00000000	193.60765189	151.47207767	27.20228814
 69	0.00000000	20.00000000	100.00000000	40.00000000	151.46982819	120.81880331	27.35613618
 70	0.00000000	20.00000000	100.00000000	60.00000000	113.45181182	91.15118846	23.97607505
 71	0.00000000	20.00000000	100.00000000	80.00000000	77.57017002	62.76016451	20.05755242
 72	0.00000000	20.00000000	100.00000000	100.00000000	38.56412686	30.61054565	15.64259497
 73	0.00000000	40.00000000	0.00000000	0.00000000	235.63201368	154.73535776	181.89833701
 74	0.00000000	40.00000000	0.00000000	20.00000000	188.75104129	128.20244551	149.80848134
 75	0.00000000	40.00000000	0.00000000	40.00000000	147.64028728	102.73240462	119.60007191
 76	0.00000000	40.00000000	0.00000000	60.00000000	110.57007685	77.84852788	90.45101523
 77	0.00000000	40.00000000	0.00000000	80.00000000	75.60410231	53.48053046	61.88599862
 78	0.00000000	40.00000000	0.00000000	100.00000000	38.07735398	26.46116830	29.61566593
 79	0.00000000	40.00000000	20.00000000	0.00000000	235.21149784	153.42147946	150.23431689
 80	0.00000000	40.00000000	20.00000000	20.00000000	188.67841959	127.24262461	125.62846363
 81	0.00000000	40.00000000	20.00000000	40.00000000	147.86810786	102.05955952	101.25519589
 82	0.00000000	40.00000000	20.00000000	60.00000000	110.89501262	77.38590270	76.79001108
 83	0.00000000	40.00000000	20.00000000	80.00000000	75.87941274	53.17604519	52.67432012
 84	0.00000000	40.00000000	20.00000000	100.00000000	38.21040764	26.27688769	24.86066189
 85	0.00000000	40.00000000	40.00000000	0.00000000	234.84981805	152.06758171	122.43989512
 86	0.00000000	40.00000000	40.00000000	20.00000000	188.69065493	126.23749495	103.85029703
 87	0.00000000	40.00000000	40.00000000	40.00000000	148.24179500	101.72425032	84.67178375
 88	0.00000000	40.00000000	40.00000000	60.00000000	111.26030982	77.22187310	64.66995344
 89	0.00000000	40.00000000	40.00000000	80.00000000	76.14704758	53.12358901	44.50304478
 90	0.00000000	40.00000000	40.00000000	100.00000000	38.28815147	26.16747066	21.51026767
 91	0.00000000	40.00000000	60.00000000	0.00000000	234.42173302	150.71281761	95.72995037
 92	0.00000000	40.00000000	60.00000000	20.00000000	188.49622697	125.22427931	82.17360020
 93	0.00000000	40.00000000	60.00000000	40.00000000	148.09776753	100.71418092	67.67506778
 94	0.00000000	40.00000000	60.00000000	60.00000000	111.33198917	76.70196980	51.87879480
 95	0.00000000	40.00000000	60.00000000	80.00000000	76.23484567	52.78989851	36.59064196
 96	0.00000000	40.00000000	60.00000000	100.00000000	38.33534874	26.09317515	19.02886592
 97	0.00000000	40.00000000	80.00000000	0.00000000	234.03366745	149.52218950	67.48041943
 98	0.00000000	40.00000000	80.00000000	20.00000000	188.31342638	124.34868470	59.69915137
 99	0.00000000	40.00000000	80.00000000	40.00000000	147.99292356	99.96993765	49.89279717
 100	0.00000000	40.00000000	80.00000000	60.00000000	111.24102965	76.02133512	39.01666738
 101	0.00000000	40.00000000	80.00000000	80.00000000	76.31534055	52.56774724	28.45182259
 102	0.00000000	40.00000000	80.00000000	100.00000000	38.37217256	26.03868607	17.03769296
 103	0.00000000	40.00000000	100.00000000	0.00000000	233.57252419	148.46653014	29.61043362
 104	0.00000000	40.00000000	100.00000000	20.00000000	188.06733638	123.55210304	31.17645688
 105	0.00000000	40.00000000	100.00000000	40.00000000	147.88747162	99.39772636	28.64808206
 106	0.00000000	40.00000000	100.00000000	60.00000000	111.21009931	75.56136221	24.25131138
 107	0.00000000	40.00000000	100.00000000	80.00000000	76.30983844	52.11062416	19.88352936
 108	0.00000000	40.00000000	100.00000000	100.00000000	38.40101302	25.99716760	15.44679338
 109	0.00000000	60.00000000	0.00000000	0.00000000	229.56977338	119.76348594	158.93589556
 110	0.00000000	60.00000000	0.00000000	20.00000000	185.08846343	100.60835660	132.58604228
 111	0.00000000	60.00000000	0.00000000	40.00000000	145.51384538	81.54700622	106.88159958
 112	0.00000000	60.00000000	0.00000000	60.00000000	109.32877466	61.95409857	81.14998072
 113	0.00000000	60.00000000	0.00000000	80.00000000	75.07096812	43.32844041	56.10286474
 114	0.00000000	60.00000000	0.00000000	100.00000000	38.13433573	22.53726516	27.58057684
 115	0.00000000	60.00000000	20.00000000	0.00000000	228.70389104	119.16897744	133.31662148
 116	0.00000000	60.00000000	20.00000000	20.00000000	184.63183433	100.09675965	112.45331660
 117	0.00000000	60.00000000	20.00000000	40.00000000	145.39383262	81.16928369	91.24799967
 118	0.00000000	60.00000000	20.00000000	60.00000000	109.36071575	61.70657225	69.39051613
 119	0.00000000	60.00000000	20.00000000	80.00000000	75.16489908	43.17968220	48.07407416
 120	0.00000000	60.00000000	20.00000000	100.00000000	38.19846109	22.47470342	23.41344114
 121	0.00000000	60.00000000	40.00000000	0.00000000	228.11610818	118.31968501	109.80282202
 122	0.00000000	60.00000000	40.00000000	20.00000000	184.35157657	99.39985424	93.46126691
 123	0.00000000	60.00000000	40.00000000	40.00000000	145.42740762	80.85656807	76.31846398
 124	0.00000000	60.00000000	40.00000000	60.00000000	109.46134955	61.52248353	58.34705092
 125	0.00000000	60.00000000	40.00000000	80.00000000	75.27997971	43.10267933	40.56546807
 126	0.00000000	60.00000000	40.00000000	100.00000000	38.23929749	22.42914006	20.50508481
 127	0.00000000	60.00000000	60.00000000	0.00000000	227.46839494	117.58506283	87.15542167
 128	0.00000000	60.00000000	60.00000000	20.00000000	183.99874270	98.76682341	74.88924667
 129	0.00000000	60.00000000	60.00000000	40.00000000	145.24264634	80.31842574	61.91673137
 130	0.00000000	60.00000000	60.00000000	60.00000000	109.61598605	61.51537031	47.72537068
 131	0.00000000	60.00000000	60.00000000	80.00000000	75.38499087	43.12780358	34.08979475
 132	0.00000000	60.00000000	60.00000000	100.00000000	38.26101333	22.40433309	18.37688550
 133	0.00000000	60.00000000	80.00000000	0.00000000	226.86554968	116.84831277	63.01310934
 134	0.00000000	60.00000000	80.00000000	20.00000000	183.70758712	98.32340240	55.57885766
 135	0.00000000	60.00000000	80.00000000	40.00000000	145.15353352	79.96072054	46.58516206
 136	0.00000000	60.00000000	80.00000000	60.00000000	109.43534374	60.99723391	36.53781720
 137	0.00000000	60.00000000	80.00000000	80.00000000	75.37924558	42.96121292	26.99001633
 138	0.00000000	60.00000000	80.00000000	100.00000000	38.28386530	22.38447156	16.68918137
 139	0.00000000	60.00000000	100.00000000	0.00000000	226.29533708	116.11594766	32.55417176
 140	0.00000000	60.00000000	100.00000000	20.00000000	183.33231926	97.76363164	31.76450953
 141	0.00000000	60.00000000	100.00000000	40.00000000	144.91790056	79.53322828	28.51416774
 142	0.00000000	60.00000000	100.00000000	60.00000000	109.29477409	60.64471923	23.95797472
 143	0.00000000	60.00000000	100.00000000	80.00000000	75.30062020	42.59303927	19.65905450
 144	0.00000000	60.00000000	100.00000000	100.00000000	38.30080479	22.36774296	15.32917354
 145	0.00000000	80.00000000	0.00000000	0.00000000	224.36707735	85.14784500	139.36769038
 146	0.00000000	80.00000000	0.00000000	20.00000000	181.83098942	73.06906074	117.66900033
 147	0.00000000	80.00000000	0.00000000	40.00000000	143.46014678	59.65980828	95.33100218
 148	0.00000000	80.00000000	0.00000000	60.00000000	108.15032110	46.13776267	72.97924116
 149	0.00000000	80.00000000	0.00000000	80.00000000	74.51068819	32.93928489	50.75133830
 150	0.00000000	80.00000000	0.00000000	100.00000000	38.16401213	19.31890056	26.03391543
 151	0.00000000	80.00000000	20.00000000	0.00000000	223.20427895	85.16075671	118.39622051
 152	0.00000000	80.00000000	20.00000000	20.00000000	181.11837566	72.90218890	100.69212690
 153	0.00000000	80.00000000	20.00000000	40.00000000	143.07607859	59.56993550	81.96036324
 154	0.00000000	80.00000000	20.00000000	60.00000000	107.96859205	46.12481296	62.77240746
 155	0.00000000	80.00000000	20.00000000	80.00000000	74.43939641	32.96124391	43.73040184
 156	0.00000000	80.00000000	20.00000000	100.00000000	38.18624854	19.36000865	22.30711341
 157	0.00000000	80.00000000	40.00000000	0.00000000	222.38899469	84.97140527	98.58802021
 158	0.00000000	80.00000000	40.00000000	20.00000000	180.59894353	72.66205698	84.40008312
 159	0.00000000	80.00000000	40.00000000	40.00000000	142.91498244	59.57527421	69.09622952
 160	0.00000000	80.00000000	40.00000000	60.00000000	107.89514959	46.12424299	53.12330022
 161	0.00000000	80.00000000	40.00000000	80.00000000	74.43071768	32.97726385	37.16271266
 162	0.00000000	80.00000000	40.00000000	100.00000000	38.19363534	19.38492011	19.74400464
 163	0.00000000	80.00000000	60.00000000	0.00000000	221.65657640	84.63108033	78.91171843
 164	0.00000000	80.00000000	60.00000000	20.00000000	180.14942765	72.40859538	68.03483248
 165	0.00000000	80.00000000	60.00000000	40.00000000	142.55622089	59.24706303	56.13842323
 166	0.00000000	80.00000000	60.00000000	60.00000000	107.87113488	46.18123993	43.43496770
 167	0.00000000	80.00000000	60.00000000	80.00000000	74.42941055	33.05294059	31.27928127
 168	0.00000000	80.00000000	60.00000000	100.00000000	38.21082942	19.39941633	17.85728998
 169	0.00000000	80.00000000	80.00000000	0.00000000	220.92016071	84.40502286	58.42124194
 170	0.00000000	80.00000000	80.00000000	20.00000000	179.67519790	72.09700450	51.32628925
 171	0.00000000	80.00000000	80.00000000	40.00000000	142.24264652	58.91154103	42.87356682
 172	0.00000000	80.00000000	80.00000000	60.00000000	107.57583752	45.80120713	33.92254673
 173	0.00000000	80.00000000	80.00000000	80.00000000	74.47486371	33.13591674	25.47779437
 174	0.00000000	80.00000000	80.00000000	100.00000000	38.21353488	19.40899942	16.39935952
 175	0.00000000	80.00000000	100.00000000	0.00000000	220.25163978	84.03144971	33.35944735
 176	0.00000000	80.00000000	100.00000000	20.00000000	179.35311198	72.00251877	31.46997973
 177	0.00000000	80.00000000	100.00000000	40.00000000	142.30028182	59.09987792	27.94141307
 178	0.00000000	80.00000000	100.00000000	60.00000000	107.69947529	45.94437204	23.53746269
 179	0.00000000	80.00000000	100.00000000	80.00000000	74.39594194	32.96534769	19.37039919
 180	0.00000000	80.00000000	100.00000000	100.00000000	38.21977414	19.41400945	15.23666276
 181	0.00000000	100.00000000	0.00000000	0.00000000	219.89807636	42.95778170	122.43356466
 182	0.00000000	100.00000000	0.00000000	20.00000000	178.87161702	39.73866284	104.17675272
 183	0.00000000	100.00000000	0.00000000	40.00000000	141.63246006	34.15887885	85.08449480
 184	0.00000000	100.00000000	0.00000000	60.00000000	107.03333303	27.81392992	65.43058902
 185	0.00000000	100.00000000	0.00000000	80.00000000	73.98934096	22.09357627	46.03019044
 186	0.00000000	100.00000000	0.00000000	100.00000000	38.18153299	16.66020412	24.85029414
 187	0.00000000	100.00000000	20.00000000	0.00000000	218.50519270	43.72428797	105.02147019
 188	0.00000000	100.00000000	20.00000000	20.00000000	177.95047045	39.77644801	89.77764577
 189	0.00000000	100.00000000	20.00000000	40.00000000	141.03630245	34.26892854	73.51312771
 190	0.00000000	100.00000000	20.00000000	60.00000000	106.65814117	28.01074605	56.52960844
 191	0.00000000	100.00000000	20.00000000	80.00000000	73.77339095	22.28359267	39.83936504
 192	0.00000000	100.00000000	20.00000000	100.00000000	38.17227669	16.79792013	21.46578345
 193	0.00000000	100.00000000	40.00000000	0.00000000	217.55838990	44.57256965	88.17380503
 194	0.00000000	100.00000000	40.00000000	20.00000000	177.27947205	40.22520773	75.75224876
 195	0.00000000	100.00000000	40.00000000	40.00000000	140.74306458	34.72107768	62.35224500
 196	0.00000000	100.00000000	40.00000000	60.00000000	106.46772578	28.32032494	48.11158955
 197	0.00000000	100.00000000	40.00000000	80.00000000	73.68975744	22.48383813	34.10204150
 198	0.00000000	100.00000000	40.00000000	100.00000000	38.16302419	16.87825352	19.13636405
 199	0.00000000	100.00000000	60.00000000	0.00000000	216.67948186	45.09294413	71.23465598
 200	0.00000000	100.00000000	60.00000000	20.00000000	176.67644441	40.55560000	61.56863585
 201	0.00000000	100.00000000	60.00000000	40.00000000	140.25421321	34.85720918	51.09129466
 202	0.00000000	100.00000000	60.00000000	60.00000000	106.34176254	28.61266036	39.70096506
 203	0.00000000	100.00000000	60.00000000	80.00000000	73.62156630	22.66347539	28.99615288
 204	0.00000000	100.00000000	60.00000000	100.00000000	38.16587783	16.93119798	17.46927571
 205	0.00000000	100.00000000	80.00000000	0.00000000	215.89192092	45.43351606	53.54908638
 206	0.00000000	100.00000000	80.00000000	20.00000000	176.16073608	40.76818720	47.07513057
 207	0.00000000	100.00000000	80.00000000	40.00000000	139.89514768	35.00079207	39.50520337
 208	0.00000000	100.00000000	80.00000000	60.00000000	105.97867683	28.61677743	31.39257789
 209	0.00000000	100.00000000	80.00000000	80.00000000	73.54272053	22.80077152	23.84661790
 210	0.00000000	100.00000000	80.00000000	100.00000000	38.15941058	16.97527751	16.18020058
 211	0.00000000	100.00000000	100.00000000	0.00000000	215.15579402	45.66227898	32.84414180
 212	0.00000000	100.00000000	100.00000000	20.00000000	175.65063626	40.90927742	30.35641149
 213	0.00000000	100.00000000	100.00000000	40.00000000	139.60627198	35.15920177	26.79179616
 214	0.00000000	100.00000000	100.00000000	60.00000000	105.77938512	28.70922837	22.59128116
 215	0.00000000	100.00000000	100.00000000	80.00000000	73.33347335	22.74677642	18.81819572
 216	0.00000000	100.00000000	100.00000000	100.00000000	38.15792486	17.00416736	15.16956501
 217	20.00000000	0.00000000	0.00000000	0.00000000	180.85161477	220.30701041	238.07119399
 218	20.00000000	0.00000000	0.00000000	20.00000000	148.11418265	177.05549687	189.59933817
 219	20.00000000	0.00000000	0.00000000	40.00000000	117.44365722	138.83780122	147.75888652
 220	20.00000000	0.00000000	0.00000000	60.00000000	88.34951520	104.05202061	110.30301198
 221	20.00000000	0.00000000	0.00000000	80.00000000	60.23665152	71.01101518	74.81761292
 222	20.00000000	0.00000000	0.00000000	100.00000000	29.25569795	35.09864442	35.91571838
 223	20.00000000	0.00000000	20.00000000	0.00000000	184.97719020	216.46765083	189.56621915
 224	20.00000000	0.00000000	20.00000000	20.00000000	150.89263916	174.63916093	155.13305962
 225	20.00000000	0.00000000	20.00000000	40.00000000	119.45543647	137.34297663	123.14636841
 226	20.00000000	0.00000000	20.00000000	60.00000000	89.84412700	103.09761822	92.61899650
 227	20.00000000	0.00000000	20.00000000	80.00000000	61.23993829	70.40705279	63.19703467
 228	20.00000000	0.00000000	20.00000000	100.00000000	29.78469416	34.65217978	29.66359086
 229	20.00000000	0.00000000	40.00000000	0.00000000	187.99552023	213.08295965	151.02654397
 230	20.00000000	0.00000000	40.00000000	20.00000000	153.03446263	172.41757214	126.01140708
 231	20.00000000	0.00000000	40.00000000	40.00000000	121.20992392	135.98898768	101.31819651
 232	20.00000000	0.00000000	40.00000000	60.00000000	91.10409379	102.21542716	76.87757358
 233	20.00000000	0.00000000	40.00000000	80.00000000	62.10506827	69.87217069	52.58857012
 234	20.00000000	0.00000000	40.00000000	100.00000000	30.09129401	34.37204741	25.13044171
 235	20.00000000	0.00000000	60.00000000	0.00000000	190.11240184	210.12957573	116.68128133
 236	20.00000000	0.00000000	60.00000000	20.00000000	154.74926502	170.43444335	98.85278240
 237	20.00000000	0.00000000	60.00000000	40.00000000	122.37463742	134.62510407	80.66094697
 238	20.00000000	0.00000000	60.00000000	60.00000000	92.18197435	101.44219905	61.50537685
 239	20.00000000	0.00000000	60.00000000	80.00000000	62.76817448	69.42976043	43.02101411
 240	20.00000000	0.00000000	60.00000000	100.00000000	30.30610409	34.18717213	21.66691996
 241	20.00000000	0.00000000	80.00000000	0.00000000	191.57162994	207.64260918	80.62898308
 242	20.00000000	0.00000000	80.00000000	20.00000000	155.98834813	168.80708188	70.91328442
 243	20.00000000	0.00000000	80.00000000	40.00000000	123.36462870	133.47759604	58.94802667
 244	20.00000000	0.00000000	80.00000000	60.00000000	92.77822316	100.58627978	45.84064141
 245	20.00000000	0.00000000	80.00000000	80.00000000	63.32422145	69.02598649	32.99627043
 246	20.00000000	0.00000000	80.00000000	100.00000000	30.44867814	34.05176260	18.84128518
 247	20.00000000	0.00000000	100.00000000	0.00000000	192.46847302	205.49490362	30.82968749
 248	20.00000000	0.00000000	100.00000000	20.00000000	156.82141542	167.31724262	34.86903034
 249	20.00000000	0.00000000	100.00000000	40.00000000	124.09782216	132.51117110	32.64055252
 250	20.00000000	0.00000000	100.00000000	60.00000000	93.33735555	99.92037311	27.58305050
 251	20.00000000	0.00000000	100.00000000	80.00000000	63.61542642	68.53888303	22.20441632
 252	20.00000000	0.00000000	100.00000000	100.00000000	30.55350691	33.95058542	16.49171736
 253	20.00000000	20.00000000	0.00000000	0.00000000	186.28889501	177.49067992	205.59109926
 254	20.00000000	20.00000000	0.00000000	20.00000000	151.85610026	146.09995633	167.16515958
 255	20.00000000	20.00000000	0.00000000	40.00000000	120.08767694	116.65950090	132.31043547
 256	20.00000000	20.00000000	0.00000000	60.00000000	90.29497281	87.96904922	99.36284423
 257	20.00000000	20.00000000	0.00000000	80.00000000	61.60598785	60.45776166	67.78026134
 258	20.00000000	20.00000000	0.00000000	100.00000000	30.16515445	29.34073359	32.05569170
 259	20.00000000	20.00000000	20.00000000	0.00000000	187.40264565	175.37493825	168.50174546
 260	20.00000000	20.00000000	20.00000000	20.00000000	153.07709634	144.93159503	139.83172148
 261	20.00000000	20.00000000	20.00000000	40.00000000	121.44450054	116.17705598	112.32366756
 262	20.00000000	20.00000000	20.00000000	60.00000000	91.53660178	87.86422804	84.93316412
 263	20.00000000	20.00000000	20.00000000	80.00000000	62.50385687	60.43597363	58.17026921
 264	20.00000000	20.00000000	20.00000000	100.00000000	30.48404094	29.03793734	26.79993723
 265	20.00000000	20.00000000	40.00000000	0.00000000	188.72318119	173.28526318	136.77309841
 266	20.00000000	20.00000000	40.00000000	20.00000000	154.06078756	143.26997459	115.00535086
 267	20.00000000	20.00000000	40.00000000	40.00000000	122.32593924	115.05542457	93.16139460
