bench/lcms_compat/reference/USSheetfedCoated.icc_to_lab_Relative_BPC.it8
CGATS.17
ORIGINATOR	"icctrans"
#
# Data follows
#
NUMBER_OF_SETS	1296.00000000
NUMBER_OF_FIELDS	8.00000000
BEGIN_DATA_FORMAT
 SAMPLE_ID	IN_CMYK_C	IN_CMYK_M	IN_CMYK_Y	IN_CMYK_K	OUT_LAB_L	OUT_LAB_A	OUT_LAB_B
END_DATA_FORMAT
BEGIN_DATA
 1	0.00000000	0.00000000	0.00000000	0.00000000	100.00000000	-0.00000763	-0.00000763
 2	0.00000000	0.00000000	0.00000000	20.00000000	81.04658127	0.03566486	-0.33285457
 3	0.00000000	0.00000000	0.00000000	40.00000000	64.03262019	0.01199973	-0.51550317
 4	0.00000000	0.00000000	0.00000000	60.00000000	48.08163941	-0.02441752	-0.50042558
 5	0.00000000	0.00000000	0.00000000	80.00000000	31.75226748	-0.06414819	-0.27797031
 6	0.00000000	0.00000000	0.00000000	100.00000000	9.81354415	-0.12585688	0.92568350
 7	0.00000000	0.00000000	20.00000000	0.00000000	98.04131985	-3.37791997	25.48761111
 8	0.00000000	0.00000000	20.00000000	20.00000000	79.66011763	-2.68823418	18.57219499
 9	0.00000000	0.00000000	20.00000000	40.00000000	63.06211948	-2.14812356	13.70160115
 10	0.00000000	0.00000000	20.00000000	60.00000000	47.37902582	-1.73227388	10.47072572
 11	0.00000000	0.00000000	20.00000000	80.00000000	31.25671446	-1.32647085	7.85365415
 12	0.00000000	0.00000000	20.00000000	100.00000000	9.36348736	-1.06498408	7.68330169
 13	0.00000000	0.00000000	40.00000000	0.00000000	96.56334519	-4.71315312	45.37329686
 14	0.00000000	0.00000000	40.00000000	20.00000000	78.63381505	-4.06588066	34.41463929
 15	0.00000000	0.00000000	40.00000000	40.00000000	62.33260036	-3.43857992	26.33292896
 16	0.00000000	0.00000000	40.00000000	60.00000000	46.85948491	-2.81985912	20.37326795
 17	0.00000000	0.00000000	40.00000000	80.00000000	30.89303374	-2.21218812	15.61142427
 18	0.00000000	0.00000000	40.00000000	100.00000000	9.08005834	-1.67577091	11.86719638
 19	0.00000000	0.00000000	60.00000000	0.00000000	95.34816146	-5.23553389	62.49537569
 20	0.00000000	0.00000000	60.00000000	20.00000000	77.73314714	-4.80554897	48.86850131
 21	0.00000000	0.00000000	60.00000000	40.00000000	61.70943379	-4.24166682	38.21019483
 22	0.00000000	0.00000000	60.00000000	60.00000000	46.43068910	-3.59471354	30.15614700
 23	0.00000000	0.00000000	60.00000000	80.00000000	30.61473072	-2.83762696	22.95367908
 24	0.00000000	0.00000000	60.00000000	100.00000000	8.88609886	-2.10615101	14.63001293
 25	0.00000000	0.00000000	80.00000000	0.00000000	94.34638619	-5.47754291	79.14699417
 26	0.00000000	0.00000000	80.00000000	20.00000000	77.00024247	-5.28740111	63.02269620
 27	0.00000000	0.00000000	80.00000000	40.00000000	61.17077470	-4.80886999	50.33291233
 28	0.00000000	0.00000000	80.00000000	60.00000000	46.04639113	-4.12529427	40.10588270
 29	0.00000000	0.00000000	80.00000000	80.00000000	30.37994504	-3.33929884	31.13410813
 30	0.00000000	0.00000000	80.00000000	100.00000000	8.74698088	-2.42465752	16.62568104
 31	0.00000000	0.00000000	100.00000000	0.00000000	93.49772930	-5.53777727	95.87963951
 32	0.00000000	0.00000000	100.00000000	20.00000000	76.34962201	-5.56685331	77.90532720
 33	0.00000000	0.00000000	100.00000000	40.00000000	60.71830392	-5.20788658	63.21499628
 34	0.00000000	0.00000000	100.00000000	60.00000000	45.73394656	-4.52926579	51.09109324
 35	0.00000000	0.00000000	100.00000000	80.00000000	30.17022610	-3.67739710	40.58845681
 36	0.00000000	0.00000000	100.00000000	100.00000000	8.64151120	-2.67336178	18.10083789
 37	0.00000000	20.00000000	0.00000000	0.00000000	85.58707237	20.23539615	-2.12059784
 38	0.00000000	20.00000000	0.00000000	20.00000000	70.43564916	15.35936099	-2.24431160
 39	0.00000000	20.00000000	0.00000000	40.00000000	56.22108579	11.62242872	-2.15565476
 40	0.00000000	20.00000000	0.00000000	60.00000000	42.11207330	9.06224769	-1.85987103
 41	0.00000000	20.00000000	0.00000000	80.00000000	27.41689980	6.75093812	-1.32757279
 42	0.00000000	20.00000000	0.00000000	100.00000000	6.10671975	5.78697544	0.18399370
 43	0.00000000	20.00000000	20.00000000	0.00000000	84.23987031	17.16259223	18.15936995
 44	0.00000000	20.00000000	20.00000000	20.00000000	69.46130395	12.85807681	13.39118820
 45	0.00000000	20.00000000	20.00000000	40.00000000	55.55642843	9.62990683	10.04045200
 46	0.00000000	20.00000000	20.00000000	60.00000000	41.65131748	7.46256393	7.74642390
 47	0.00000000	20.00000000	20.00000000	80.00000000	27.07533836	5.52407515	5.99582744
 48	0.00000000	20.00000000	20.00000000	100.00000000	5.76178208	4.84616113	5.39047432
 49	0.00000000	20.00000000	40.00000000	0.00000000	83.13127756	15.53431880	35.40945631
 50	0.00000000	20.00000000	40.00000000	20.00000000	68.59893799	11.45557207	27.46279073
 51	0.00000000	20.00000000	40.00000000	40.00000000	54.90707159	8.38605118	21.57339555
 52	0.00000000	20.00000000	40.00000000	60.00000000	41.13494754	6.48066622	16.95235711
 53	0.00000000	20.00000000	40.00000000	80.00000000	26.69652700	4.75967777	13.37497067
 54	0.00000000	20.00000000	40.00000000	100.00000000	5.54919764	4.27073520	8.60037488
 55	0.00000000	20.00000000	60.00000000	0.00000000	82.22891092	14.58487135	50.83004725
 56	0.00000000	20.00000000	60.00000000	20.00000000	67.89247394	10.49277973	40.66360158
 57	0.00000000	20.00000000	60.00000000	40.00000000	54.32998538	7.54629624	32.50335705
 58	0.00000000	20.00000000	60.00000000	60.00000000	40.76382816	5.65463614	26.12343860
 59	0.00000000	20.00000000	60.00000000	80.00000000	26.44337416	4.14063019	20.39790583
 60	0.00000000	20.00000000	60.00000000	100.00000000	5.41088618	3.89478338	10.68088484
 61	0.00000000	20.00000000	80.00000000	0.00000000	81.47389293	13.92727864	66.28077817
 62	0.00000000	20.00000000	80.00000000	20.00000000	67.30926633	9.78347939	53.90438628
 63	0.00000000	20.00000000	80.00000000	40.00000000	53.85694504	6.87382352	43.93060547
 64	0.00000000	20.00000000	80.00000000	60.00000000	40.35986662	5.13676953	35.55960906
 65	0.00000000	20.00000000	80.00000000	80.00000000	26.21580362	3.62822008	28.46779120
 66	0.00000000	20.00000000	80.00000000	100.00000000	5.30717112	3.61945015	12.23016810
 67	0.00000000	20.00000000	100.00000000	0.00000000	80.83524108	13.47084713	82.22786885
 68	0.00000000	20.00000000	100.00000000	20.00000000	66.79311395	9.27655619	68.08922273
 69	0.00000000	20.00000000	100.00000000	40.00000000	53.46913934	6.35712725	56.31152672
 70	0.00000000	20.00000000	100.00000000	60.00000000	40.05943835	4.69077986	46.30163264
 71	0.00000000	20.00000000	100.00000000	80.00000000	25.95645487	3.34419292	37.12925923
 72	0.00000000	20.00000000	100.00000000	100.00000000	5.23307733	3.41114533	13.37773693
 73	0.00000000	40.00000000	0.00000000	0.00000000	74.66935515	35.62998128	-2.48596343
 74	0.00000000	40.00000000	0.00000000	20.00000000	61.80049777	28.10519946	-2.99251425
 75	0.00000000	40.00000000	0.00000000	40.00000000	49.35219884	22.17548084	-3.06588072
 76	0.00000000	40.00000000	0.00000000	60.00000000	36.79059446	17.52433282	-2.74700183
 77	0.00000000	40.00000000	0.00000000	80.00000000	23.29436839	13.61893278	-2.16735813
 78	0.00000000	40.00000000	0.00000000	100.00000000	3.62219177	9.59674221	-0.37641543
 79	0.00000000	40.00000000	20.00000000	0.00000000	73.63472581	33.00941390	14.41079509
 80	0.00000000	40.00000000	20.00000000	20.00000000	61.00111604	25.97555053	10.53406072
 81	0.00000000	40.00000000	20.00000000	40.00000000	48.75312448	20.49078804	7.84903359
 82	0.00000000	40.00000000	20.00000000	60.00000000	36.33548021	16.19130355	6.11085486
 83	0.00000000	40.00000000	20.00000000	80.00000000	22.94735909	12.61323315	4.80545771
 84	0.00000000	40.00000000	20.00000000	100.00000000	3.38394754	8.71961248	3.86339706
 85	0.00000000	40.00000000	40.00000000	0.00000000	72.80073762	31.34783906	29.36601740
 86	0.00000000	40.00000000	40.00000000	20.00000000	60.34896374	24.58737862	22.88821620
 87	0.00000000	40.00000000	40.00000000	40.00000000	48.37839901	19.20919281	18.06715649
 88	0.00000000	40.00000000	40.00000000	60.00000000	36.06895804	15.13543141	14.35232383
 89	0.00000000	40.00000000	40.00000000	80.00000000	22.75722027	11.74414378	11.52963769
 90	0.00000000	40.00000000	40.00000000	100.00000000	3.23963240	8.17925107	6.44914311
 91	0.00000000	40.00000000	60.00000000	0.00000000	72.07871675	30.21933001	43.56888008
 92	0.00000000	40.00000000	60.00000000	20.00000000	59.75463986	23.52448446	35.14742237
 93	0.00000000	40.00000000	60.00000000	40.00000000	47.81347215	18.37623191	28.32415891
 94	0.00000000	40.00000000	60.00000000	60.00000000	35.69505215	14.34849364	23.11887902
 95	0.00000000	40.00000000	60.00000000	80.00000000	22.48208821	11.18454021	18.42258942
 96	0.00000000	40.00000000	60.00000000	100.00000000	3.14271189	7.82015514	8.15497798
 97	0.00000000	40.00000000	80.00000000	0.00000000	71.48437500	29.41799861	57.82185447
 98	0.00000000	40.00000000	80.00000000	20.00000000	59.27013755	22.74654460	47.48970729
 99	0.00000000	40.00000000	80.00000000	40.00000000	47.38222361	17.68428904	39.07945138
 100	0.00000000	40.00000000	80.00000000	60.00000000	35.30079126	13.83547556	32.11436433
 101	0.00000000	40.00000000	80.00000000	80.00000000	22.27293551	10.67355883	26.41015601
 102	0.00000000	40.00000000	80.00000000	100.00000000	3.07236854	7.56020349	9.40112871
 103	0.00000000	40.00000000	100.00000000	0.00000000	70.97569108	28.81764603	72.92449367
 104	0.00000000	40.00000000	100.00000000	20.00000000	58.84838700	22.14687598	61.01941329
 105	0.00000000	40.00000000	100.00000000	40.00000000	47.04338014	17.11871219	51.03488666
 106	0.00000000	40.00000000	100.00000000	60.00000000	35.01501977	13.38290465	42.72190553
 107	0.00000000	40.00000000	100.00000000	80.00000000	21.99450135	10.42892796	33.54225171
 108	0.00000000	40.00000000	100.00000000	100.00000000	3.02029196	7.37114084	10.31947863
 109	0.00000000	60.00000000	0.00000000	0.00000000	65.69297314	49.03133017	-2.03112784
 110	0.00000000	60.00000000	0.00000000	20.00000000	54.40273881	39.85675287	-3.18246606
 111	0.00000000	60.00000000	0.00000000	40.00000000	43.33982468	32.19797504	-3.57406545
 112	0.00000000	60.00000000	0.00000000	60.00000000	31.88308477	26.03140754	-3.36563143
 113	0.00000000	60.00000000	0.00000000	80.00000000	19.61485744	20.37978840	-2.82470006
 114	0.00000000	60.00000000	0.00000000	100.00000000	1.92948636	12.21439135	-0.75122732
 115	0.00000000	60.00000000	20.00000000	0.00000000	64.86930251	46.78172928	12.23232639
 116	0.00000000	60.00000000	20.00000000	20.00000000	53.73508930	38.01404935	8.54883444
 117	0.00000000	60.00000000	20.00000000	40.00000000	42.82238185	30.70790780	6.12342459
 118	0.00000000	60.00000000	20.00000000	60.00000000	31.48365319	24.82950163	4.64048576
 119	0.00000000	60.00000000	20.00000000	80.00000000	19.30989772	19.45569319	3.68015569
 120	0.00000000	60.00000000	20.00000000	100.00000000	1.76713001	11.36872393	2.79421043
 121	0.00000000	60.00000000	40.00000000	0.00000000	64.17993903	45.31003785	25.52469712
 122	0.00000000	60.00000000	40.00000000	20.00000000	53.16034555	36.75478172	19.84117490
 123	0.00000000	60.00000000	40.00000000	40.00000000	42.42863655	29.56994486	15.71473312
 124	0.00000000	60.00000000	40.00000000	60.00000000	31.18436933	23.89447820	12.53729802
 125	0.00000000	60.00000000	40.00000000	80.00000000	19.08828318	18.69354528	10.35281044
 126	0.00000000	60.00000000	40.00000000	100.00000000	1.66533571	10.85786414	4.96055019
 127	0.00000000	60.00000000	60.00000000	0.00000000	63.60782385	44.15268075	38.36250585
 128	0.00000000	60.00000000	60.00000000	20.00000000	52.67075896	35.75592172	31.01871592
 129	0.00000000	60.00000000	60.00000000	40.00000000	42.01511443	28.75292790	25.06703448
 130	0.00000000	60.00000000	60.00000000	60.00000000	30.99918365	23.09238684	20.56985420
 131	0.00000000	60.00000000	60.00000000	80.00000000	18.95835400	18.07595682	16.80342031
 132	0.00000000	60.00000000	60.00000000	100.00000000	1.59905981	10.51164192	6.39387888
 133	0.00000000	60.00000000	80.00000000	0.00000000	63.11073899	43.28319621	51.65507418
 134	0.00000000	60.00000000	80.00000000	20.00000000	52.29663849	34.93250591	42.59689224
 135	0.00000000	60.00000000	80.00000000	40.00000000	41.70631170	28.05517894	35.26158345
 136	0.00000000	60.00000000	80.00000000	60.00000000	30.65017462	22.60806483	29.26704031
 137	0.00000000	60.00000000	80.00000000	80.00000000	18.75636578	17.60905308	24.08547115
 138	0.00000000	60.00000000	80.00000000	100.00000000	1.55136744	10.26617509	7.44207543
 139	0.00000000	60.00000000	100.00000000	0.00000000	62.67623305	42.65048456	66.14783090
 140	0.00000000	60.00000000	100.00000000	20.00000000	51.92708373	34.31707573	55.71556669
 141	0.00000000	60.00000000	100.00000000	40.00000000	41.39564633	27.49537778	47.02149642
 142	0.00000000	60.00000000	100.00000000	60.00000000	30.38501441	22.16482621	39.97383219
 143	0.00000000	60.00000000	100.00000000	80.00000000	18.49682331	17.37334412	29.93156385
 144	0.00000000	60.00000000	100.00000000	100.00000000	1.51478052	10.08270574	8.22915000
 145	0.00000000	80.00000000	0.00000000	0.00000000	57.96656609	61.76880908	-1.32115114
 146	0.00000000	80.00000000	0.00000000	20.00000000	47.87414372	51.28424448	-3.19479260
 147	0.00000000	80.00000000	0.00000000	40.00000000	37.75263429	42.42570382	-3.94523713
 148	0.00000000	80.00000000	0.00000000	60.00000000	27.39622295	34.61651486	-3.92397347
 149	0.00000000	80.00000000	0.00000000	80.00000000	15.98354280	27.79004437	-3.50586671
 150	0.00000000	80.00000000	0.00000000	100.00000000	0.71580117	14.07825214	-1.02308753
 151	0.00000000	80.00000000	20.00000000	0.00000000	57.27789402	59.84559548	10.84470165
 152	0.00000000	80.00000000	20.00000000	20.00000000	47.28634357	49.72134274	7.10313362
 153	0.00000000	80.00000000	20.00000000	40.00000000	37.29249835	41.11592931	4.72920340
 154	0.00000000	80.00000000	20.00000000	60.00000000	27.04078555	33.52310073	3.41005099
 155	0.00000000	80.00000000	20.00000000	80.00000000	15.70687592	26.92790103	2.65980405
 156	0.00000000	80.00000000	20.00000000	100.00000000	0.60537267	13.26346946	2.03873497
 157	0.00000000	80.00000000	40.00000000	0.00000000	56.72439337	58.44511223	22.64595640
 158	0.00000000	80.00000000	40.00000000	20.00000000	46.80510461	48.52402699	17.31000912
 159	0.00000000	80.00000000	40.00000000	40.00000000	36.96455956	40.05627257	13.48630470
 160	0.00000000	80.00000000	40.00000000	60.00000000	26.77272260	32.65615445	10.77919316
 161	0.00000000	80.00000000	40.00000000	80.00000000	15.49483836	26.24375534	9.12325722
 162	0.00000000	80.00000000	40.00000000	100.00000000	0.53678700	12.76130360	3.90365970
 163	0.00000000	80.00000000	60.00000000	0.00000000	56.23844862	57.37971020	34.52611011
 164	0.00000000	80.00000000	60.00000000	20.00000000	46.39867544	47.56229860	27.83846897
 165	0.00000000	80.00000000	60.00000000	40.00000000	36.58202589	39.26687253	22.51115483
 166	0.00000000	80.00000000	60.00000000	60.00000000	26.57174468	31.90634829	18.72940016
 167	0.00000000	80.00000000	60.00000000	80.00000000	15.35429657	25.66290331	15.64094108
 168	0.00000000	80.00000000	60.00000000	100.00000000	0.49238559	12.43631464	5.15870196
 169	0.00000000	80.00000000	80.00000000	0.00000000	55.83592653	56.46569204	46.84770894
 170	0.00000000	80.00000000	80.00000000	20.00000000	46.03678286	46.81440753	38.72660232
 171	0.00000000	80.00000000	80.00000000	40.00000000	36.25489175	38.65933073	32.17698497
 172	0.00000000	80.00000000	80.00000000	60.00000000	26.25231147	31.46119457	27.09576082
 173	0.00000000	80.00000000	80.00000000	80.00000000	15.25566876	25.17985803	21.32516247
 174	0.00000000	80.00000000	80.00000000	100.00000000	0.45832503	12.19495159	6.05662417
 175	0.00000000	80.00000000	100.00000000	0.00000000	55.46797514	55.79305214	60.82246226
 176	0.00000000	80.00000000	100.00000000	20.00000000	45.78523338	46.15141910	51.48993504
 177	0.00000000	80.00000000	100.00000000	40.00000000	36.14960313	38.04431093	43.77071005
 178	0.00000000	80.00000000	100.00000000	60.00000000	26.17754042	30.96168858	37.08554637
 179	0.00000000	80.00000000	100.00000000	80.00000000	15.06385505	24.90999651	26.02686298
 180	0.00000000	80.00000000	100.00000000	100.00000000	0.43283505	12.01880825	6.73114878
 181	0.00000000	100.00000000	0.00000000	0.00000000	51.24297738	73.94127351	-0.33606160
 182	0.00000000	100.00000000	0.00000000	20.00000000	41.92621708	62.69091320	-2.92476389
 183	0.00000000	100.00000000	0.00000000	40.00000000	32.65614808	52.73705852	-4.18877366
 184	0.00000000	100.00000000	0.00000000	60.00000000	23.08524102	43.73502237	-4.41175330
 185	0.00000000	100.00000000	0.00000000	80.00000000	12.50754595	35.71617585	-4.21661857
 186	0.00000000	100.00000000	0.00000000	100.00000000	-0.17156990	15.43646646	-1.22411194
 187	0.00000000	100.00000000	20.00000000	0.00000000	50.60907602	72.35855204	10.15409631
 188	0.00000000	100.00000000	20.00000000	20.00000000	41.35193825	61.47488725	6.14059967
 189	0.00000000	100.00000000	20.00000000	40.00000000	32.19634891	51.67539549	3.64411843
 190	0.00000000	100.00000000	20.00000000	60.00000000	22.72848785	42.80869287	2.35379887
 191	0.00000000	100.00000000	20.00000000	80.00000000	12.22843975	34.95469671	1.73158985
 192	0.00000000	100.00000000	20.00000000	100.00000000	-0.24441583	14.64278024	1.48691338
 193	0.00000000	100.00000000	40.00000000	0.00000000	50.15751719	71.04607207	20.77090901
 194	0.00000000	100.00000000	40.00000000	20.00000000	40.94700217	60.35359782	15.46154511
 195	0.00000000	100.00000000	40.00000000	40.00000000	31.91493750	50.71000409	11.74899232
 196	0.00000000	100.00000000	40.00000000	60.00000000	22.49469310	42.00570476	9.32923657
 197	0.00000000	100.00000000	40.00000000	80.00000000	12.04330996	34.31813967	8.12956494
 198	0.00000000	100.00000000	40.00000000	100.00000000	-0.29114487	14.15359449	3.15224242
 199	0.00000000	100.00000000	60.00000000	0.00000000	49.75339770	69.98138440	31.72091824
 200	0.00000000	100.00000000	60.00000000	20.00000000	40.59840441	59.41542816	25.27293783
 201	0.00000000	100.00000000	60.00000000	40.00000000	31.59114420	49.91552752	20.27350050
 202	0.00000000	100.00000000	60.00000000	60.00000000	22.31444418	41.31750089	16.99952018
 203	0.00000000	100.00000000	60.00000000	80.00000000	11.90763935	33.79878354	13.59339815
 204	0.00000000	100.00000000	60.00000000	100.00000000	-0.32006425	13.83941215	4.25091547
 205	0.00000000	100.00000000	80.00000000	0.00000000	49.40634370	69.12007701	43.38840497
 206	0.00000000	100.00000000	80.00000000	20.00000000	40.30791819	58.66841865	35.73949140
 207	0.00000000	100.00000000	80.00000000	40.00000000	31.34079576	49.26009309	29.78309822
 208	0.00000000	100.00000000	80.00000000	60.00000000	22.06147760	40.79191309	25.54324013
 209	0.00000000	100.00000000	80.00000000	80.00000000	11.78022772	33.35311306	18.23908967
 210	0.00000000	100.00000000	80.00000000	100.00000000	-0.34090916	13.60102814	5.04644078
 211	0.00000000	100.00000000	100.00000000	0.00000000	49.10371900	68.41124785	56.92647052
 212	0.00000000	100.00000000	100.00000000	20.00000000	40.04806876	58.03900522	48.37489259
 213	0.00000000	100.00000000	100.00000000	40.00000000	31.14566505	48.70992821	41.54056412
 214	0.00000000	100.00000000	100.00000000	60.00000000	21.89484835	40.34213883	33.76563412
 215	0.00000000	100.00000000	100.00000000	80.00000000	11.58375964	33.07549995	21.86287922
 216	0.00000000	100.00000000	100.00000000	100.00000000	-0.35692046	13.42894298	5.63720268
 217	20.00000000	0.00000000	0.00000000	0.00000000	87.84884810	-10.32479841	-15.51344278
 218	20.00000000	0.00000000	0.00000000	20.00000000	72.12862968	-8.06559163	-11.84161621
 219	20.00000000	0.00000000	0.00000000	40.00000000	57.43079185	-6.38356629	-9.15756944
 220	20.00000000	0.00000000	0.00000000	60.00000000	43.10777783	-5.11222291	-7.10397723
 221	20.00000000	0.00000000	0.00000000	80.00000000	28.09580564	-4.10194072	-5.22260699
 222	20.00000000	0.00000000	0.00000000	100.00000000	6.79835677	-3.81890151	-3.26101544
 223	20.00000000	0.00000000	20.00000000	0.00000000	85.95172167	-14.70219392	8.46543652
 224	20.00000000	0.00000000	20.00000000	20.00000000	70.80557942	-11.46638635	6.12310541
 225	20.00000000	0.00000000	20.00000000	40.00000000	56.50985837	-9.03039786	4.50042528
 226	20.00000000	0.00000000	20.00000000	60.00000000	42.44154990	-7.19489115	3.52079225
 227	20.00000000	0.00000000	20.00000000	80.00000000	27.61145234	-5.66070828	2.71404994
 228	20.00000000	0.00000000	20.00000000	100.00000000	6.33416697	-4.77081883	3.23418123
 229	20.00000000	0.00000000	40.00000000	0.00000000	84.54101682	-16.74149129	27.64735442
 230	20.00000000	0.00000000	40.00000000	20.00000000	69.76740360	-13.37193850	21.45839852
 231	20.00000000	0.00000000	40.00000000	40.00000000	55.79013824	-10.68504187	16.83889520
 232	20.00000000	0.00000000	40.00000000	60.00000000	41.91005230	-8.56367651	13.21927023
 233	20.00000000	0.00000000	40.00000000	80.00000000	27.22552121	-6.77216384	10.34223181
 234	20.00000000	0.00000000	40.00000000	100.00000000	6.04614206	-5.35575184	7.21582037
 235	20.00000000	0.00000000	60.00000000	0.00000000	83.41079354	-17.75475252	44.44041651
 236	20.00000000	0.00000000	60.00000000	20.00000000	68.92237663	-14.49255916	35.67117107
 237	20.00000000	0.00000000	60.00000000	40.00000000	55.13305664	-11.80515337	28.45674139
 238	20.00000000	0.00000000	60.00000000	60.00000000	41.47657156	-9.55351579	22.87769836
 239	20.00000000	0.00000000	60.00000000	80.00000000	26.92497969	-7.56615403	17.60531408
 240	20.00000000	0.00000000	60.00000000	100.00000000	5.85847162	-5.73636222	9.85967290
 241	20.00000000	0.00000000	80.00000000	0.00000000	82.48521090	-18.37915781	60.88198227
 242	20.00000000	0.00000000	80.00000000	20.00000000	68.24730635	-15.26568088	49.63519377
 243	20.00000000	0.00000000	80.00000000	40.00000000	54.60197330	-12.60614279	40.39389205
 244	20.00000000	0.00000000	80.00000000	60.00000000	41.03288352	-10.29760706	32.62332422
 245	20.00000000	0.00000000	80.00000000	80.00000000	26.66187882	-8.21074384	25.72593433
 246	20.00000000	0.00000000	80.00000000	100.00000000	5.72047606	-6.01753953	11.76312757
 247	20.00000000	0.00000000	100.00000000	0.00000000	81.70384169	-18.73344320	77.51058918
 248	20.00000000	0.00000000	100.00000000	20.00000000	67.65015125	-15.77921572	64.34622598
 249	20.00000000	0.00000000	100.00000000	40.00000000	54.16548252	-13.19242093	53.13082379
 250	20.00000000	0.00000000	100.00000000	60.00000000	40.69409668	-10.85360083	43.49054348
 251	20.00000000	0.00000000	100.00000000	80.00000000	26.37219131	-8.71297050	34.97839224
 252	20.00000000	0.00000000	100.00000000	100.00000000	5.61754592	-6.22775185	13.18093789
 253	20.00000000	20.00000000	0.00000000	0.00000000	75.73153973	8.07706696	-15.25349873
 254	20.00000000	20.00000000	0.00000000	20.00000000	62.99310923	6.03238147	-12.19753551
 255	20.00000000	20.00000000	0.00000000	40.00000000	50.53595901	4.41103888	-9.78860158
 256	20.00000000	20.00000000	0.00000000	60.00000000	37.72645295	3.41303003	-7.77889702
 257	20.00000000	20.00000000	0.00000000	80.00000000	24.06981736	2.37486494	-5.87999451
 258	20.00000000	20.00000000	0.00000000	100.00000000	3.68015803	1.49401140	-3.15019059
 259	20.00000000	20.00000000	20.00000000	0.00000000	74.35153723	4.19855428	3.95922792
 260	20.00000000	20.00000000	20.00000000	20.00000000	62.07835078	2.96909225	2.79563916
 261	20.00000000	20.00000000	20.00000000	40.00000000	49.98571873	2.00748545	2.00189215
 262	20.00000000	20.00000000	20.00000000	60.00000000	37.40391433	1.50293332	1.56477880
 263	20.00000000	20.00000000	20.00000000	80.00000000	23.84987921	0.91367614	1.29526687
 264	20.00000000	20.00000000	20.00000000	100.00000000	3.36559080	0.63151848	1.84594852
 265	20.00000000	20.00000000	40.00000000	0.00000000	73.29025865	2.07468104	20.66866410
 266	20.00000000	20.00000000	40.00000000	20.00000000	61.18648648	1.14543331	16.43976462
 267	20.00000000	20.00000000	40.00000000	40.00000000	49.31239188	0.43043327	13.22852653
 268	20.00000000	20.00000000	40.00000000	60.00000000	36.84640527	0.24272335	10.51130754
 269	20.00000000	20.00000000	40.00000000	80.00000000	23.42818677	-0.08638459	8.45025253
 270	20.00000000	20.00000000	40.00000000	100.00000000	3.17294374	0.10810417	4.91987717
 271	20.00000000	20.00000000	60.00000000	0.00000000	72.42806554	0.74756426	35.81364822
 272	20.00000000	20.00000000	60.00000000	20.00000000	60.49514413	-0.13225573	29.41687387
